ncols        127
nrows        131
xllcorner    -71.681135979344
yllcorner    -16.519694133538
cellsize     0.001836012963
NODATA_value -9999
-9999.0 -9999 -9999 -9999 -9999 -9999 -9999 -9999 -9999 -9999 -9999 -9999 -9999 -9999 -9999 -9999 -9999 -9999 -9999 -9999 -9999 -9999 -9999 -9999 -9999 -9999 -9999 -9999 -9999 -9999 -9999 -9999 -9999 -9999 -9999 -9999 -9999 -9999 -9999 -9999 -9999 -9999 -9999 -9999 -9999 -9999 -9999 -9999 -9999 -9999 -9999 -9999 -9999 -9999 -9999 -9999 -9999 -9999 -9999 -9999 -9999 -9999 -9999 -9999 -9999 -9999 -9999 -9999 -9999 -9999 -9999 -9999 -9999 -9999 -9999 -9999 -9999 -9999 -9999 -9999 -9999 -9999 -9999 -9999 -9999 -9999 -9999 -9999 -9999 -9999 -9999 -9999 -9999 -9999 -9999 -9999 -9999 -9999 -9999 -9999 -9999 -9999 -9999 -9999 -9999 -9999 -9999 -9999 -9999 -9999 -9999 -9999 -9999 -9999 -9999 -9999 -9999 -9999 -9999 -9999 -9999 -9999 -9999 -9999 -9999 -9999 -9999 
-9999 -9999 -9999 -9999 -9999 -9999 -9999 -9999 -9999 -9999 -9999 -9999 -9999 -9999 -9999 -9999 -9999 -9999 -9999 -9999 -9999 -9999 -9999 -9999 -9999 -9999 -9999 -9999 -9999 -9999 -9999 -9999 -9999 -9999 -9999 -9999 -9999 -9999 -9999 -9999 -9999 -9999 -9999 -9999 -9999 -9999 -9999 -9999 -9999 -9999 -9999 -9999 -9999 -9999 -9999 -9999 -9999 -9999 -9999 -9999 -9999 -9999 -9999 -9999 -9999 -9999 -9999 -9999 -9999 -9999 -9999 -9999 -9999 -9999 -9999 -9999 -9999 -9999 -9999 -9999 -9999 -9999 -9999 -9999 -9999 -9999 -9999 -9999 -9999 -9999 -9999 -9999 -9999 -9999 -9999 -9999 -9999 -9999 -9999 -9999 -9999 -9999 -9999 -9999 -9999 -9999 -9999 -9999 -9999 -9999 -9999 -9999 -9999 -9999 -9999 -9999 -9999 -9999 -9999 -9999 -9999 -9999 -9999 -9999 -9999 -9999 -9999 
77.37786865234375 76.649444580078125 74.82059478759765625 72.785186767578125 70.4905548095703125 67.86090087890625 67.00501251220703125 66.380126953125 65.732818603515625 65.0614166259765625 63.8596954345703125 61.520885467529296875 58.83301544189453125 55.673305511474609375 51.8400726318359375 51.01395416259765625 51.01395416259765625 51.01395416259765625 51.01395416259765625 50.878261566162109375 50.370647430419921875 49.84832763671875 49.310436248779296875 48.756011962890625 48.395839691162109375 48.106334686279296875 47.81211090087890625 47.513004302978515625 47.20885467529296875 46.8994903564453125 46.58472442626953125 46.264369964599609375 45.93822479248046875 45.60607147216796875 45.267688751220703125 44.922840118408203125 44.57126617431640625 44.254962921142578125 44.254962921142578125 44.254962921142578125 44.254962921142578125 44.254962921142578125 44.254962921142578125 44.254962921142578125 44.254962921142578125 44.254962921142578125 44.2407989501953125 43.87554168701171875 43.5027313232421875 43.1220550537109375 42.733173370361328125 42.335723876953125 41.929317474365234375 41.51354217529296875 41.08795928955078125 40.65209197998046875 41.054813385009765625 41.481170654296875 41.89768218994140625 42.3047943115234375 42.70291900634765625 43.092449188232421875 43.473743438720703125 43.84714508056640625 44.212970733642578125 44.254962921142578125 44.254962921142578125 44.254962921142578125 44.254962921142578125 44.37921905517578125 44.734516143798828125 45.08295440673828125 45.424785614013671875 45.76026153564453125 45.8245391845703125 45.8245391845703125 45.8245391845703125 45.8245391845703125 46.000827789306640625 46.645130157470703125 47.267208099365234375 47.8685455322265625 48.4504852294921875 48.605220794677734375 48.605220794677734375 48.605220794677734375 48.605220794677734375 48.605220794677734375 48.605220794677734375 48.605220794677734375 48.605220794677734375 48.605220794677734375 48.605220794677734375 48.605220794677734375 48.605220794677734375 48.605220794677734375 49.8061676025390625 57.9914398193359375 63.60117340087890625 67.87396240234375 71.32598876953125 73.54088592529296875 75.04400634765625 76.43145751953125 77.71976470947265625 78.8673248291015625 78.43798065185546875 77.99817657470703125 77.54737091064453125 77.08501434326171875 76.729278564453125 76.48885345458984375 76.24517822265625 75.9981689453125 75.7477264404296875 79.03746795654296875 81.9426116943359375 84.4441375732421875 86.64063262939453125 89.308258056640625 92.4639739990234375 95.14894866943359375 97.4855804443359375 99.55394744873046875 99.78839874267578125 99.78839874267578125 -9999 
77.37786865234375 76.649444580078125 74.82059478759765625 72.785186767578125 70.4905548095703125 67.86090087890625 67.00501251220703125 66.380126953125 65.732818603515625 65.0614166259765625 63.8596954345703125 61.520885467529296875 58.83301544189453125 55.673305511474609375 51.8400726318359375 51.01395416259765625 51.01395416259765625 51.01395416259765625 51.01395416259765625 50.878261566162109375 50.370647430419921875 49.84832763671875 49.310436248779296875 48.756011962890625 48.395839691162109375 48.106334686279296875 47.81211090087890625 47.513004302978515625 47.20885467529296875 46.8994903564453125 46.58472442626953125 46.264369964599609375 45.93822479248046875 45.60607147216796875 45.267688751220703125 44.922840118408203125 44.57126617431640625 44.254962921142578125 44.254962921142578125 44.254962921142578125 44.254962921142578125 44.254962921142578125 44.254962921142578125 44.254962921142578125 44.254962921142578125 44.254962921142578125 44.2407989501953125 43.87554168701171875 43.5027313232421875 43.1220550537109375 42.733173370361328125 42.335723876953125 41.929317474365234375 41.51354217529296875 41.08795928955078125 40.65209197998046875 41.054813385009765625 41.481170654296875 41.89768218994140625 42.3047943115234375 42.70291900634765625 43.092449188232421875 43.473743438720703125 43.84714508056640625 44.212970733642578125 44.254962921142578125 44.254962921142578125 44.254962921142578125 44.254962921142578125 44.37921905517578125 44.734516143798828125 45.08295440673828125 45.424785614013671875 45.76026153564453125 45.8245391845703125 45.8245391845703125 45.8245391845703125 45.8245391845703125 46.000827789306640625 46.645130157470703125 47.267208099365234375 47.8685455322265625 48.4504852294921875 48.605220794677734375 48.605220794677734375 48.605220794677734375 48.605220794677734375 48.605220794677734375 48.605220794677734375 48.605220794677734375 48.605220794677734375 48.605220794677734375 48.605220794677734375 48.605220794677734375 48.605220794677734375 48.605220794677734375 49.8061676025390625 57.9914398193359375 63.60117340087890625 67.87396240234375 71.32598876953125 73.54088592529296875 75.04400634765625 76.43145751953125 77.71976470947265625 78.8673248291015625 78.43798065185546875 77.99817657470703125 77.54737091064453125 77.08501434326171875 76.729278564453125 76.48885345458984375 76.24517822265625 75.9981689453125 75.7477264404296875 79.03746795654296875 81.9426116943359375 84.4441375732421875 86.64063262939453125 89.308258056640625 92.4639739990234375 95.14894866943359375 97.4855804443359375 99.55394744873046875 99.78839874267578125 99.78839874267578125 -9999 
77.37786865234375 76.649444580078125 74.82059478759765625 72.785186767578125 70.4905548095703125 67.86090087890625 67.00501251220703125 66.380126953125 65.732818603515625 65.0614166259765625 63.8596954345703125 61.520885467529296875 58.83301544189453125 55.673305511474609375 51.8400726318359375 51.01395416259765625 51.01395416259765625 51.01395416259765625 51.01395416259765625 50.878261566162109375 50.370647430419921875 49.84832763671875 49.310436248779296875 48.756011962890625 48.395839691162109375 48.106334686279296875 47.81211090087890625 47.513004302978515625 47.20885467529296875 46.8994903564453125 46.58472442626953125 46.264369964599609375 45.93822479248046875 45.60607147216796875 45.267688751220703125 44.922840118408203125 44.57126617431640625 44.254962921142578125 44.254962921142578125 44.254962921142578125 44.254962921142578125 44.254962921142578125 44.254962921142578125 44.254962921142578125 44.254962921142578125 44.254962921142578125 44.2407989501953125 43.87554168701171875 43.5027313232421875 43.1220550537109375 42.733173370361328125 42.335723876953125 41.929317474365234375 41.51354217529296875 41.08795928955078125 40.65209197998046875 41.054813385009765625 41.481170654296875 41.89768218994140625 42.3047943115234375 42.70291900634765625 43.092449188232421875 43.473743438720703125 43.84714508056640625 44.212970733642578125 44.254962921142578125 44.254962921142578125 44.254962921142578125 44.254962921142578125 44.37921905517578125 44.734516143798828125 45.08295440673828125 45.424785614013671875 45.76026153564453125 45.8245391845703125 45.8245391845703125 45.8245391845703125 45.8245391845703125 46.000827789306640625 46.645130157470703125 47.267208099365234375 47.8685455322265625 48.4504852294921875 48.605220794677734375 48.605220794677734375 48.605220794677734375 48.605220794677734375 48.605220794677734375 48.605220794677734375 48.605220794677734375 48.605220794677734375 48.605220794677734375 48.605220794677734375 48.605220794677734375 48.605220794677734375 48.605220794677734375 49.8061676025390625 57.9914398193359375 63.60117340087890625 67.87396240234375 71.32598876953125 73.54088592529296875 75.04400634765625 76.43145751953125 77.71976470947265625 78.8673248291015625 78.43798065185546875 77.99817657470703125 77.54737091064453125 77.08501434326171875 76.729278564453125 76.48885345458984375 76.24517822265625 75.9981689453125 75.7477264404296875 79.03746795654296875 81.9426116943359375 84.4441375732421875 86.64063262939453125 89.308258056640625 92.4639739990234375 95.14894866943359375 97.4855804443359375 99.55394744873046875 99.78839874267578125 99.78839874267578125 -9999 
78.08742523193359375 77.47650146484375 75.9606781005859375 74.30568695068359375 72.48337554931640625 70.4560699462890625 69.349090576171875 68.3216400146484375 67.23212432861328125 66.07254791259765625 64.648712158203125 62.723056793212890625 60.566997528076171875 58.11780548095703125 55.28304290771484375 54.693141937255859375 54.693141937255859375 54.693141937255859375 54.693141937255859375 54.570743560791015625 54.113689422607421875 53.644748687744140625 53.16329193115234375 52.66863250732421875 51.74381256103515625 50.606632232666015625 49.392910003662109375 48.09159088134765625 46.909938812255859375 46.59535980224609375 46.275196075439453125 45.949249267578125 45.61730194091796875 45.23140716552734375 44.81140899658203125 44.38140106201171875 43.940887451171875 43.542690277099609375 43.542690277099609375 43.542690277099609375 43.542690277099609375 43.542690277099609375 43.542690277099609375 43.542690277099609375 43.542690277099609375 43.542690277099609375 43.5279541015625 43.147815704345703125 42.759494781494140625 42.362628936767578125 41.9568328857421875 41.5417022705078125 41.116790771484375 40.6816253662109375 40.235706329345703125 39.778484344482421875 40.200954437255859375 40.647724151611328125 41.083698272705078125 41.509380340576171875 41.9252471923828125 42.331745147705078125 42.729282379150390625 43.11824798583984375 43.499004364013671875 43.542690277099609375 43.542690277099609375 43.542690277099609375 43.542690277099609375 43.699329376220703125 44.1457061767578125 44.58130645751953125 45.00662994384765625 45.422161102294921875 45.50156402587890625 45.50156402587890625 45.50156402587890625 45.50156402587890625 45.6620025634765625 46.24954986572265625 46.8185577392578125 47.37017059326171875 47.9054107666015625 48.047962188720703125 48.047962188720703125 48.047962188720703125 48.047962188720703125 48.05979156494140625 48.121990203857421875 48.183971405029296875 48.245746612548828125 48.30730438232421875 48.368656158447265625 48.42980194091796875 48.4907379150390625 48.551471710205078125 49.569911956787109375 56.448955535888671875 61.416858673095703125 65.307861328125 68.5066680908203125 70.98543548583984375 73.00614166259765625 74.82311248779296875 76.47370147705078125 77.90875244140625 77.11045074462890625 76.27518463134765625 75.39935302734375 74.47882080078125 74.18738555908203125 74.56710052490234375 74.938995361328125 75.303375244140625 75.6605377197265625 79.452880859375 82.70308685302734375 85.45612335205078125 87.84409332275390625 90.44376373291015625 93.300628662109375 95.7662811279296875 97.935089111328125 99.87090301513671875 100.09120941162109375 100.09120941162109375 -9999 
78.7933349609375 78.294097900390625 77.06900787353515625 75.7546234130859375 74.336883544921875 72.79813385009765625 71.4910736083984375 70.13214874267578125 68.662445068359375 67.062286376953125 65.43029022216796875 63.887920379638671875 62.201236724853515625 60.34041595458984375 58.26532745361328125 57.8446807861328125 57.8446807861328125 57.8446807861328125 57.8446807861328125 57.7317047119140625 57.310337066650390625 56.8788909912109375 56.4368743896484375 55.983753204345703125 54.656948089599609375 52.873687744140625 50.894603729248046875 48.671321868896484375 46.59535980224609375 46.275196075439453125 45.949249267578125 45.61730194091796875 45.2791290283203125 44.835384368896484375 44.326839447021484375 43.8035430908203125 43.26461029052734375 42.774871826171875 42.774871826171875 42.774871826171875 42.774871826171875 42.774871826171875 42.774871826171875 42.774871826171875 42.774871826171875 42.774871826171875 42.759494781494140625 42.362628936767578125 41.9568328857421875 41.5417022705078125 41.116790771484375 40.6816253662109375 40.235706329345703125 39.778484344482421875 39.309368133544921875 38.827728271484375 39.272785186767578125 39.742839813232421875 40.200954437255859375 40.647724151611328125 41.083698272705078125 41.509380340576171875 41.9252471923828125 42.331745147705078125 42.729282379150390625 42.774871826171875 42.774871826171875 42.774871826171875 42.774871826171875 42.967815399169921875 43.51555633544921875 44.047153472900390625 44.563533782958984375 45.065540313720703125 45.161197662353515625 45.161197662353515625 45.161197662353515625 45.161197662353515625 45.30460357666015625 45.8309173583984375 46.34230804443359375 46.839599609375 47.323551177978515625 47.452671051025390625 47.452671051025390625 47.452671051025390625 47.452671051025390625 47.477542877197265625 47.607997894287109375 47.737514495849609375 47.86611175537109375 47.99379730224609375 48.120586395263671875 48.246486663818359375 48.37152099609375 48.49568939208984375 49.322162628173828125 54.700740814208984375 58.8385162353515625 62.2020111083984375 65.03582000732421875 67.8946685791015625 70.62323760986328125 72.99279022216796875 75.08690643310546875 76.86023712158203125 75.625640869140625 74.30029296875 72.8697967529296875 71.316009521484375 71.11578369140625 72.33657073974609375 73.47995758056640625 74.55516815185546875 75.56987762451171875 79.8728485107421875 83.4575653076171875 86.4466552734375 89.01012420654296875 91.54792022705078125 94.1272735595703125 96.3835296630859375 98.3886871337890625 100.193084716796875 100.39925384521484375 100.39925384521484375 -9999 
79.47265625 79.07623291015625 78.11316680908203125 77.0957794189453125 76.01755523681640625 74.87076568603515625 73.4055023193359375 71.77739715576171875 69.98763275146484375 68.00054168701171875 66.179412841796875 64.98210906982421875 63.69963836669921875 62.3189697265625 60.823802947998046875 60.526641845703125 60.526641845703125 60.526641845703125 60.526641845703125 60.420475006103515625 60.024871826171875 59.620395660400390625 59.20664215087890625 58.78318023681640625 57.16439056396484375 54.8873748779296875 52.280834197998046875 49.23299407958984375 46.275196075439453125 45.949249267578125 45.61730194091796875 45.2791290283203125 44.934497833251953125 44.430477142333984375 43.82889556884765625 43.206562042236328125 42.561985015869140625 41.972911834716796875 41.972911834716796875 41.972911834716796875 41.972911834716796875 41.972911834716796875 41.972911834716796875 41.972911834716796875 41.972911834716796875 41.972911834716796875 41.9568328857421875 41.5417022705078125 41.116790771484375 40.6816253662109375 40.235706329345703125 39.778484344482421875 39.309368133544921875 38.827728271484375 38.332874298095703125 37.82405853271484375 38.29425048828125 38.79015350341796875 39.272785186767578125 39.742839813232421875 40.200954437255859375 40.647724151611328125 41.083698272705078125 41.509380340576171875 41.9252471923828125 41.972911834716796875 41.972911834716796875 41.972911834716796875 41.972911834716796875 42.205379486083984375 42.8625946044921875 43.496700286865234375 44.10927581787109375 44.701725006103515625 44.8142852783203125 44.8142852783203125 44.8142852783203125 44.8142852783203125 44.93997955322265625 45.40233612060546875 45.85314178466796875 46.2929534912109375 46.72229766845703125 46.837066650390625 46.837066650390625 46.837066650390625 46.837066650390625 46.8758697509765625 47.07892608642578125 47.279727935791015625 47.4783172607421875 47.67474365234375 47.869052886962890625 48.0612945556640625 48.251506805419921875 48.43973541259765625 49.070964813232421875 52.764739990234375 55.82918548583984375 58.447849273681640625 60.7341156005859375 64.1625518798828125 67.87694549560546875 70.95555877685546875 73.58455657958984375 75.7469940185546875 74.0075531005859375 72.08229827880859375 69.9267425537109375 67.47820281982421875 67.41159820556640625 69.79079437255859375 71.8924407958984375 73.77457427978515625 75.478759765625 80.28327178955078125 84.18175506591796875 87.38561248779296875 90.10533905029296875 92.58837127685546875 94.91770172119140625 96.9803466796875 98.8311614990234375 100.50962066650390625 100.70212554931640625 100.70212554931640625 -9999 
80.1273193359375 79.82585906982421875 79.10018157958984375 78.344085693359375 77.554901123046875 76.7296142578125 75.13610076904296875 73.2850494384765625 71.22209930419921875 68.89238739013671875 66.89865875244140625 66.01369476318359375 65.08306884765625 64.10179901123046875 63.064067840576171875 62.860980987548828125 62.860980987548828125 62.860980987548828125 62.860980987548828125 62.75997161865234375 62.383838653564453125 61.99969482421875 61.6071929931640625 61.205959320068359375 59.365447998046875 56.698673248291015625 53.5680999755859375 49.7777099609375 45.949249267578125 45.61730194091796875 45.2791290283203125 44.934497833251953125 44.58315277099609375 44.016265869140625 43.316814422607421875 42.589145660400390625 41.830883026123046875 41.133632659912109375 41.133632659912109375 41.133632659912109375 41.133632659912109375 41.133632659912109375 41.133632659912109375 41.133632659912109375 41.133632659912109375 41.133632659912109375 41.116790771484375 40.6816253662109375 40.235706329345703125 39.778484344482421875 39.309368133544921875 38.827728271484375 38.332874298095703125 37.82405853271484375 37.30047607421875 36.76123809814453125 37.25957489013671875 37.784328460693359375 38.29425048828125 38.79015350341796875 39.272785186767578125 39.742839813232421875 40.200954437255859375 40.647724151611328125 41.083698272705078125 41.133632659912109375 41.133632659912109375 41.133632659912109375 41.133632659912109375 41.40929412841796875 42.1851043701171875 42.928920745849609375 43.643280029296875 44.33042144775390625 44.4605712890625 44.4605712890625 44.4605712890625 44.4605712890625 44.567829132080078125 44.96332550048828125 45.350337982177734375 45.729221343994140625 46.100307464599609375 46.19970703125 46.19970703125 46.19970703125 46.19970703125 46.2534332275390625 46.533870697021484375 46.81002044677734375 47.082000732421875 47.349945068359375 47.613964080810546875 47.874179840087890625 48.1306915283203125 48.38360595703125 48.81622314453125 50.595691680908203125 52.215274810791015625 53.701351165771484375 55.074260711669921875 59.45130157470703125 64.63613128662109375 68.658599853515625 71.94561767578125 74.56050872802734375 72.229888916015625 69.55284881591796875 66.4080963134765625 62.596881866455078125 62.744876861572265625 66.82575225830078125 70.151611328125 72.95867919921875 75.387176513671875 80.6845550537109375 84.87798309326171875 88.278106689453125 91.137847900390625 93.57207489013671875 95.67493438720703125 97.55805206298828125 99.263031005859375 100.82068634033203125 101 101 -9999 
81.1429901123046875 80.87488555908203125 80.23157501220703125 79.56447601318359375 78.87175750732421875 78.1513671875 76.60825347900390625 74.808746337890625 72.80963134765625 70.56102752685546875 68.6905059814453125 67.9801483154296875 67.24066162109375 66.46956634521484375 65.664031982421875 65.50760650634765625 65.50760650634765625 65.50760650634765625 65.50760650634765625 65.33038330078125 64.66373443603515625 63.971500396728515625 63.25164031982421875 62.50185394287109375 60.4613037109375 57.61346435546875 54.23017120361328125 50.062351226806640625 45.7539215087890625 45.386383056640625 45.011196136474609375 44.628040313720703125 44.236568450927734375 43.6154632568359375 42.850803375244140625 42.052288055419921875 41.2167816162109375 40.4403533935546875 40.398242950439453125 40.3560333251953125 40.313724517822265625 40.2713165283203125 40.253391265869140625 40.253391265869140625 40.253391265869140625 40.253391265869140625 40.235706329345703125 39.778484344482421875 39.309368133544921875 38.827728271484375 38.332874298095703125 37.82405853271484375 37.30047607421875 36.76123809814453125 36.20538330078125 35.631855010986328125 36.161922454833984375 36.719097137451171875 37.25957489013671875 37.784328460693359375 38.29425048828125 38.79015350341796875 39.272785186767578125 39.742839813232421875 40.200954437255859375 40.328369140625 40.412815093994140625 40.4968719482421875 40.580539703369140625 40.937351226806640625 41.785602569580078125 42.595745086669921875 43.371063232421875 44.114429473876953125 44.254962921142578125 44.254962921142578125 44.254962921142578125 44.254962921142578125 44.34227752685546875 44.665050506591796875 44.982147216796875 45.29376983642578125 45.60009765625 45.68233489990234375 45.68233489990234375 45.68233489990234375 45.68233489990234375 45.75153350830078125 46.111782073974609375 46.464977264404296875 46.811389923095703125 47.151275634765625 47.484874725341796875 47.81241607666015625 48.134113311767578125 48.450176239013671875 48.78936767578125 49.342784881591796875 49.879730224609375 50.401149749755859375 50.90792083740234375 56.0818023681640625 62.400035858154296875 67.07012939453125 70.77642822265625 73.6648406982421875 70.949554443359375 67.75186920166015625 63.862529754638671875 58.897335052490234375 59.3013153076171875 64.84650421142578125 69.08187103271484375 72.50946807861328125 75.38860321044921875 80.5413970947265625 84.63397979736328125 87.96759796142578125 90.78018951416015625 93.1131744384765625 95.05423736572265625 96.80657196044921875 98.40364837646484375 99.870758056640625 100.04010772705078125 100.04010772705078125 -9999 
82.58013153076171875 82.2749176025390625 81.53993988037109375 80.77374267578125 79.97354888916015625 79.13620758056640625 77.83577728271484375 76.37625885009765625 74.7881622314453125 73.0466461181640625 71.580169677734375 70.8860321044921875 70.1641082763671875 69.41208648681640625 68.62734222412109375 68.47505950927734375 68.47505950927734375 68.47505950927734375 68.47505950927734375 68.15290069580078125 66.9169464111328125 65.59004974365234375 64.15773773193359375 62.601806640625 60.337520599365234375 57.50665283203125 54.147308349609375 50.015819549560546875 45.7396697998046875 45.2968597412109375 44.842899322509765625 44.37722015380859375 43.899204254150390625 43.237186431884765625 42.455963134765625 41.639369964599609375 40.78404998779296875 39.976566314697265625 39.831920623779296875 39.686107635498046875 39.539104461669921875 39.390895843505859375 39.327983856201171875 39.327983856201171875 39.327983856201171875 39.327983856201171875 39.309368133544921875 38.827728271484375 38.332874298095703125 37.82405853271484375 37.30047607421875 36.76123809814453125 36.20538330078125 35.631855010986328125 35.039493560791015625 34.427013397216796875 34.993122100830078125 35.586986541748046875 36.161922454833984375 36.719097137451171875 37.25957489013671875 37.784328460693359375 38.29425048828125 38.79015350341796875 39.272785186767578125 39.59008026123046875 39.882076263427734375 40.169422149658203125 40.45226287841796875 40.937351226806640625 41.785602569580078125 42.595745086669921875 43.371063232421875 44.114429473876953125 44.254962921142578125 44.254962921142578125 44.254962921142578125 44.254962921142578125 44.321079254150390625 44.56615447998046875 44.80794525146484375 45.046539306640625 45.282016754150390625 45.345394134521484375 45.345394134521484375 45.345394134521484375 45.345394134521484375 45.4300537109375 45.86965179443359375 46.298786163330078125 46.717952728271484375 47.127597808837890625 47.528148651123046875 47.919994354248046875 48.303508758544921875 48.679042816162109375 49.06819915771484375 49.613254547119140625 50.142322540283203125 50.656314849853515625 51.156063079833984375 56.1035003662109375 62.2105560302734375 66.76476287841796875 70.39783477783203125 73.23738861083984375 70.52606964111328125 67.33388519287109375 63.45269012451171875 58.50079345703125 59.054378509521484375 64.76766204833984375 69.1000518798828125 72.59081268310546875 75.51434326171875 79.648284912109375 83.0670623779296875 85.939971923828125 88.41757965087890625 90.53673553466796875 92.3588409423828125 94.01366424560546875 95.52935028076171875 96.92749786376953125 97.0892333984375 97.0892333984375 -9999 
83.9111785888671875 83.574066162109375 82.759796142578125 81.907012939453125 81.01190948486328125 80.07006072998046875 78.9850616455078125 77.8183746337890625 76.57098388671875 75.23087310791015625 74.07021331787109375 73.3881072998046875 72.6791839599609375 71.94126129150390625 71.17185211181640625 71.0226287841796875 71.0226287841796875 71.0226287841796875 71.0226287841796875 70.59294891357421875 68.919708251953125 67.07524871826171875 65.02048492431640625 62.701206207275390625 60.212886810302734375 57.39920806884765625 54.064060211181640625 49.969165802001953125 45.725406646728515625 45.20688629150390625 44.6730194091796875 44.122867584228515625 43.5554046630859375 42.850803375244140625 42.052288055419921875 41.2167816162109375 40.340686798095703125 39.50054168701171875 39.24724578857421875 38.990337371826171875 38.729724884033203125 38.4652862548828125 38.3525238037109375 38.3525238037109375 38.3525238037109375 38.3525238037109375 38.332874298095703125 37.82405853271484375 37.30047607421875 36.76123809814453125 36.20538330078125 35.631855010986328125 35.039493560791015625 34.427013397216796875 33.79300689697265625 33.135898590087890625 33.743316650390625 34.3790435791015625 34.993122100830078125 35.586986541748046875 36.161922454833984375 36.719097137451171875 37.25957489013671875 37.784328460693359375 38.29425048828125 38.820278167724609375 39.33524322509765625 39.835918426513671875 40.32306671142578125 40.937351226806640625 41.785602569580078125 42.595745086669921875 43.371063232421875 44.114429473876953125 44.254962921142578125 44.254962921142578125 44.254962921142578125 44.254962921142578125 44.299854278564453125 44.46671295166015625 44.632045745849609375 44.79587554931640625 44.95822906494140625 45.00203704833984375 45.00203704833984375 45.00203704833984375 45.00203704833984375 45.10274505615234375 45.624225616455078125 46.13105010986328125 46.624027252197265625 47.10388946533203125 47.571315765380859375 48.026935577392578125 48.4713287353515625 48.90503692626953125 49.342784881591796875 49.879730224609375 50.401149749755859375 50.90792083740234375 51.40084075927734375 56.12517547607421875 62.019062042236328125 66.454132080078125 70.01113128662109375 72.799560546875 70.0924072265625 66.90598297119140625 63.033321380615234375 58.095340728759765625 58.804012298583984375 64.68846893310546875 69.11822509765625 72.6717987060546875 75.63922119140625 78.70864105224609375 81.3509674072265625 83.65523529052734375 85.69821929931640625 87.52999114990234375 89.188720703125 90.7076873779296875 92.1086273193359375 93.40856170654296875 93.55937957763671875 93.55937957763671875 -9999 
85.150726318359375 84.78591156005859375 83.90235137939453125 82.97327423095703125 81.99373626708984375 80.9579315185546875 80.06549835205078125 79.15369415283203125 78.19333648681640625 77.17896270751953125 76.2578582763671875 75.58502197265625 74.88611602783203125 74.15903472900390625 73.4014129638671875 73.25452423095703125 73.25452423095703125 73.25452423095703125 73.25452423095703125 72.74192047119140625 70.72216796875 68.44741058349609375 65.843841552734375 62.800060272216796875 60.087383270263671875 57.291118621826171875 53.98043060302734375 49.922393798828125 45.711132049560546875 45.11646270751953125 44.501522064208984375 43.864871978759765625 43.204929351806640625 42.455963134765625 41.639369964599609375 40.78404998779296875 39.886150360107421875 39.0116119384765625 38.642978668212890625 38.26665496826171875 37.882312774658203125 37.48960113525390625 37.321285247802734375 37.321285247802734375 37.321285247802734375 37.321285247802734375 37.30047607421875 36.76123809814453125 36.20538330078125 35.631855010986328125 35.039493560791015625 34.427013397216796875 33.79300689697265625 33.135898590087890625 32.453952789306640625 31.745203018188476562 32.400424957275390625 33.0843658447265625 33.743316650390625 34.3790435791015625 34.993122100830078125 35.586986541748046875 36.161922454833984375 36.719097137451171875 37.25957489013671875 38.0161590576171875 38.7713165283203125 39.496128082275390625 40.19293975830078125 40.937351226806640625 41.785602569580078125 42.595745086669921875 43.371063232421875 44.114429473876953125 44.254962921142578125 44.254962921142578125 44.254962921142578125 44.254962921142578125 44.278606414794921875 44.36672210693359375 44.45441436767578125 44.54167938232421875 44.6285247802734375 44.652019500732421875 44.652019500732421875 44.652019500732421875 44.652019500732421875 44.769382476806640625 45.375415802001953125 45.961742401123046875 46.529613494873046875 47.080150604248046875 47.6143798828125 48.13324737548828125 48.637599945068359375 49.128238677978515625 49.613254547119140625 50.142322540283203125 50.656314849853515625 51.156063079833984375 51.64234161376953125 56.146820068359375 61.8255157470703125 66.1380615234375 69.6159515380859375 72.3508453369140625 69.6480560302734375 66.46768951416015625 62.603969573974609375 57.68056488037109375 58.5501251220703125 64.6089324951171875 69.1363677978515625 72.75241851806640625 75.76323699951171875 77.71734619140625 79.45428466796875 81.03856658935546875 82.494873046875 83.9198150634765625 85.34014129638671875 86.65674591064453125 87.883758544921875 89.03260040283203125 89.16650390625 89.16650390625 -9999 
86.310546875 85.92144012451171875 84.97682952880859375 83.980010986328125 82.92486572265625 81.8041534423828125 81.0848541259765625 80.39693450927734375 79.6817474365234375 78.93701934814453125 78.20865631103515625 77.54319000244140625 76.85223388671875 76.13375091552734375 75.38545989990234375 75.24042510986328125 75.24042510986328125 75.24042510986328125 75.24042510986328125 74.66191864013671875 72.36077117919921875 69.72254180908203125 66.631256103515625 62.89837646484375 59.961002349853515625 57.182376861572265625 53.8964080810546875 49.875499725341796875 45.696849822998046875 45.0255889892578125 44.32837677001953125 43.6031341552734375 42.847507476806640625 42.052288055419921875 41.2167816162109375 40.340686798095703125 39.419864654541015625 38.509059906005859375 38.01776885986328125 37.51271820068359375 36.993122100830078125 36.458110809326171875 36.2274932861328125 36.2274932861328125 36.2274932861328125 36.2274932861328125 36.20538330078125 35.631855010986328125 35.039493560791015625 34.427013397216796875 33.79300689697265625 33.135898590087890625 32.453952789306640625 31.745203018188476562 31.007465362548828125 30.2382659912109375 30.949466705322265625 31.689531326293945312 32.400424957275390625 33.0843658447265625 33.743316650390625 34.3790435791015625 34.993122100830078125 35.586986541748046875 36.161922454833984375 37.174510955810546875 38.189189910888671875 39.14981842041015625 40.06186676025390625 40.937351226806640625 41.785602569580078125 42.595745086669921875 43.371063232421875 44.114429473876953125 44.254962921142578125 44.254962921142578125 44.254962921142578125 44.254962921142578125 44.25733184814453125 44.26617431640625 44.275012969970703125 44.283847808837890625 44.2926788330078125 44.295074462890625 44.295074462890625 44.295074462890625 44.295074462890625 44.42974853515625 45.1231231689453125 45.790828704833984375 46.43470001220703125 47.0563812255859375 47.657344818115234375 48.238933563232421875 48.802356719970703125 49.3487091064453125 49.879730224609375 50.401149749755859375 50.90792083740234375 51.40084075927734375 51.88065338134765625 56.168437957763671875 61.629871368408203125 65.8163604736328125 69.21192169189453125 71.89067840576171875 69.19248199462890625 66.0184783935546875 62.164154052734375 57.256023406982421875 58.29261016845703125 64.52904510498046875 69.15450286865234375 72.8326873779296875 75.88640594482421875 76.66838836669921875 77.3344879150390625 77.97686004638671875 78.59714508056640625 79.401611328125 80.44133758544921875 81.42438507080078125 82.3566131591796875 83.2430267333984375 83.34717559814453125 83.34717559814453125 -9999 
87.074249267578125 86.7337493896484375 85.91103363037109375 85.0489959716796875 84.14368438720703125 83.190521240234375 82.453033447265625 81.718994140625 80.9538116455078125 80.15472412109375 79.3264312744140625 78.473541259765625 77.5783233642578125 76.63634490966796875 75.64244842529296875 75.4482269287109375 75.4482269287109375 75.4482269287109375 75.4482269287109375 74.86322021484375 72.534027099609375 69.85884857177734375 66.71668243408203125 62.909271240234375 59.9468994140625 57.17024993896484375 53.887042999267578125 49.87027740478515625 45.69525909423828125 45.0154571533203125 44.309032440185546875 43.573810577392578125 42.807342529296875 42.00685882568359375 41.16919708251953125 40.29073333740234375 39.367290496826171875 38.44092559814453125 37.834468841552734375 37.20691680908203125 36.55673980712890625 35.882251739501953125 35.523639678955078125 35.408466339111328125 35.29254913330078125 35.175884246826171875 35.039493560791015625 34.427013397216796875 33.79300689697265625 33.135898590087890625 32.453952789306640625 31.745203018188476562 31.007465362548828125 30.2382659912109375 29.4347991943359375 28.593870162963867188 29.371507644653320312 30.177736282348632812 30.949466705322265625 31.689531326293945312 32.458042144775390625 33.27039337158203125 34.047733306884765625 34.792957305908203125 35.508609771728515625 36.593990325927734375 37.666423797607421875 38.67865753173828125 39.6371002197265625 40.54717254638671875 41.4135284423828125 42.240177154541015625 43.030597686767578125 43.787830352783203125 43.9309234619140625 43.9309234619140625 43.9309234619140625 43.9309234619140625 43.9309234619140625 43.9309234619140625 43.9309234619140625 43.9309234619140625 43.9309234619140625 43.98333740234375 44.055023193359375 44.12642669677734375 44.19754791259765625 44.3916015625 45.0948638916015625 45.771732330322265625 46.424121856689453125 47.053737640380859375 47.662113189697265625 48.250640869140625 48.8205718994140625 49.373046875 49.9091033935546875 50.4296875 50.9356689453125 51.427845001220703125 51.90694427490234375 55.44390869140625 60.10034942626953125 63.798065185546875 66.8652191162109375 69.32164764404296875 66.8420867919921875 63.966541290283203125 60.544036865234375 56.316448211669921875 57.2293853759765625 62.7092437744140625 66.90651702880859375 70.3091583251953125 73.170684814453125 73.7912750244140625 74.30619049072265625 74.8068084716796875 75.293914794921875 75.97359466552734375 76.900665283203125 77.78240966796875 78.6230621337890625 79.42626953125 79.5208892822265625 79.5208892822265625 -9999 
87.7673797607421875 87.48015594482421875 86.78969573974609375 86.0717620849609375 85.32405853271484375 84.5440216064453125 83.77114105224609375 82.96921539306640625 82.129974365234375 81.2497711181640625 80.3016510009765625 79.256103515625 78.14621734619140625 76.96353912353515625 75.69783782958984375 75.4482269287109375 75.4482269287109375 75.4482269287109375 75.4482269287109375 74.86322021484375 72.534027099609375 69.85884857177734375 66.71668243408203125 62.909271240234375 59.9468994140625 57.17024993896484375 53.887042999267578125 49.87027740478515625 45.69525909423828125 45.0154571533203125 44.309032440185546875 43.573810577392578125 42.807342529296875 42.00685882568359375 41.16919708251953125 40.29073333740234375 39.367290496826171875 38.428081512451171875 37.707111358642578125 36.95612335205078125 36.172504425048828125 35.353290557861328125 34.85031890869140625 34.59527587890625 34.336574554443359375 34.074108123779296875 33.79300689697265625 33.135898590087890625 32.453952789306640625 31.745203018188476562 31.007465362548828125 30.2382659912109375 29.4347991943359375 28.593870162963867188 27.71181488037109375 26.78440093994140625 27.6421661376953125 28.527551651000976562 29.371507644653320312 30.177736282348632812 31.081880569458007812 32.113811492919921875 33.0898895263671875 34.0158538818359375 34.89659881591796875 36.032878875732421875 37.13817596435546875 38.179637908935546875 39.164241790771484375 40.097873687744140625 40.9855499267578125 41.8315887451171875 42.63971710205078125 43.41318511962890625 43.55927276611328125 43.55927276611328125 43.55927276611328125 43.55927276611328125 43.55927276611328125 43.55927276611328125 43.55927276611328125 43.55927276611328125 43.55927276611328125 43.6727752685546875 43.82740020751953125 43.980712890625 44.132732391357421875 44.3916015625 45.0948638916015625 45.771732330322265625 46.424121856689453125 47.053737640380859375 47.662113189697265625 48.250640869140625 48.8205718994140625 49.373046875 49.9091033935546875 50.4296875 50.9356689453125 51.427845001220703125 51.90694427490234375 54.589458465576171875 58.238422393798828125 61.271999359130859375 63.868106842041015625 65.9936981201171875 63.848278045654296875 61.412811279296875 58.59642791748046875 55.257476806640625 55.990039825439453125 60.427753448486328125 63.986446380615234375 66.95743560791015625 69.50759124755859375 70.0843048095703125 70.567169189453125 71.037445068359375 71.4957733154296875 72.1183624267578125 72.953948974609375 73.75254058837890625 74.51727294921875 75.25089263916015625 75.33750152587890625 75.33750152587890625 -9999 
88.4348602294921875 88.19689178466796875 87.6275482177734375 87.03963470458984375 86.43192291259765625 85.80301666259765625 84.99945831298828125 84.13837432861328125 83.2341156005859375 82.28212738037109375 81.226837158203125 80.00612640380859375 78.69677734375 77.2848968505859375 75.75305938720703125 75.4482269287109375 75.4482269287109375 75.4482269287109375 75.4482269287109375 74.86322021484375 72.534027099609375 69.85884857177734375 66.71668243408203125 62.909271240234375 59.9468994140625 57.17024993896484375 53.887042999267578125 49.87027740478515625 45.69525909423828125 45.0154571533203125 44.309032440185546875 43.573810577392578125 42.807342529296875 42.00685882568359375 41.16919708251953125 40.29073333740234375 39.367290496826171875 38.415233612060546875 37.57884979248046875 36.701793670654296875 35.7799072265625 34.808353424072265625 34.150890350341796875 33.74369049072265625 33.32708740234375 32.900630950927734375 32.453952789306640625 31.745203018188476562 31.007465362548828125 30.2382659912109375 29.4347991943359375 28.593870162963867188 27.71181488037109375 26.78440093994140625 25.80670928955078125 24.772974014282226562 25.72928619384765625 26.711069107055664062 27.6421661376953125 28.527551651000976562 29.591997146606445312 30.877962112426757812 32.078319549560546875 33.203762054443359375 34.263092041015625 35.4537506103515625 36.593990325927734375 37.666423797607421875 38.67865753173828125 39.6371002197265625 40.54717254638671875 41.4135284423828125 42.240177154541015625 43.030597686767578125 43.17980194091796875 43.17980194091796875 43.17980194091796875 43.17980194091796875 43.17980194091796875 43.17980194091796875 43.17980194091796875 43.17980194091796875 43.17980194091796875 43.356777191162109375 43.59687042236328125 43.833812713623046875 44.067684173583984375 44.3916015625 45.0948638916015625 45.771732330322265625 46.424121856689453125 47.053737640380859375 47.662113189697265625 48.250640869140625 48.8205718994140625 49.373046875 49.9091033935546875 50.4296875 50.9356689453125 51.427845001220703125 51.90694427490234375 53.692516326904296875 56.161956787109375 58.33368682861328125 60.271823883056640625 61.90966033935546875 60.2567596435546875 58.436977386474609375 56.412799835205078125 54.13243865966796875 54.6592254638671875 57.815349578857421875 60.5006256103515625 62.8374786376953125 64.9060211181640625 65.41313934326171875 65.8448944091796875 66.2665557861328125 66.6785888671875 67.2087554931640625 67.89463043212890625 68.55538177490234375 69.19277191162109375 69.80841827392578125 69.88135528564453125 69.88135528564453125 -9999 
89.07851409912109375 88.8862457275390625 88.42819976806640625 87.95821380615234375 87.4756622314453125 86.9798431396484375 86.14943695068359375 85.23635101318359375 84.27455902099609375 83.2585906982421875 82.10688018798828125 80.72620391845703125 79.2310333251953125 77.60063934326171875 75.80810546875 75.4482269287109375 75.4482269287109375 75.4482269287109375 75.4482269287109375 74.86322021484375 72.534027099609375 69.85884857177734375 66.71668243408203125 62.909271240234375 59.9468994140625 57.17024993896484375 53.887042999267578125 49.87027740478515625 45.69525909423828125 45.0154571533203125 44.309032440185546875 43.573810577392578125 42.807342529296875 42.00685882568359375 41.16919708251953125 40.29073333740234375 39.367290496826171875 38.402370452880859375 37.44966888427734375 36.443828582763671875 35.378570556640625 34.24643707275390625 33.423244476318359375 32.849903106689453125 32.2577362060546875 31.645471572875976562 31.007465362548828125 30.2382659912109375 29.4347991943359375 28.593870162963867188 27.71181488037109375 26.78440093994140625 25.80670928955078125 24.772974014282226562 23.676380157470703125 22.508783340454101562 23.589227676391601562 24.690975189208984375 25.72928619384765625 26.711069107055664062 27.967891693115234375 29.551174163818359375 31.006635665893554688 32.3533782958984375 33.6065216064453125 34.855411529541015625 36.032878875732421875 37.13817596435546875 38.179637908935546875 39.164241790771484375 40.097873687744140625 40.9855499267578125 41.8315887451171875 42.63971710205078125 42.79217529296875 42.79217529296875 42.79217529296875 42.79217529296875 42.79217529296875 42.79217529296875 42.79217529296875 42.79217529296875 42.79217529296875 43.0351409912109375 43.3633575439453125 43.68570709228515625 44.002399444580078125 44.3916015625 45.0948638916015625 45.771732330322265625 46.424121856689453125 47.053737640380859375 47.662113189697265625 48.250640869140625 48.8205718994140625 49.373046875 49.9091033935546875 50.4296875 50.9356689453125 51.427845001220703125 51.90694427490234375 52.748630523681640625 53.8149871826171875 54.821811676025390625 55.77539825439453125 56.621795654296875 55.767780303955078125 54.871318817138671875 53.9279632568359375 52.932537078857421875 53.222354888916015625 54.75948333740234375 56.175853729248046875 57.489063262939453125 58.71312713623046875 59.09293365478515625 59.430309295654296875 59.761493682861328125 60.08670806884765625 60.441616058349609375 60.837970733642578125 61.225803375244140625 61.605472564697265625 61.977313995361328125 62.021701812744140625 62.021701812744140625 -9999 
89.48488616943359375 89.3205718994140625 88.9301605224609375 88.5311126708984375 88.12303924560546875 87.7055206298828125 86.859405517578125 85.91574859619140625 84.91999053955078125 83.86603546142578125 82.65667724609375 81.1792755126953125 79.56998443603515625 77.8029327392578125 75.8437957763671875 75.4482269287109375 75.4482269287109375 75.4482269287109375 75.4482269287109375 74.86322021484375 72.534027099609375 69.85884857177734375 66.71668243408203125 62.909271240234375 59.9468994140625 57.17024993896484375 53.887042999267578125 49.87027740478515625 45.69525909423828125 45.0154571533203125 44.309032440185546875 43.573810577392578125 42.807342529296875 42.00685882568359375 41.16919708251953125 40.29073333740234375 39.367290496826171875 38.394008636474609375 37.365203857421875 36.274158477783203125 35.112850189208984375 33.871601104736328125 32.934062957763671875 32.244289398193359375 31.527088165283203125 30.78018951416015625 30.0010223388671875 29.186676025390625 28.333820343017578125 27.438632965087890625 26.496690750122070312 25.502840042114257812 24.451021194458007812 23.334056854248046875 22.143335342407226562 20.868425369262695312 22.048431396484375 23.245229721069335938 24.367542266845703125 25.424098968505859375 26.828039169311523438 28.633348464965820312 30.274309158325195312 31.77835845947265625 33.166599273681640625 34.455593109130859375 35.658588409423828125 36.786350250244140625 37.8477325439453125 38.850124359130859375 39.7997283935546875 40.70183563232421875 41.560970306396484375 42.381038665771484375 42.5356903076171875 42.5356903076171875 42.5356903076171875 42.5356903076171875 42.5356903076171875 42.5356903076171875 42.5356903076171875 42.5356903076171875 42.5356903076171875 42.822971343994140625 43.209941864013671875 43.588787078857421875 43.9598388671875 44.3916015625 45.0948638916015625 45.771732330322265625 46.424121856689453125 47.053737640380859375 47.662113189697265625 48.250640869140625 48.8205718994140625 49.373046875 49.9091033935546875 50.4296875 50.9356689453125 51.427845001220703125 51.90694427490234375 52.107547760009765625 52.107547760009765625 52.107547760009765625 52.107547760009765625 52.107547760009765625 52.107547760009765625 52.107547760009765625 52.107547760009765625 52.107547760009765625 52.223064422607421875 52.4538726806640625 52.6817626953125 52.9068145751953125 53.12908935546875 53.348659515380859375 53.565586090087890625 53.779941558837890625 53.9917755126953125 54.11391448974609375 54.11391448974609375 54.11391448974609375 54.11391448974609375 54.11391448974609375 54.11391448974609375 54.11391448974609375 -9999 
89.48488616943359375 89.3205718994140625 88.9301605224609375 88.5311126708984375 88.12303924560546875 87.7055206298828125 86.859405517578125 85.91574859619140625 84.91999053955078125 83.86603546142578125 82.65667724609375 81.1792755126953125 79.56998443603515625 77.8029327392578125 75.8437957763671875 75.4482269287109375 75.4482269287109375 75.4482269287109375 75.4482269287109375 74.86322021484375 72.534027099609375 69.85884857177734375 66.71668243408203125 62.909271240234375 59.9468994140625 57.17024993896484375 53.887042999267578125 49.87027740478515625 45.69525909423828125 45.0154571533203125 44.309032440185546875 43.573810577392578125 42.807342529296875 42.00685882568359375 41.16919708251953125 40.29073333740234375 39.367290496826171875 38.394008636474609375 37.365203857421875 36.274158477783203125 35.112850189208984375 33.871601104736328125 32.934062957763671875 32.244289398193359375 31.527088165283203125 30.78018951416015625 30.0010223388671875 29.186676025390625 28.333820343017578125 27.438632965087890625 26.496690750122070312 25.502840042114257812 24.451021194458007812 23.334056854248046875 22.143335342407226562 20.868425369262695312 22.048431396484375 23.245229721069335938 24.367542266845703125 25.424098968505859375 26.828039169311523438 28.633348464965820312 30.274309158325195312 31.77835845947265625 33.166599273681640625 34.455593109130859375 35.658588409423828125 36.786350250244140625 37.8477325439453125 38.850124359130859375 39.7997283935546875 40.70183563232421875 41.560970306396484375 42.381038665771484375 42.5356903076171875 42.5356903076171875 42.5356903076171875 42.5356903076171875 42.5356903076171875 42.5356903076171875 42.5356903076171875 42.5356903076171875 42.5356903076171875 42.822971343994140625 43.209941864013671875 43.588787078857421875 43.9598388671875 44.3916015625 45.0948638916015625 45.771732330322265625 46.424121856689453125 47.053737640380859375 47.662113189697265625 48.250640869140625 48.8205718994140625 49.373046875 49.9091033935546875 50.4296875 50.9356689453125 51.427845001220703125 51.90694427490234375 52.107547760009765625 52.107547760009765625 52.107547760009765625 52.107547760009765625 52.107547760009765625 52.107547760009765625 52.107547760009765625 52.107547760009765625 52.107547760009765625 52.223064422607421875 52.4538726806640625 52.6817626953125 52.9068145751953125 53.12908935546875 53.348659515380859375 53.565586090087890625 53.779941558837890625 53.9917755126953125 54.11391448974609375 54.11391448974609375 54.11391448974609375 54.11391448974609375 54.11391448974609375 54.11391448974609375 54.11391448974609375 -9999 
89.48488616943359375 89.3205718994140625 88.9301605224609375 88.5311126708984375 88.12303924560546875 87.7055206298828125 86.859405517578125 85.91574859619140625 84.91999053955078125 83.86603546142578125 82.65667724609375 81.1792755126953125 79.56998443603515625 77.8029327392578125 75.8437957763671875 75.4482269287109375 75.4482269287109375 75.4482269287109375 75.4482269287109375 74.86322021484375 72.534027099609375 69.85884857177734375 66.71668243408203125 62.909271240234375 59.9468994140625 57.17024993896484375 53.887042999267578125 49.87027740478515625 45.69525909423828125 45.0154571533203125 44.309032440185546875 43.573810577392578125 42.807342529296875 42.00685882568359375 41.16919708251953125 40.29073333740234375 39.367290496826171875 38.394008636474609375 37.365203857421875 36.274158477783203125 35.112850189208984375 33.871601104736328125 32.934062957763671875 32.244289398193359375 31.527088165283203125 30.78018951416015625 30.0010223388671875 29.186676025390625 28.333820343017578125 27.438632965087890625 26.496690750122070312 25.502840042114257812 24.451021194458007812 23.334056854248046875 22.143335342407226562 20.868425369262695312 22.048431396484375 23.245229721069335938 24.367542266845703125 25.424098968505859375 26.828039169311523438 28.633348464965820312 30.274309158325195312 31.77835845947265625 33.166599273681640625 34.455593109130859375 35.658588409423828125 36.786350250244140625 37.8477325439453125 38.850124359130859375 39.7997283935546875 40.70183563232421875 41.560970306396484375 42.381038665771484375 42.5356903076171875 42.5356903076171875 42.5356903076171875 42.5356903076171875 42.5356903076171875 42.5356903076171875 42.5356903076171875 42.5356903076171875 42.5356903076171875 42.822971343994140625 43.209941864013671875 43.588787078857421875 43.9598388671875 44.3916015625 45.0948638916015625 45.771732330322265625 46.424121856689453125 47.053737640380859375 47.662113189697265625 48.250640869140625 48.8205718994140625 49.373046875 49.9091033935546875 50.4296875 50.9356689453125 51.427845001220703125 51.90694427490234375 52.107547760009765625 52.107547760009765625 52.107547760009765625 52.107547760009765625 52.107547760009765625 52.107547760009765625 52.107547760009765625 52.107547760009765625 52.107547760009765625 52.223064422607421875 52.4538726806640625 52.6817626953125 52.9068145751953125 53.12908935546875 53.348659515380859375 53.565586090087890625 53.779941558837890625 53.9917755126953125 54.11391448974609375 54.11391448974609375 54.11391448974609375 54.11391448974609375 54.11391448974609375 54.11391448974609375 54.11391448974609375 -9999 
89.48488616943359375 89.3205718994140625 88.9301605224609375 88.5311126708984375 88.12303924560546875 87.7055206298828125 86.859405517578125 85.91574859619140625 84.91999053955078125 83.86603546142578125 82.65667724609375 81.1792755126953125 79.56998443603515625 77.8029327392578125 75.8437957763671875 75.4482269287109375 75.4482269287109375 75.4482269287109375 75.4482269287109375 74.86322021484375 72.534027099609375 69.85884857177734375 66.71668243408203125 62.909271240234375 59.9468994140625 57.17024993896484375 53.887042999267578125 49.87027740478515625 45.69525909423828125 45.0154571533203125 44.309032440185546875 43.573810577392578125 42.807342529296875 42.00685882568359375 41.16919708251953125 40.29073333740234375 39.367290496826171875 38.394008636474609375 37.365203857421875 36.274158477783203125 35.112850189208984375 33.871601104736328125 32.934062957763671875 32.244289398193359375 31.527088165283203125 30.78018951416015625 30.0010223388671875 29.186676025390625 28.333820343017578125 27.438632965087890625 26.496690750122070312 25.502840042114257812 24.451021194458007812 23.334056854248046875 22.143335342407226562 20.868425369262695312 22.048431396484375 23.245229721069335938 24.367542266845703125 25.424098968505859375 26.828039169311523438 28.633348464965820312 30.274309158325195312 31.77835845947265625 33.166599273681640625 34.455593109130859375 35.658588409423828125 36.786350250244140625 37.8477325439453125 38.850124359130859375 39.7997283935546875 40.70183563232421875 41.560970306396484375 42.381038665771484375 42.5356903076171875 42.5356903076171875 42.5356903076171875 42.5356903076171875 42.5356903076171875 42.5356903076171875 42.5356903076171875 42.5356903076171875 42.5356903076171875 42.822971343994140625 43.209941864013671875 43.588787078857421875 43.9598388671875 44.3916015625 45.0948638916015625 45.771732330322265625 46.424121856689453125 47.053737640380859375 47.662113189697265625 48.250640869140625 48.8205718994140625 49.373046875 49.9091033935546875 50.4296875 50.9356689453125 51.427845001220703125 51.90694427490234375 52.107547760009765625 52.107547760009765625 52.107547760009765625 52.107547760009765625 52.107547760009765625 52.107547760009765625 52.107547760009765625 52.107547760009765625 52.107547760009765625 52.223064422607421875 52.4538726806640625 52.6817626953125 52.9068145751953125 53.12908935546875 53.348659515380859375 53.565586090087890625 53.779941558837890625 53.9917755126953125 54.11391448974609375 54.11391448974609375 54.11391448974609375 54.11391448974609375 54.11391448974609375 54.11391448974609375 54.11391448974609375 -9999 
89.48488616943359375 89.3205718994140625 88.9301605224609375 88.5311126708984375 88.12303924560546875 87.7055206298828125 86.859405517578125 85.91574859619140625 84.91999053955078125 83.86603546142578125 82.65667724609375 81.1792755126953125 79.56998443603515625 77.8029327392578125 75.8437957763671875 75.4482269287109375 75.4482269287109375 75.4482269287109375 75.4482269287109375 74.86322021484375 72.534027099609375 69.85884857177734375 66.71668243408203125 62.909271240234375 59.9468994140625 57.17024993896484375 53.887042999267578125 49.87027740478515625 45.69525909423828125 45.0154571533203125 44.309032440185546875 43.573810577392578125 42.807342529296875 42.00685882568359375 41.16919708251953125 40.29073333740234375 39.367290496826171875 38.394008636474609375 37.365203857421875 36.274158477783203125 35.112850189208984375 33.871601104736328125 32.934062957763671875 32.244289398193359375 31.527088165283203125 30.78018951416015625 30.0010223388671875 29.186676025390625 28.333820343017578125 27.438632965087890625 26.496690750122070312 25.502840042114257812 24.451021194458007812 23.334056854248046875 22.143335342407226562 20.868425369262695312 22.048431396484375 23.245229721069335938 24.367542266845703125 25.424098968505859375 26.828039169311523438 28.633348464965820312 30.274309158325195312 31.77835845947265625 33.166599273681640625 34.455593109130859375 35.658588409423828125 36.786350250244140625 37.8477325439453125 38.850124359130859375 39.7997283935546875 40.70183563232421875 41.560970306396484375 42.381038665771484375 42.5356903076171875 42.5356903076171875 42.5356903076171875 42.5356903076171875 42.5356903076171875 42.5356903076171875 42.5356903076171875 42.5356903076171875 42.5356903076171875 42.822971343994140625 43.209941864013671875 43.588787078857421875 43.9598388671875 44.3916015625 45.0948638916015625 45.771732330322265625 46.424121856689453125 47.053737640380859375 47.662113189697265625 48.250640869140625 48.8205718994140625 49.373046875 49.9091033935546875 50.4296875 50.9356689453125 51.427845001220703125 51.90694427490234375 52.107547760009765625 52.107547760009765625 52.107547760009765625 52.107547760009765625 52.107547760009765625 52.107547760009765625 52.107547760009765625 52.107547760009765625 52.107547760009765625 52.223064422607421875 52.4538726806640625 52.6817626953125 52.9068145751953125 53.12908935546875 53.348659515380859375 53.565586090087890625 53.779941558837890625 53.9917755126953125 54.11391448974609375 54.11391448974609375 54.11391448974609375 54.11391448974609375 54.11391448974609375 54.11391448974609375 54.11391448974609375 -9999 
89.81616973876953125 89.616943359375 89.14202880859375 88.65427398681640625 88.15296173095703125 87.63732147216796875 86.76003265380859375 85.79166412353515625 84.76834869384765625 83.6834716796875 82.45166778564453125 80.97353363037109375 79.363372802734375 77.59528350830078125 75.63486480712890625 75.239013671875 75.239013671875 75.239013671875 75.239013671875 74.6568450927734375 72.33989715576171875 69.680877685546875 66.5609893798828125 62.78627777099609375 59.8436431884765625 57.081493377685546875 53.8185577392578125 49.8321380615234375 45.69525909423828125 45.0154571533203125 44.309032440185546875 43.573810577392578125 42.807342529296875 42.00685882568359375 41.16919708251953125 40.29073333740234375 39.367290496826171875 38.394008636474609375 37.365203857421875 36.274158477783203125 35.112850189208984375 33.871601104736328125 32.864013671875 32.04488372802734375 31.186780929565429688 30.285810470581054688 29.343252182006835938 28.497941970825195312 27.611064910888671875 26.678319931030273438 25.6947021484375 24.558307647705078125 23.242359161376953125 21.8227996826171875 20.281915664672851562 18.59700775146484375 20.157789230346679688 21.708871841430664062 23.137075424194335938 24.460453033447265625 26.0409698486328125 27.922733306884765625 29.626605987548828125 31.183336257934570312 32.616329193115234375 33.943817138671875 35.180271148681640625 36.337383270263671875 37.4247283935546875 38.45023345947265625 39.420566558837890625 40.3413543701171875 41.21741485595703125 42.05289459228515625 42.210369110107421875 42.210369110107421875 42.210369110107421875 42.210369110107421875 42.210369110107421875 42.210369110107421875 42.210369110107421875 42.210369110107421875 42.210369110107421875 42.502838134765625 42.896663665771484375 43.282073974609375 43.659423828125 44.098346710205078125 44.8129119873046875 45.500244140625 46.16234588623046875 46.80100250244140625 47.417819976806640625 48.014240264892578125 48.591571807861328125 49.15099334716796875 49.688232421875 50.168670654296875 50.636646270751953125 51.0927886962890625 51.537677764892578125 51.7486572265625 51.791229248046875 51.833705902099609375 51.87607574462890625 51.915435791015625 51.8731536865234375 51.830776214599609375 51.788295745849609375 51.7457122802734375 51.842193603515625 52.077892303466796875 52.31055450439453125 52.540252685546875 52.767063140869140625 52.991058349609375 53.212306976318359375 53.43087005615234375 53.646820068359375 53.77130889892578125 53.77130889892578125 53.77130889892578125 53.77130889892578125 53.77130889892578125 53.77130889892578125 53.77130889892578125 -9999 
90.21634674072265625 89.97571563720703125 89.3998260498046875 88.8049468994140625 88.18978118896484375 87.55289459228515625 86.63678741455078125 85.6375274658203125 84.57965087890625 83.4558563232421875 82.19570159912109375 80.71663665771484375 79.10538482666015625 77.33597564697265625 75.373931884765625 74.9777374267578125 74.9777374267578125 74.9777374267578125 74.9777374267578125 74.3991546630859375 72.097686767578125 69.45905303955078125 66.3672027587890625 62.6334991455078125 59.715534210205078125 56.971477508544921875 53.7337799072265625 49.785007476806640625 45.69525909423828125 45.0154571533203125 44.309032440185546875 43.573810577392578125 42.807342529296875 42.00685882568359375 41.16919708251953125 40.29073333740234375 39.367290496826171875 38.394008636474609375 37.365203857421875 36.274158477783203125 35.112850189208984375 33.871601104736328125 32.77728271484375 31.795999526977539062 30.758245468139648438 29.657129287719726562 28.497941970825195312 27.611064910888671875 26.678319931030273438 25.6947021484375 24.654338836669921875 23.321500778198242188 21.6315460205078125 19.766744613647460938 17.686700820922851562 15.335161209106445312 17.516361236572265625 19.6150360107421875 21.494792938232421875 23.197021484375 25.020956039428710938 27.006378173828125 28.794780731201171875 30.421758651733398438 31.914058685302734375 33.2922821044921875 34.572635650634765625 35.76810455322265625 36.889247894287109375 37.944766998291015625 38.941925048828125 39.886837005615234375 40.784702301025390625 41.63999176025390625 41.801097869873046875 41.801097869873046875 41.801097869873046875 41.801097869873046875 41.801097869873046875 41.801097869873046875 41.801097869873046875 41.801097869873046875 41.801097869873046875 42.1002197265625 42.502838134765625 42.896663665771484375 43.282073974609375 43.73016357421875 44.45916748046875 45.15985107421875 45.834331512451171875 46.484500885009765625 47.1120452880859375 47.718494415283203125 48.30521392822265625 48.87345123291015625 49.4121856689453125 49.8416290283203125 50.261081695556640625 50.6710052490234375 51.071819305419921875 51.296192169189453125 51.393512725830078125 51.4903106689453125 51.5865936279296875 51.6757659912109375 51.579959869384765625 51.483642578125 51.386810302734375 51.28945159912109375 51.3613433837890625 51.60337066650390625 51.842193603515625 52.077892303466796875 52.31055450439453125 52.540252685546875 52.767063140869140625 52.991058349609375 53.212306976318359375 53.339817047119140625 53.339817047119140625 53.339817047119140625 53.339817047119140625 53.339817047119140625 53.339817047119140625 53.339817047119140625 -9999 
90.60784149169921875 90.32749176025390625 89.65399932861328125 88.954376220703125 88.22652435302734375 87.4680633544921875 86.51268768310546875 85.48206329345703125 84.3889617919921875 83.2253265380859375 81.9360504150390625 80.4560394287109375 78.843658447265625 77.07288360595703125 75.10916900634765625 74.712615966796875 74.712615966796875 74.712615966796875 74.712615966796875 74.137725830078125 71.85218048095703125 69.23445892333984375 66.17130279541015625 62.479412078857421875 59.58650970458984375 56.86078643798828125 53.64859771728515625 49.737751007080078125 45.69525909423828125 45.0154571533203125 44.309032440185546875 43.573810577392578125 42.807342529296875 42.00685882568359375 41.16919708251953125 40.29073333740234375 39.367290496826171875 38.394008636474609375 37.365203857421875 36.274158477783203125 35.112850189208984375 33.871601104736328125 32.6901397705078125 31.543634414672851562 30.31928253173828125 29.005741119384765625 27.611064910888671875 26.678319931030273438 25.6947021484375 24.654338836669921875 23.550283432006835938 21.993612289428710938 19.862661361694335938 17.445827484130859375 14.654344558715820312 11.350363731384277344 14.420679092407226562 17.245849609375 19.687879562377929688 21.838388442993164062 23.939792633056640625 26.0409698486328125 27.922733306884765625 29.626605987548828125 31.183336257934570312 32.616329193115234375 33.943817138671875 35.180271148681640625 36.337383270263671875 37.4247283935546875 38.45023345947265625 39.420566558837890625 40.3413543701171875 41.21741485595703125 41.38232421875 41.38232421875 41.38232421875 41.38232421875 41.38232421875 41.38232421875 41.38232421875 41.38232421875 41.38232421875 41.688411712646484375 42.1002197265625 42.502838134765625 42.896663665771484375 43.35430908203125 44.098346710205078125 44.8129119873046875 45.500244140625 46.16234588623046875 46.80100250244140625 47.417819976806640625 48.014240264892578125 48.591571807861328125 49.1318511962890625 49.508544921875 49.877536773681640625 50.23912811279296875 50.5936126708984375 50.83208465576171875 50.986827850341796875 51.140254974365234375 51.292385101318359375 51.43286895751953125 51.28192138671875 51.129703521728515625 50.976184844970703125 50.821353912353515625 50.867328643798828125 51.11602783203125 51.3613433837890625 51.60337066650390625 51.842193603515625 52.077892303466796875 52.31055450439453125 52.540252685546875 52.767063140869140625 52.897754669189453125 52.897754669189453125 52.897754669189453125 52.897754669189453125 52.897754669189453125 52.897754669189453125 52.897754669189453125 -9999 
90.99102020263671875 90.6725311279296875 89.904632568359375 89.10257720947265625 88.26319122314453125 87.38283538818359375 86.38773345947265625 85.3252410888671875 84.19622802734375 82.99181365966796875 81.67259979248046875 80.191619873046875 78.57807159423828125 76.80590057373046875 74.84046173095703125 74.44353485107421875 74.44353485107421875 74.44353485107421875 74.44353485107421875 73.8724517822265625 71.6032867431640625 69.0070343017578125 65.97325897216796875 62.324001312255859375 59.456554412841796875 56.749408721923828125 53.56301116943359375 49.69037628173828125 45.69525909423828125 45.0154571533203125 44.309032440185546875 43.573810577392578125 42.807342529296875 42.00685882568359375 41.16919708251953125 40.29073333740234375 39.367290496826171875 38.394008636474609375 37.365203857421875 36.274158477783203125 35.112850189208984375 33.871601104736328125 32.602569580078125 31.287687301635742188 29.869371414184570312 28.329946517944335938 26.678319931030273438 25.6947021484375 24.654338836669921875 23.550283432006835938 22.374223709106445312 20.560148239135742188 17.901269912719726562 14.781577110290527344 11.007145881652832031 6.2281236648559570312 10.681377410888671875 14.517765045166015625 17.679615020751953125 20.369031906127929688 22.7896728515625 25.020956039428710938 27.006378173828125 28.794780731201171875 30.421758651733398438 31.914058685302734375 33.2922821044921875 34.572635650634765625 35.76810455322265625 36.889247894287109375 37.944766998291015625 38.941925048828125 39.886837005615234375 40.784702301025390625 40.9535980224609375 40.9535980224609375 40.9535980224609375 40.9535980224609375 40.9535980224609375 40.9535980224609375 40.9535980224609375 40.9535980224609375 40.9535980224609375 41.2669830322265625 41.688411712646484375 42.1002197265625 42.502838134765625 42.970455169677734375 43.73016357421875 44.45916748046875 45.15985107421875 45.834331512451171875 46.484500885009765625 47.1120452880859375 47.718494415283203125 48.30521392822265625 48.847087860107421875 49.16919708251953125 49.485652923583984375 49.79665374755859375 50.102382659912109375 50.35572052001953125 50.57076263427734375 50.783267974853515625 50.9933013916015625 51.186656951904296875 50.978878021240234375 50.7686767578125 50.555995941162109375 50.340778350830078125 50.35939788818359375 50.61515045166015625 50.867328643798828125 51.11602783203125 51.3613433837890625 51.60337066650390625 51.842193603515625 52.077892303466796875 52.31055450439453125 52.444580078125 52.444580078125 52.444580078125 52.444580078125 52.444580078125 52.444580078125 52.444580078125 -9999 
91.2502593994140625 90.90538787841796875 90.071746826171875 89.1977081298828125 88.27915191650390625 87.31130218505859375 86.28668975830078125 85.20011138916015625 84.043853759765625 82.808380126953125 81.4669342041015625 79.98722076416015625 78.37519073486328125 76.60483551025390625 74.6416473388671875 74.24520111083984375 74.24520111083984375 74.24520111083984375 74.24520111083984375 73.67696380615234375 71.42000579833984375 68.8397369384765625 65.82778167724609375 62.21007537841796875 59.368289947509765625 56.686817169189453125 53.535945892333984375 49.715728759765625 45.78589630126953125 45.10956573486328125 44.406890869140625 43.67572784423828125 42.913669586181640625 42.1179962158203125 41.2855987548828125 40.41292572021484375 39.495876312255859375 38.529697418212890625 37.50882720947265625 36.42669677734375 35.275485992431640625 34.045764923095703125 32.726039886474609375 31.302087783813476562 29.756023406982421875 28.064920425415039062 26.23490142822265625 25.163732528686523438 24.0249176025390625 22.80933380126953125 21.505878448486328125 19.526231765747070312 16.630384445190429688 13.179059982299804688 8.9073438644409179688 3.2994699478149414062 8.5328416824340820312 12.884174346923828125 16.387197494506835938 19.3193206787109375 21.904209136962890625 24.240777969360351562 26.30910491943359375 28.164484024047851562 29.846698760986328125 31.385334014892578125 32.802982330322265625 34.11728668212890625 35.342304229736328125 36.466358184814453125 37.4831695556640625 38.445705413818359375 39.359477996826171875 40.22917938232421875 40.392925262451171875 40.392925262451171875 40.392925262451171875 40.392925262451171875 40.40010833740234375 40.426937103271484375 40.45372772216796875 40.480480194091796875 40.507190704345703125 40.83547210693359375 41.2669830322265625 41.688411712646484375 42.1002197265625 42.578250885009765625 43.35430908203125 44.098346710205078125 44.8129119873046875 45.500244140625 46.149639129638671875 46.76988983154296875 47.369518280029296875 47.94985198974609375 48.48390960693359375 48.78433990478515625 49.0798492431640625 49.37059783935546875 49.656734466552734375 49.920246124267578125 50.166637420654296875 50.409709930419921875 50.649547576904296875 50.869476318359375 50.61733245849609375 50.36161041259765625 50.102214813232421875 49.839031219482421875 49.836750030517578125 50.09996795654296875 50.35939788818359375 50.61515045166015625 50.867328643798828125 51.11602783203125 51.3613433837890625 51.60337066650390625 51.842193603515625 52.202823638916015625 52.725528717041015625 53.23351287841796875 53.727581024169921875 54.208477020263671875 54.265689849853515625 54.265689849853515625 -9999 
91.19678497314453125 90.85345458984375 90.023651123046875 89.15383148193359375 88.23992919921875 87.277252197265625 86.2515106201171875 85.1627349853515625 84.00400543212890625 82.7657012939453125 81.42450714111328125 79.9521636962890625 78.34888458251953125 76.589080810546875 74.63885498046875 74.24520111083984375 74.24520111083984375 74.24520111083984375 74.24520111083984375 73.67696380615234375 71.42000579833984375 68.8397369384765625 65.82778167724609375 62.21007537841796875 59.393527984619140625 56.75594329833984375 53.665546417236328125 49.933963775634765625 46.11478424072265625 45.450901031494140625 44.76165008544921875 44.045013427734375 43.298725128173828125 42.520221710205078125 41.70659637451171875 40.8545379638671875 39.96022796630859375 39.019252777099609375 38.02648162841796875 36.9758758544921875 35.8602752685546875 34.671100616455078125 33.397968292236328125 32.028110504150390625 30.545614242553710938 28.9302825927734375 27.182218551635742188 25.949140548706054688 24.625545501708984375 23.197084426879882812 21.645704269409179688 19.83730316162109375 17.7025604248046875 15.28084564208984375 12.482846260070800781 9.1697244644165039062 12.248587608337402344 15.080432891845703125 17.527448654174804688 19.681819915771484375 21.904209136962890625 24.240777969360351562 26.30910491943359375 28.164484024047851562 29.846698760986328125 31.385334014892578125 32.802982330322265625 34.11728668212890625 35.342304229736328125 36.38155364990234375 37.16873931884765625 37.923004150390625 38.646991729736328125 39.34304046630859375 39.474834442138671875 39.474834442138671875 39.474834442138671875 39.474834442138671875 39.51010894775390625 39.641387939453125 39.771724700927734375 39.901123046875 40.029598236083984375 40.3933868408203125 40.83547210693359375 41.2669830322265625 41.688411712646484375 42.177333831787109375 42.970455169677734375 43.73016357421875 44.45916748046875 45.15985107421875 45.773822784423828125 46.336109161376953125 46.88140106201171875 47.4106903076171875 47.910358428955078125 48.2841949462890625 48.650440216064453125 49.009395599365234375 49.361347198486328125 49.620510101318359375 49.81259918212890625 50.002666473388671875 50.1907501220703125 50.36161041259765625 50.102214813232421875 49.839031219482421875 49.571949005126953125 49.3008575439453125 49.2985076904296875 49.569637298583984375 49.836750030517578125 50.09996795654296875 50.35939788818359375 50.61515045166015625 50.867328643798828125 51.11602783203125 51.3613433837890625 52.548351287841796875 54.8283233642578125 56.8521881103515625 58.671718597412109375 60.3244171142578125 60.51412200927734375 60.51412200927734375 -9999 
91.143157958984375 90.80136871337890625 89.97542572021484375 89.10984039306640625 88.20062255859375 87.24312591552734375 86.21625518798828125 85.1252899169921875 83.96407318115234375 82.72292327880859375 81.3819732666015625 79.91704559326171875 78.322540283203125 76.57331085205078125 74.6360626220703125 74.24520111083984375 74.24520111083984375 74.24520111083984375 74.24520111083984375 73.67696380615234375 71.42000579833984375 68.8397369384765625 65.82778167724609375 62.21007537841796875 59.418727874755859375 56.824810028076171875 53.794223785400390625 50.149585723876953125 46.43778228759765625 45.78589630126953125 45.10956573486328125 44.406890869140625 43.67572784423828125 42.913669586181640625 42.1179962158203125 41.2855987548828125 40.41292572021484375 39.495876312255859375 38.529697418212890625 37.50882720947265625 36.42669677734375 35.275485992431640625 34.045764923095703125 32.726039886474609375 31.302087783813476562 29.756023406982421875 28.0822601318359375 26.701770782470703125 25.206815719604492188 23.5766754150390625 21.784454345703125 20.143100738525390625 18.714567184448242188 17.163099288940429688 15.465527534484863281 13.591449737548828125 15.328126907348632812 17.038082122802734375 18.599885940551757812 20.037176132202148438 21.904209136962890625 24.240777969360351562 26.30910491943359375 28.164484024047851562 29.846698760986328125 31.385334014892578125 32.802982330322265625 34.11728668212890625 35.342304229736328125 36.29634857177734375 36.84873199462890625 37.384700775146484375 37.90520477294921875 38.41110992431640625 38.50749969482421875 38.50749969482421875 38.50749969482421875 38.50749969482421875 38.57390594482421875 38.820068359375 39.062915802001953125 39.3025360107421875 39.5390167236328125 39.94019317626953125 40.3933868408203125 40.83547210693359375 41.2669830322265625 41.767303466796875 42.578250885009765625 43.35430908203125 44.098346710205078125 44.8129119873046875 45.39000701904296875 45.891643524169921875 46.379711151123046875 46.85491943359375 47.31797027587890625 47.76978302001953125 48.2105560302734375 48.640811920166015625 49.061046600341796875 49.315708160400390625 49.451473236083984375 49.5862274169921875 49.71997833251953125 49.839031219482421875 49.571949005126953125 49.3008575439453125 49.02562713623046875 48.74613189697265625 48.743709564208984375 49.023242950439453125 49.2985076904296875 49.569637298583984375 49.836750030517578125 50.09996795654296875 50.35939788818359375 50.61515045166015625 50.867328643798828125 52.88738250732421875 56.711383819580078125 59.8648223876953125 62.548160552978515625 64.88353729248046875 65.14614105224609375 65.14614105224609375 -9999 
91.0893707275390625 90.74913787841796875 89.92707061767578125 89.0657501220703125 88.161224365234375 87.2089385986328125 86.18093109130859375 85.08776092529296875 83.924041748046875 82.68004608154296875 81.33934783935546875 79.8818511962890625 78.2961578369140625 76.557525634765625 74.63326263427734375 74.24520111083984375 74.24520111083984375 74.24520111083984375 74.24520111083984375 73.67696380615234375 71.42000579833984375 68.8397369384765625 65.82778167724609375 62.21007537841796875 59.443897247314453125 56.893413543701171875 53.921985626220703125 50.36266326904296875 46.755096435546875 46.11478424072265625 45.450901031494140625 44.76165008544921875 44.045013427734375 43.298725128173828125 42.520221710205078125 41.70659637451171875 40.8545379638671875 39.96022796630859375 39.019252777099609375 38.02648162841796875 36.9758758544921875 35.8602752685546875 34.671100616455078125 33.397968292236328125 32.028110504150390625 30.545614242553710938 28.939519882202148438 27.42425537109375 25.769937515258789062 23.948444366455078125 21.922147750854492188 20.4438018798828125 19.672803878784179688 18.867372512817382812 18.0242919921875 17.13986968994140625 17.957799911499023438 18.803922653198242188 19.612127304077148438 20.385669708251953125 21.904209136962890625 24.240777969360351562 26.30910491943359375 28.164484024047851562 29.846698760986328125 31.385334014892578125 32.802982330322265625 34.11728668212890625 35.342304229736328125 36.210735321044921875 36.522945404052734375 36.829837799072265625 37.13159942626953125 37.428394317626953125 37.485332489013671875 37.485332489013671875 37.485332489013671875 37.485332489013671875 37.586444854736328125 37.959560394287109375 38.325115203857421875 38.683406829833984375 39.03472137451171875 39.47531890869140625 39.94019317626953125 40.3933868408203125 40.83547210693359375 41.3477325439453125 42.177333831787109375 42.970455169677734375 43.73016357421875 44.45916748046875 44.997844696044921875 45.43595123291015625 45.863666534423828125 46.281475067138671875 46.70546722412109375 47.24027252197265625 47.759674072265625 48.2645416259765625 48.7556610107421875 49.00566864013671875 49.08296966552734375 49.159946441650390625 49.236591339111328125 49.3008575439453125 49.02562713623046875 48.74613189697265625 48.462238311767578125 48.17380523681640625 48.171306610107421875 48.459781646728515625 48.743709564208984375 49.023242950439453125 49.2985076904296875 49.569637298583984375 49.836750030517578125 50.09996795654296875 50.35939788818359375 53.220157623291015625 58.416316986083984375 62.445587158203125 65.73712921142578125 68.51973724365234375 68.82846832275390625 68.82846832275390625 -9999 
91.03542327880859375 90.69675445556640625 89.87859344482421875 89.02154541015625 88.12174224853515625 87.17469024658203125 86.145538330078125 85.0501556396484375 83.88393402099609375 82.63706207275390625 81.2966156005859375 79.84659576416015625 78.269744873046875 76.54172515869140625 74.63047027587890625 74.24520111083984375 74.24520111083984375 74.24520111083984375 74.24520111083984375 73.67696380615234375 71.42000579833984375 68.8397369384765625 65.82778167724609375 62.21007537841796875 59.469028472900390625 56.961757659912109375 54.04885101318359375 50.57324981689453125 47.066928863525390625 46.43778228759765625 45.78589630126953125 45.10956573486328125 44.406890869140625 43.67572784423828125 42.913669586181640625 42.1179962158203125 41.2855987548828125 40.41292572021484375 39.495876312255859375 38.529697418212890625 37.50882720947265625 36.42669677734375 35.275485992431640625 34.045764923095703125 32.726039886474609375 31.302087783813476562 29.75788116455078125 28.1189117431640625 26.316011428833007812 24.312704086303710938 22.058795928955078125 20.739572525024414062 20.582693099975585938 20.424436569213867188 20.264781951904296875 20.10369873046875 20.252445220947265625 20.412210464477539062 20.5705718994140625 20.727556228637695312 21.904209136962890625 24.240777969360351562 26.30910491943359375 28.164484024047851562 29.846698760986328125 31.385334014892578125 32.802982330322265625 34.11728668212890625 35.342304229736328125 36.12471771240234375 36.191162109375 36.257366180419921875 36.32332611083984375 36.38904571533203125 36.401752471923828125 36.401752471923828125 36.401752471923828125 36.401752471923828125 36.541782379150390625 37.055938720703125 37.555843353271484375 38.042266845703125 38.515918731689453125 38.99814605712890625 39.47531890869140625 39.94019317626953125 40.3933868408203125 40.91817474365234375 41.767303466796875 42.578250885009765625 43.35430908203125 44.098346710205078125 44.5969696044921875 44.96844482421875 45.332424163818359375 45.689205169677734375 46.07143402099609375 46.694744110107421875 47.297237396240234375 47.880252838134765625 48.44501495361328125 48.690204620361328125 48.706783294677734375 48.723346710205078125 48.73989105224609375 48.74613189697265625 48.462238311767578125 48.17380523681640625 47.88068389892578125 47.58272552490234375 47.580142974853515625 47.878147125244140625 48.171306610107421875 48.459781646728515625 48.743709564208984375 49.023242950439453125 49.2985076904296875 49.569637298583984375 49.836750030517578125 53.546905517578125 59.973934173583984375 64.70291900634765625 68.44612884521484375 71.54449462890625 71.885040283203125 71.885040283203125 -9999 
90.8015289306640625 90.47835540771484375 89.69878387451171875 88.88399505615234375 88.03066253662109375 87.13494110107421875 86.110076904296875 85.01247406005859375 83.84372711181640625 82.5939788818359375 81.2537841796875 79.8112640380859375 78.24327850341796875 76.52591705322265625 74.62767791748046875 74.24520111083984375 74.24520111083984375 74.24520111083984375 74.24520111083984375 73.6800689697265625 71.4364776611328125 68.87366485595703125 65.88547515869140625 62.30204010009765625 59.58934783935546875 57.1103515625 54.235565185546875 50.814136505126953125 47.3734588623046875 46.755096435546875 46.11478424072265625 45.450901031494140625 44.76165008544921875 44.045013427734375 43.298725128173828125 42.520221710205078125 41.70659637451171875 40.8545379638671875 39.96022796630859375 39.019252777099609375 38.02648162841796875 36.9758758544921875 35.8602752685546875 34.671100616455078125 33.397968292236328125 32.028110504150390625 30.550508499145507812 29.0716400146484375 27.460613250732421875 25.691471099853515625 23.729764938354492188 22.663455963134765625 22.663455963134765625 22.663455963134765625 22.663455963134765625 22.663455963134765625 22.663455963134765625 22.663455963134765625 22.663455963134765625 22.663455963134765625 23.569696426391601562 25.547964096069335938 27.330560684204101562 28.952733993530273438 30.440992355346679688 31.815765380859375 33.093143463134765625 34.286014556884765625 35.404876708984375 36.070037841796875 35.977878570556640625 35.88524627685546875 35.792133331298828125 35.69853973388671875 35.68035125732421875 35.68035125732421875 35.68035125732421875 35.68035125732421875 35.860012054443359375 36.516345977783203125 37.14963531494140625 37.761440277099609375 38.353179931640625 38.811412811279296875 39.21643829345703125 39.612567901611328125 40.000186920166015625 40.4644622802734375 41.265918731689453125 42.0332794189453125 42.769321441650390625 43.47650146484375 43.996250152587890625 44.417064666748046875 44.828281402587890625 45.230335235595703125 45.64902496337890625 46.253589630126953125 46.838550567626953125 47.4051361083984375 47.954463958740234375 48.183841705322265625 48.183841705322265625 48.183841705322265625 48.183841705322265625 48.17380523681640625 47.88068389892578125 47.58272552490234375 47.279758453369140625 46.97161865234375 46.968944549560546875 47.277133941650390625 47.580142974853515625 47.878147125244140625 48.171306610107421875 48.459781646728515625 48.743709564208984375 49.023242950439453125 49.2985076904296875 52.744678497314453125 58.795619964599609375 63.3186798095703125 66.93193817138671875 69.940826416015625 70.2724151611328125 70.2724151611328125 -9999 
90.49794769287109375 90.1959075927734375 89.4687957763671875 88.71114349365234375 87.9202728271484375 87.0931243896484375 86.07454681396484375 84.97470855712890625 83.803436279296875 82.5507965087890625 81.21085357666015625 79.77587127685546875 78.2167816162109375 76.5100860595703125 74.62488555908203125 74.24520111083984375 74.24520111083984375 74.24520111083984375 74.24520111083984375 73.6843109130859375 71.4589080810546875 68.91980743408203125 65.9638214111328125 62.42665863037109375 59.74310302734375 57.286651611328125 54.44214630126953125 51.063568115234375 47.674869537353515625 47.066928863525390625 46.43778228759765625 45.78589630126953125 45.10956573486328125 44.406890869140625 43.67572784423828125 42.913669586181640625 42.1179962158203125 41.2855987548828125 40.41292572021484375 39.495876312255859375 38.529697418212890625 37.50882720947265625 36.42669677734375 35.275485992431640625 34.045764923095703125 32.726039886474609375 31.313175201416015625 30.07357025146484375 28.742458343505859375 27.305234909057617188 25.743513107299804688 24.909471511840820312 24.909471511840820312 24.909471511840820312 24.909471511840820312 24.909471511840820312 24.909471511840820312 24.909471511840820312 24.909471511840820312 24.909471511840820312 25.6176300048828125 27.189825057983398438 28.635911941528320312 29.974626541137695312 31.22081756591796875 32.38645172119140625 33.481311798095703125 34.513507843017578125 35.4898223876953125 36.02674102783203125 35.807659149169921875 35.585887908935546875 35.36135101318359375 35.1339874267578125 35.08960723876953125 35.08960723876953125 35.08960723876953125 35.08960723876953125 35.31020355224609375 36.111927032470703125 36.8795318603515625 37.6157989501953125 38.323192596435546875 38.73281097412109375 39.033573150634765625 39.329402923583984375 39.620456695556640625 39.99394989013671875 40.719532012939453125 41.41705322265625 42.088603973388671875 42.736049652099609375 43.302608489990234375 43.821445465087890625 44.325771331787109375 44.81638336181640625 45.30303192138671875 45.84637451171875 46.373828887939453125 46.886295318603515625 47.38460540771484375 47.5930938720703125 47.5930938720703125 47.5930938720703125 47.5930938720703125 47.58272552490234375 47.279758453369140625 46.97161865234375 46.65811920166015625 46.339076995849609375 46.33631134033203125 46.65540313720703125 46.968944549560546875 47.277133941650390625 47.580142974853515625 47.878147125244140625 48.171306610107421875 48.459781646728515625 48.743709564208984375 51.458698272705078125 56.405628204345703125 60.283782958984375 63.47391510009765625 66.18375396728515625 66.4850616455078125 66.4850616455078125 -9999 
90.18917083740234375 89.90897369384765625 89.23584747314453125 88.53662109375 87.8092041015625 87.05120849609375 86.03894805908203125 84.93686676025390625 83.76305389404296875 82.50750732421875 81.167816162109375 79.7404022216796875 78.19024658203125 76.4942474365234375 74.6220855712890625 74.24520111083984375 74.24520111083984375 74.24520111083984375 74.24520111083984375 73.68854522705078125 71.48130035400390625 68.96582794189453125 66.04183197021484375 62.550418853759765625 59.89556121826171875 57.461238861083984375 54.646389007568359375 51.30959320068359375 47.971324920654296875 47.3734588623046875 46.755096435546875 46.11478424072265625 45.450901031494140625 44.76165008544921875 44.045013427734375 43.298725128173828125 42.520221710205078125 41.70659637451171875 40.8545379638671875 39.96022796630859375 39.019252777099609375 38.02648162841796875 36.9758758544921875 35.8602752685546875 34.671100616455078125 33.397968292236328125 32.04489898681640625 31.022769927978515625 29.9392242431640625 28.786411285400390625 27.55486297607421875 26.906541824340820312 26.906541824340820312 26.906541824340820312 26.906541824340820312 26.906541824340820312 26.906541824340820312 26.906541824340820312 26.906541824340820312 26.906541824340820312 27.456584930419921875 28.694635391235351562 29.853143692016601562 30.94171905517578125 31.968324661254882812 32.93963623046875 33.861309051513671875 34.738170623779296875 35.574375152587890625 35.983341217041015625 35.635822296142578125 35.281475067138671875 34.9200286865234375 34.551189422607421875 34.478855133056640625 34.478855133056640625 34.478855133056640625 34.478855133056640625 34.74311065673828125 35.698238372802734375 36.60532379150390625 37.46897125244140625 38.29315185546875 38.653865814208984375 38.848834991455078125 39.041717529296875 39.2325592041015625 39.510833740234375 40.15607452392578125 40.77902984619140625 41.381191253662109375 41.963897705078125 42.581226348876953125 43.205486297607421875 43.80886077880859375 44.39270782470703125 44.9502716064453125 45.429752349853515625 45.896816253662109375 46.352092742919921875 46.7961578369140625 46.982341766357421875 46.982341766357421875 46.982341766357421875 46.982341766357421875 46.97161865234375 46.65811920166015625 46.339076995849609375 46.014293670654296875 45.683551788330078125 45.680683135986328125 46.011474609375 46.33631134033203125 46.65540313720703125 46.968944549560546875 47.277133941650390625 47.580142974853515625 47.878147125244140625 48.171306610107421875 50.07395172119140625 53.64990997314453125 56.63291168212890625 59.1919097900390625 61.432575225830078125 61.685245513916015625 61.685245513916015625 -9999 
89.87502288818359375 89.61739349365234375 88.99983978271484375 88.3603973388671875 87.69744873046875 87.0092010498046875 86.00327301025390625 84.89894866943359375 83.7225799560546875 82.464111328125 81.1246795654296875 79.704864501953125 78.16367340087890625 76.4783935546875 74.619293212890625 74.24520111083984375 74.24520111083984375 74.24520111083984375 74.24520111083984375 73.692779541015625 71.5036773681640625 69.0117340087890625 66.11951446533203125 62.673336029052734375 60.0467376708984375 57.6341552734375 54.848346710205078125 51.552310943603515625 48.2629852294921875 47.674869537353515625 47.066928863525390625 46.43778228759765625 45.78589630126953125 45.10956573486328125 44.406890869140625 43.67572784423828125 42.913669586181640625 42.1179962158203125 41.2855987548828125 40.41292572021484375 39.495876312255859375 38.529697418212890625 37.50882720947265625 36.42669677734375 35.275485992431640625 34.045764923095703125 32.748096466064453125 31.924509048461914062 31.061510086059570312 30.155139923095703125 29.200809478759765625 28.7043914794921875 28.7043914794921875 28.7043914794921875 28.7043914794921875 28.7043914794921875 28.7043914794921875 28.7043914794921875 28.7043914794921875 28.7043914794921875 29.1252899169921875 30.08351898193359375 30.993406295776367188 31.859592437744140625 32.6860809326171875 33.476360321044921875 34.233463287353515625 34.9600677490234375 35.65853118896484375 35.939838409423828125 35.46233367919921875 34.97183990478515625 34.4676361083984375 33.94893646240234375 33.846698760986328125 33.846698760986328125 33.846698760986328125 33.846698760986328125 34.1576080322265625 35.27483367919921875 36.32688140869140625 37.3209381103515625 38.263065338134765625 38.574573516845703125 38.662181854248046875 38.749370574951171875 38.836139678955078125 39.0144195556640625 39.5744476318359375 40.117610931396484375 40.6448974609375 41.157207489013671875 41.8297882080078125 42.5677490234375 43.276702880859375 43.95883941650390625 44.59047698974609375 45.003276824951171875 45.4068450927734375 45.80158233642578125 46.187862396240234375 46.350189208984375 46.350189208984375 46.350189208984375 46.350189208984375 46.339076995849609375 46.014293670654296875 45.683551788330078125 45.346630096435546875 45.003299713134765625 45.000324249267578125 45.34371185302734375 45.680683135986328125 46.011474609375 46.33631134033203125 46.65540313720703125 46.968944549560546875 47.277133941650390625 47.580142974853515625 48.57399749755859375 50.395954132080078125 52.05065155029296875 53.56623077392578125 54.96428680419921875 55.126010894775390625 55.126010894775390625 -9999 
89.45794677734375 89.22130584716796875 88.65518951416015625 88.0707244873046875 87.4666900634765625 86.84172821044921875 85.87035369873046875 84.80023193359375 83.66259765625 82.44837188720703125 81.1445770263671875 79.7353515625 78.20664215087890625 76.53627777099609375 74.6953125 74.32509613037109375 74.32509613037109375 74.32509613037109375 74.32509613037109375 73.7785491943359375 71.61455535888671875 69.1551055908203125 66.30658721923828125 62.922332763671875 60.374057769775390625 58.058391571044921875 55.401058197021484375 52.283496856689453125 49.173694610595703125 48.45601654052734375 47.7086029052734375 46.92887115478515625 46.113910675048828125 45.394474029541015625 44.718135833740234375 44.015453338623046875 43.28427886962890625 42.520221710205078125 41.70659637451171875 40.8545379638671875 39.96022796630859375 39.019252777099609375 38.039134979248046875 37.012462615966796875 35.9238128662109375 34.765216827392578125 33.551616668701171875 32.885494232177734375 32.193828582763671875 31.474576950073242188 30.725454330444335938 30.339183807373046875 30.339183807373046875 30.339183807373046875 30.339183807373046875 30.339183807373046875 30.339183807373046875 30.339183807373046875 30.339183807373046875 30.339183807373046875 30.652614593505859375 31.37306976318359375 32.065853118896484375 32.73300933837890625 33.376373291015625 33.9975738525390625 34.598094940185546875 35.179264068603515625 35.742298126220703125 35.896228790283203125 35.2871551513671875 34.656795501708984375 34.00360870361328125 33.32587432861328125 33.19158172607421875 33.19158172607421875 33.19158172607421875 33.19158172607421875 33.537448883056640625 34.77490997314453125 35.932903289794921875 37.02101898193359375 38.04721832275390625 38.315914154052734375 38.315914154052734375 38.315914154052734375 38.315914154052734375 38.415050506591796875 38.92852783203125 39.42778778076171875 39.913604736328125 40.38668060302734375 41.10553741455078125 41.928462982177734375 42.715480804443359375 43.469593048095703125 44.15447998046875 44.514190673828125 44.8668670654296875 45.212779998779296875 45.55218505859375 45.695072174072265625 45.695072174072265625 45.695072174072265625 45.695072174072265625 45.683551788330078125 45.346630096435546875 45.003299713134765625 44.6533050537109375 44.296390533447265625 44.293292999267578125 44.650272369384765625 45.000324249267578125 45.34371185302734375 45.680683135986328125 46.011474609375 46.33631134033203125 46.65540313720703125 46.968944549560546875 47.148929595947265625 47.148929595947265625 47.148929595947265625 47.148929595947265625 47.148929595947265625 47.148929595947265625 47.148929595947265625 -9999 
88.61292266845703125 88.38843536376953125 87.852020263671875 87.29915618896484375 86.72881317138671875 86.1398468017578125 85.32588958740234375 84.44632720947265625 83.52166748046875 82.54703521728515625 81.422882080078125 80.0360870361328125 78.53372955322265625 76.8947906494140625 75.0919189453125 74.72983551025390625 74.72983551025390625 74.72983551025390625 74.72983551025390625 74.1956024169921875 72.084075927734375 69.69219970703125 66.9339752197265625 63.676525115966796875 61.3986358642578125 59.46035003662109375 57.2884368896484375 54.818759918212890625 52.307704925537109375 51.00843048095703125 49.608257293701171875 48.090190887451171875 46.432529449462890625 45.4434051513671875 44.846134185791015625 44.228412628173828125 43.58878326416015625 42.913669586181640625 42.1179962158203125 41.2855987548828125 40.41292572021484375 39.495876312255859375 38.605045318603515625 37.725658416748046875 36.8011932373046875 35.826778411865234375 34.814319610595703125 34.1940155029296875 33.551616668701171875 32.885494232177734375 32.193828582763671875 31.838054656982421875 31.838054656982421875 31.838054656982421875 31.838054656982421875 31.838054656982421875 31.838054656982421875 31.838054656982421875 31.838054656982421875 31.838054656982421875 32.060657501220703125 32.5765533447265625 33.07810211181640625 33.5660858154296875 34.041217803955078125 34.504150390625 34.955501556396484375 35.39583587646484375 35.82567596435546875 35.85251617431640625 35.110263824462890625 34.336151123046875 33.527324676513671875 32.680522918701171875 32.511775970458984375 32.511775970458984375 32.511775970458984375 32.511775970458984375 32.830730438232421875 33.9757232666015625 35.052356719970703125 36.068332672119140625 37.030124664306640625 37.2825164794921875 37.2825164794921875 37.2825164794921875 37.2825164794921875 37.409576416015625 38.0645904541015625 38.696651458740234375 39.307315826416015625 39.897979736328125 40.60677337646484375 41.35901641845703125 42.081142425537109375 42.7754669189453125 43.412799835205078125 43.78745269775390625 44.15447998046875 44.514190673828125 44.8668670654296875 45.015262603759765625 45.015262603759765625 45.015262603759765625 45.015262603759765625 45.003299713134765625 44.6533050537109375 44.296390533447265625 43.9322662353515625 43.560638427734375 43.557415008544921875 43.929103851318359375 44.293292999267578125 44.650272369384765625 45.000324249267578125 45.34371185302734375 45.680683135986328125 46.011474609375 46.33631134033203125 46.5226898193359375 46.5226898193359375 46.5226898193359375 46.5226898193359375 46.5226898193359375 46.5226898193359375 46.5226898193359375 -9999 
87.7263641357421875 87.5152435302734375 87.01141357421875 86.49311065673828125 85.95946502685546875 85.40955352783203125 84.76448822021484375 84.0853424072265625 83.3796234130859375 82.64516448974609375 81.69696044921875 80.33188629150390625 78.8549957275390625 77.24631500244140625 75.48000335693359375 75.125701904296875 75.125701904296875 75.125701904296875 75.125701904296875 74.60323333740234375 72.54168701171875 70.21376800537109375 67.540283203125 64.40044403076171875 62.368137359619140625 60.761165618896484375 58.99691009521484375 57.0412139892578125 54.97696685791015625 53.244045257568359375 51.326786041259765625 49.181243896484375 46.745616912841796875 45.4922027587890625 44.973232269287109375 44.4388885498046875 43.8882293701171875 43.298725128173828125 42.520221710205078125 41.70659637451171875 40.8545379638671875 39.96022796630859375 39.153743743896484375 38.411724090576171875 37.63787078857421875 36.82932281494140625 35.994388580322265625 35.41400146484375 34.814319610595703125 34.1940155029296875 33.551616668701171875 33.2218780517578125 33.2218780517578125 33.2218780517578125 33.2218780517578125 33.2218780517578125 33.2218780517578125 33.2218780517578125 33.2218780517578125 33.2218780517578125 33.366703033447265625 33.704738616943359375 34.036556243896484375 34.3623809814453125 34.68242645263671875 34.996891021728515625 35.305965423583984375 35.609832763671875 35.90866851806640625 35.80869293212890625 34.93161773681640625 34.00970458984375 33.038127899169921875 32.011226654052734375 31.805341720581054688 31.805341720581054688 31.805341720581054688 31.805341720581054688 32.09519195556640625 33.139484405517578125 34.12660980224609375 35.06250762939453125 35.952239990234375 36.18630218505859375 36.18630218505859375 36.18630218505859375 36.18630218505859375 36.34473419189453125 37.15718841552734375 37.93462371826171875 38.679935455322265625 39.39566802978515625 40.093830108642578125 40.771007537841796875 41.423679351806640625 42.053562164306640625 42.639312744140625 43.030200958251953125 43.412799835205078125 43.78745269775390625 44.15447998046875 44.30883026123046875 44.30883026123046875 44.30883026123046875 44.30883026123046875 44.296390533447265625 43.9322662353515625 43.560638427734375 43.1811981201171875 42.79360198974609375 42.790233612060546875 43.1779022216796875 43.557415008544921875 43.929103851318359375 44.293292999267578125 44.650272369384765625 45.000324249267578125 45.34371185302734375 45.680683135986328125 45.873920440673828125 45.873920440673828125 45.873920440673828125 45.873920440673828125 45.873920440673828125 45.873920440673828125 45.873920440673828125 -9999 
86.79396820068359375 86.597625732421875 86.12972259521484375 85.64935302734375 85.1558380126953125 84.64844512939453125 84.18505096435546875 83.71697998046875 83.2364501953125 82.74275970458984375 81.9669342041015625 80.62291717529296875 79.1706390380859375 77.59111785888671875 75.8599090576171875 75.5130615234375 75.5130615234375 75.5130615234375 75.5130615234375 75.00185394287109375 72.98797607421875 70.720672607421875 68.12686920166015625 65.09642791748046875 63.288173675537109375 61.97444915771484375 60.5574798583984375 59.019641876220703125 57.301685333251953125 55.2328948974609375 52.8957366943359375 50.210052490234375 47.053363800048828125 45.54087066650390625 45.099437713623046875 44.64693450927734375 44.182788848876953125 43.67572784423828125 42.913669586181640625 42.1179962158203125 41.2855987548828125 40.41292572021484375 39.68624114990234375 39.072650909423828125 38.4374542236328125 37.7790679931640625 37.1019744873046875 36.556682586669921875 35.994388580322265625 35.41400146484375 34.814319610595703125 34.5070648193359375 34.5070648193359375 34.5070648193359375 34.5070648193359375 34.5070648193359375 34.5070648193359375 34.5070648193359375 34.5070648193359375 34.5070648193359375 34.58454132080078125 34.76650238037109375 34.946643829345703125 35.12500762939453125 35.3016204833984375 35.47652435302734375 35.649749755859375 35.82132720947265625 35.991283416748046875 35.764766693115234375 34.751186370849609375 33.677242279052734375 32.535289764404296875 31.316133499145507812 31.070110321044921875 31.070110321044921875 31.070110321044921875 31.070110321044921875 31.328382492065429688 32.26258087158203125 33.1507720947265625 33.99727630615234375 34.805828094482421875 35.019138336181640625 35.019138336181640625 35.019138336181640625 35.019138336181640625 35.21306610107421875 36.20171356201171875 37.138980865478515625 38.02994537353515625 38.87896728515625 39.5658721923828125 40.163181304931640625 40.741344451904296875 41.30155181884765625 41.831165313720703125 42.239765167236328125 42.639312744140625 43.030200958251953125 43.412799835205078125 43.573596954345703125 43.573596954345703125 43.573596954345703125 43.573596954345703125 43.560638427734375 43.1811981201171875 42.79360198974609375 42.397495269775390625 41.99249267578125 41.98897552490234375 42.39405059814453125 42.790233612060546875 43.1779022216796875 43.557415008544921875 43.929103851318359375 44.293292999267578125 44.650272369384765625 45.000324249267578125 45.200946807861328125 45.200946807861328125 45.200946807861328125 45.200946807861328125 45.200946807861328125 45.200946807861328125 45.200946807861328125 -9999 
85.81073760986328125 85.63082122802734375 85.20270538330078125 84.76418304443359375 84.314727783203125 83.853790283203125 83.5863800048828125 83.34095001220703125 83.092132568359375 82.8398284912109375 82.23293304443359375 80.90932464599609375 79.48085784912109375 77.9294586181640625 76.2319793701171875 75.89228057861328125 75.89228057861328125 75.89228057861328125 75.89228057861328125 75.39185333251953125 73.42348480224609375 71.2137298583984375 68.694976806640625 65.7665557861328125 64.1635589599609375 63.111248016357421875 61.993724822998046875 60.8023681640625 59.360721588134765625 57.024078369140625 54.339076995849609375 51.1833343505859375 47.355945587158203125 45.589405059814453125 45.22476959228515625 44.852611541748046875 44.472614288330078125 44.045013427734375 43.298725128173828125 42.520221710205078125 41.70659637451171875 40.8545379638671875 40.20346832275390625 39.710216522216796875 39.203094482421875 38.681301116943359375 38.145473480224609375 37.631267547607421875 37.1019744873046875 36.556682586669921875 35.994388580322265625 35.706745147705078125 35.706745147705078125 35.706745147705078125 35.706745147705078125 35.706745147705078125 35.706745147705078125 35.706745147705078125 35.706745147705078125 35.706745147705078125 35.72533416748046875 35.76922607421875 35.81301116943359375 35.856693267822265625 35.9002685546875 35.943737030029296875 35.987102508544921875 36.030364990234375 36.073520660400390625 35.720729827880859375 34.568927764892578125 33.338535308837890625 32.018035888671875 30.593179702758789062 30.303632736206054688 30.303632736206054688 30.303632736206054688 30.303632736206054688 30.527523040771484375 31.3408660888671875 32.119110107421875 32.86516571044921875 33.581584930419921875 33.7711944580078125 33.7711944580078125 33.7711944580078125 33.7711944580078125 34.00562286376953125 35.192783355712890625 36.30661773681640625 37.355655670166015625 38.347026824951171875 39.021991729736328125 39.53415679931640625 40.032184600830078125 40.516826629638671875 40.985107421875 41.413097381591796875 41.831165313720703125 42.239765167236328125 42.639312744140625 42.80712127685546875 42.80712127685546875 42.80712127685546875 42.80712127685546875 42.79360198974609375 42.397495269775390625 41.99249267578125 41.578189849853515625 41.154144287109375 41.15045928955078125 41.574588775634765625 41.98897552490234375 42.39405059814453125 42.790233612060546875 43.1779022216796875 43.557415008544921875 43.929103851318359375 44.293292999267578125 44.501888275146484375 44.501888275146484375 44.501888275146484375 44.501888275146484375 44.501888275146484375 44.501888275146484375 44.501888275146484375 -9999 
84.795867919921875 84.61309814453125 84.17807769775390625 83.73230743408203125 83.27524566650390625 82.80629730224609375 82.60066986083984375 82.4273681640625 82.25238037109375 82.07567596435546875 81.5587005615234375 80.3599700927734375 79.07587432861328125 77.69332122802734375 76.19594573974609375 75.8983154296875 75.8983154296875 75.8983154296875 75.8983154296875 75.4132232666015625 73.50931549072265625 71.38048553466796875 68.9663848876953125 66.1785430908203125 64.6733856201171875 63.698780059814453125 62.668498992919921875 61.5757904052734375 60.21483612060546875 57.82617950439453125 55.072235107421875 51.8207550048828125 47.851436614990234375 46.009540557861328125 45.63039398193359375 45.243106842041015625 44.847324371337890625 44.412937164306640625 43.735843658447265625 43.03234100341796875 42.300281524658203125 41.53725433349609375 40.956310272216796875 40.5172119140625 40.067157745361328125 39.605587005615234375 39.131893157958984375 38.64542388916015625 38.145473480224609375 37.631267547607421875 37.1019744873046875 36.831592559814453125 36.831592559814453125 36.831592559814453125 36.831592559814453125 36.831592559814453125 36.831592559814453125 36.831592559814453125 36.831592559814453125 36.831592559814453125 36.798252105712890625 36.719135284423828125 36.63967132568359375 36.55985260009765625 36.47968292236328125 36.32767486572265625 36.164882659912109375 36.000606536865234375 35.8348236083984375 35.320796966552734375 34.094272613525390625 32.778224945068359375 31.358551025390625 29.817529678344726562 29.503139495849609375 29.503139495849609375 29.503139495849609375 29.503139495849609375 29.689449310302734375 30.369504928588867188 31.024850845336914062 31.657220840454101562 32.268169403076171875 32.5035858154296875 32.603473663330078125 32.702808380126953125 32.801601409912109375 33.137081146240234375 34.4281158447265625 35.632884979248046875 36.76220703125 37.824970245361328125 38.46120452880859375 38.882404327392578125 39.293994903564453125 39.69640350341796875 40.097408294677734375 40.546718597412109375 40.985107421875 41.413097381591796875 41.831165313720703125 42.006626129150390625 42.006626129150390625 42.006626129150390625 42.006626129150390625 41.99249267578125 41.578189849853515625 41.154144287109375 40.7198944091796875 40.274932861328125 40.271060943603515625 40.71611785888671875 41.15045928955078125 41.574588775634765625 41.98897552490234375 42.39405059814453125 42.790233612060546875 43.1779022216796875 43.557415008544921875 43.7746429443359375 43.7746429443359375 43.7746429443359375 43.7746429443359375 43.7746429443359375 43.7746429443359375 43.7746429443359375 -9999 
83.7344207763671875 83.53665924072265625 83.0652923583984375 82.581268310546875 82.0839080810546875 81.57244110107421875 81.3510284423828125 81.16522979736328125 80.9774932861328125 80.78778076171875 80.32642364501953125 79.3268890380859375 78.268707275390625 77.144561767578125 75.94567108154296875 75.70977020263671875 75.70977020263671875 75.70977020263671875 75.70977020263671875 75.2428436279296875 73.41497039794921875 71.38077545166015625 69.08768463134765625 66.46004486083984375 65.00103759765625 64.017852783203125 62.977977752685546875 61.87447357177734375 60.5106964111328125 58.163539886474609375 55.464641571044921875 52.289669036865234375 48.433917999267578125 46.607784271240234375 46.169689178466796875 45.7206878662109375 45.260223388671875 44.77661895751953125 44.193340301513671875 43.590572357177734375 42.9669647216796875 42.321025848388671875 41.80368804931640625 41.384975433349609375 40.956310272216796875 40.5172119140625 40.067157745361328125 39.605587005615234375 39.131893157958984375 38.64542388916015625 38.145473480224609375 37.8903961181640625 37.8903961181640625 37.8903961181640625 37.8903961181640625 37.8903961181640625 37.8903961181640625 37.8903961181640625 37.8903961181640625 37.8903961181640625 37.81092071533203125 37.62151336669921875 37.4300994873046875 37.236629486083984375 37.041065216064453125 36.666774749755859375 36.26073455810546875 35.845340728759765625 35.42015838623046875 34.71795654296875 33.448246002197265625 32.0823516845703125 30.604490280151367188 28.994663238525390625 28.665464401245117188 28.665464401245117188 28.665464401245117188 28.665464401245117188 28.810533523559570312 29.342845916748046875 29.859897613525390625 30.362543106079101562 30.851558685302734375 31.181365966796875 31.451433181762695312 31.7175140380859375 31.979730606079101562 32.455181121826171875 33.794147491455078125 35.040557861328125 36.20638275146484375 37.30141448974609375 37.882419586181640625 38.206218719482421875 38.5243072509765625 38.836883544921875 39.16374969482421875 39.63661956787109375 40.097408294677734375 40.546718597412109375 40.985107421875 41.168956756591796875 41.168956756591796875 41.168956756591796875 41.168956756591796875 41.154144287109375 40.7198944091796875 40.274932861328125 39.818714141845703125 39.350658416748046875 39.346584320068359375 39.8147430419921875 40.271060943603515625 40.71611785888671875 41.15045928955078125 41.574588775634765625 41.98897552490234375 42.39405059814453125 42.790233612060546875 43.016845703125 43.016845703125 43.016845703125 43.016845703125 43.016845703125 43.016845703125 43.016845703125 -9999 
82.60659027099609375 82.39188385009765625 81.87931060791015625 81.35174560546875 80.80828857421875 80.2479400634765625 80.008331298828125 79.80809783935546875 79.6056060791015625 79.40081787109375 79.00376129150390625 78.2310333251953125 77.4237213134765625 76.578582763671875 75.69188690185546875 75.51923370361328125 75.51923370361328125 75.51923370361328125 75.51923370361328125 75.07083892822265625 73.32012939453125 71.3810577392578125 69.20816802978515625 66.73722076416015625 65.32283782958984375 64.3313751220703125 63.282238006591796875 62.168292999267578125 60.801784515380859375 58.494709014892578125 55.848690032958984375 52.746700286865234375 48.99817657470703125 47.18682098388671875 46.693325042724609375 46.185947418212890625 45.663883209228515625 45.13311004638671875 44.639522552490234375 44.132049560546875 43.60988616943359375 43.072154998779296875 42.613037109375 42.212902069091796875 41.80368804931640625 41.384975433349609375 40.956310272216796875 40.5172119140625 40.067157745361328125 39.605587005615234375 39.131893157958984375 38.89048004150390625 38.89048004150390625 38.89048004150390625 38.89048004150390625 38.89048004150390625 38.89048004150390625 38.89048004150390625 38.89048004150390625 38.89048004150390625 38.769748687744140625 38.48089599609375 38.187343597412109375 37.8889312744140625 37.58550262451171875 36.9996185302734375 36.3560791015625 35.68872833251953125 34.995738983154296875 34.094272613525390625 32.778224945068359375 31.358551025390625 29.817529678344726562 28.1324615478515625 27.786989212036132812 27.786989212036132812 27.786989212036132812 27.786989212036132812 27.886590957641601562 28.254209518432617188 28.6144866943359375 28.967708587646484375 29.314146041870117188 29.754507064819335938 30.220766067504882812 30.6752777099609375 31.118618011474609375 31.746480941772460938 33.137081146240234375 34.4281158447265625 35.632884979248046875 36.76220703125 37.284450531005859375 37.503692626953125 37.720306396484375 37.93434906005859375 38.1791229248046875 38.67815399169921875 39.16374969482421875 39.63661956787109375 40.097408294677734375 40.290477752685546875 40.290477752685546875 40.290477752685546875 40.290477752685546875 40.274932861328125 39.818714141845703125 39.350658416748046875 38.8701324462890625 38.376453399658203125 38.37215423583984375 38.865947723388671875 39.346584320068359375 39.8147430419921875 40.271060943603515625 40.71611785888671875 41.15045928955078125 41.574588775634765625 41.98897552490234375 42.225811004638671875 42.225811004638671875 42.225811004638671875 42.225811004638671875 42.225811004638671875 42.225811004638671875 42.225811004638671875 -9999 
81.40351104736328125 81.1695098876953125 80.60984039306640625 80.03224945068359375 79.435546875 78.8184356689453125 78.5576019287109375 78.340484619140625 78.12073516845703125 77.8982696533203125 77.576385498046875 77.06427764892578125 76.537200927734375 75.9942626953125 75.43447113037109375 75.32665252685546875 75.32665252685546875 75.32665252685546875 75.32665252685546875 74.89717864990234375 73.22478485107421875 71.38134765625 69.327850341796875 67.01019287109375 65.639007568359375 64.63954925537109375 63.581451416015625 62.457401275634765625 61.08824920654296875 58.81990814208984375 56.224735260009765625 53.19243621826171875 49.545318603515625 47.7478485107421875 47.202190399169921875 46.639507293701171875 46.05870819091796875 45.482692718505859375 45.0749359130859375 44.657745361328125 44.23067474365234375 43.79325103759765625 43.387630462646484375 43.004489898681640625 42.613037109375 42.212902069091796875 41.80368804931640625 41.384975433349609375 40.956310272216796875 40.5172119140625 40.067157745361328125 39.83802032470703125 39.83802032470703125 39.83802032470703125 39.83802032470703125 39.83802032470703125 39.83802032470703125 39.83802032470703125 39.83802032470703125 39.83802032470703125 39.68017578125 39.301189422607421875 38.914073944091796875 38.518466949462890625 38.113986968994140625 37.326435089111328125 36.450923919677734375 35.530742645263671875 34.56108856201171875 33.448246002197265625 32.0823516845703125 30.604490280151367188 28.994663238525390625 27.22696685791015625 26.86353302001953125 26.86353302001953125 26.86353302001953125 26.86353302001953125 26.91275787353515625 27.095632553100585938 27.276670455932617188 27.455911636352539062 27.633388519287109375 28.205013275146484375 28.899951934814453125 29.569108963012695312 30.214328765869140625 31.00879669189453125 32.455181121826171875 33.794147491455078125 35.040557861328125 36.20638275146484375 36.665973663330078125 36.77269744873046875 36.87879180908203125 36.9842681884765625 37.13762664794921875 37.665889739990234375 38.1791229248046875 38.67815399169921875 39.16374969482421875 39.3670196533203125 39.3670196533203125 39.3670196533203125 39.3670196533203125 39.350658416748046875 38.8701324462890625 38.376453399658203125 37.868885040283203125 37.346622467041015625 37.342067718505859375 37.86446380615234375 38.37215423583984375 38.865947723388671875 39.346584320068359375 39.8147430419921875 40.271060943603515625 40.71611785888671875 41.15045928955078125 41.398487091064453125 41.398487091064453125 41.398487091064453125 41.398487091064453125 41.398487091064453125 41.398487091064453125 41.398487091064453125 -9999 
80.2011566162109375 79.9379425048828125 79.3066558837890625 78.65247344970703125 77.97367095947265625 77.26831817626953125 76.97855377197265625 76.7399139404296875 76.49806976318359375 76.25293731689453125 76.00555419921875 75.75684356689453125 75.50466156005859375 75.24889373779296875 74.9894561767578125 74.93997955322265625 74.93997955322265625 74.93997955322265625 74.93997955322265625 74.53247833251953125 72.9505157470703125 71.21636962890625 69.2975921630859375 67.1501617431640625 65.81182861328125 64.78176116943359375 63.68929290771484375 62.526378631591796875 61.1320343017578125 58.92337799072265625 56.40605926513671875 53.479579925537109375 49.984615325927734375 48.2388763427734375 47.66539764404296875 47.073089599609375 46.460666656494140625 45.86338043212890625 45.5298309326171875 45.19000244140625 44.843647003173828125 44.490512847900390625 44.1303253173828125 43.762798309326171875 43.387630462646484375 43.004489898681640625 42.613037109375 42.212902069091796875 41.80368804931640625 41.384975433349609375 40.956310272216796875 40.738262176513671875 40.738262176513671875 40.738262176513671875 40.738262176513671875 40.738262176513671875 40.716461181640625 40.693759918212890625 40.671031951904296875 40.648273468017578125 40.442607879638671875 39.978851318359375 39.502857208251953125 39.0139617919921875 38.511444091796875 37.560817718505859375 36.496234893798828125 35.36486053466796875 34.157756805419921875 32.857990264892578125 31.444835662841796875 29.911489486694335938 28.235593795776367188 26.38790130615234375 26.006977081298828125 26.006977081298828125 26.006977081298828125 26.006977081298828125 26.000120162963867188 25.974454879760742188 25.94875335693359375 25.923013687133789062 25.897237777709960938 26.604555130004882812 27.541027069091796875 28.431268692016601562 29.279636383056640625 30.235807418823242188 31.724277496337890625 33.099231719970703125 34.376766204833984375 35.5697784423828125 35.968250274658203125 35.968250274658203125 35.968250274658203125 35.968250274658203125 36.03229522705078125 36.593425750732421875 37.13762664794921875 37.665889739990234375 38.1791229248046875 38.393726348876953125 38.393726348876953125 38.393726348876953125 38.393726348876953125 38.376453399658203125 37.868885040283203125 37.346622467041015625 36.80878448486328125 36.254413604736328125 36.24958038330078125 36.8040924072265625 37.342067718505859375 37.86446380615234375 38.37215423583984375 38.865947723388671875 39.346584320068359375 39.8147430419921875 40.271060943603515625 40.5409698486328125 40.563861846923828125 40.586727142333984375 40.609561920166015625 40.6323699951171875 40.635120391845703125 40.635120391845703125 -9999 
79.60021209716796875 79.2499542236328125 78.40285491943359375 77.51401519775390625 76.5790863037109375 75.59305572509765625 75.2367095947265625 74.95919036865234375 74.67733001708984375 74.3910064697265625 74.11194610595703125 73.85092926025390625 73.586090087890625 73.31729888916015625 73.04444122314453125 72.9923858642578125 72.9923858642578125 72.9923858642578125 72.9923858642578125 72.632415771484375 71.2442169189453125 69.74021148681640625 68.09930419921875 66.29405975341796875 64.9185028076171875 63.672496795654296875 62.333995819091796875 60.888156890869140625 59.275852203369140625 57.3194122314453125 55.124675750732421875 52.625431060791015625 49.723361968994140625 48.32238006591796875 47.88227081298828125 47.43115234375 46.96846771240234375 46.51251983642578125 46.190868377685546875 45.86338043212890625 45.5298309326171875 45.19000244140625 44.843647003173828125 44.490512847900390625 44.1303253173828125 43.762798309326171875 43.387630462646484375 43.004489898681640625 42.613037109375 42.212902069091796875 41.80368804931640625 41.595703125 41.595703125 41.595703125 41.595703125 41.595703125 41.39643096923828125 41.186824798583984375 40.974758148193359375 40.76016998291015625 40.400989532470703125 39.834728240966796875 39.25011444091796875 38.645915985107421875 38.02077484130859375 37.134143829345703125 36.168354034423828125 35.147918701171875 34.066280364990234375 32.857990264892578125 31.444835662841796875 29.911489486694335938 28.235593795776367188 26.38790130615234375 26.006977081298828125 26.006977081298828125 26.006977081298828125 26.006977081298828125 25.941455841064453125 25.6943359375 25.443784713745117188 25.18970489501953125 24.931993484497070312 25.616794586181640625 26.604555130004882812 27.541027069091796875 28.431268692016601562 29.397830963134765625 30.786937713623046875 32.076679229736328125 33.28032684326171875 34.408660888671875 34.78641510009765625 34.78641510009765625 34.78641510009765625 34.78641510009765625 34.854785919189453125 35.45314788818359375 36.03229522705078125 36.593425750732421875 37.13762664794921875 37.36490631103515625 37.36490631103515625 37.36490631103515625 37.36490631103515625 37.346622467041015625 36.80878448486328125 36.254413604736328125 35.682468414306640625 35.091793060302734375 35.08663177490234375 35.6774749755859375 36.24958038330078125 36.8040924072265625 37.342067718505859375 37.86446380615234375 38.37215423583984375 38.865947723388671875 39.346584320068359375 39.71637725830078125 39.943668365478515625 40.1681365966796875 40.38983917236328125 40.608852386474609375 40.635120391845703125 40.635120391845703125 -9999 
78.978546142578125 78.5346832275390625 77.45137786865234375 76.29883575439453125 75.067596435546875 73.746124267578125 73.30850982666015625 72.98322296142578125 72.65196990966796875 72.31452178955078125 71.99597930908203125 71.7195892333984375 71.43890380859375 71.153778076171875 70.86406707763671875 70.80876922607421875 70.80876922607421875 70.80876922607421875 70.80876922607421875 70.50839996337890625 69.3594970703125 68.13240814208984375 66.81571197509765625 65.39528656005859375 63.97863006591796875 62.490528106689453125 60.868534088134765625 59.08615875244140625 57.2065277099609375 55.55878448486328125 53.7452545166015625 51.728816986083984375 49.4582672119140625 48.405498504638671875 48.096569061279296875 47.78224945068359375 47.462360382080078125 47.13910675048828125 46.828533172607421875 46.51251983642578125 46.190868377685546875 45.86338043212890625 45.5298309326171875 45.19000244140625 44.843647003173828125 44.490512847900390625 44.1303253173828125 43.762798309326171875 43.387630462646484375 43.004489898681640625 42.613037109375 42.414226531982421875 42.414226531982421875 42.414226531982421875 42.414226531982421875 42.414226531982421875 42.05169677734375 41.666774749755859375 41.27346038818359375 40.87137603759765625 40.35927581787109375 39.68944549560546875 38.993778228759765625 38.27020263671875 37.516384124755859375 36.697132110595703125 35.83440399169921875 34.92833709716796875 33.974338531494140625 32.857990264892578125 31.444835662841796875 29.911489486694335938 28.235593795776367188 26.38790130615234375 26.006977081298828125 26.006977081298828125 26.006977081298828125 26.006977081298828125 25.882600784301757812 25.409799575805664062 24.924272537231445312 24.42531585693359375 23.912164688110351562 24.571796417236328125 25.616794586181640625 26.604555130004882812 27.541027069091796875 28.519023895263671875 29.798208236694335938 30.992656707763671875 32.112903594970703125 33.16762542724609375 33.521686553955078125 33.521686553955078125 33.521686553955078125 33.521686553955078125 33.595012664794921875 34.23589324951171875 34.854785919189453125 35.45314788818359375 36.03229522705078125 36.27384185791015625 36.27384185791015625 36.27384185791015625 36.27384185791015625 36.254413604736328125 35.682468414306640625 35.091793060302734375 34.48111724853515625 33.849040985107421875 33.84351348876953125 34.475780487060546875 35.08663177490234375 35.6774749755859375 36.24958038330078125 36.8040924072265625 37.342067718505859375 37.86446380615234375 38.37215423583984375 38.852275848388671875 39.3013916015625 39.739597320556640625 40.167407989501953125 40.585308074951171875 40.635120391845703125 40.635120391845703125 -9999 
78.3347015380859375 77.7898712158203125 76.4468994140625 74.99584197998046875 73.4177703857421875 71.68829345703125 71.14925384521484375 70.763885498046875 70.3701019287109375 69.967529296875 69.59841156005859375 69.30225372314453125 69.00115966796875 68.6949462890625 68.38344573974609375 68.323944091796875 68.323944091796875 68.323944091796875 68.323944091796875 68.1004791259765625 67.2546234130859375 66.36714935302734375 65.43373870849609375 64.44937896728515625 62.987079620361328125 61.22564697265625 59.273410797119140625 57.083965301513671875 54.868679046630859375 53.607540130615234375 52.251552581787109375 50.7852935791015625 49.189220428466796875 48.488239288330078125 48.308345794677734375 48.126644134521484375 47.943088531494140625 47.744663238525390625 47.444427490234375 47.13910675048828125 46.828533172607421875 46.51251983642578125 46.190868377685546875 45.86338043212890625 45.5298309326171875 45.19000244140625 44.843647003173828125 44.490512847900390625 44.1303253173828125 43.762798309326171875 43.387630462646484375 43.1972198486328125 43.1972198486328125 43.1972198486328125 43.1972198486328125 43.1972198486328125 42.683990478515625 42.13428497314453125 41.567295074462890625 40.981906890869140625 40.31746673583984375 39.542980194091796875 38.733745574951171875 37.88649749755859375 36.9974822998046875 36.249267578125 35.4941558837890625 34.70604705810546875 33.881923675537109375 32.857990264892578125 31.444835662841796875 29.911489486694335938 28.235593795776367188 26.38790130615234375 26.006977081298828125 26.006977081298828125 26.006977081298828125 26.006977081298828125 25.823553085327148438 25.12070465087890625 24.389354705810546875 23.62709808349609375 22.831203460693359375 23.462518692016601562 24.571796417236328125 25.616794586181640625 26.604555130004882812 27.595201492309570312 28.752126693725585938 29.83930206298828125 30.864664077758789062 31.834863662719726562 32.161556243896484375 32.161556243896484375 32.161556243896484375 32.161556243896484375 32.240612030029296875 32.93051910400390625 33.595012664794921875 34.23589324951171875 34.854785919189453125 35.11251068115234375 35.11251068115234375 35.11251068115234375 35.11251068115234375 35.091793060302734375 34.48111724853515625 33.849040985107421875 33.194011688232421875 32.5142974853515625 32.5083465576171875 33.188282012939453125 33.84351348876953125 34.475780487060546875 35.08663177490234375 35.6774749755859375 36.24958038330078125 36.8040924072265625 37.342067718505859375 37.94469451904296875 38.63539886474609375 39.300628662109375 39.942195892333984375 40.56172943115234375 40.635120391845703125 40.635120391845703125 -9999 
77.66701507568359375 77.01297760009765625 75.3831787109375 73.5913543701171875 71.60172271728515625 69.3651123046875 68.69593048095703125 68.23267364501953125 67.7572021484375 67.26885223388671875 66.83261871337890625 66.51010894775390625 66.18172454833984375 65.847259521484375 65.5064697265625 65.44130706787109375 65.44130706787109375 65.44130706787109375 65.44130706787109375 65.32088470458984375 64.8712921142578125 64.41021728515625 63.937038421630859375 63.451114654541015625 61.93784332275390625 59.865337371826171875 57.523426055908203125 54.8314666748046875 52.182086944580078125 51.419338226318359375 50.6229095458984375 49.789684295654296875 48.916103363037109375 48.570598602294921875 48.517669677734375 48.4645843505859375 48.411342620849609375 48.330547332763671875 48.039981842041015625 47.744663238525390625 47.444427490234375 47.13910675048828125 46.828533172607421875 46.51251983642578125 46.190868377685546875 45.86338043212890625 45.5298309326171875 45.19000244140625 44.843647003173828125 44.490512847900390625 44.1303253173828125 43.947635650634765625 43.947635650634765625 43.947635650634765625 43.947635650634765625 43.947635650634765625 43.294872283935546875 42.5899810791015625 41.856418609619140625 41.09175872802734375 40.2755584716796875 39.39531707763671875 38.46990966796875 37.494449615478515625 36.4632110595703125 35.790004730224609375 35.147365570068359375 34.480983734130859375 33.789035797119140625 32.857990264892578125 31.444835662841796875 29.911489486694335938 28.235593795776367188 26.38790130615234375 26.006977081298828125 26.006977081298828125 26.006977081298828125 26.006977081298828125 25.764310836791992188 24.826898574829101562 23.8380889892578125 22.7919158935546875 21.681314468383789062 22.280530929565429688 23.462518692016601562 24.571796417236328125 25.616794586181640625 26.621500015258789062 27.641626358032226562 28.60713958740234375 29.523586273193359375 30.395717620849609375 30.690441131591796875 30.690441131591796875 30.690441131591796875 30.690441131591796875 30.7761993408203125 31.52326202392578125 32.240612030029296875 32.93051910400390625 33.595012664794921875 33.87123870849609375 33.87123870849609375 33.87123870849609375 33.87123870849609375 33.849040985107421875 33.194011688232421875 32.5142974853515625 31.807964324951171875 31.072843551635742188 31.066394805908203125 31.801774978637695312 32.5083465576171875 33.188282012939453125 33.84351348876953125 34.475780487060546875 35.08663177490234375 35.6774749755859375 36.24958038330078125 36.989013671875 37.94387054443359375 38.850711822509765625 39.714141845703125 40.538120269775390625 40.635120391845703125 40.635120391845703125 -9999 
76.42023468017578125 75.75397491455078125 74.09165191650390625 72.2604522705078125 70.2221221923828125 67.9237823486328125 67.08931732177734375 66.43846893310546875 65.76325225830078125 65.06177520751953125 64.47260284423828125 64.13101959228515625 63.782840728759765625 63.4278106689453125 63.065654754638671875 62.99636077880859375 62.99636077880859375 62.99636077880859375 62.99636077880859375 62.9266510009765625 62.66814422607421875 62.40587615966796875 62.139739990234375 61.869617462158203125 60.421665191650390625 58.359409332275390625 56.03058624267578125 53.355907440185546875 50.7783203125 50.3007965087890625 49.8102874755859375 49.30606842041015625 48.787349700927734375 48.58148956298828125 48.54523468017578125 48.5089111328125 48.47251129150390625 48.40679931640625 48.117473602294921875 47.823429107666015625 47.524509429931640625 47.22055816650390625 46.9113922119140625 46.59683990478515625 46.276702880859375 45.95078277587890625 45.618862152099609375 45.28072357177734375 44.936122894287109375 44.584808349609375 44.226520538330078125 44.021488189697265625 43.97479248046875 43.927978515625 43.88104248046875 43.833984375 43.1535797119140625 42.41968536376953125 41.6546630859375 40.85575103759765625 39.99518585205078125 39.05608367919921875 38.065395355224609375 37.017116546630859375 35.904144287109375 35.25183868408203125 34.6466522216796875 34.020450592041015625 33.37172698974609375 32.46063232421875 31.014705657958984375 29.442699432373046875 27.7205047607421875 25.81636810302734375 25.423046112060546875 25.423046112060546875 25.423046112060546875 25.423046112060546875 25.146463394165039062 24.07302093505859375 22.931638717651367188 21.71312713623046875 20.406305313110351562 21.015626907348632812 22.280530929565429688 23.462518692016601562 24.571796417236328125 25.59222412109375 26.458251953125 27.284597396850585938 28.074743270874023438 28.831724166870117188 29.088617324829101562 29.088617324829101562 29.088617324829101562 29.088617324829101562 29.19422149658203125 30.109361648559570312 30.980304718017578125 31.811130523681640625 32.605365753173828125 32.884365081787109375 32.797695159912109375 32.710605621337890625 32.6230926513671875 32.5142974853515625 31.807964324951171875 31.072843551635742188 30.306486129760742188 29.506120681762695312 29.499088287353515625 30.2997589111328125 31.066394805908203125 31.801774978637695312 32.5083465576171875 33.269451141357421875 34.00324249267578125 34.708347320556640625 35.38692474365234375 36.247528076171875 37.340137481689453125 38.370330810546875 39.34485626220703125 40.269420623779296875 40.377925872802734375 40.377925872802734375 -9999 
74.633941650390625 74.04103851318359375 72.57254791259765625 70.97383880615234375 69.21954345703125 67.27606964111328125 66.25974273681640625 65.3319091796875 64.35375213623046875 63.31949615478515625 62.492156982421875 62.140071868896484375 61.780979156494140625 61.414592742919921875 61.04061126708984375 60.969024658203125 60.969024658203125 60.969024658203125 60.969024658203125 60.8910064697265625 60.601367950439453125 60.30699920654296875 60.00775146484375 59.70345306396484375 58.43827056884765625 56.688526153564453125 54.750644683837890625 52.5792388916015625 50.53582000732421875 50.109378814697265625 49.672611236572265625 49.225009918212890625 48.76601409912109375 48.54038238525390625 48.4410400390625 48.341144561767578125 48.240695953369140625 48.117473602294921875 47.823429107666015625 47.524509429931640625 47.22055816650390625 46.9113922119140625 46.59683990478515625 46.276702880859375 45.95078277587890625 45.618862152099609375 45.28072357177734375 44.936122894287109375 44.584808349609375 44.226520538330078125 43.86096954345703125 43.61048126220703125 43.47980499267578125 43.348171234130859375 43.215572357177734375 43.081989288330078125 42.45343017578125 41.781402587890625 41.083362579345703125 40.3572235107421875 39.53174591064453125 38.567539215087890625 37.548870086669921875 36.469211578369140625 35.320796966552734375 34.6466522216796875 34.020450592041015625 33.37172698974609375 32.698802947998046875 31.752153396606445312 30.245820999145507812 28.602146148681640625 26.793548583984375 24.783203125 24.366426467895507812 24.366426467895507812 24.366426467895507812 24.366426467895507812 24.07302093505859375 22.931638717651367188 21.71312713623046875 20.406305313110351562 18.997364044189453125 19.655292510986328125 21.015626907348632812 22.280530929565429688 23.462518692016601562 24.50064849853515625 25.191759109497070312 25.85736846923828125 26.499286651611328125 27.119144439697265625 27.33056640625 27.33056640625 27.33056640625 27.33056640625 27.469602584838867188 28.66396331787109375 29.784132003784179688 30.838788986206054688 31.835176467895507812 32.103359222412109375 31.855241775512695312 31.603664398193359375 31.348527908325195312 31.072843551635742188 30.306486129760742188 29.506120681762695312 28.668588638305664062 27.7902679443359375 27.782533645629882812 28.661222457885742188 29.499088287353515625 30.2997589111328125 31.066394805908203125 32.039966583251953125 32.973796844482421875 33.861652374267578125 34.707855224609375 35.675357818603515625 36.802104949951171875 37.86258697509765625 38.86417388916015625 39.813060760498046875 39.92433929443359375 39.92433929443359375 -9999 
72.651123046875 72.1482086181640625 70.91365814208984375 69.58837127685546875 68.15793609619140625 66.60422515869140625 65.39017486572265625 64.15300750732421875 62.824710845947265625 61.39076995849609375 60.26715850830078125 59.9018096923828125 59.528903961181640625 59.148128509521484375 58.7591400146484375 58.6846466064453125 58.6846466064453125 58.6846466064453125 58.6846466064453125 58.5960693359375 58.266773223876953125 57.931354522705078125 57.589580535888671875 57.241207122802734375 56.209545135498046875 54.846923828125 53.37290191650390625 51.767627716064453125 50.290012359619140625 49.9159088134765625 49.533878326416015625 49.143581390380859375 48.744655609130859375 48.499179840087890625 48.33623504638671875 48.17180633544921875 48.005863189697265625 47.823429107666015625 47.524509429931640625 47.22055816650390625 46.9113922119140625 46.59683990478515625 46.276702880859375 45.95078277587890625 45.618862152099609375 45.28072357177734375 44.936122894287109375 44.584808349609375 44.226520538330078125 43.86096954345703125 43.487857818603515625 43.1898956298828125 42.97084808349609375 42.74910736083984375 42.524608612060546875 42.29727935791015625 41.725002288818359375 41.119701385498046875 40.493377685546875 39.844524383544921875 39.05608367919921875 38.065395355224609375 37.017116546630859375 35.904144287109375 34.71795654296875 34.020450592041015625 33.37172698974609375 32.698802947998046875 31.999799728393554688 31.014705657958984375 29.442699432373046875 27.7205047607421875 25.81636810302734375 23.68724822998046875 23.244043350219726562 23.244043350219726562 23.244043350219726562 23.244043350219726562 22.931638717651367188 21.71312713623046875 20.406305313110351562 18.997364044189453125 17.468980789184570312 18.1839447021484375 19.655292510986328125 21.015626907348632812 22.280530929565429688 23.33873748779296875 23.829587936401367188 24.307435989379882812 24.772951126098632812 25.226755142211914062 25.382490158081054688 25.382490158081054688 25.382490158081054688 25.382490158081054688 25.562498092651367188 27.09258270263671875 28.502969741821289062 29.811037063598632812 31.030628204345703125 31.287000656127929688 30.860820770263671875 30.424329757690429688 29.97701263427734375 29.506120681762695312 28.668588638305664062 27.7902679443359375 26.86698150634765625 25.893878936767578125 25.885288238525390625 26.858842849731445312 27.782533645629882812 28.661222457885742188 29.499088287353515625 30.720510482788085938 31.882024765014648438 32.973255157470703125 34.00222015380859375 35.084445953369140625 36.247528076171875 37.340137481689453125 38.370330810546875 39.34485626220703125 39.45905303955078125 39.45905303955078125 -9999 
70.42311859130859375 70.0332183837890625 69.08660888671875 68.08756256103515625 67.0299224853515625 65.90639495849609375 64.4765472412109375 62.891643524169921875 61.153957366943359375 59.230854034423828125 57.728588104248046875 57.345947265625 56.95500946044921875 56.55541229248046875 56.14676666259765625 56.068454742431640625 56.068454742431640625 56.068454742431640625 56.068454742431640625 55.966014862060546875 55.58448028564453125 55.1947021484375 54.796314239501953125 54.3889312744140625 53.66611480712890625 52.795711517333984375 51.881168365478515625 50.9177703857421875 50.040813446044921875 49.720340728759765625 49.394069671630859375 49.06179046630859375 48.723270416259765625 48.457881927490234375 48.2308197021484375 48.00086212158203125 47.76793670654296875 47.524509429931640625 47.22055816650390625 46.9113922119140625 46.59683990478515625 46.276702880859375 45.95078277587890625 45.618862152099609375 45.28072357177734375 44.936122894287109375 44.584808349609375 44.226520538330078125 43.86096954345703125 43.487857818603515625 43.10686492919921875 42.759265899658203125 42.447113037109375 42.12946319580078125 41.806121826171875 41.476879119873046875 40.96591949462890625 40.432796478271484375 39.8834381103515625 39.316822052001953125 38.567539215087890625 37.548870086669921875 36.469211578369140625 35.320796966552734375 34.094272613525390625 33.37172698974609375 32.698802947998046875 31.999799728393554688 31.272611618041992188 30.245820999145507812 28.602146148681640625 26.793548583984375 24.783203125 22.52037811279296875 22.047163009643554688 22.047163009643554688 22.047163009643554688 22.047163009643554688 21.71312713623046875 20.406305313110351562 18.997364044189453125 17.468980789184570312 15.799010276794433594 16.58184051513671875 18.1839447021484375 19.655292510986328125 21.015626907348632812 22.0968017578125 22.356090545654296875 22.611705780029296875 22.863748550415039062 23.112318038940429688 23.198272705078125 23.198272705078125 23.198272705078125 23.198272705078125 23.429668426513671875 25.371141433715820312 27.123811721801757812 28.721170425415039062 30.18851470947265625 30.431940078735351562 29.808368682861328125 29.162464141845703125 28.492574691772460938 27.7902679443359375 26.86698150634765625 25.893878936767578125 24.86527252197265625 23.774448394775390625 23.7647857666015625 24.85617828369140625 25.885288238525390625 26.858842849731445312 27.782533645629882812 29.296871185302734375 30.7198944091796875 32.038822174072265625 33.267852783203125 34.47351837158203125 35.675357818603515625 36.802104949951171875 37.86258697509765625 38.86417388916015625 38.9814453125 38.9814453125 -9999 
67.98809051513671875 67.73778533935546875 67.1381988525390625 66.5179901123046875 65.87569427490234375 65.209686279296875 63.55315399169921875 61.59091949462890625 59.388881683349609375 56.88016510009765625 54.899639129638671875 54.49460601806640625 54.08026885986328125 53.656192779541015625 53.221904754638671875 53.13861083984375 53.13861083984375 53.13861083984375 53.13861083984375 53.018047332763671875 52.56792449951171875 52.106281280517578125 51.63251495361328125 51.145969390869140625 50.830883026123046875 50.57819366455078125 50.321910858154296875 50.061939239501953125 49.79816436767578125 49.5304718017578125 49.25875091552734375 48.98287200927734375 48.702709197998046875 48.418125152587890625 48.1289825439453125 47.8351287841796875 47.536407470703125 47.232654571533203125 46.92369842529296875 46.6093597412109375 46.289447784423828125 45.9637603759765625 45.632080078125 45.294189453125 44.949848175048828125 44.59880828857421875 44.2407989501953125 43.87554168701171875 43.5027313232421875 43.1220550537109375 42.733173370361328125 42.335723876953125 41.929317474365234375 41.51354217529296875 41.08795928955078125 40.65209197998046875 40.205432891845703125 39.747432708740234375 39.277496337890625 38.79499053955078125 38.085483551025390625 37.0384063720703125 35.926788330078125 34.7421417236328125 33.47418975830078125 32.7258453369140625 32.027912139892578125 31.3018798828125 30.545396804809570312 29.475088119506835938 27.756137847900390625 25.855960845947265625 23.7317962646484375 21.32369232177734375 20.817560195922851562 20.817560195922851562 20.817560195922851562 20.817560195922851562 20.459726333618164062 19.055118560791015625 17.531831741333007812 15.867947578430175781 14.034845352172851562 14.896213531494140625 16.647855758666992188 18.244358062744140625 19.710981369018554688 20.817560195922851562 20.817560195922851562 20.817560195922851562 20.817560195922851562 20.817560195922851562 20.817560195922851562 20.817560195922851562 20.817560195922851562 20.817560195922851562 21.112329483032226562 23.546983718872070312 25.691770553588867188 27.608428955078125 29.340856552124023438 29.570615768432617188 28.736141204833984375 27.861185073852539062 26.941617965698242188 25.9726409912109375 24.94864654541015625 23.863006591796875 22.707820892333984375 21.47356414794921875 21.46258544921875 22.697568893432617188 23.853391647338867188 24.939592361450195312 25.96408843994140625 27.814769744873046875 29.528400421142578125 31.093271255493164062 32.5331573486328125 33.866558074951171875 35.108142852783203125 36.269744873046875 37.361049652099609375 38.39008331298828125 38.510467529296875 38.510467529296875 -9999 
67.98809051513671875 67.73778533935546875 67.1381988525390625 66.5179901123046875 65.87569427490234375 65.209686279296875 63.55315399169921875 61.59091949462890625 59.388881683349609375 56.88016510009765625 54.899639129638671875 54.49460601806640625 54.08026885986328125 53.656192779541015625 53.221904754638671875 53.13861083984375 53.13861083984375 53.13861083984375 53.13861083984375 53.018047332763671875 52.56792449951171875 52.106281280517578125 51.63251495361328125 51.145969390869140625 50.830883026123046875 50.57819366455078125 50.321910858154296875 50.061939239501953125 49.79816436767578125 49.5304718017578125 49.25875091552734375 48.98287200927734375 48.702709197998046875 48.418125152587890625 48.1289825439453125 47.8351287841796875 47.536407470703125 47.232654571533203125 46.92369842529296875 46.6093597412109375 46.289447784423828125 45.9637603759765625 45.632080078125 45.294189453125 44.949848175048828125 44.59880828857421875 44.2407989501953125 43.87554168701171875 43.5027313232421875 43.1220550537109375 42.733173370361328125 42.335723876953125 41.929317474365234375 41.51354217529296875 41.08795928955078125 40.65209197998046875 40.205432891845703125 39.747432708740234375 39.277496337890625 38.79499053955078125 38.085483551025390625 37.0384063720703125 35.926788330078125 34.7421417236328125 33.47418975830078125 32.7258453369140625 32.027912139892578125 31.3018798828125 30.545396804809570312 29.475088119506835938 27.756137847900390625 25.855960845947265625 23.7317962646484375 21.32369232177734375 20.817560195922851562 20.817560195922851562 20.817560195922851562 20.817560195922851562 20.459726333618164062 19.055118560791015625 17.531831741333007812 15.867947578430175781 14.034845352172851562 14.896213531494140625 16.647855758666992188 18.244358062744140625 19.710981369018554688 20.817560195922851562 20.817560195922851562 20.817560195922851562 20.817560195922851562 20.817560195922851562 20.817560195922851562 20.817560195922851562 20.817560195922851562 20.817560195922851562 21.112329483032226562 23.546983718872070312 25.691770553588867188 27.608428955078125 29.340856552124023438 29.570615768432617188 28.736141204833984375 27.861185073852539062 26.941617965698242188 25.9726409912109375 24.94864654541015625 23.863006591796875 22.707820892333984375 21.47356414794921875 21.46258544921875 22.697568893432617188 23.853391647338867188 24.939592361450195312 25.96408843994140625 27.814769744873046875 29.528400421142578125 31.093271255493164062 32.5331573486328125 33.866558074951171875 35.108142852783203125 36.269744873046875 37.361049652099609375 38.39008331298828125 38.510467529296875 38.510467529296875 -9999 
67.98809051513671875 67.73778533935546875 67.1381988525390625 66.5179901123046875 65.87569427490234375 65.209686279296875 63.55315399169921875 61.59091949462890625 59.388881683349609375 56.88016510009765625 54.899639129638671875 54.49460601806640625 54.08026885986328125 53.656192779541015625 53.221904754638671875 53.13861083984375 53.13861083984375 53.13861083984375 53.13861083984375 53.018047332763671875 52.56792449951171875 52.106281280517578125 51.63251495361328125 51.145969390869140625 50.830883026123046875 50.57819366455078125 50.321910858154296875 50.061939239501953125 49.79816436767578125 49.5304718017578125 49.25875091552734375 48.98287200927734375 48.702709197998046875 48.418125152587890625 48.1289825439453125 47.8351287841796875 47.536407470703125 47.232654571533203125 46.92369842529296875 46.6093597412109375 46.289447784423828125 45.9637603759765625 45.632080078125 45.294189453125 44.949848175048828125 44.59880828857421875 44.2407989501953125 43.87554168701171875 43.5027313232421875 43.1220550537109375 42.733173370361328125 42.335723876953125 41.929317474365234375 41.51354217529296875 41.08795928955078125 40.65209197998046875 40.205432891845703125 39.747432708740234375 39.277496337890625 38.79499053955078125 38.085483551025390625 37.0384063720703125 35.926788330078125 34.7421417236328125 33.47418975830078125 32.7258453369140625 32.027912139892578125 31.3018798828125 30.545396804809570312 29.475088119506835938 27.756137847900390625 25.855960845947265625 23.7317962646484375 21.32369232177734375 20.817560195922851562 20.817560195922851562 20.817560195922851562 20.817560195922851562 20.459726333618164062 19.055118560791015625 17.531831741333007812 15.867947578430175781 14.034845352172851562 14.896213531494140625 16.647855758666992188 18.244358062744140625 19.710981369018554688 20.817560195922851562 20.817560195922851562 20.817560195922851562 20.817560195922851562 20.817560195922851562 20.817560195922851562 20.817560195922851562 20.817560195922851562 20.817560195922851562 21.112329483032226562 23.546983718872070312 25.691770553588867188 27.608428955078125 29.340856552124023438 29.570615768432617188 28.736141204833984375 27.861185073852539062 26.941617965698242188 25.9726409912109375 24.94864654541015625 23.863006591796875 22.707820892333984375 21.47356414794921875 21.46258544921875 22.697568893432617188 23.853391647338867188 24.939592361450195312 25.96408843994140625 27.814769744873046875 29.528400421142578125 31.093271255493164062 32.5331573486328125 33.866558074951171875 35.108142852783203125 36.269744873046875 37.361049652099609375 38.39008331298828125 38.510467529296875 38.510467529296875 -9999 
67.98809051513671875 67.73778533935546875 67.1381988525390625 66.5179901123046875 65.87569427490234375 65.209686279296875 63.55315399169921875 61.59091949462890625 59.388881683349609375 56.88016510009765625 54.899639129638671875 54.49460601806640625 54.08026885986328125 53.656192779541015625 53.221904754638671875 53.13861083984375 53.13861083984375 53.13861083984375 53.13861083984375 53.018047332763671875 52.56792449951171875 52.106281280517578125 51.63251495361328125 51.145969390869140625 50.830883026123046875 50.57819366455078125 50.321910858154296875 50.061939239501953125 49.79816436767578125 49.5304718017578125 49.25875091552734375 48.98287200927734375 48.702709197998046875 48.418125152587890625 48.1289825439453125 47.8351287841796875 47.536407470703125 47.232654571533203125 46.92369842529296875 46.6093597412109375 46.289447784423828125 45.9637603759765625 45.632080078125 45.294189453125 44.949848175048828125 44.59880828857421875 44.2407989501953125 43.87554168701171875 43.5027313232421875 43.1220550537109375 42.733173370361328125 42.335723876953125 41.929317474365234375 41.51354217529296875 41.08795928955078125 40.65209197998046875 40.205432891845703125 39.747432708740234375 39.277496337890625 38.79499053955078125 38.085483551025390625 37.0384063720703125 35.926788330078125 34.7421417236328125 33.47418975830078125 32.7258453369140625 32.027912139892578125 31.3018798828125 30.545396804809570312 29.475088119506835938 27.756137847900390625 25.855960845947265625 23.7317962646484375 21.32369232177734375 20.817560195922851562 20.817560195922851562 20.817560195922851562 20.817560195922851562 20.459726333618164062 19.055118560791015625 17.531831741333007812 15.867947578430175781 14.034845352172851562 14.896213531494140625 16.647855758666992188 18.244358062744140625 19.710981369018554688 20.817560195922851562 20.817560195922851562 20.817560195922851562 20.817560195922851562 20.817560195922851562 20.817560195922851562 20.817560195922851562 20.817560195922851562 20.817560195922851562 21.112329483032226562 23.546983718872070312 25.691770553588867188 27.608428955078125 29.340856552124023438 29.570615768432617188 28.736141204833984375 27.861185073852539062 26.941617965698242188 25.9726409912109375 24.94864654541015625 23.863006591796875 22.707820892333984375 21.47356414794921875 21.46258544921875 22.697568893432617188 23.853391647338867188 24.939592361450195312 25.96408843994140625 27.814769744873046875 29.528400421142578125 31.093271255493164062 32.5331573486328125 33.866558074951171875 35.108142852783203125 36.269744873046875 37.361049652099609375 38.39008331298828125 38.510467529296875 38.510467529296875 -9999 
67.98809051513671875 67.73778533935546875 67.1381988525390625 66.5179901123046875 65.87569427490234375 65.209686279296875 63.55315399169921875 61.59091949462890625 59.388881683349609375 56.88016510009765625 54.899639129638671875 54.49460601806640625 54.08026885986328125 53.656192779541015625 53.221904754638671875 53.13861083984375 53.13861083984375 53.13861083984375 53.13861083984375 53.018047332763671875 52.56792449951171875 52.106281280517578125 51.63251495361328125 51.145969390869140625 50.830883026123046875 50.57819366455078125 50.321910858154296875 50.061939239501953125 49.79816436767578125 49.5304718017578125 49.25875091552734375 48.98287200927734375 48.702709197998046875 48.418125152587890625 48.1289825439453125 47.8351287841796875 47.536407470703125 47.232654571533203125 46.92369842529296875 46.6093597412109375 46.289447784423828125 45.9637603759765625 45.632080078125 45.294189453125 44.949848175048828125 44.59880828857421875 44.2407989501953125 43.87554168701171875 43.5027313232421875 43.1220550537109375 42.733173370361328125 42.335723876953125 41.929317474365234375 41.51354217529296875 41.08795928955078125 40.65209197998046875 40.205432891845703125 39.747432708740234375 39.277496337890625 38.79499053955078125 38.085483551025390625 37.0384063720703125 35.926788330078125 34.7421417236328125 33.47418975830078125 32.7258453369140625 32.027912139892578125 31.3018798828125 30.545396804809570312 29.475088119506835938 27.756137847900390625 25.855960845947265625 23.7317962646484375 21.32369232177734375 20.817560195922851562 20.817560195922851562 20.817560195922851562 20.817560195922851562 20.459726333618164062 19.055118560791015625 17.531831741333007812 15.867947578430175781 14.034845352172851562 14.896213531494140625 16.647855758666992188 18.244358062744140625 19.710981369018554688 20.817560195922851562 20.817560195922851562 20.817560195922851562 20.817560195922851562 20.817560195922851562 20.817560195922851562 20.817560195922851562 20.817560195922851562 20.817560195922851562 21.112329483032226562 23.546983718872070312 25.691770553588867188 27.608428955078125 29.340856552124023438 29.570615768432617188 28.736141204833984375 27.861185073852539062 26.941617965698242188 25.9726409912109375 24.94864654541015625 23.863006591796875 22.707820892333984375 21.47356414794921875 21.46258544921875 22.697568893432617188 23.853391647338867188 24.939592361450195312 25.96408843994140625 27.814769744873046875 29.528400421142578125 31.093271255493164062 32.5331573486328125 33.866558074951171875 35.108142852783203125 36.269744873046875 37.361049652099609375 38.39008331298828125 38.510467529296875 38.510467529296875 -9999 
67.6945343017578125 67.40236663818359375 66.6996917724609375 65.96852874755859375 65.20648193359375 64.41080474853515625 62.827907562255859375 60.986522674560546875 58.935577392578125 56.6211700439453125 54.806865692138671875 54.42241668701171875 54.029598236083984375 53.628032684326171875 53.21732330322265625 53.13861083984375 53.13861083984375 53.13861083984375 53.13861083984375 53.018047332763671875 52.56792449951171875 52.106281280517578125 51.63251495361328125 51.145969390869140625 50.810573577880859375 50.529476165771484375 50.243923187255859375 49.9537811279296875 49.664638519287109375 49.394947052001953125 49.121158599853515625 48.843151092529296875 48.560791015625 48.273944854736328125 47.98246002197265625 47.686187744140625 47.38497161865234375 47.07863616943359375 46.767009735107421875 46.4499053955078125 46.127124786376953125 45.798465728759765625 45.46370697021484375 45.122615814208984375 44.77495574951171875 44.420459747314453125 44.058856964111328125 43.68985748291015625 43.31314849853515625 42.928409576416015625 42.535282135009765625 42.13339996337890625 41.722354888916015625 41.301727294921875 40.871059417724609375 40.429851531982421875 39.9775848388671875 39.5136871337890625 39.03754425048828125 38.548488616943359375 37.853061676025390625 36.8521728515625 35.79247283935546875 34.666614532470703125 33.465778350830078125 32.65897369384765625 31.879425048828125 31.06465911865234375 30.211343765258789062 29.091817855834960938 27.43563079833984375 25.61186981201171875 23.582767486572265625 21.296146392822265625 20.817560195922851562 20.817560195922851562 20.817560195922851562 20.817560195922851562 20.419816970825195312 18.849733352661132812 17.129846572875976562 15.228529930114746094 13.102938652038574219 13.950915336608886719 15.792143821716308594 17.462720870971679688 18.991613388061523438 20.112989425659179688 19.96039581298828125 19.806501388549804688 19.65128326416015625 19.494716644287109375 19.643949508666992188 19.953187942504882812 20.257213592529296875 20.556200027465820312 21.112329483032226562 23.546983718872070312 25.691770553588867188 27.608428955078125 29.340856552124023438 29.518968582153320312 28.587306976318359375 27.604892730712890625 26.565877914428710938 25.46334075927734375 24.289003372192382812 23.032857894897460938 21.682647705078125 20.223138809204101562 20.210073471069335938 21.670598983764648438 23.021678924560546875 24.278575897216796875 25.453571319580078125 27.359058380126953125 29.11446380615234375 30.7140960693359375 32.183353424072265625 33.541904449462890625 34.805267333984375 35.98590850830078125 37.09400177001953125 38.137943267822265625 38.26001739501953125 38.26001739501953125 -9999 
67.093475341796875 66.71312713623046875 65.790557861328125 64.8182525634765625 63.79053497314453125 62.700710296630859375 61.28571319580078125 59.715087890625 57.994556427001953125 56.09244537353515625 54.620121002197265625 54.2773590087890625 53.92795562744140625 53.57164764404296875 53.208164215087890625 53.13861083984375 53.13861083984375 53.13861083984375 53.13861083984375 53.018047332763671875 52.56792449951171875 52.106281280517578125 51.63251495361328125 51.145969390869140625 50.7699432373046875 50.43177032470703125 50.08713531494140625 49.735790252685546875 49.394947052001953125 49.121158599853515625 48.843151092529296875 48.560791015625 48.273944854736328125 47.98246002197265625 47.686187744140625 47.38497161865234375 47.07863616943359375 46.767009735107421875 46.4499053955078125 46.127124786376953125 45.798465728759765625 45.46370697021484375 45.122615814208984375 44.77495574951171875 44.420459747314453125 44.058856964111328125 43.68985748291015625 43.31314849853515625 42.928409576416015625 42.535282135009765625 42.13339996337890625 41.722354888916015625 41.301727294921875 40.871059417724609375 40.429851531982421875 39.9775848388671875 39.5136871337890625 39.03754425048828125 38.548488616943359375 38.045803070068359375 37.37966156005859375 36.474338531494140625 35.5211639404296875 34.514804840087890625 33.448963165283203125 32.524658203125 31.579132080078125 30.581289291381835938 29.524999618530273438 28.301000595092773438 26.777889251708984375 25.114210128784179688 23.281358718872070312 21.240995407104492188 20.817560195922851562 20.817560195922851562 20.817560195922851562 20.817560195922851562 20.339838027954101562 18.432363510131835938 16.299074172973632812 13.879230499267578125 11.083727836608886719 11.9001617431640625 13.950915336608886719 15.792143821716308594 17.462720870971679688 18.61753082275390625 18.1157989501953125 17.599712371826171875 17.068422317504882812 16.521009445190429688 17.043041229248046875 18.09185028076171875 19.08301544189453125 20.02254486083984375 21.112329483032226562 23.546983718872070312 25.691770553588867188 27.608428955078125 29.340856552124023438 29.415365219116210938 28.286296844482421875 27.081811904907226562 25.791110992431640625 24.400890350341796875 22.894512176513671875 21.250782012939453125 19.442117691040039062 17.431688308715820312 17.413410186767578125 19.425767898559570312 21.235992431640625 22.881010055541992188 24.388469696044921875 26.412839889526367188 28.258106231689453125 29.932004928588867188 31.463678359985351562 32.875415802001953125 34.184642791748046875 35.405242919921875 36.5484619140625 37.623523712158203125 37.749114990234375 37.749114990234375 -9999 
66.47170257568359375 65.9965057373046875 64.83316802978515625 63.589599609375 62.253910064697265625 60.8113555908203125 59.59923553466796875 58.347198486328125 57.001728057861328125 55.547760009765625 54.431423187255859375 54.131122589111328125 53.825733184814453125 53.5150909423828125 53.199001312255859375 53.13861083984375 53.13861083984375 53.13861083984375 53.13861083984375 53.018047332763671875 52.56792449951171875 52.106281280517578125 51.63251495361328125 51.145969390869140625 50.729221343994140625 50.33353424072265625 49.928974151611328125 49.515132904052734375 49.121158599853515625 48.843151092529296875 48.560791015625 48.273944854736328125 47.98246002197265625 47.686187744140625 47.38497161865234375 47.07863616943359375 46.767009735107421875 46.4499053955078125 46.127124786376953125 45.798465728759765625 45.46370697021484375 45.122615814208984375 44.77495574951171875 44.420459747314453125 44.058856964111328125 43.68985748291015625 43.31314849853515625 42.928409576416015625 42.535282135009765625 42.13339996337890625 41.722354888916015625 41.301727294921875 40.871059417724609375 40.429851531982421875 39.9775848388671875 39.5136871337890625 39.03754425048828125 38.548488616943359375 38.045803070068359375 37.528713226318359375 36.89350128173828125 36.08841705322265625 35.2457122802734375 34.361705780029296875 33.432132720947265625 32.389331817626953125 31.273752212524414062 30.084608078002929688 28.811506271362304688 27.473920822143554688 26.095251083374023438 24.602430343627929688 22.97483062744140625 21.185678482055664062 20.817560195922851562 20.817560195922851562 20.817560195922851562 20.817560195922851562 20.259502410888671875 18.005109786987304688 15.428185462951660156 12.42078399658203125 8.8096637725830078125 9.5860004425048828125 11.9001617431640625 13.950915336608886719 15.792143821716308594 16.986797332763671875 16.060865402221679688 15.084821701049804688 14.052929878234863281 12.958408355712890625 14.002904891967773438 16.016117095947265625 17.827032089233398438 19.472620010375976562 21.112329483032226562 23.546983718872070312 25.691770553588867188 27.608428955078125 29.340856552124023438 29.31116485595703125 27.980180740356445312 26.543109893798828125 24.981565475463867188 23.271923065185546875 21.383119583129882812 19.273159027099609375 16.883298873901367188 14.127755165100097656 14.102161407470703125 16.861331939697265625 19.253919601440429688 21.36600494384765625 23.256511688232421875 25.414226531982421875 27.359058380126953125 29.11446380615234375 30.7140960693359375 32.183353424072265625 33.541904449462890625 34.805267333984375 35.98590850830078125 37.09400177001953125 37.22332000732421875 37.22332000732421875 -9999 
65.82773590087890625 65.25023651123046875 63.8220977783203125 62.2711029052734375 60.574092864990234375 58.700702667236328125 57.738674163818359375 56.867000579833984375 55.951061248779296875 54.986110687255859375 54.240734100341796875 53.983692169189453125 53.722934722900390625 53.45835113525390625 53.189830780029296875 53.13861083984375 53.13861083984375 53.13861083984375 53.13861083984375 53.018047332763671875 52.56792449951171875 52.106281280517578125 51.63251495361328125 51.145969390869140625 50.688404083251953125 50.234760284423828125 49.769412994384765625 49.291744232177734375 48.843151092529296875 48.560791015625 48.273944854736328125 47.98246002197265625 47.686187744140625 47.38497161865234375 47.07863616943359375 46.767009735107421875 46.4499053955078125 46.127124786376953125 45.798465728759765625 45.46370697021484375 45.122615814208984375 44.77495574951171875 44.420459747314453125 44.058856964111328125 43.68985748291015625 43.31314849853515625 42.928409576416015625 42.535282135009765625 42.13339996337890625 41.722354888916015625 41.301727294921875 40.871059417724609375 40.429851531982421875 39.9775848388671875 39.5136871337890625 39.03754425048828125 38.548488616943359375 38.045803070068359375 37.528713226318359375 36.996356964111328125 36.3938751220703125 35.694057464599609375 34.965991973876953125 34.20729827880859375 33.415287017822265625 32.25298309326171875 30.963115692138671875 29.573863983154296875 28.068622589111328125 26.607086181640625 25.385763168334960938 24.07570648193359375 22.66300201416015625 21.130189895629882812 20.817560195922851562 20.817560195922851562 20.817560195922851562 20.817560195922851562 20.178808212280273438 17.5674896240234375 14.5131072998046875 10.833965301513671875 6.2069945335388183594 6.9306511878967285156 9.5860004425048828125 11.9001617431640625 13.950915336608886719 15.193854331970214844 13.741375923156738281 12.16162109375 10.430123329162597656 8.5146017074584960938 10.344433784484863281 13.670084953308105469 16.477008819580078125 18.905401229858398438 21.112329483032226562 23.546983718872070312 25.691770553588867188 27.608428955078125 29.340856552124023438 29.20635986328125 27.668779373168945312 25.987823486328125 24.133975982666015625 22.067554473876953125 19.733415603637695312 17.05171966552734375 13.900544166564941406 10.079878807067871094 10.043284416198730469 13.870940208435058594 17.026865005493164062 19.711996078491210938 22.048736572265625 24.357074737548828125 26.412839889526367188 28.258106231689453125 29.932004928588867188 31.463678359985351562 32.875415802001953125 34.184642791748046875 35.405242919921875 36.5484619140625 36.681735992431640625 36.681735992431640625 -9999 
65.15991973876953125 64.47174835205078125 62.7509765625 60.84857940673828125 58.721637725830078125 56.30995941162109375 55.66390228271484375 55.25440216064453125 54.83538818359375 54.40641021728515625 54.048004150390625 53.83504486083984375 53.619541168212890625 53.40143585205078125 53.18065643310546875 53.13861083984375 53.13861083984375 53.13861083984375 53.13861083984375 53.018047332763671875 52.56792449951171875 52.106281280517578125 51.63251495361328125 51.145969390869140625 50.647495269775390625 50.13544464111328125 49.608428955078125 49.0655517578125 48.560791015625 48.273944854736328125 47.98246002197265625 47.686187744140625 47.38497161865234375 47.07863616943359375 46.767009735107421875 46.4499053955078125 46.127124786376953125 45.798465728759765625 45.46370697021484375 45.122615814208984375 44.77495574951171875 44.420459747314453125 44.058856964111328125 43.68985748291015625 43.31314849853515625 42.928409576416015625 42.535282135009765625 42.13339996337890625 41.722354888916015625 41.301727294921875 40.871059417724609375 40.429851531982421875 39.9775848388671875 39.5136871337890625 39.03754425048828125 38.548488616943359375 38.045803070068359375 37.528713226318359375 36.996356964111328125 36.447811126708984375 35.880016326904296875 35.29088592529296875 34.68186187744140625 34.051555633544921875 33.398426055908203125 32.115596771240234375 30.647037506103515625 29.048234939575195312 27.293827056884765625 25.696485519409179688 24.647222518920898438 23.533136367797851562 22.3456878662109375 21.074529647827148438 20.817560195922851562 20.817560195922851562 20.817560195922851562 20.817560195922851562 20.097751617431640625 17.118986129760742188 13.549117088317871094 9.0939769744873046875 3.1644492149353027344 3.81581878662109375 6.9306511878967285156 9.5860004425048828125 11.9001617431640625 13.2028350830078125 11.079008102416992188 8.6713361740112304688 5.8920745849609375 2.6052134037017822266 5.7501730918884277344 10.9726715087890625 15.017716407775878906 18.319765090942382812 21.112329483032226562 23.546983718872070312 25.691770553588867188 27.608428955078125 29.340856552124023438 29.100940704345703125 27.351907730102539062 25.414897918701171875 23.24459075927734375 20.776987075805664062 17.917514801025390625 14.517779350280761719 10.3249359130859375 4.8526439666748046875 4.7976393699645996094 10.28433990478515625 14.4856109619140625 17.89087677001953125 20.754255294799804688 23.23409271240234375 25.414226531982421875 27.359058380126953125 29.11446380615234375 30.7140960693359375 32.183353424072265625 33.541904449462890625 34.805267333984375 35.98590850830078125 36.123386383056640625 36.123386383056640625 -9999 
63.41643524169921875 62.817653656005859375 61.333759307861328125 59.716762542724609375 57.940418243408203125 55.9698486328125 55.393337249755859375 54.999359130859375 54.596588134765625 54.1846160888671875 53.821704864501953125 53.562206268310546875 53.298919677734375 53.031734466552734375 52.760532379150390625 52.70879364013671875 52.70879364013671875 52.70879364013671875 52.70879364013671875 52.5984344482421875 52.18697357177734375 51.765911102294921875 51.334781646728515625 50.893093109130859375 50.400432586669921875 49.87899017333984375 49.3420257568359375 48.788585662841796875 48.26202392578125 47.907924652099609375 47.5467376708984375 47.178165435791015625 46.801910400390625 46.4621124267578125 46.139553070068359375 45.811122894287109375 45.476596832275390625 45.135753631591796875 44.7883453369140625 44.434116363525390625 44.07279205322265625 43.70407867431640625 43.327671051025390625 42.94324493408203125 42.550445556640625 42.14890289306640625 41.738216400146484375 41.317962646484375 40.887683868408203125 40.44689178466796875 39.99505615234375 39.531612396240234375 39.05594635009765625 38.5673980712890625 38.065250396728515625 37.5487213134765625 37.016963958740234375 36.46905517578125 35.903980255126953125 35.320629119873046875 34.717784881591796875 34.09409332275390625 33.44805908203125 32.7780303955078125 32.082149505615234375 30.836408615112304688 29.423151016235351562 27.889688491821289062 26.213649749755859375 24.659336090087890625 23.55559539794921875 22.379894256591796875 21.122186660766601562 19.770172119140625 19.4961090087890625 19.4961090087890625 19.4961090087890625 19.4961090087890625 18.884973526000976562 16.396791458129882812 13.509632110595703125 10.070652961730957031 5.8178610801696777344 6.7109470367431640625 9.3965282440185546875 11.733607292175292969 13.802332878112792969 14.97586822509765625 13.044682502746582031 10.881681442260742188 8.4235258102416992188 5.5767397880554199219 7.5523443222045898438 11.454422950744628906 14.660703659057617188 17.382177352905273438 19.77976226806640625 22.1290130615234375 24.207263946533203125 26.07062530517578125 27.7593994140625 27.741991043090820312 26.466756820678710938 25.0944671630859375 23.609121322631835938 21.972230911254882812 19.60106658935546875 16.870355606079101562 13.651238441467285156 9.7301044464111328125 9.6924381256103515625 13.620937347412109375 16.845010757446289062 19.579282760620117188 21.95313262939453125 24.273775100708007812 26.338531494140625 28.191036224365234375 29.870889663696289062 31.4075469970703125 32.823516845703125 34.136379241943359375 35.360141754150390625 36.506134033203125 36.63971710205078125 36.63971710205078125 -9999 
61.438419342041015625 60.958621978759765625 59.7834930419921875 58.526447296142578125 57.17519378662109375 55.714466094970703125 55.197422027587890625 54.79909515380859375 54.39177703857421875 53.97504425048828125 53.591266632080078125 53.28020477294921875 52.963687896728515625 52.641513824462890625 52.31348419189453125 52.250789642333984375 52.250789642333984375 52.250789642333984375 52.250789642333984375 52.151569366455078125 51.78218841552734375 51.405086517333984375 51.019931793212890625 50.626373291015625 50.14159393310546875 49.612506866455078125 49.0674285888671875 48.50536346435546875 47.95774078369140625 47.531299591064453125 47.094532012939453125 46.646923065185546875 46.18792724609375 45.811122894287109375 45.476596832275390625 45.135753631591796875 44.7883453369140625 44.434116363525390625 44.07279205322265625 43.70407867431640625 43.327671051025390625 42.94324493408203125 42.550445556640625 42.14890289306640625 41.738216400146484375 41.317962646484375 40.887683868408203125 40.44689178466796875 39.99505615234375 39.531612396240234375 39.05594635009765625 38.5673980712890625 38.065250396728515625 37.5487213134765625 37.016963958740234375 36.46905517578125 35.903980255126953125 35.320629119873046875 34.717784881591796875 34.09409332275390625 33.44805908203125 32.7780303955078125 32.082149505615234375 31.358343124389648438 30.604274749755859375 29.409030914306640625 28.070621490478515625 26.624889373779296875 25.053113937377929688 23.55559539794921875 22.379894256591796875 21.122186660766601562 19.770172119140625 18.30855560302734375 18.011167526245117188 18.011167526245117188 18.011167526245117188 18.011167526245117188 17.534881591796875 15.633538246154785156 13.507914543151855469 11.097934722900390625 8.315593719482421875 9.3965282440185546875 11.733607292175292969 13.802332878112792969 15.658032417297363281 16.72015380859375 14.97586822509765625 13.044682502746582031 10.881681442260742188 8.4235258102416992188 9.4229288101196289062 12.051095008850097656 14.344592094421386719 16.379106521606445312 18.28131103515625 20.526132583618164062 22.522258758544921875 24.31934356689453125 25.953504562377929688 26.216320037841796875 25.512027740478515625 24.779117584228515625 24.015163421630859375 23.182771682739257812 21.2623748779296875 19.112903594970703125 16.672210693359375 13.848834037780761719 13.822558403015136719 16.649745941162109375 19.093282699584960938 21.244958877563476562 23.1671142578125 25.3356781005859375 27.288553237915039062 29.050508499145507812 30.655576705932617188 32.129421234130859375 33.49188995361328125 34.758636474609375 35.94223785400390625 37.0529327392578125 37.182544708251953125 37.182544708251953125 -9999 
59.216487884521484375 58.88574981689453125 58.087368011474609375 57.252002716064453125 56.376064300537109375 55.455413818359375 54.999359130859375 54.596588134765625 54.1846160888671875 53.763011932373046875 53.357845306396484375 52.9937286376953125 52.622104644775390625 52.24266815185546875 51.855075836181640625 51.780853271484375 51.780853271484375 51.780853271484375 51.780853271484375 51.693355560302734375 51.36811065673828125 51.036899566650390625 50.699489593505859375 50.355648040771484375 49.87899017333984375 49.3420257568359375 48.788585662841796875 48.217624664306640625 47.6482391357421875 47.14664459228515625 46.63069915771484375 46.099559783935546875 45.552310943603515625 45.135753631591796875 44.7883453369140625 44.434116363525390625 44.07279205322265625 43.70407867431640625 43.327671051025390625 42.94324493408203125 42.550445556640625 42.14890289306640625 41.738216400146484375 41.317962646484375 40.887683868408203125 40.44689178466796875 39.99505615234375 39.531612396240234375 39.05594635009765625 38.5673980712890625 38.065250396728515625 37.5487213134765625 37.016963958740234375 36.46905517578125 35.903980255126953125 35.320629119873046875 34.717784881591796875 34.09409332275390625 33.44805908203125 32.7780303955078125 32.082149505615234375 31.358343124389648438 30.604274749755859375 29.817302703857421875 28.994426727294921875 27.858926773071289062 26.6083984375 25.264678955078125 23.812747955322265625 22.379894256591796875 21.122186660766601562 19.770172119140625 18.30855560302734375 16.71797943115234375 16.392930984497070312 16.392930984497070312 16.392930984497070312 16.392930984497070312 16.075510025024414062 14.836559295654296875 13.506197929382324219 12.069853782653808594 10.509167671203613281 11.733607292175292969 13.802332878112792969 15.658032417297363281 17.340513229370117188 18.310544967651367188 16.72015380859375 14.97586822509765625 13.044682502746582031 10.881681442260742188 11.117632865905761719 12.628661155700683594 14.0228424072265625 15.316956520080566406 16.647016525268554688 18.766809463500976562 20.663486480712890625 22.37957763671875 23.946496963500976562 24.549589157104492188 24.50392913818359375 24.458156585693359375 24.412265777587890625 24.317157745361328125 22.783502578735351562 21.107233047485351562 19.259088516235351562 17.199750900268554688 17.180999755859375 19.24236297607421875 21.092138290405273438 22.769744873046875 24.304523468017578125 26.338531494140625 28.191036224365234375 29.870889663696289062 31.4075469970703125 32.823516845703125 34.136379241943359375 35.360141754150390625 36.506134033203125 37.583644866943359375 37.709514617919921875 37.709514617919921875 -9999 
56.68190765380859375 56.5433807373046875 56.215045928955078125 55.880626678466796875 55.539886474609375 55.19258880615234375 54.79909515380859375 54.39177703857421875 53.97504425048828125 53.548458099365234375 53.121368408203125 52.702625274658203125 52.27393341064453125 51.83480072021484375 51.384716033935546875 51.298343658447265625 51.298343658447265625 51.298343658447265625 51.298343658447265625 51.223194122314453125 50.944305419921875 50.661037445068359375 50.37325286865234375 50.080799102783203125 49.612506866455078125 49.0674285888671875 48.50536346435546875 47.92522430419921875 47.33333587646484375 46.753604888916015625 46.15462493896484375 45.535068511962890625 44.89347076416015625 44.434116363525390625 44.07279205322265625 43.70407867431640625 43.327671051025390625 42.94324493408203125 42.550445556640625 42.14890289306640625 41.738216400146484375 41.317962646484375 40.887683868408203125 40.44689178466796875 39.99505615234375 39.531612396240234375 39.05594635009765625 38.5673980712890625 38.065250396728515625 37.5487213134765625 37.016963958740234375 36.46905517578125 35.903980255126953125 35.320629119873046875 34.717784881591796875 34.09409332275390625 33.44805908203125 32.7780303955078125 32.082149505615234375 31.358343124389648438 30.604274749755859375 29.817302703857421875 28.994426727294921875 28.132211685180664062 27.22670745849609375 26.162988662719726562 25.017110824584960938 23.7934722900390625 22.480752944946289062 21.122186660766601562 19.770172119140625 18.30855560302734375 16.71797943115234375 14.973473548889160156 14.615090370178222656 14.615090370178222656 14.615090370178222656 14.615090370178222656 14.4875946044921875 14.002733230590820312 13.504480361938476562 12.992072105407714844 12.464681625366210938 13.802332878112792969 15.658032417297363281 17.340513229370117188 18.879367828369140625 19.772008895874023438 18.310544967651367188 16.72015380859375 14.97586822509765625 13.044682502746582031 12.666707038879394531 13.188306808471679688 13.695248603820800781 14.18833160400390625 14.849770545959472656 16.817171096801757812 18.5909423828125 20.205804824829101562 21.68790435791015625 22.713031768798828125 23.4361419677734375 24.131380081176757812 24.800815582275390625 25.384408950805664062 24.186273574829101562 22.902860641479492188 21.521093368530273438 20.024637222290039062 20.011226654052734375 21.508752822875976562 22.891429901123046875 24.175628662109375 25.374448776245117188 27.288553237915039062 29.050508499145507812 30.655576705932617188 32.129421234130859375 33.49188995361328125 34.758636474609375 35.94223785400390625 37.0529327392578125 38.09918975830078125 38.221523284912109375 38.221523284912109375 -9999 
54.954925537109375 54.946971893310546875 54.9283447265625 54.909702301025390625 54.8910369873046875 54.872356414794921875 54.527172088623046875 54.133075714111328125 53.7301788330078125 53.31807708740234375 52.88904571533203125 52.435649871826171875 51.9705657958984375 51.493175506591796875 51.002803802490234375 50.908573150634765625 50.908573150634765625 50.908573150634765625 50.908573150634765625 50.840457916259765625 50.587902069091796875 50.331760406494140625 50.071929931640625 49.808300018310546875 49.360637664794921875 48.83392333984375 48.29135894775390625 47.731975555419921875 47.154682159423828125 46.5583038330078125 45.941532135009765625 45.302921295166015625 44.640872955322265625 44.192882537841796875 43.86109161376953125 43.523082733154296875 43.178619384765625 42.823192596435546875 42.42774200439453125 42.023426055908203125 41.60984039306640625 41.186550140380859375 40.753086090087890625 40.30895233154296875 39.853603363037109375 39.386463165283203125 38.9069061279296875 38.41424560546875 37.907756805419921875 37.386631011962890625 36.850002288818359375 36.296916961669921875 35.72634124755859375 35.13712310791015625 34.52800750732421875 33.897602081298828125 33.18465423583984375 32.43987274169921875 31.6630096435546875 30.851179122924804688 30.0324249267578125 29.2195281982421875 28.368261337280273438 27.474824905395507812 26.534820556640625 25.543127059936523438 24.493724822998046875 23.379482269287109375 22.191858291625976562 20.920495986938476562 19.552690505981445312 18.072595596313476562 16.460115432739257812 14.689218521118164062 14.325084686279296875 14.325084686279296875 14.325084686279296875 14.325084686279296875 14.325084686279296875 14.325084686279296875 14.325084686279296875 14.325084686279296875 14.325084686279296875 15.658032417297363281 17.340513229370117188 18.879367828369140625 20.297201156616210938 21.146915435791015625 19.92700958251953125 18.618581771850585938 17.207773208618164062 15.67719268798828125 15.110884666442871094 15.110884666442871094 15.110884666442871094 15.110884666442871094 15.294830322265625 16.856821060180664062 18.294269561767578125 19.625579833984375 20.865350723266601562 22.091449737548828125 23.285490036010742188 24.405376434326171875 25.459781646728515625 26.39202880859375 25.487789154052734375 24.535816192626953125 23.530794143676757812 22.46645355224609375 22.457033157348632812 23.52191162109375 24.527416229248046875 25.47982025146484375 26.384450912475585938 28.112361907958984375 29.724023818969726562 31.203428268432617188 32.570648193359375 33.84149932861328125 35.028682708740234375 36.1425323486328125 37.19158935546875 38.182971954345703125 38.299083709716796875 38.299083709716796875 -9999 
54.7541656494140625 54.727092742919921875 54.663593292236328125 54.5998687744140625 54.535919189453125 54.471736907958984375 54.1544952392578125 53.799041748046875 53.43643951416015625 53.066402435302734375 52.6637725830078125 52.204608917236328125 51.733448028564453125 51.24965667724609375 50.75252532958984375 50.656978607177734375 50.656978607177734375 50.656978607177734375 50.656978607177734375 50.587902069091796875 50.331760406494140625 50.071929931640625 49.808300018310546875 49.54076385498046875 49.13092803955078125 48.659824371337890625 48.17608642578125 47.67901611328125 47.167858123779296875 46.641796112060546875 46.099925994873046875 45.541278839111328125 44.964771270751953125 44.603099822998046875 44.358158111572265625 44.1098480224609375 43.85807037353515625 43.589000701904296875 43.2101593017578125 42.823192596435546875 42.42774200439453125 42.023426055908203125 41.60984039306640625 41.186550140380859375 40.753086090087890625 40.30895233154296875 39.853603363037109375 39.386463165283203125 38.9069061279296875 38.41424560546875 37.907756805419921875 37.386631011962890625 36.850002288818359375 36.296916961669921875 35.72634124755859375 35.13712310791015625 34.340267181396484375 33.498676300048828125 32.6158905029296875 31.687671661376953125 30.810266494750976562 30.0324249267578125 29.2195281982421875 28.368261337280273438 27.474824905395507812 26.534820556640625 25.543127059936523438 24.493724822998046875 23.379482269287109375 22.191858291625976562 20.920495986938476562 19.552690505981445312 18.072595596313476562 16.460115432739257812 16.130344390869140625 16.130344390869140625 16.130344390869140625 16.130344390869140625 16.130344390869140625 16.130344390869140625 16.130344390869140625 16.130344390869140625 16.130344390869140625 17.340513229370117188 18.879367828369140625 20.297201156616210938 21.611669540405273438 22.453624725341796875 21.603319168090820312 20.710939407348632812 19.772106170654296875 18.781713485717773438 18.422842025756835938 18.422842025756835938 18.422842025756835938 18.422842025756835938 18.538957595825195312 19.542400360107421875 20.492954254150390625 21.395915985107421875 22.255825042724609375 23.285490036010742188 24.405376434326171875 25.459781646728515625 26.455944061279296875 27.3463287353515625 26.70168304443359375 26.03314208984375 25.3388671875 24.61679840087890625 24.610467910766601562 25.332784652709960938 26.02729034423828125 26.696043014526367188 27.34088897705078125 28.796937942504882812 30.178213119506835938 31.461200714111328125 32.658966064453125 33.78212738037109375 34.839435577392578125 35.83818817138671875 36.7845306396484375 37.68369293212890625 37.789302825927734375 37.789302825927734375 -9999 
54.5511474609375 54.504505157470703125 54.394893646240234375 54.284618377685546875 54.173664093017578125 54.062023162841796875 53.773960113525390625 53.45870208740234375 53.13784027099609375 52.81116485595703125 52.435649871826171875 51.9705657958984375 51.493175506591796875 51.002803802490234375 50.498729705810546875 50.401821136474609375 50.401821136474609375 50.401821136474609375 50.401821136474609375 50.331760406494140625 50.071929931640625 49.808300018310546875 49.54076385498046875 49.269195556640625 48.89825439453125 48.484027862548828125 48.06006622314453125 47.6259002685546875 47.181026458740234375 46.724903106689453125 46.256946563720703125 45.776523590087890625 45.282955169677734375 45.004199981689453125 44.841899871826171875 44.678127288818359375 44.512851715087890625 44.32361602783203125 43.96004486083984375 43.589000701904296875 43.2101593017578125 42.823192596435546875 42.42774200439453125 42.023426055908203125 41.60984039306640625 41.186550140380859375 40.753086090087890625 40.30895233154296875 39.853603363037109375 39.386463165283203125 38.9069061279296875 38.41424560546875 37.907756805419921875 37.386631011962890625 36.850002288818359375 36.296916961669921875 35.426288604736328125 34.498767852783203125 33.520954132080078125 32.487087249755859375 31.55594635009765625 30.810266494750976562 30.0324249267578125 29.2195281982421875 28.368261337280273438 27.474824905395507812 26.534820556640625 25.543127059936523438 24.493724822998046875 23.379482269287109375 22.191858291625976562 20.920495986938476562 19.552690505981445312 18.072595596313476562 17.771261215209960938 17.771261215209960938 17.771261215209960938 17.771261215209960938 17.771261215209960938 17.771261215209960938 17.771261215209960938 17.771261215209960938 17.771261215209960938 18.879367828369140625 20.297201156616210938 21.611669540405273438 22.836824417114257812 23.672039031982421875 23.137010574340820312 22.585628509521484375 22.016859054565429688 21.429571151733398438 21.220014572143554688 21.220014572143554688 21.220014572143554688 21.220014572143554688 21.287628173828125 21.879480361938476562 22.4525299072265625 23.007932662963867188 23.54674530029296875 24.405376434326171875 25.459781646728515625 26.455944061279296875 27.399961471557617188 28.2526702880859375 27.839014053344726562 27.4156494140625 26.98210906982421875 26.537891387939453125 26.534027099609375 26.97834014892578125 27.411970138549804688 27.835418701171875 28.249156951904296875 29.45648193359375 30.621246337890625 31.71533966064453125 32.746852874755859375 33.72255706787109375 34.648181915283203125 35.528621673583984375 36.36808013916015625 37.170200347900390625 37.2646942138671875 37.2646942138671875 -9999 
54.34581756591796875 54.2791290283203125 54.12213897705078125 53.963764190673828125 53.803989410400390625 53.64278411865234375 53.385223388671875 53.111820220947265625 52.8342132568359375 52.552265167236328125 52.204608917236328125 51.733448028564453125 51.24965667724609375 50.75252532958984375 50.241306304931640625 50.14300537109375 50.14300537109375 50.14300537109375 50.14300537109375 50.071929931640625 49.808300018310546875 49.54076385498046875 49.269195556640625 48.993480682373046875 48.662540435791015625 48.3065032958984375 47.94329833984375 47.5726318359375 47.194183349609375 46.807628631591796875 46.412609100341796875 46.0087432861328125 45.5956268310546875 45.396572113037109375 45.3130035400390625 45.229045867919921875 45.1446990966796875 45.02947998046875 44.68000030517578125 44.32361602783203125 43.96004486083984375 43.589000701904296875 43.2101593017578125 42.823192596435546875 42.42774200439453125 42.023426055908203125 41.60984039306640625 41.186550140380859375 40.753086090087890625 40.30895233154296875 39.853603363037109375 39.386463165283203125 38.9069061279296875 38.41424560546875 37.907756805419921875 37.386631011962890625 36.45062255859375 35.44631195068359375 34.382770538330078125 33.252574920654296875 32.272022247314453125 31.55594635009765625 30.810266494750976562 30.0324249267578125 29.2195281982421875 28.368261337280273438 27.474824905395507812 26.534820556640625 25.543127059936523438 24.493724822998046875 23.379482269287109375 22.191858291625976562 20.920495986938476562 19.552690505981445312 19.27527618408203125 19.27527618408203125 19.27527618408203125 19.27527618408203125 19.27527618408203125 19.27527618408203125 19.27527618408203125 19.27527618408203125 19.27527618408203125 20.297201156616210938 21.611669540405273438 22.836824417114257812 23.984035491943359375 24.813335418701171875 24.5504608154296875 24.283700942993164062 24.012933731079101562 23.738042831420898438 23.641107559204101562 23.641107559204101562 23.641107559204101562 23.641107559204101562 23.6723175048828125 23.94820404052734375 24.219936370849609375 24.487634658813476562 24.751420974731445312 25.459781646728515625 26.455944061279296875 27.399961471557617188 28.297023773193359375 29.115644454956054688 28.908872604370117188 28.699701309204101562 28.488077163696289062 28.2739410400390625 28.272090911865234375 28.486248016357421875 28.697895050048828125 28.907085418701171875 29.113878250122070312 30.0927581787109375 31.053655624389648438 31.965948104858398438 32.83431243896484375 33.66278839111328125 34.4548797607421875 35.213649749755859375 35.941783905029296875 36.641666412353515625 36.72437286376953125 36.72437286376953125 -9999 
54.13812255859375 54.050907135009765625 53.84519195556640625 53.637096405029296875 53.42657470703125 53.21356964111328125 52.98792266845703125 52.758136749267578125 52.525386810302734375 52.289592742919921875 51.9705657958984375 51.493175506591796875 51.002803802490234375 50.498729705810546875 49.980159759521484375 49.880420684814453125 49.880420684814453125 49.880420684814453125 49.880420684814453125 49.808300018310546875 49.54076385498046875 49.269195556640625 48.993480682373046875 48.713481903076171875 48.4237060546875 48.127216339111328125 47.825771331787109375 47.51920318603515625 47.207332611083984375 46.88997650146484375 46.566936492919921875 46.238006591796875 45.9029693603515625 45.780590057373046875 45.77211761474609375 45.763641357421875 45.755157470703125 45.70876312255859375 45.372318267822265625 45.02947998046875 44.68000030517578125 44.32361602783203125 43.96004486083984375 43.589000701904296875 43.2101593017578125 42.823192596435546875 42.42774200439453125 42.023426055908203125 41.60984039306640625 41.186550140380859375 40.753086090087890625 40.30895233154296875 39.853603363037109375 39.386463165283203125 38.9069061279296875 38.41424560546875 37.41989898681640625 36.3465576171875 35.205280303955078125 33.9868927001953125 32.96075439453125 32.272022247314453125 31.55594635009765625 30.810266494750976562 30.0324249267578125 29.2195281982421875 28.368261337280273438 27.474824905395507812 26.534820556640625 25.543127059936523438 24.493724822998046875 23.379482269287109375 22.191858291625976562 20.920495986938476562 20.663486480712890625 20.663486480712890625 20.663486480712890625 20.663486480712890625 20.663486480712890625 20.663486480712890625 20.663486480712890625 20.663486480712890625 20.663486480712890625 21.611669540405273438 22.836824417114257812 23.984035491943359375 25.06262969970703125 25.886701583862304688 25.861162185668945312 25.8355865478515625 25.809976577758789062 25.784328460693359375 25.77536773681640625 25.77536773681640625 25.77536773681640625 25.77536773681640625 25.778247833251953125 25.803905487060546875 25.829524993896484375 25.855108261108398438 25.880657196044921875 26.455944061279296875 27.399961471557617188 28.297023773193359375 29.151578903198242188 29.939210891723632812 29.918813705444335938 29.898393630981445312 29.877948760986328125 29.85748291015625 29.85730743408203125 29.877773284912109375 29.898218154907226562 29.918638229370117188 29.939035415649414062 30.707355499267578125 31.475946426391601562 32.213123321533203125 32.921352386474609375 33.60282135009765625 34.25948333740234375 34.893077850341796875 35.505168914794921875 36.097171783447265625 36.167362213134765625 36.167362213134765625 -9999 
53.928009033203125 53.83745574951171875 53.623790740966796875 53.407562255859375 53.18871307373046875 52.967174530029296875 52.74288177490234375 52.515766143798828125 52.2857513427734375 52.052768707275390625 51.749706268310546875 51.314006805419921875 50.867523193359375 50.40970611572265625 49.93996429443359375 49.849761962890625 49.849761962890625 49.849761962890625 49.849761962890625 49.77751922607421875 49.509521484375 49.23748016357421875 48.961273193359375 48.680774688720703125 48.43682098388671875 48.204608917236328125 47.969371795654296875 47.73102569580078125 47.4780426025390625 47.173297882080078125 46.863315582275390625 46.547916412353515625 46.226902008056640625 46.115024566650390625 46.115024566650390625 46.115024566650390625 46.115024566650390625 46.076908111572265625 45.747325897216796875 45.4116058349609375 45.069522857666015625 44.720821380615234375 44.3652496337890625 44.002529144287109375 43.63236236572265625 43.2544403076171875 42.86843109130859375 42.4739837646484375 42.070713043212890625 41.65822601318359375 41.236083984375 40.761127471923828125 40.22942352294921875 39.68157196044921875 39.116558074951171875 38.533275604248046875 37.528858184814453125 36.447967529296875 35.29815673828125 34.070034027099609375 33.03884124755859375 32.353145599365234375 31.640344619750976562 30.89821624755859375 30.124242782592773438 29.457422256469726562 28.784275054931640625 28.085033416748046875 27.3575897216796875 26.59957122802734375 25.808298110961914062 24.980718612670898438 24.113336563110351562 23.202129364013671875 23.020153045654296875 23.020153045654296875 23.020153045654296875 23.020153045654296875 22.95896148681640625 22.728305816650390625 22.494663238525390625 22.257953643798828125 22.018096923828125 22.667909622192382812 23.605804443359375 24.49733734130859375 25.346872329711914062 25.970201492309570312 25.775201797485351562 25.578067779541015625 25.378757476806640625 25.177221298217773438 25.238317489624023438 25.439178466796875 25.63782501220703125 25.834308624267578125 26.028675079345703125 26.22097015380859375 26.411235809326171875 26.599515914916992188 26.785852432250976562 27.296939849853515625 28.02678680419921875 28.728246688842773438 29.403448104858398438 30.037548065185546875 30.191686630249023438 30.344516754150390625 30.496065139770507812 30.646352767944335938 30.721668243408203125 30.721668243408203125 30.721668243408203125 30.721668243408203125 30.721668243408203125 31.439273834228515625 32.15990447998046875 32.852848052978515625 33.5201568603515625 34.16365814208984375 34.7849884033203125 35.385631561279296875 35.966915130615234375 36.53005218505859375 36.596881866455078125 36.596881866455078125 -9999 
53.715419769287109375 53.623790740966796875 53.407562255859375 53.18871307373046875 52.967174530029296875 52.74288177490234375 52.515766143798828125 52.2857513427734375 52.052768707275390625 51.816738128662109375 51.52825927734375 51.141536712646484375 50.746337890625 50.342288970947265625 49.928981781005859375 49.849761962890625 49.849761962890625 49.849761962890625 49.849761962890625 49.77751922607421875 49.509521484375 49.23748016357421875 48.961273193359375 48.680774688720703125 48.48305511474609375 48.315113067626953125 48.145595550537109375 47.974468231201171875 47.7777252197265625 47.4780426025390625 47.173297882080078125 46.863315582275390625 46.547916412353515625 46.438018798828125 46.438018798828125 46.438018798828125 46.438018798828125 46.40058135986328125 46.076908111572265625 45.747325897216796875 45.4116058349609375 45.069522857666015625 44.720821380615234375 44.3652496337890625 44.002529144287109375 43.63236236572265625 43.2544403076171875 42.86843109130859375 42.4739837646484375 42.070713043212890625 41.65822601318359375 41.147144317626953125 40.529262542724609375 39.889461517333984375 39.226131439208984375 38.5374755859375 37.528858184814453125 36.447967529296875 35.29815673828125 34.070034027099609375 33.03884124755859375 32.353145599365234375 31.640344619750976562 30.89821624755859375 30.124242782592773438 29.616525650024414062 29.134408950805664062 28.639051437377929688 28.12970733642578125 27.605562210083007812 27.065731048583984375 26.509243011474609375 25.935041427612304688 25.341958999633789062 25.224771499633789062 25.224771499633789062 25.224771499633789062 25.224771499633789062 25.10919952392578125 24.6703948974609375 24.22064971923828125 23.759405136108398438 23.286054611206054688 23.644664764404296875 24.29521942138671875 24.923126220703125 25.5299072265625 25.928518295288085938 25.509426116943359375 25.080366134643554688 24.640851974487304688 24.190359115600585938 24.327587127685546875 24.774705886840820312 25.211009979248046875 25.637010574340820312 26.053182601928710938 26.45996856689453125 26.857784271240234375 27.247014999389648438 27.628025054931640625 28.087522506713867188 28.598041534423828125 29.094511032104492188 29.577680587768554688 30.043590545654296875 30.370374679565429688 30.691343307495117188 31.006702423095703125 31.316640853881835938 31.470945358276367188 31.470945358276367188 31.470945358276367188 31.470945358276367188 31.470945358276367188 32.15990447998046875 32.852848052978515625 33.5201568603515625 34.16365814208984375 34.7849884033203125 35.385631561279296875 35.966915130615234375 36.53005218505859375 37.076141357421875 37.140979766845703125 37.140979766845703125 -9999 
53.500293731689453125 53.407562255859375 53.18871307373046875 52.967174530029296875 52.74288177490234375 52.515766143798828125 52.2857513427734375 52.052768707275390625 51.816738128662109375 51.57757568359375 51.3040618896484375 50.96739959716796875 50.62433624267578125 50.27462005615234375 49.917987823486328125 49.849761962890625 49.849761962890625 49.849761962890625 49.849761962890625 49.77751922607421875 49.509521484375 49.23748016357421875 48.961273193359375 48.680774688720703125 48.529170989990234375 48.424945831298828125 48.3201141357421875 48.21466827392578125 48.072505950927734375 47.7777252197265625 47.4780426025390625 47.173297882080078125 46.863315582275390625 46.755329132080078125 46.755329132080078125 46.755329132080078125 46.755329132080078125 46.71854400634765625 46.40058135986328125 46.076908111572265625 45.747325897216796875 45.4116058349609375 45.069522857666015625 44.720821380615234375 44.3652496337890625 44.002529144287109375 43.63236236572265625 43.2544403076171875 42.86843109130859375 42.4739837646484375 42.070713043212890625 41.5250701904296875 40.824192047119140625 40.094982147216796875 39.33504486083984375 38.54167938232421875 37.528858184814453125 36.447967529296875 35.29815673828125 34.070034027099609375 33.03884124755859375 32.353145599365234375 31.640344619750976562 30.89821624755859375 30.124242782592773438 29.77423858642578125 29.477874755859375 29.176561355590820312 28.870130538940429688 28.55840301513671875 28.241193771362304688 27.918306350708007812 27.589532852172851562 27.254657745361328125 27.189056396484375 27.189056396484375 27.189056396484375 27.189056396484375 27.030210494995117188 26.423570632934570312 25.795818328857421875 25.145427703857421875 24.470708847045898438 24.571237564086914062 24.95925140380859375 25.339094161987304688 25.7111053466796875 25.886739730834960938 25.239679336547851562 24.56854248046875 23.87146759033203125 23.146368026733398438 23.368417739868164062 24.084817886352539062 24.773851394653320312 25.437532424926757812 26.077657699584960938 26.695844650268554688 27.293544769287109375 27.872074127197265625 28.432626724243164062 28.844903945922851562 29.151762008666992188 29.453485488891601562 29.750246047973632812 30.049633026123046875 30.547311782836914062 31.031627655029296875 31.5032806396484375 31.96291351318359375 32.190338134765625 32.190338134765625 32.190338134765625 32.190338134765625 32.190338134765625 32.852848052978515625 33.5201568603515625 34.16365814208984375 34.7849884033203125 35.385631561279296875 35.966915130615234375 36.53005218505859375 37.076141357421875 37.606182098388671875 37.669147491455078125 37.669147491455078125 -9999 
53.282573699951171875 53.18871307373046875 52.967174530029296875 52.74288177490234375 52.515766143798828125 52.2857513427734375 52.052768707275390625 51.816738128662109375 51.57757568359375 51.335201263427734375 51.077045440673828125 50.791568756103515625 50.50150299072265625 50.206695556640625 49.90699005126953125 49.849761962890625 49.849761962890625 49.849761962890625 49.849761962890625 49.77751922607421875 49.509521484375 49.23748016357421875 48.961273193359375 48.680774688720703125 48.57517242431640625 48.53411102294921875 48.492961883544921875 48.45171356201171875 48.362552642822265625 48.072505950927734375 47.7777252197265625 47.4780426025390625 47.173297882080078125 47.067157745361328125 47.067157745361328125 47.067157745361328125 47.067157745361328125 47.031002044677734375 46.71854400634765625 46.40058135986328125 46.076908111572265625 45.747325897216796875 45.4116058349609375 45.069522857666015625 44.720821380615234375 44.3652496337890625 44.002529144287109375 43.63236236572265625 43.2544403076171875 42.86843109130859375 42.4739837646484375 41.89524078369140625 41.1143798828125 40.298183441162109375 39.443302154541015625 38.545879364013671875 37.528858184814453125 36.447967529296875 35.29815673828125 34.070034027099609375 33.03884124755859375 32.353145599365234375 31.640344619750976562 30.89821624755859375 30.124242782592773438 29.930582046508789062 29.814922332763671875 29.698516845703125 29.581354141235351562 29.463426589965820312 29.344720840454101562 29.225231170654296875 29.104944229125976562 28.98384857177734375 28.960294723510742188 28.960294723510742188 28.960294723510742188 28.960294723510742188 28.766191482543945312 28.0213470458984375 27.244415283203125 26.432512283325195312 25.582334518432617188 25.452531814575195312 25.599706649780273438 25.745687484741210938 25.890501022338867188 25.8448638916015625 24.9658355712890625 24.04177093505859375 23.067798614501953125 22.038225173950195312 22.355367660522460938 23.367494583129882812 24.325836181640625 25.235822677612304688 26.102098464965820312 26.92867279052734375 27.719026565551757812 28.476200103759765625 29.2028656005859375 29.571763992309570312 29.688989639282226562 29.805456161499023438 29.921176910400390625 30.05567169189453125 30.722530364990234375 31.365610122680664062 31.986553192138671875 32.58683013916015625 32.882137298583984375 32.882137298583984375 32.882137298583984375 32.882137298583984375 32.882137298583984375 33.5201568603515625 34.16365814208984375 34.7849884033203125 35.385631561279296875 35.966915130615234375 36.53005218505859375 37.076141357421875 37.606182098388671875 38.121089935302734375 38.182285308837890625 38.182285308837890625 -9999 
53.2147064208984375 53.12049102783203125 52.89810943603515625 52.67295074462890625 52.4449462890625 52.214023590087890625 51.980106353759765625 51.743114471435546875 51.50296783447265625 51.25958251953125 51.012866973876953125 50.762729644775390625 50.509075164794921875 50.251804351806640625 49.990810394287109375 49.9410400390625 49.9410400390625 49.9410400390625 49.9410400390625 49.86916351318359375 49.60253143310546875 49.33190155029296875 49.057147979736328125 48.77814483642578125 48.702999114990234375 48.702999114990234375 48.702999114990234375 48.702999114990234375 48.652194976806640625 48.388683319091796875 48.121265411376953125 47.849822998046875 47.5742340087890625 47.478351593017578125 47.478351593017578125 47.478351593017578125 47.478351593017578125 47.4403228759765625 47.111484527587890625 46.776538848876953125 46.4352569580078125 46.087390899658203125 45.73268890380859375 45.37087249755859375 45.00164794921875 44.624706268310546875 44.239719390869140625 43.846340179443359375 43.444187164306640625 43.032863616943359375 42.61194610595703125 42.008197784423828125 41.20318603515625 40.360565185546875 39.476650238037109375 38.547176361083984375 37.56719970703125 36.530910491943359375 35.43143463134765625 34.260578155517578125 33.269733428955078125 32.592922210693359375 31.889722824096679688 31.157993316650390625 30.395320892333984375 30.357240676879882812 30.416547775268554688 30.475658416748046875 30.534576416015625 30.552791595458984375 30.493932723999023438 30.434881210327148438 30.375637054443359375 30.316194534301757812 30.304656982421875 30.304656982421875 30.304656982421875 30.304656982421875 30.077905654907226562 29.203887939453125 28.2853546142578125 27.31752777099609375 26.2948150634765625 25.95180511474609375 25.875810623168945312 25.799493789672851562 25.722850799560546875 25.452447891235351562 24.31475067138671875 23.10044097900390625 21.798448562622070312 20.395120620727539062 20.830511093139648438 22.2016143798828125 23.475820541381835938 24.665929794311523438 25.78235626220703125 26.833696365356445312 27.827121734619140625 28.768680572509765625 29.663522720336914062 30.1014251708984375 30.221527099609375 30.3408355712890625 30.459360122680664062 30.59764862060546875 31.295682907104492188 31.967710494995117188 32.6156005859375 33.24102020263671875 33.548381805419921875 33.548381805419921875 33.548381805419921875 33.548381805419921875 33.548381805419921875 34.16365814208984375 34.7849884033203125 35.385631561279296875 35.966915130615234375 36.53005218505859375 37.076141357421875 37.606182098388671875 38.121089935302734375 38.621707916259765625 38.681232452392578125 38.681232452392578125 -9999 
53.4332427978515625 53.3401641845703125 53.12049102783203125 52.89810943603515625 52.67295074462890625 52.4449462890625 52.214023590087890625 51.980106353759765625 51.743114471435546875 51.50296783447265625 51.25958251953125 51.012866973876953125 50.762729644775390625 50.509075164794921875 50.251804351806640625 50.202747344970703125 50.202747344970703125 50.202747344970703125 50.202747344970703125 50.131908416748046875 49.86916351318359375 49.60253143310546875 49.33190155029296875 49.057147979736328125 48.983158111572265625 48.983158111572265625 48.983158111572265625 48.983158111572265625 48.945079803466796875 48.7480010986328125 48.54874420166015625 48.347263336181640625 48.143505096435546875 48.07280731201171875 48.07280731201171875 48.07280731201171875 48.07280731201171875 48.028469085693359375 47.6444244384765625 47.2520294189453125 46.8509063720703125 46.4406585693359375 46.02086639404296875 45.59107208251953125 45.150783538818359375 44.699481964111328125 44.236598968505859375 43.761524200439453125 43.273593902587890625 42.772106170654296875 42.2562713623046875 41.64035797119140625 40.91443634033203125 40.158069610595703125 39.36859130859375 38.54297637939453125 37.67775726318359375 36.768932342529296875 35.81188201904296875 34.8011932373046875 33.922069549560546875 33.269733428955078125 32.592922210693359375 31.889722824096679688 31.157993316650390625 31.266628265380859375 31.485322952270507812 31.701396942138671875 31.914915084838867188 31.980556488037109375 31.767820358276367188 31.552545547485351562 31.334669113159179688 31.114130020141601562 31.0710906982421875 31.0710906982421875 31.0710906982421875 31.0710906982421875 30.80902099609375 29.793951034545898438 28.7183380126953125 27.574499130249023438 26.353185653686523438 25.791101455688476562 25.4905548095703125 25.184915542602539062 24.8740081787109375 24.352115631103515625 22.88195037841796875 21.281251907348632812 19.524553298950195312 17.578138351440429688 18.188348770141601562 20.0732879638671875 21.77976226806640625 23.338665008544921875 24.773496627807617188 26.10256195068359375 27.340387344360351562 28.498699188232421875 29.587100982666015625 30.3003692626953125 30.758760452270507812 31.205789566040039062 31.642011642456054688 32.070644378662109375 32.563350677490234375 33.042957305908203125 33.51013946533203125 33.9655303955078125 34.190891265869140625 34.190891265869140625 34.190891265869140625 34.190891265869140625 34.190891265869140625 34.7849884033203125 35.385631561279296875 35.966915130615234375 36.53005218505859375 37.076141357421875 37.606182098388671875 38.121089935302734375 38.621707916259765625 39.108806610107421875 39.166748046875 39.166748046875 -9999 
53.64916229248046875 53.55719757080078125 53.3401641845703125 53.12049102783203125 52.89810943603515625 52.67295074462890625 52.4449462890625 52.214023590087890625 51.980106353759765625 51.743114471435546875 51.50296783447265625 51.25958251953125 51.012866973876953125 50.762729644775390625 50.509075164794921875 50.46071624755859375 50.46071624755859375 50.46071624755859375 50.46071624755859375 50.3908843994140625 50.131908416748046875 49.86916351318359375 49.60253143310546875 49.33190155029296875 49.259029388427734375 49.259029388427734375 49.259029388427734375 49.259029388427734375 49.23328399658203125 49.100299835205078125 48.966327667236328125 48.83135223388671875 48.695362091064453125 48.648296356201171875 48.648296356201171875 48.648296356201171875 48.648296356201171875 48.598041534423828125 48.16207122802734375 47.715305328369140625 47.257190704345703125 46.787139892578125 46.30451202392578125 45.80861663818359375 45.29869842529296875 44.77394866943359375 44.2334747314453125 43.676303863525390625 43.101375579833984375 42.507518768310546875 41.893444061279296875 41.264865875244140625 40.6209869384765625 39.95326995849609375 39.259883880615234375 38.538776397705078125 37.78763580322265625 37.003856658935546875 36.184467315673828125 35.326080322265625 34.5516357421875 33.922069549560546875 33.269733428955078125 32.592922210693359375 31.889722824096679688 32.13236236572265625 32.49430084228515625 32.84912109375 33.197093963623046875 33.303554534912109375 32.95764923095703125 32.60498046875 32.24527740478515625 31.87825775146484375 31.80628204345703125 31.80628204345703125 31.80628204345703125 31.80628204345703125 31.511655807495117188 30.365324020385742188 29.141172409057617188 27.827859878540039062 26.41136932373046875 25.6289520263671875 25.096891403198242188 24.5486602783203125 23.983240127563476562 23.180280685424804688 21.325448989868164062 19.25780487060546875 16.9221038818359375 14.238346099853515625 15.091655731201171875 17.659830093383789062 19.907526016235351562 21.905927658081054688 23.704853057861328125 25.340536117553710938 26.840154647827148438 28.224615097045898438 29.51035308837890625 30.497144699096679688 31.28045654296875 32.031162261962890625 32.751873016357421875 33.4323883056640625 33.747753143310546875 34.05770111083984375 34.3624114990234375 34.662059783935546875 34.81130218505859375 34.81130218505859375 34.81130218505859375 34.81130218505859375 34.81130218505859375 35.385631561279296875 35.966915130615234375 36.53005218505859375 37.076141357421875 37.606182098388671875 38.121089935302734375 38.621707916259765625 39.108806610107421875 39.583099365234375 39.639537811279296875 39.639537811279296875 -9999 
53.862529754638671875 53.771648406982421875 53.55719757080078125 53.3401641845703125 53.12049102783203125 52.89810943603515625 52.67295074462890625 52.4449462890625 52.214023590087890625 51.980106353759765625 51.743114471435546875 51.50296783447265625 51.25958251953125 51.012866973876953125 50.762729644775390625 50.715045928955078125 50.715045928955078125 50.715045928955078125 50.715045928955078125 50.6461944580078125 50.3908843994140625 50.131908416748046875 49.86916351318359375 49.60253143310546875 49.530750274658203125 49.530750274658203125 49.530750274658203125 49.530750274658203125 49.5169525146484375 49.4458465576171875 49.374462127685546875 49.302791595458984375 49.2308349609375 49.205989837646484375 49.205989837646484375 49.205989837646484375 49.205989837646484375 49.150180816650390625 48.665279388427734375 48.16698455810546875 47.654529571533203125 47.127094268798828125 46.583766937255859375 46.02356719970703125 45.44541168212890625 44.848110198974609375 44.230350494384765625 43.5906829833984375 42.92749786376953125 42.238994598388671875 41.523166656494140625 40.881389617919921875 40.32268524169921875 39.746120452880859375 39.150516510009765625 38.534576416015625 37.896854400634765625 37.235759735107421875 36.549510955810546875 35.83612060546875 35.159969329833984375 34.5516357421875 33.922069549560546875 33.269733428955078125 32.592922210693359375 32.958446502685546875 33.44982147216796875 33.928165435791015625 34.394153594970703125 34.5361175537109375 34.07382965087890625 33.599384307861328125 33.112117767333984375 32.611328125 32.5126800537109375 32.5126800537109375 32.5126800537109375 32.5126800537109375 32.1879425048828125 30.919153213500976562 29.5543212890625 28.077711105346679688 26.469364166259765625 25.465333938598632812 24.694446563720703125 23.88913726806640625 23.046190261840820312 21.926996231079101562 19.62184906005859375 16.978366851806640625 13.879858970642089844 10.136432647705078125 11.350880622863769531 14.872853279113769531 17.818225860595703125 20.349500656127929688 22.568891525268554688 24.544893264770507812 26.325651168823242188 27.946302413940429688 29.433277130126953125 30.69179534912109375 31.787485122680664062 32.820415496826171875 33.79738616943359375 34.69850921630859375 34.859157562255859375 35.0183868408203125 35.1762237548828125 35.332691192626953125 35.411083221435546875 35.411083221435546875 35.411083221435546875 35.411083221435546875 35.411083221435546875 35.966915130615234375 36.53005218505859375 37.076141357421875 37.606182098388671875 38.121089935302734375 38.621707916259765625 39.108806610107421875 39.583099365234375 40.045238494873046875 40.100254058837890625 40.100254058837890625 -9999 
54.07340240478515625 53.98358154296875 53.771648406982421875 53.55719757080078125 53.3401641845703125 53.12049102783203125 52.89810943603515625 52.67295074462890625 52.4449462890625 52.214023590087890625 51.980106353759765625 51.743114471435546875 51.50296783447265625 51.25958251953125 51.012866973876953125 50.965839385986328125 50.965839385986328125 50.965839385986328125 50.965839385986328125 50.897937774658203125 50.6461944580078125 50.3908843994140625 50.131908416748046875 49.86916351318359375 49.798435211181640625 49.798435211181640625 49.798435211181640625 49.798435211181640625 49.796234130859375 49.784900665283203125 49.77356719970703125 49.7622222900390625 49.7508697509765625 49.746959686279296875 49.746959686279296875 49.746959686279296875 49.746959686279296875 49.68592071533203125 49.154827117919921875 48.60762786865234375 48.043304443359375 47.46075439453125 46.8587646484375 46.235988616943359375 45.590938568115234375 44.921966552734375 44.22722625732421875 43.5046539306640625 42.751922607421875 41.966411590576171875 41.145130157470703125 40.48958587646484375 40.019367218017578125 39.536563873291015625 39.0404815673828125 38.530368804931640625 38.005413055419921875 37.4647216796875 36.907318115234375 36.3321380615234375 35.74845123291015625 35.159969329833984375 34.5516357421875 33.922069549560546875 33.269733428955078125 33.748348236083984375 34.35726165771484375 34.946292877197265625 35.516696929931640625 35.689823150634765625 35.1249542236328125 34.541820526123046875 33.939208984375 33.315765380859375 33.192455291748046875 33.192455291748046875 33.192455291748046875 33.192455291748046875 32.83979034423828125 31.456483840942382812 29.958219528198242188 28.324148178100585938 26.527172088623046875 25.3002166748046875 24.282815933227539062 23.204584121704101562 22.057783126831054688 20.580095291137695312 17.740419387817382812 14.368653297424316406 10.218332290649414062 4.8184742927551269531 6.6257991790771484375 11.575185775756835938 15.454844474792480469 18.645990371704101562 21.35655975341796875 23.71253204345703125 25.79604339599609375 27.66362762451171875 29.355869293212890625 30.884368896484375 32.280651092529296875 33.57657623291015625 34.785610198974609375 35.881561279296875 35.906040191650390625 35.93048858642578125 35.954898834228515625 35.979278564453125 35.9915618896484375 35.9915618896484375 35.9915618896484375 35.9915618896484375 35.9915618896484375 36.53005218505859375 37.076141357421875 37.606182098388671875 38.121089935302734375 38.621707916259765625 39.108806610107421875 39.583099365234375 40.045238494873046875 40.4958343505859375 40.54949188232421875 40.54949188232421875 -9999 
54.281841278076171875 54.193050384521484375 53.98358154296875 53.771648406982421875 53.55719757080078125 53.3401641845703125 53.12049102783203125 52.89810943603515625 52.67295074462890625 52.4449462890625 52.22846221923828125 52.036487579345703125 51.842449188232421875 51.64630126953125 51.447994232177734375 51.41025543212890625 51.41025543212890625 51.41025543212890625 51.41025543212890625 51.344013214111328125 51.09845733642578125 50.849514007568359375 50.59708404541015625 50.341075897216796875 50.27217864990234375 50.27217864990234375 50.27217864990234375 50.27217864990234375 50.2632293701171875 50.21715545654296875 50.170963287353515625 50.124652862548828125 50.07822418212890625 50.001087188720703125 49.90746307373046875 49.8133544921875 49.718753814697265625 49.577610015869140625 49.080661773681640625 48.56963348388671875 48.043704986572265625 47.501979827880859375 46.9114837646484375 46.27679443359375 45.61895751953125 44.93621826171875 44.226619720458984375 43.487964630126953125 42.717761993408203125 41.91320037841796875 41.071075439453125 40.4127960205078125 39.9600982666015625 39.4957427978515625 39.0191192626953125 38.5295562744140625 38.113323211669921875 37.6908111572265625 37.2581634521484375 36.814884185791015625 36.36043548583984375 35.8942413330078125 35.415679931640625 34.924072265625 34.418697357177734375 34.711925506591796875 35.102947235107421875 35.4856719970703125 35.860443115234375 35.86949920654296875 35.17913818359375 34.4613037109375 33.713718414306640625 32.933803558349609375 32.778728485107421875 32.778728485107421875 32.778728485107421875 32.778728485107421875 32.409862518310546875 30.95969390869140625 29.38266754150390625 27.654449462890625 25.74294281005859375 24.5532684326171875 23.64520263671875 22.688991546630859375 21.679241180419921875 20.399209976196289062 18.019023895263671875 15.276339530944824219 12.040552139282226562 8.09462738037109375 9.6663150787353515625 13.667424201965332031 16.94017791748046875 19.709354400634765625 22.134019851684570312 24.4428253173828125 26.489374160766601562 28.327211380004882812 29.994997024536132812 31.52155303955078125 32.9289398193359375 34.234424591064453125 35.451770782470703125 36.557338714599609375 36.655445098876953125 36.753025054931640625 36.85007476806640625 36.9466094970703125 36.99509429931640625 36.99509429931640625 36.99509429931640625 36.99509429931640625 36.99509429931640625 37.504852294921875 38.02262115478515625 38.525943756103515625 39.01560211181640625 39.49231719970703125 39.956756591796875 40.409542083740234375 40.851238250732421875 41.282375335693359375 41.33374786376953125 41.33374786376953125 -9999 
54.487895965576171875 54.400115966796875 54.193050384521484375 53.98358154296875 53.771648406982421875 53.55719757080078125 53.3401641845703125 53.12049102783203125 52.89810943603515625 52.67295074462890625 52.47686004638671875 52.33844757080078125 52.19896697998046875 52.05840301513671875 51.916728973388671875 51.889820098876953125 51.889820098876953125 51.889820098876953125 51.889820098876953125 51.8253173828125 51.586269378662109375 51.344013214111328125 51.09845733642578125 50.849514007568359375 50.78253173828125 50.78253173828125 50.78253173828125 50.78253173828125 50.7630462646484375 50.662517547607421875 50.561420440673828125 50.459758758544921875 50.357517242431640625 50.18695831298828125 49.97875213623046875 49.7681121826171875 49.554988861083984375 49.313629150390625 48.8709869384765625 48.417209625244140625 47.95172119140625 47.47389984130859375 46.9114837646484375 46.27679443359375 45.61895751953125 44.93621826171875 44.226619720458984375 43.487964630126953125 42.717761993408203125 41.91320037841796875 41.071075439453125 40.4127960205078125 39.9600982666015625 39.4957427978515625 39.0191192626953125 38.5295562744140625 38.220592498779296875 37.91410064697265625 37.602313995361328125 37.28504180908203125 36.96208953857421875 36.633251190185546875 36.298305511474609375 35.95702362060546875 35.609157562255859375 35.67345428466796875 35.79164886474609375 35.9090728759765625 36.02573394775390625 35.825717926025390625 35.001178741455078125 34.137134552001953125 33.2296142578125 32.274005889892578125 32.08287811279296875 32.08287811279296875 32.08287811279296875 32.08287811279296875 31.699346542358398438 30.188409805297851562 28.539247512817382812 26.724002838134765625 24.705440521240234375 23.6257476806640625 22.929983139038085938 22.206304550170898438 21.452373504638671875 20.512254714965820312 18.81243133544921875 16.935606002807617188 14.840585708618164062 12.469880104064941406 13.734790802001953125 16.631986618041992188 19.12761688232421875 21.319568634033203125 23.325336456298828125 25.495107650756835938 27.431688308715820312 29.180372238159179688 30.774419784545898438 32.2389678955078125 33.5934906005859375 34.853366851806640625 36.030963897705078125 37.10669708251953125 37.31917572021484375 37.52918243408203125 37.7367706298828125 37.941997528076171875 38.04461669921875 38.04461669921875 38.04461669921875 38.04461669921875 38.04461669921875 38.525943756103515625 39.01560211181640625 39.49231719970703125 39.956756591796875 40.409542083740234375 40.851238250732421875 41.282375335693359375 41.703449249267578125 42.114917755126953125 42.16397857666015625 42.16397857666015625 -9999 
54.691623687744140625 54.604831695556640625 54.400115966796875 54.193050384521484375 53.98358154296875 53.771648406982421875 53.55719757080078125 53.3401641845703125 53.12049102783203125 52.89810943603515625 52.72188568115234375 52.635440826416015625 52.548580169677734375 52.46129608154296875 52.373592376708984375 52.356964111328125 52.356964111328125 52.356964111328125 52.356964111328125 52.2941131591796875 52.061237335205078125 51.8253173828125 51.586269378662109375 51.344013214111328125 51.27884674072265625 51.27884674072265625 51.27884674072265625 51.27884674072265625 51.2493896484375 51.09714508056640625 50.943607330322265625 50.78874969482421875 50.6325531005859375 50.37093353271484375 50.0497589111328125 49.722759246826171875 49.389720916748046875 49.0457305908203125 48.658847808837890625 48.263484954833984375 47.859264373779296875 47.44577789306640625 46.9114837646484375 46.27679443359375 45.61895751953125 44.93621826171875 44.226619720458984375 43.487964630126953125 42.717761993408203125 41.91320037841796875 41.071075439453125 40.4127960205078125 39.9600982666015625 39.4957427978515625 39.0191192626953125 38.5295562744140625 38.3272247314453125 38.134662628173828125 37.940021514892578125 37.743259429931640625 37.544322967529296875 37.343170166015625 37.139751434326171875 36.934009552001953125 36.725894927978515625 36.586315155029296875 36.455020904541015625 36.32276153564453125 36.189525604248046875 35.781833648681640625 34.821445465087890625 33.807033538818359375 32.7321624755859375 31.589160919189453125 31.359098434448242188 31.359098434448242188 31.359098434448242188 31.359098434448242188 30.95969390869140625 29.38266754150390625 27.654449462890625 25.74294281005859375 23.604602813720703125 22.647939682006835938 22.18523406982421875 21.710346221923828125 21.22261810302734375 20.62459564208984375 19.572406768798828125 18.455018997192382812 17.263820648193359375 15.988363265991210938 17.052415847778320312 19.177412033081054688 21.078256607055664062 22.797754287719726562 24.4428253173828125 26.489374160766601562 28.327211380004882812 29.994997024536132812 31.52155303955078125 32.9289398193359375 34.234424591064453125 35.451770782470703125 36.592136383056640625 37.639820098876953125 37.9593505859375 38.273319244384765625 38.58191680908203125 38.88532257080078125 39.03641510009765625 39.03641510009765625 39.03641510009765625 39.03641510009765625 39.03641510009765625 39.49231719970703125 39.956756591796875 40.409542083740234375 40.851238250732421875 41.282375335693359375 41.703449249267578125 42.114917755126953125 42.5172119140625 42.910724639892578125 42.957672119140625 42.957672119140625 -9999 
54.89307403564453125 54.8072509765625 54.604831695556640625 54.400115966796875 54.193050384521484375 53.98358154296875 53.771648406982421875 53.55719757080078125 53.3401641845703125 53.12049102783203125 52.963623046875 52.92761993408203125 52.89154052734375 52.8553924560546875 52.819171905517578125 52.812313079833984375 52.812313079833984375 52.812313079833984375 52.812313079833984375 52.751033782958984375 52.524017333984375 52.2941131591796875 52.061237335205078125 51.8253173828125 51.761871337890625 51.761871337890625 51.761871337890625 51.761871337890625 51.72296142578125 51.521549224853515625 51.31786346435546875 51.111850738525390625 50.903461456298828125 50.5530548095703125 50.1204833984375 49.677288055419921875 49.222927093505859375 48.7737884521484375 48.444183349609375 48.108440399169921875 47.76633453369140625 47.41761016845703125 46.9114837646484375 46.27679443359375 45.61895751953125 44.93621826171875 44.226619720458984375 43.487964630126953125 42.717761993408203125 41.91320037841796875 41.071075439453125 40.4127960205078125 39.9600982666015625 39.4957427978515625 39.0191192626953125 38.5295562744140625 38.43323516845703125 38.352558135986328125 38.27152252197265625 38.19012451171875 38.1083526611328125 38.026210784912109375 37.943691253662109375 37.8607940673828125 37.7775115966796875 37.455196380615234375 37.094860076904296875 36.727176666259765625 36.351840972900390625 35.7378387451171875 34.63990020751953125 33.4707794189453125 32.220600128173828125 30.877285003662109375 30.60506439208984375 30.60506439208984375 30.60506439208984375 30.60506439208984375 30.188409805297851562 28.539247512817382812 26.724002838134765625 24.705440521240234375 22.43219757080078125 21.61407470703125 21.408405303955078125 21.200365066528320312 20.989900588989257812 20.736242294311523438 20.301652908325195312 19.856336593627929688 19.399745941162109375 18.93129730224609375 19.8536224365234375 21.407672882080078125 22.838392257690429688 24.163930892944335938 25.495107650756835938 27.431688308715820312 29.180372238159179688 30.774419784545898438 32.2389678955078125 33.5934906005859375 34.853366851806640625 36.030963897705078125 37.13637542724609375 38.1576385498046875 38.57758331298828125 38.987972259521484375 39.389232635498046875 39.78176116943359375 39.9765167236328125 39.9765167236328125 39.9765167236328125 39.9765167236328125 39.9765167236328125 40.409542083740234375 40.851238250732421875 41.282375335693359375 41.703449249267578125 42.114917755126953125 42.5172119140625 42.910724639892578125 43.295841217041015625 43.67290496826171875 43.717906951904296875 43.717906951904296875 -9999 
55.14527130126953125 55.060642242431640625 54.86106109619140625 54.65924835205078125 54.4551544189453125 54.248722076416015625 54.204280853271484375 54.18029022216796875 54.1562652587890625 54.13220977783203125 54.051708221435546875 53.86502838134765625 53.67639923095703125 53.48577117919921875 53.293109893798828125 53.256450653076171875 53.256450653076171875 53.256450653076171875 53.256450653076171875 53.19666290283203125 52.975223541259765625 52.751033782958984375 52.524017333984375 52.2941131591796875 52.22225189208984375 52.2085418701171875 52.19482421875 52.181095123291015625 52.12198638916015625 51.872898101806640625 51.62032318115234375 51.36415863037109375 51.10430908203125 50.6852569580078125 50.172100067138671875 49.6439208984375 49.099803924560546875 48.572021484375 48.2853546142578125 47.99405670166015625 47.69797515869140625 47.3969573974609375 46.9114837646484375 46.27679443359375 45.61895751953125 44.93621826171875 44.227458953857421875 43.511058807373046875 42.765026092529296875 41.9868011474609375 41.17348480224609375 40.545200347900390625 40.122669219970703125 39.690006256103515625 39.246707916259765625 38.792240142822265625 38.746746063232421875 38.717800140380859375 38.688808441162109375 38.659770965576171875 38.64298248291015625 38.64298248291015625 38.64298248291015625 38.64298248291015625 38.64298248291015625 38.175357818603515625 37.631275177001953125 37.07027435302734375 36.491260528564453125 35.705554962158203125 34.505794525146484375 33.22051239013671875 31.836580276489257812 30.337581634521484375 30.032201766967773438 30.032201766967773438 30.032201766967773438 30.032201766967773438 29.601940155029296875 27.89562225341796875 26.010875701904296875 23.905979156494140625 21.522615432739257812 20.760532379150390625 20.681970596313476562 20.603063583374023438 20.52381134033203125 20.474470138549804688 20.553937911987304688 20.633058547973632812 20.711833953857421875 20.7902679443359375 21.708475112915039062 22.996673583984375 24.198980331420898438 25.32613372802734375 26.489374160766601562 28.327211380004882812 29.994997024536132812 31.52155303955078125 32.9289398193359375 34.234424591064453125 35.451770782470703125 36.592136383056640625 37.6646728515625 38.661006927490234375 39.175327301025390625 39.675384521484375 40.161956787109375 40.63574981689453125 40.8700408935546875 40.8700408935546875 40.8700408935546875 40.8700408935546875 40.8700408935546875 41.282375335693359375 41.703449249267578125 42.114917755126953125 42.5172119140625 42.910724639892578125 43.295841217041015625 43.67290496826171875 44.042247772216796875 44.404178619384765625 44.44739532470703125 44.44739532470703125 -9999 
55.53610992431640625 55.453296661376953125 55.258037567138671875 55.060642242431640625 54.86106109619140625 54.65924835205078125 55.2035369873046875 55.82093048095703125 56.417888641357421875 56.995723724365234375 57.103923797607421875 56.345706939697265625 55.5542144775390625 54.726398468017578125 53.85875701904296875 53.68991851806640625 53.68991851806640625 53.68991851806640625 53.68991851806640625 53.631549835205078125 53.415416717529296875 53.19666290283203125 52.975223541259765625 52.751033782958984375 52.644344329833984375 52.580852508544921875 52.517131805419921875 52.45318603515625 52.344196319580078125 52.046573638916015625 51.743953704833984375 51.4361724853515625 51.123050689697265625 50.6852569580078125 50.172100067138671875 49.6439208984375 49.099803924560546875 48.572021484375 48.2853546142578125 47.99405670166015625 47.69797515869140625 47.3969573974609375 46.9114837646484375 46.27679443359375 45.61895751953125 44.93621826171875 44.23058319091796875 43.597057342529296875 42.940471649169921875 42.2590789794921875 41.550933837890625 41.031314849853515625 40.717258453369140625 40.39763641357421875 40.072254180908203125 39.7408905029296875 39.602878570556640625 39.4718017578125 39.339763641357421875 39.20674896240234375 39.1295166015625 39.1295166015625 39.1295166015625 39.1295166015625 39.1295166015625 38.578365325927734375 37.93383026123046875 37.26540374755859375 36.571254730224609375 35.705554962158203125 34.505794525146484375 33.22051239013671875 31.836580276489257812 30.337581634521484375 30.032201766967773438 30.032201766967773438 30.032201766967773438 30.032201766967773438 29.601940155029296875 27.89562225341796875 26.010875701904296875 23.905979156494140625 21.522615432739257812 20.545919418334960938 20.166318893432617188 19.77855682373046875 19.3822784423828125 19.131982803344726562 19.533739089965820312 19.926740646362304688 20.31136322021484375 20.687953948974609375 21.888425827026367188 23.4187469482421875 24.829336166381835938 26.1375732421875 27.431688308715820312 29.180372238159179688 30.774419784545898438 32.2389678955078125 33.5934906005859375 34.853366851806640625 36.030963897705078125 37.13637542724609375 38.17794036865234375 39.150707244873046875 39.753894805908203125 40.33756256103515625 40.902935028076171875 41.451129913330078125 41.721385955810546875 41.721385955810546875 41.721385955810546875 41.721385955810546875 41.721385955810546875 42.114917755126953125 42.5172119140625 42.910724639892578125 43.295841217041015625 43.67290496826171875 44.042247772216796875 44.404178619384765625 44.758991241455078125 45.106960296630859375 45.148529052734375 45.148529052734375 -9999 
55.9186553955078125 55.83758544921875 55.64646148681640625 55.453296661376953125 55.258037567138671875 55.060642242431640625 56.15032958984375 57.32471466064453125 58.427288055419921875 59.466339111328125 59.713657379150390625 58.526119232177734375 57.254856109619140625 55.8871612548828125 54.407199859619140625 54.11321258544921875 54.11321258544921875 54.11321258544921875 54.11321258544921875 54.0561981201171875 53.845123291015625 53.631549835205078125 53.415416717529296875 53.19666290283203125 53.056789398193359375 52.945629119873046875 52.833782196044921875 52.721233367919921875 52.5637054443359375 52.218593597412109375 51.8667449951171875 51.507900238037109375 51.1417694091796875 50.6852569580078125 50.172100067138671875 49.6439208984375 49.099803924560546875 48.572021484375 48.2853546142578125 47.99405670166015625 47.69797515869140625 47.3969573974609375 46.9114837646484375 46.27679443359375 45.61895751953125 44.93621826171875 44.233707427978515625 43.682647705078125 43.114223480224609375 42.52730560302734375 41.92064666748046875 41.504669189453125 41.292873382568359375 41.078556060791015625 40.861663818359375 40.642131805419921875 40.420215606689453125 40.195545196533203125 39.96804046630859375 39.73763275146484375 39.603271484375 39.603271484375 39.603271484375 39.603271484375 39.603271484375 38.972568511962890625 38.231388092041015625 37.458446502685546875 36.650897979736328125 35.705554962158203125 34.505794525146484375 33.22051239013671875 31.836580276489257812 30.337581634521484375 30.032201766967773438 30.032201766967773438 30.032201766967773438 30.032201766967773438 29.601940155029296875 27.89562225341796875 26.010875701904296875 23.905979156494140625 21.522615432739257812 20.3287200927734375 19.63549041748046875 18.914552688598632812 18.163595199584960938 17.681493759155273438 18.452362060546875 19.191633224487304688 19.901798248291015625 20.585058212280273438 22.06659698486328125 23.831171035766601562 25.438405990600585938 26.914079666137695312 28.327211380004882812 29.994997024536132812 31.52155303955078125 32.9289398193359375 34.234424591064453125 35.451770782470703125 36.592136383056640625 37.6646728515625 38.677005767822265625 39.62746429443359375 40.314483642578125 40.976291656494140625 41.61467742919921875 42.231243133544921875 42.53435516357421875 42.53435516357421875 42.53435516357421875 42.53435516357421875 42.53435516357421875 42.910724639892578125 43.295841217041015625 43.67290496826171875 44.042247772216796875 44.404178619384765625 44.758991241455078125 45.106960296630859375 45.44834136962890625 45.78338623046875 45.82342529296875 45.82342529296875 -9999 
56.2932586669921875 56.21385955810546875 56.026702880859375 55.83758544921875 55.64646148681640625 55.453296661376953125 57.049896240234375 58.7127227783203125 60.2351226806640625 61.638973236083984375 61.99311065673828125 60.47116851806640625 58.8088836669921875 56.977725982666015625 54.93946075439453125 54.526798248291015625 54.526798248291015625 54.526798248291015625 54.526798248291015625 54.471080780029296875 54.26483154296875 54.0561981201171875 53.845123291015625 53.631549835205078125 53.46001434326171875 53.303180694580078125 53.144969940185546875 52.98535919189453125 52.78057861328125 52.388988494873046875 51.98870849609375 51.579341888427734375 51.160472869873046875 50.6852569580078125 50.172100067138671875 49.6439208984375 49.099803924560546875 48.572021484375 48.2853546142578125 47.99405670166015625 47.69797515869140625 47.3969573974609375 46.9114837646484375 46.27679443359375 45.61895751953125 44.93621826171875 44.2368316650390625 43.7678375244140625 43.28632354736328125 42.791606903076171875 42.282932281494140625 41.965923309326171875 41.85068511962890625 41.73470306396484375 41.61797332763671875 41.50048065185546875 41.202114105224609375 40.891368865966796875 40.57517242431640625 40.25333404541015625 40.06490325927734375 40.06490325927734375 40.06490325927734375 40.06490325927734375 40.06490325927734375 39.358341217041015625 38.524120330810546875 37.649444580078125 36.73018646240234375 35.705554962158203125 34.505794525146484375 33.22051239013671875 31.836580276489257812 30.337581634521484375 30.032201766967773438 30.032201766967773438 30.032201766967773438 30.032201766967773438 29.601940155029296875 27.89562225341796875 26.010875701904296875 23.905979156494140625 21.522615432739257812 20.108875274658203125 19.088567733764648438 18.007070541381835938 16.85657501220703125 16.104093551635742188 17.302003860473632812 18.425294876098632812 19.482717514038085938 20.481571197509765625 22.243028640747070312 24.234375 26.02758026123046875 27.658535003662109375 29.180372238159179688 30.774419784545898438 32.2389678955078125 33.5934906005859375 34.853366851806640625 36.030963897705078125 37.13637542724609375 38.17794036865234375 39.162631988525390625 40.091945648193359375 40.858173370361328125 41.593173980712890625 42.299396514892578125 42.979007720947265625 43.31226348876953125 43.31226348876953125 43.31226348876953125 43.31226348876953125 43.31226348876953125 43.67290496826171875 44.042247772216796875 44.404178619384765625 44.758991241455078125 45.106960296630859375 45.44834136962890625 45.78338623046875 46.112316131591796875 46.435359954833984375 46.473979949951171875 46.473979949951171875 -9999 
56.66024017333984375 56.5824432373046875 56.399089813232421875 56.21385955810546875 56.026702880859375 55.83758544921875 57.906726837158203125 60.001522064208984375 61.878162384033203125 63.5778350830078125 64.016571044921875 62.22675323486328125 60.239589691162109375 58.006103515625 55.4564666748046875 54.931118011474609375 54.931118011474609375 54.931118011474609375 54.931118011474609375 54.876636505126953125 54.674999237060546875 54.471080780029296875 54.26483154296875 54.0561981201171875 53.85442352294921875 53.653778076171875 53.450878143310546875 53.245670318603515625 52.994869232177734375 52.557788848876953125 52.1098480224609375 51.65050506591796875 51.179157257080078125 50.6852569580078125 50.172100067138671875 49.6439208984375 49.099803924560546875 48.572021484375 48.2853546142578125 47.99405670166015625 47.69797515869140625 47.3969573974609375 46.9114837646484375 46.27679443359375 45.61895751953125 44.93621826171875 44.23995208740234375 43.85262298583984375 43.45679473876953125 43.05208587646484375 42.638088226318359375 42.415676116943359375 42.39176177978515625 42.36782073974609375 42.343845367431640625 42.3198394775390625 41.951526641845703125 41.561344146728515625 41.162532806396484375 40.754703521728515625 40.515010833740234375 40.515010833740234375 40.515010833740234375 40.515010833740234375 40.515010833740234375 39.73603057861328125 38.8121795654296875 37.838443756103515625 36.809131622314453125 35.705554962158203125 34.505794525146484375 33.22051239013671875 31.836580276489257812 30.337581634521484375 30.032201766967773438 30.032201766967773438 30.032201766967773438 30.032201766967773438 29.601940155029296875 27.89562225341796875 26.010875701904296875 23.905979156494140625 21.522615432739257812 19.886318206787109375 18.524541854858398438 17.051507949829101562 15.447403907775878906 14.375420570373535156 16.0732574462890625 17.62494659423828125 19.053668975830078125 20.377489089965820312 22.417749404907226562 24.62876129150390625 26.598119735717773438 28.373479843139648438 29.994997024536132812 31.52155303955078125 32.9289398193359375 34.234424591064453125 35.451770782470703125 36.592136383056640625 37.6646728515625 38.677005767822265625 39.635528564453125 40.544765472412109375 41.385955810546875 42.189655303955078125 42.959075927734375 43.697010040283203125 44.058002471923828125 44.058002471923828125 44.058002471923828125 44.058002471923828125 44.058002471923828125 44.404178619384765625 44.758991241455078125 45.106960296630859375 45.44834136962890625 45.78338623046875 46.112316131591796875 46.435359954833984375 46.752716064453125 47.0645904541015625 47.101886749267578125 47.101886749267578125 -9999 
58.7510833740234375 58.670665740966796875 58.481098175048828125 58.289516448974609375 58.09587860107421875 57.900142669677734375 59.591312408447265625 61.342681884765625 62.938961029052734375 64.4053955078125 64.69852447509765625 62.863372802734375 60.82015228271484375 58.5155792236328125 55.87285614013671875 55.326572418212890625 55.326572418212890625 55.326572418212890625 55.326572418212890625 55.273273468017578125 55.076045989990234375 54.876636505126953125 54.674999237060546875 54.471080780029296875 54.240386962890625 53.997692108154296875 53.75168609619140625 53.50228118896484375 53.2135162353515625 52.768306732177734375 52.31182861328125 51.843502044677734375 51.3626861572265625 50.86870574951171875 50.36081695556640625 49.838214874267578125 49.300014495849609375 48.77814483642578125 48.49475860595703125 48.206851959228515625 47.914272308349609375 47.6168670654296875 47.16591644287109375 46.591320037841796875 45.9978179931640625 45.384120941162109375 44.760372161865234375 44.40558624267578125 44.043682098388671875 43.674365997314453125 43.297336578369140625 43.0749969482421875 43.012943267822265625 42.95067596435546875 42.888195037841796875 42.825496673583984375 42.4429931640625 42.03902435302734375 41.62580108642578125 41.20288848876953125 40.924686431884765625 40.854763031005859375 40.78456878662109375 40.714099884033203125 40.643352508544921875 39.83707427978515625 38.8894805908203125 37.889339447021484375 36.830474853515625 35.705554962158203125 34.505794525146484375 33.22051239013671875 31.836580276489257812 30.337581634521484375 30.032201766967773438 30.032201766967773438 30.032201766967773438 30.032201766967773438 29.601940155029296875 27.89562225341796875 26.010875701904296875 23.905979156494140625 21.522615432739257812 19.660980224609375 17.942310333251953125 16.04248046875 13.918748855590820312 12.463359832763671875 14.754654884338378906 16.787435531616210938 18.614166259765625 20.272800445556640625 22.464824676513671875 24.7342071533203125 26.749727249145507812 28.562511444091796875 30.2096405029296875 31.718873977661132812 33.111522674560546875 34.404323577880859375 35.61063385009765625 36.741302490234375 37.805263519287109375 38.8099517822265625 39.76161956787109375 40.66558837890625 41.526409149169921875 42.34801483154296875 43.13382720947265625 43.8868255615234375 44.312397003173828125 44.427707672119140625 44.5422821044921875 44.65613555908203125 44.7692718505859375 45.106960296630859375 45.44834136962890625 45.78338623046875 46.112316131591796875 46.435359954833984375 46.752716064453125 47.0645904541015625 47.371158599853515625 47.672607421875 47.70867156982421875 47.70867156982421875 -9999 
61.169589996337890625 61.085903167724609375 60.88857269287109375 60.689060211181640625 60.487316131591796875 60.28328704833984375 61.418560028076171875 62.638759613037109375 63.78162384033203125 64.8563690185546875 64.9296875 63.11911773681640625 61.106327056884765625 58.840404510498046875 56.24840545654296875 55.71353912353515625 55.71353912353515625 55.71353912353515625 55.71353912353515625 55.661376953125 55.4683685302734375 55.273273468017578125 55.076045989990234375 54.876636505126953125 54.6182708740234375 54.335174560546875 54.0475616455078125 53.75528717041015625 53.43206787109375 52.99228668212890625 52.54151153564453125 52.07918548583984375 51.60469818115234375 51.117389678955078125 50.616550445556640625 50.101409912109375 49.5711212158203125 49.057147979736328125 48.77814483642578125 48.49475860595703125 48.206851959228515625 47.914272308349609375 47.509243011474609375 47.01409149169921875 46.50496673583984375 45.981052398681640625 45.44966888427734375 45.10831451416015625 44.760372161865234375 44.40558624267578125 44.043682098388671875 43.789581298828125 43.64780426025390625 43.504901885986328125 43.360858917236328125 43.215656280517578125 42.838115692138671875 42.4429931640625 42.03902435302734375 41.62580108642578125 41.3145294189453125 41.151805877685546875 40.98760223388671875 40.821887969970703125 40.65464019775390625 39.83707427978515625 38.8894805908203125 37.889339447021484375 36.830474853515625 35.705554962158203125 34.505794525146484375 33.22051239013671875 31.836580276489257812 30.337581634521484375 30.032201766967773438 30.032201766967773438 30.032201766967773438 30.032201766967773438 29.601940155029296875 27.89562225341796875 26.010875701904296875 23.905979156494140625 21.522615432739257812 19.432790756225585938 17.340658187866210938 14.973649024963378906 12.248456001281738281 10.324328422546386719 13.332007408142089844 15.909137725830078125 18.163686752319335938 20.16750335693359375 22.464824676513671875 24.7342071533203125 26.749727249145507812 28.562511444091796875 30.2096405029296875 31.718873977661132812 33.111522674560546875 34.404323577880859375 35.61063385009765625 36.741302490234375 37.805263519287109375 38.8099517822265625 39.76161956787109375 40.66558837890625 41.526409149169921875 42.34801483154296875 43.13382720947265625 43.8868255615234375 44.390895843505859375 44.6620330810546875 44.9291534423828125 45.192378997802734375 45.451816558837890625 45.78338623046875 46.112316131591796875 46.435359954833984375 46.752716064453125 47.0645904541015625 47.371158599853515625 47.672607421875 47.9691009521484375 48.26079559326171875 48.295703887939453125 48.295703887939453125 -9999 
63.301837921142578125 63.21561431884765625 63.012248992919921875 62.8065643310546875 62.59850311279296875 62.3880157470703125 63.0776214599609375 63.847919464111328125 64.586669921875 65.29634857177734375 65.157928466796875 63.371288299560546875 61.388031005859375 59.15948486328125 56.616291046142578125 56.092380523681640625 56.092380523681640625 56.092380523681640625 56.092380523681640625 56.0413055419921875 55.8523406982421875 55.661376953125 55.4683685302734375 55.273273468017578125 54.988399505615234375 54.6664581298828125 54.33866119384765625 54.00479888916015625 53.64800262451171875 53.2135162353515625 52.768306732177734375 52.31182861328125 51.843502044677734375 51.3626861572265625 50.86870574951171875 50.36081695556640625 49.838214874267578125 49.33190155029296875 49.057147979736328125 48.77814483642578125 48.49475860595703125 48.206851959228515625 47.846157073974609375 47.427181243896484375 46.9982452392578125 46.558856964111328125 46.11359405517578125 45.784687042236328125 45.44966888427734375 45.10831451416015625 44.760372161865234375 44.47693634033203125 44.261077880859375 44.0426025390625 43.821453094482421875 43.59755706787109375 43.224765777587890625 42.838115692138671875 42.4429931640625 42.03902435302734375 41.696125030517578125 41.44403839111328125 41.188373565673828125 40.92903900146484375 40.66591644287109375 39.83707427978515625 38.8894805908203125 37.889339447021484375 36.830474853515625 35.705554962158203125 34.505794525146484375 33.22051239013671875 31.836580276489257812 30.337581634521484375 30.032201766967773438 30.032201766967773438 30.032201766967773438 30.032201766967773438 29.601940155029296875 27.89562225341796875 26.010875701904296875 23.905979156494140625 21.522615432739257812 19.201679229736328125 16.718242645263671875 13.837477684020996094 10.407571792602539062 7.8970918655395507812 11.787482261657714844 14.985876083374023438 17.701669692993164062 20.061586380004882812 22.464824676513671875 24.7342071533203125 26.749727249145507812 28.562511444091796875 30.2096405029296875 31.718873977661132812 33.111522674560546875 34.404323577880859375 35.61063385009765625 36.741302490234375 37.805263519287109375 38.8099517822265625 39.76161956787109375 40.66558837890625 41.526409149169921875 42.34801483154296875 43.13382720947265625 43.8868255615234375 44.469051361083984375 44.893352508544921875 45.307903289794921875 45.713138580322265625 46.109470367431640625 46.435359954833984375 46.752716064453125 47.0645904541015625 47.371158599853515625 47.672607421875 47.9691009521484375 48.26079559326171875 48.547855377197265625 48.830413818359375 48.864238739013671875 48.864238739013671875 -9999 
65.2084808349609375 65.12023162841796875 64.9120330810546875 64.70140838623046875 64.48828887939453125 64.2726287841796875 64.59686279296875 64.9810943603515625 65.3573150634765625 65.7258453369140625 65.3833160400390625 63.6199798583984375 61.6654052734375 59.473018646240234375 56.9768218994140625 56.46343231201171875 56.46343231201171875 56.46343231201171875 56.46343231201171875 56.413394927978515625 56.22830963134765625 56.0413055419921875 55.8523406982421875 55.661376953125 55.351085662841796875 54.991764068603515625 54.6251373291015625 54.250904083251953125 53.86138153076171875 53.43206787109375 52.99228668212890625 52.54151153564453125 52.07918548583984375 51.60469818115234375 51.117389678955078125 50.616550445556640625 50.101409912109375 49.60253143310546875 49.33190155029296875 49.057147979736328125 48.77814483642578125 48.49475860595703125 48.176891326904296875 47.831024169921875 47.4783935546875 47.118732452392578125 46.7539520263671875 46.436614990234375 46.11359405517578125 45.784687042236328125 45.44966888427734375 45.1390533447265625 44.854183197021484375 44.564739227294921875 44.270580291748046875 43.9715423583984375 43.603302001953125 43.224765777587890625 42.838115692138671875 42.4429931640625 42.069812774658203125 41.73160552978515625 41.386936187744140625 41.035552978515625 40.677188873291015625 39.83707427978515625 38.8894805908203125 37.889339447021484375 36.830474853515625 35.705554962158203125 34.505794525146484375 33.22051239013671875 31.836580276489257812 30.337581634521484375 30.032201766967773438 30.032201766967773438 30.032201766967773438 30.032201766967773438 29.601940155029296875 27.89562225341796875 26.010875701904296875 23.905979156494140625 21.522615432739257812 18.96756744384765625 16.073581695556640625 12.624903678894042969 8.35724639892578125 5.0917139053344726562 10.098219871520996094 14.012800216674804688 17.227506637573242188 19.955043792724609375 22.464824676513671875 24.7342071533203125 26.749727249145507812 28.562511444091796875 30.2096405029296875 31.718873977661132812 33.111522674560546875 34.404323577880859375 35.61063385009765625 36.741302490234375 37.805263519287109375 38.8099517822265625 39.76161956787109375 40.66558837890625 41.526409149169921875 42.34801483154296875 43.13382720947265625 43.8868255615234375 44.546871185302734375 45.121746063232421875 45.678863525390625 46.219287872314453125 46.743991851806640625 47.0645904541015625 47.371158599853515625 47.672607421875 47.9691009521484375 48.26079559326171875 48.547855377197265625 48.830413818359375 49.108615875244140625 49.38259124755859375 49.41539764404296875 49.41539764404296875 -9999 
66.617401123046875 66.52777862548828125 66.3163299560546875 66.1023712158203125 65.88584136962890625 65.66668701171875 65.73992919921875 65.849395751953125 65.9582061767578125 66.0663604736328125 65.56381988525390625 63.81891632080078125 61.88697052001953125 59.723018646240234375 57.26363372802734375 56.758453369140625 56.758453369140625 56.758453369140625 56.758453369140625 56.709228515625 56.52716827392578125 56.34325408935546875 56.157440185546875 55.969696044921875 55.639575958251953125 55.25099945068359375 54.853870391845703125 54.447795867919921875 54.03237152099609375 53.60715484619140625 53.171672821044921875 52.725414276123046875 52.2678375244140625 51.798351287841796875 51.316314697265625 50.821044921875 50.311794281005859375 49.818782806396484375 49.55139923095703125 49.279994964599609375 49.004444122314453125 48.72461700439453125 48.4403839111328125 48.1515960693359375 47.858112335205078125 47.55977630615234375 47.256420135498046875 46.9478759765625 46.63396453857421875 46.31449127197265625 45.9892578125 45.658054351806640625 45.320652008056640625 44.9768218994140625 44.626308441162109375 44.26885223388671875 43.90416717529296875 43.531955718994140625 43.1519012451171875 42.763668060302734375 42.3668975830078125 41.961200714111328125 41.546169281005859375 41.121364593505859375 40.686313629150390625 39.83707427978515625 38.8894805908203125 37.889339447021484375 36.830474853515625 35.705554962158203125 34.505794525146484375 33.22051239013671875 31.836580276489257812 30.337581634521484375 30.032201766967773438 30.032201766967773438 30.032201766967773438 30.032201766967773438 29.601940155029296875 27.89562225341796875 26.010875701904296875 23.905979156494140625 21.522615432739257812 18.775705337524414062 15.53403472900390625 11.579343795776367188 6.5068731307983398438 2.4489285945892333984 8.603725433349609375 13.184313774108886719 16.834127426147460938 19.868289947509765625 22.464824676513671875 24.7342071533203125 26.749727249145507812 28.562511444091796875 30.2096405029296875 31.718873977661132812 33.111522674560546875 34.404323577880859375 35.61063385009765625 36.741302490234375 37.805263519287109375 38.8099517822265625 39.76161956787109375 40.66558837890625 41.526409149169921875 42.34801483154296875 43.13382720947265625 43.8868255615234375 44.609653472900390625 45.30462646484375 45.973812103271484375 46.6190643310546875 47.242023468017578125 47.55859375 47.856952667236328125 48.150455474853515625 48.439258575439453125 48.7235107421875 49.003353118896484375 49.278919219970703125 49.550342559814453125 49.817737579345703125 49.849761962890625 49.849761962890625 -9999 
66.617401123046875 66.52777862548828125 66.3163299560546875 66.1023712158203125 65.88584136962890625 65.66668701171875 65.73992919921875 65.849395751953125 65.9582061767578125 66.0663604736328125 65.56381988525390625 63.81891632080078125 61.88697052001953125 59.723018646240234375 57.26363372802734375 56.758453369140625 56.758453369140625 56.758453369140625 56.758453369140625 56.709228515625 56.52716827392578125 56.34325408935546875 56.157440185546875 55.969696044921875 55.639575958251953125 55.25099945068359375 54.853870391845703125 54.447795867919921875 54.03237152099609375 53.60715484619140625 53.171672821044921875 52.725414276123046875 52.2678375244140625 51.798351287841796875 51.316314697265625 50.821044921875 50.311794281005859375 49.818782806396484375 49.55139923095703125 49.279994964599609375 49.004444122314453125 48.72461700439453125 48.4403839111328125 48.1515960693359375 47.858112335205078125 47.55977630615234375 47.256420135498046875 46.9478759765625 46.63396453857421875 46.31449127197265625 45.9892578125 45.658054351806640625 45.320652008056640625 44.9768218994140625 44.626308441162109375 44.26885223388671875 43.90416717529296875 43.531955718994140625 43.1519012451171875 42.763668060302734375 42.3668975830078125 41.961200714111328125 41.546169281005859375 41.121364593505859375 40.686313629150390625 39.83707427978515625 38.8894805908203125 37.889339447021484375 36.830474853515625 35.705554962158203125 34.505794525146484375 33.22051239013671875 31.836580276489257812 30.337581634521484375 30.032201766967773438 30.032201766967773438 30.032201766967773438 30.032201766967773438 29.601940155029296875 27.89562225341796875 26.010875701904296875 23.905979156494140625 21.522615432739257812 18.775705337524414062 15.53403472900390625 11.579343795776367188 6.5068731307983398438 2.4489285945892333984 8.603725433349609375 13.184313774108886719 16.834127426147460938 19.868289947509765625 22.464824676513671875 24.7342071533203125 26.749727249145507812 28.562511444091796875 30.2096405029296875 31.718873977661132812 33.111522674560546875 34.404323577880859375 35.61063385009765625 36.741302490234375 37.805263519287109375 38.8099517822265625 39.76161956787109375 40.66558837890625 41.526409149169921875 42.34801483154296875 43.13382720947265625 43.8868255615234375 44.609653472900390625 45.30462646484375 45.973812103271484375 46.6190643310546875 47.242023468017578125 47.55859375 47.856952667236328125 48.150455474853515625 48.439258575439453125 48.7235107421875 49.003353118896484375 49.278919219970703125 49.550342559814453125 49.817737579345703125 49.849761962890625 49.849761962890625 -9999 
66.617401123046875 66.52777862548828125 66.3163299560546875 66.1023712158203125 65.88584136962890625 65.66668701171875 65.73992919921875 65.849395751953125 65.9582061767578125 66.0663604736328125 65.56381988525390625 63.81891632080078125 61.88697052001953125 59.723018646240234375 57.26363372802734375 56.758453369140625 56.758453369140625 56.758453369140625 56.758453369140625 56.709228515625 56.52716827392578125 56.34325408935546875 56.157440185546875 55.969696044921875 55.639575958251953125 55.25099945068359375 54.853870391845703125 54.447795867919921875 54.03237152099609375 53.60715484619140625 53.171672821044921875 52.725414276123046875 52.2678375244140625 51.798351287841796875 51.316314697265625 50.821044921875 50.311794281005859375 49.818782806396484375 49.55139923095703125 49.279994964599609375 49.004444122314453125 48.72461700439453125 48.4403839111328125 48.1515960693359375 47.858112335205078125 47.55977630615234375 47.256420135498046875 46.9478759765625 46.63396453857421875 46.31449127197265625 45.9892578125 45.658054351806640625 45.320652008056640625 44.9768218994140625 44.626308441162109375 44.26885223388671875 43.90416717529296875 43.531955718994140625 43.1519012451171875 42.763668060302734375 42.3668975830078125 41.961200714111328125 41.546169281005859375 41.121364593505859375 40.686313629150390625 39.83707427978515625 38.8894805908203125 37.889339447021484375 36.830474853515625 35.705554962158203125 34.505794525146484375 33.22051239013671875 31.836580276489257812 30.337581634521484375 30.032201766967773438 30.032201766967773438 30.032201766967773438 30.032201766967773438 29.601940155029296875 27.89562225341796875 26.010875701904296875 23.905979156494140625 21.522615432739257812 18.775705337524414062 15.53403472900390625 11.579343795776367188 6.5068731307983398438 2.4489285945892333984 8.603725433349609375 13.184313774108886719 16.834127426147460938 19.868289947509765625 22.464824676513671875 24.7342071533203125 26.749727249145507812 28.562511444091796875 30.2096405029296875 31.718873977661132812 33.111522674560546875 34.404323577880859375 35.61063385009765625 36.741302490234375 37.805263519287109375 38.8099517822265625 39.76161956787109375 40.66558837890625 41.526409149169921875 42.34801483154296875 43.13382720947265625 43.8868255615234375 44.609653472900390625 45.30462646484375 45.973812103271484375 46.6190643310546875 47.242023468017578125 47.55859375 47.856952667236328125 48.150455474853515625 48.439258575439453125 48.7235107421875 49.003353118896484375 49.278919219970703125 49.550342559814453125 49.817737579345703125 49.849761962890625 49.849761962890625 -9999 
66.617401123046875 66.52777862548828125 66.3163299560546875 66.1023712158203125 65.88584136962890625 65.66668701171875 65.73992919921875 65.849395751953125 65.9582061767578125 66.0663604736328125 65.56381988525390625 63.81891632080078125 61.88697052001953125 59.723018646240234375 57.26363372802734375 56.758453369140625 56.758453369140625 56.758453369140625 56.758453369140625 56.709228515625 56.52716827392578125 56.34325408935546875 56.157440185546875 55.969696044921875 55.639575958251953125 55.25099945068359375 54.853870391845703125 54.447795867919921875 54.03237152099609375 53.60715484619140625 53.171672821044921875 52.725414276123046875 52.2678375244140625 51.798351287841796875 51.316314697265625 50.821044921875 50.311794281005859375 49.818782806396484375 49.55139923095703125 49.279994964599609375 49.004444122314453125 48.72461700439453125 48.4403839111328125 48.1515960693359375 47.858112335205078125 47.55977630615234375 47.256420135498046875 46.9478759765625 46.63396453857421875 46.31449127197265625 45.9892578125 45.658054351806640625 45.320652008056640625 44.9768218994140625 44.626308441162109375 44.26885223388671875 43.90416717529296875 43.531955718994140625 43.1519012451171875 42.763668060302734375 42.3668975830078125 41.961200714111328125 41.546169281005859375 41.121364593505859375 40.686313629150390625 39.83707427978515625 38.8894805908203125 37.889339447021484375 36.830474853515625 35.705554962158203125 34.505794525146484375 33.22051239013671875 31.836580276489257812 30.337581634521484375 30.032201766967773438 30.032201766967773438 30.032201766967773438 30.032201766967773438 29.601940155029296875 27.89562225341796875 26.010875701904296875 23.905979156494140625 21.522615432739257812 18.775705337524414062 15.53403472900390625 11.579343795776367188 6.5068731307983398438 2.4489285945892333984 8.603725433349609375 13.184313774108886719 16.834127426147460938 19.868289947509765625 22.464824676513671875 24.7342071533203125 26.749727249145507812 28.562511444091796875 30.2096405029296875 31.718873977661132812 33.111522674560546875 34.404323577880859375 35.61063385009765625 36.741302490234375 37.805263519287109375 38.8099517822265625 39.76161956787109375 40.66558837890625 41.526409149169921875 42.34801483154296875 43.13382720947265625 43.8868255615234375 44.609653472900390625 45.30462646484375 45.973812103271484375 46.6190643310546875 47.242023468017578125 47.55859375 47.856952667236328125 48.150455474853515625 48.439258575439453125 48.7235107421875 49.003353118896484375 49.278919219970703125 49.550342559814453125 49.817737579345703125 49.849761962890625 49.849761962890625 -9999 
66.617401123046875 66.52777862548828125 66.3163299560546875 66.1023712158203125 65.88584136962890625 65.66668701171875 65.73992919921875 65.849395751953125 65.9582061767578125 66.0663604736328125 65.56381988525390625 63.81891632080078125 61.88697052001953125 59.723018646240234375 57.26363372802734375 56.758453369140625 56.758453369140625 56.758453369140625 56.758453369140625 56.709228515625 56.52716827392578125 56.34325408935546875 56.157440185546875 55.969696044921875 55.639575958251953125 55.25099945068359375 54.853870391845703125 54.447795867919921875 54.03237152099609375 53.60715484619140625 53.171672821044921875 52.725414276123046875 52.2678375244140625 51.798351287841796875 51.316314697265625 50.821044921875 50.311794281005859375 49.818782806396484375 49.55139923095703125 49.279994964599609375 49.004444122314453125 48.72461700439453125 48.4403839111328125 48.1515960693359375 47.858112335205078125 47.55977630615234375 47.256420135498046875 46.9478759765625 46.63396453857421875 46.31449127197265625 45.9892578125 45.658054351806640625 45.320652008056640625 44.9768218994140625 44.626308441162109375 44.26885223388671875 43.90416717529296875 43.531955718994140625 43.1519012451171875 42.763668060302734375 42.3668975830078125 41.961200714111328125 41.546169281005859375 41.121364593505859375 40.686313629150390625 39.83707427978515625 38.8894805908203125 37.889339447021484375 36.830474853515625 35.705554962158203125 34.505794525146484375 33.22051239013671875 31.836580276489257812 30.337581634521484375 30.032201766967773438 30.032201766967773438 30.032201766967773438 30.032201766967773438 29.601940155029296875 27.89562225341796875 26.010875701904296875 23.905979156494140625 21.522615432739257812 18.775705337524414062 15.53403472900390625 11.579343795776367188 6.5068731307983398438 2.4489285945892333984 8.603725433349609375 13.184313774108886719 16.834127426147460938 19.868289947509765625 22.464824676513671875 24.7342071533203125 26.749727249145507812 28.562511444091796875 30.2096405029296875 31.718873977661132812 33.111522674560546875 34.404323577880859375 35.61063385009765625 36.741302490234375 37.805263519287109375 38.8099517822265625 39.76161956787109375 40.66558837890625 41.526409149169921875 42.34801483154296875 43.13382720947265625 43.8868255615234375 44.609653472900390625 45.30462646484375 45.973812103271484375 46.6190643310546875 47.242023468017578125 47.55859375 47.856952667236328125 48.150455474853515625 48.439258575439453125 48.7235107421875 49.003353118896484375 49.278919219970703125 49.550342559814453125 49.817737579345703125 49.849761962890625 49.849761962890625 -9999 
66.617401123046875 66.70098876953125 66.895050048828125 67.08704376220703125 67.2770233154296875 67.46501922607421875 67.31948089599609375 67.130401611328125 66.93932342529296875 66.7462005615234375 66.10559844970703125 64.549957275390625 62.8473968505859375 60.967227935791015625 58.8680419921875 58.442157745361328125 58.442157745361328125 58.442157745361328125 58.442157745361328125 58.30692291259765625 57.801059722900390625 57.280597686767578125 56.7446746826171875 56.192340850830078125 55.7643280029296875 55.37845611572265625 54.984149932861328125 54.581035614013671875 54.168701171875 53.746723175048828125 53.31463623046875 52.871944427490234375 52.418117523193359375 51.95257568359375 51.474700927734375 50.983821868896484375 50.479206085205078125 49.990810394287109375 49.725986480712890625 49.45721435546875 49.18437957763671875 48.907352447509765625 48.626003265380859375 48.340198516845703125 48.049793243408203125 47.754634857177734375 47.456268310546875 47.19525146484375 46.930400848388671875 46.6616058349609375 46.388744354248046875 46.0882720947265625 45.758899688720703125 45.423397064208984375 45.081539154052734375 44.733074188232421875 44.328166961669921875 43.911930084228515625 43.485858917236328125 43.0494842529296875 42.602291107177734375 42.143726348876953125 41.673198699951171875 41.19007110595703125 40.693645477294921875 39.83707427978515625 38.8894805908203125 37.889339447021484375 36.830474853515625 35.705554962158203125 34.505794525146484375 33.22051239013671875 31.836580276489257812 30.337581634521484375 30.032201766967773438 30.032201766967773438 30.032201766967773438 30.032201766967773438 29.601940155029296875 27.89562225341796875 26.010875701904296875 23.905979156494140625 21.522615432739257812 18.930147171020507812 15.969161033630371094 12.4248199462890625 8.009441375732421875 4.6036467552185058594 9.8150720596313476562 13.853488922119140625 17.151126861572265625 19.938083648681640625 22.464824676513671875 24.7342071533203125 26.749727249145507812 28.562511444091796875 30.2096405029296875 31.718873977661132812 33.111522674560546875 34.404323577880859375 35.61063385009765625 36.741302490234375 37.805263519287109375 38.8099517822265625 39.76161956787109375 40.66558837890625 41.526409149169921875 42.34801483154296875 43.13382720947265625 43.8868255615234375 44.584438323974609375 45.231319427490234375 45.855804443359375 46.459392547607421875 47.04343414306640625 47.36159515380859375 47.663204193115234375 47.959850311279296875 48.251697540283203125 48.5388946533203125 48.82159423828125 49.0999298095703125 49.3740386962890625 49.64404296875 49.6763763427734375 49.6763763427734375 -9999 
66.617401123046875 66.9637451171875 67.74901580810546875 68.50151824951171875 69.2238922119140625 69.9184417724609375 69.50390625 68.935699462890625 68.3490142822265625 67.74260711669921875 66.90703582763671875 65.61777496337890625 64.229217529296875 62.724796295166015625 61.08339691162109375 60.755550384521484375 60.755550384521484375 60.755550384521484375 60.755550384521484375 60.513935089111328125 59.597148895263671875 58.631256103515625 57.61071014404296875 56.528942108154296875 55.9542083740234375 55.572422027587890625 55.18238067626953125 54.783718109130859375 54.37604522705078125 53.95894622802734375 53.53197479248046875 53.0946502685546875 52.646457672119140625 52.18685150146484375 51.715221405029296875 51.230930328369140625 50.733280181884765625 50.251804351806640625 49.990810394287109375 49.725986480712890625 49.45721435546875 49.18437957763671875 48.907352447509765625 48.626003265380859375 48.340198516845703125 48.049793243408203125 47.758876800537109375 47.568599700927734375 47.376293182373046875 47.181915283203125 46.98542022705078125 46.729511260986328125 46.4117431640625 46.0882720947265625 45.758899688720703125 45.423397064208984375 44.960399627685546875 44.48021697998046875 43.98690032958984375 43.479709625244140625 42.957851409912109375 42.420440673828125 41.86652374267578125 41.295063018798828125 40.70490264892578125 39.83707427978515625 38.8894805908203125 37.889339447021484375 36.830474853515625 35.705554962158203125 34.505794525146484375 33.22051239013671875 31.836580276489257812 30.337581634521484375 30.032201766967773438 30.032201766967773438 30.032201766967773438 30.032201766967773438 29.601940155029296875 27.89562225341796875 26.010875701904296875 23.905979156494140625 21.522615432739257812 19.16474151611328125 16.617498397827148438 13.650468826293945312 10.0974578857421875 7.4801402091979980469 11.529828071594238281 14.834965705871582031 17.6272735595703125 20.044725418090820312 22.464824676513671875 24.7342071533203125 26.749727249145507812 28.562511444091796875 30.2096405029296875 31.718873977661132812 33.111522674560546875 34.404323577880859375 35.61063385009765625 36.741302490234375 37.805263519287109375 38.8099517822265625 39.76161956787109375 40.66558837890625 41.526409149169921875 42.34801483154296875 43.13382720947265625 43.8868255615234375 44.545650482177734375 45.118175506591796875 45.67308807373046875 46.211437225341796875 46.734188079833984375 47.05486297607421875 47.36159515380859375 47.663204193115234375 47.959850311279296875 48.251697540283203125 48.5388946533203125 48.82159423828125 49.0999298095703125 49.3740386962890625 49.406856536865234375 49.406856536865234375 -9999 
66.617401123046875 67.22272491455078125 68.56436920166015625 69.81310272216796875 70.98095703125 72.07778167724609375 71.45214080810546875 70.5766448974609375 69.6564788818359375 68.6868438720703125 67.67438507080078125 66.62589263916015625 65.5126800537109375 64.32622528076171875 63.0561981201171875 62.805698394775390625 62.805698394775390625 62.805698394775390625 62.805698394775390625 62.480121612548828125 61.2304840087890625 59.887790679931640625 58.437061309814453125 56.859375 56.142116546630859375 55.7643280029296875 55.37845611572265625 54.984149932861328125 54.581035614013671875 54.168701171875 53.746723175048828125 53.31463623046875 52.871944427490234375 52.418117523193359375 51.95257568359375 51.474700927734375 50.983821868896484375 50.509075164794921875 50.251804351806640625 49.990810394287109375 49.725986480712890625 49.45721435546875 49.18437957763671875 48.907352447509765625 48.626003265380859375 48.340198516845703125 48.056491851806640625 47.93437957763671875 47.811428070068359375 47.6876373291015625 47.562992095947265625 47.348735809326171875 47.041782379150390625 46.729511260986328125 46.4117431640625 46.0882720947265625 45.571224212646484375 45.031147003173828125 44.474399566650390625 43.8999176025390625 43.306537628173828125 42.692974090576171875 42.05780029296875 41.399444580078125 40.71614837646484375 39.83707427978515625 38.8894805908203125 37.889339447021484375 36.830474853515625 35.705554962158203125 34.505794525146484375 33.22051239013671875 31.836580276489257812 30.337581634521484375 30.032201766967773438 30.032201766967773438 30.032201766967773438 30.032201766967773438 29.601940155029296875 27.89562225341796875 26.010875701904296875 23.905979156494140625 21.522615432739257812 19.39632415771484375 17.24333953857421875 14.798112869262695312 11.968663215637207031 9.9604024887084960938 13.095635414123535156 15.765786170959472656 18.091176986694335938 20.1507415771484375 22.464824676513671875 24.7342071533203125 26.749727249145507812 28.562511444091796875 30.2096405029296875 31.718873977661132812 33.111522674560546875 34.404323577880859375 35.61063385009765625 36.741302490234375 37.805263519287109375 38.8099517822265625 39.76161956787109375 40.66558837890625 41.526409149169921875 42.34801483154296875 43.13382720947265625 43.8868255615234375 44.506778717041015625 45.0043182373046875 45.48850250244140625 45.96002960205078125 46.419544219970703125 46.74282073974609375 47.05486297607421875 47.36159515380859375 47.663204193115234375 47.959850311279296875 48.251697540283203125 48.5388946533203125 48.82159423828125 49.0999298095703125 49.1332550048828125 49.1332550048828125 -9999 
66.617401123046875 67.4780426025390625 69.3444671630859375 71.0357513427734375 72.58197021484375 74.00605010986328125 73.2103271484375 72.0806884765625 70.87554931640625 69.5841064453125 68.41040802001953125 67.5806427001953125 66.7108612060546875 65.7969970703125 64.83435821533203125 64.6464385986328125 64.6464385986328125 64.6464385986328125 64.6464385986328125 64.252899169921875 62.72812652587890625 61.062469482421875 59.22721099853515625 57.183868408203125 56.328083038330078125 55.9542083740234375 55.572422027587890625 55.18238067626953125 54.783718109130859375 54.37604522705078125 53.95894622802734375 53.53197479248046875 53.0946502685546875 52.646457672119140625 52.18685150146484375 51.715221405029296875 51.230930328369140625 50.762729644775390625 50.509075164794921875 50.251804351806640625 49.990810394287109375 49.725986480712890625 49.45721435546875 49.18437957763671875 48.907352447509765625 48.626003265380859375 48.349277496337890625 48.29288482666015625 48.236316680908203125 48.179569244384765625 48.12264251708984375 47.94741058349609375 47.650554656982421875 47.348735809326171875 47.041782379150390625 46.729511260986328125 46.16204071044921875 45.565746307373046875 44.949069976806640625 44.310558319091796875 43.64861297607421875 42.96144866943359375 42.2470703125 41.50322723388671875 40.727390289306640625 39.83707427978515625 38.8894805908203125 37.889339447021484375 36.830474853515625 35.705554962158203125 34.505794525146484375 33.22051239013671875 31.836580276489257812 30.337581634521484375 30.032201766967773438 30.032201766967773438 30.032201766967773438 30.032201766967773438 29.601940155029296875 27.89562225341796875 26.010875701904296875 23.905979156494140625 21.522615432739257812 19.624971389770507812 17.848192214965820312 15.877089500427246094 13.663876533508300781 12.140494346618652344 14.536316871643066406 16.650922775268554688 18.543447494506835938 20.256137847900390625 22.464824676513671875 24.7342071533203125 26.749727249145507812 28.562511444091796875 30.2096405029296875 31.718873977661132812 33.111522674560546875 34.404323577880859375 35.61063385009765625 36.741302490234375 37.805263519287109375 38.8099517822265625 39.76161956787109375 40.66558837890625 41.526409149169921875 42.34801483154296875 43.13382720947265625 43.8868255615234375 44.46782684326171875 44.889736175537109375 45.30200958251953125 45.705066680908203125 46.099315643310546875 46.425289154052734375 46.74282073974609375 47.05486297607421875 47.36159515380859375 47.663204193115234375 47.959850311279296875 48.251697540283203125 48.5388946533203125 48.82159423828125 48.855434417724609375 48.855434417724609375 -9999 
66.68782806396484375 67.7711029052734375 70.0771942138671875 72.121612548828125 73.95772552490234375 75.6240997314453125 74.73470306396484375 73.45465087890625 72.07678985595703125 70.58490753173828125 69.30869293212890625 68.618133544921875 67.90007781982421875 67.15224456787109375 66.3720703125 66.22069549560546875 66.22069549560546875 66.22069549560546875 66.22069549560546875 65.78558349609375 64.08989715576171875 62.218120574951171875 60.12938690185546875 57.766727447509765625 56.81516265869140625 56.44680023193359375 56.0707550048828125 55.686702728271484375 55.282024383544921875 54.8159332275390625 54.3374786376953125 53.845989227294921875 53.340732574462890625 52.87558746337890625 52.42754364013671875 51.968082427978515625 51.496616363525390625 51.04077911376953125 50.7910308837890625 50.537776947021484375 50.280918121337890625 50.02034759521484375 49.75595855712890625 49.487636566162109375 49.21526336669921875 48.938716888427734375 48.668949127197265625 48.668949127197265625 48.668949127197265625 48.668949127197265625 48.668949127197265625 48.5233154296875 48.2286834716796875 47.92916107177734375 47.62458038330078125 47.314769744873046875 46.706188201904296875 46.064105987548828125 45.398319244384765625 44.7070159912109375 43.988162994384765625 43.239467620849609375 42.458347320556640625 41.641864776611328125 40.7866668701171875 39.8889007568359375 38.944103240966796875 37.9470672607421875 36.89168548583984375 35.77069854736328125 34.575408935546875 33.295257568359375 31.917272567749023438 30.425249099731445312 30.12136077880859375 30.12136077880859375 30.12136077880859375 30.12136077880859375 29.693248748779296875 27.99596405029296875 26.122234344482421875 24.031070709228515625 21.66530609130859375 19.98221588134765625 18.538381576538085938 16.968845367431640625 15.249617576599121094 14.085289955139160156 15.870398521423339844 17.494649887084960938 18.984655380249023438 20.360921859741210938 22.464824676513671875 24.7342071533203125 26.749727249145507812 28.562511444091796875 30.2096405029296875 31.718873977661132812 33.111522674560546875 34.404323577880859375 35.61063385009765625 36.733516693115234375 37.78511810302734375 38.778774261474609375 39.720539093017578125 40.615570068359375 41.468280792236328125 42.282497406005859375 43.061542510986328125 43.8083343505859375 44.352542877197265625 44.708362579345703125 45.057300567626953125 45.399616241455078125 45.73555755615234375 46.0653533935546875 46.38922882080078125 46.707393646240234375 47.02004241943359375 47.3305206298828125 47.640064239501953125 47.944385528564453125 48.243656158447265625 48.538043975830078125 48.573268890380859375 48.573268890380859375 -9999 
67.3023223876953125 68.377166748046875 70.66690826416015625 72.69846343994140625 74.524200439453125 76.1820220947265625 75.5636138916015625 74.62610626220703125 73.6371917724609375 72.59090423583984375 71.541412353515625 70.5475921630859375 69.49581146240234375 68.378875732421875 67.188201904296875 66.9539794921875 66.9539794921875 66.9539794921875 66.9539794921875 66.5930023193359375 65.200714111328125 63.69190216064453125 62.045276641845703125 60.2331085205078125 59.4631805419921875 59.110652923583984375 58.7510986328125 58.3842315673828125 57.90500640869140625 56.959918975830078125 55.9625701904296875 54.906833648681640625 53.785442352294921875 53.130184173583984375 52.738300323486328125 52.33771514892578125 51.92803192138671875 51.530132293701171875 51.287113189697265625 51.04077911376953125 50.7910308837890625 50.537776947021484375 50.280918121337890625 50.02034759521484375 49.75595855712890625 49.487636566162109375 49.226016998291015625 49.226016998291015625 49.226016998291015625 49.226016998291015625 49.226016998291015625 49.054325103759765625 48.7062225341796875 48.351268768310546875 47.98918914794921875 47.619693756103515625 47.01885986328125 46.388004302978515625 45.734283447265625 45.055980682373046875 44.351169586181640625 43.61769866943359375 42.8531341552734375 42.05472564697265625 41.219333648681640625 40.3433685302734375 39.4226837158203125 38.452472686767578125 37.427093505859375 36.339900970458984375 35.182952880859375 33.946685791015625 32.619419097900390625 31.186681747436523438 30.895456314086914062 30.895456314086914062 30.895456314086914062 30.895456314086914062 30.485532760620117188 28.864561080932617188 27.083415985107421875 25.106937408447265625 22.886943817138671875 21.319002151489257812 19.98221588134765625 18.538381576538085938 16.968845367431640625 15.840668678283691406 17.112573623657226562 18.300670623779296875 19.4153289794921875 20.465101242065429688 22.464824676513671875 24.7342071533203125 26.749727249145507812 28.562511444091796875 30.2096405029296875 31.718873977661132812 33.111522674560546875 34.404323577880859375 35.61063385009765625 36.66413116455078125 37.604946136474609375 38.499114990234375 39.351043701171875 40.16454315185546875 40.94293975830078125 41.689128875732421875 42.405673980712890625 43.094837188720703125 43.619129180908203125 43.98956298828125 44.352542877197265625 44.708362579345703125 45.057300567626953125 45.399616241455078125 45.73555755615234375 46.0653533935546875 46.38922882080078125 46.73967742919921875 47.12744903564453125 47.507061004638671875 47.878849029541015625 48.24312591552734375 48.28662109375 48.28662109375 -9999 
67.89656829833984375 68.963531494140625 71.237945556640625 73.25743865966796875 75.07343292236328125 76.72321319580078125 76.356109619140625 75.726104736328125 75.07329559326171875 74.3959808349609375 73.5279693603515625 72.29047393798828125 70.96178436279296875 69.5273895263671875 67.96900177001953125 67.6586151123046875 67.6586151123046875 67.6586151123046875 67.6586151123046875 67.36582183837890625 66.2470703125 65.05431365966796875 63.777080535888671875 62.402469635009765625 61.7717742919921875 61.43126678466796875 61.0842132568359375 60.7303466796875 60.194553375244140625 58.87593841552734375 57.453277587890625 55.9087371826171875 54.219451904296875 53.381237030029296875 53.04380035400390625 52.69992828369140625 52.34937286376953125 52.006561279296875 51.76992034912109375 51.530132293701171875 51.287113189697265625 51.04077911376953125 50.7910308837890625 50.537776947021484375 50.280918121337890625 50.02034759521484375 49.76639556884765625 49.76639556884765625 49.76639556884765625 49.76639556884765625 49.76639556884765625 49.57015228271484375 49.171443939208984375 48.76372528076171875 48.3465728759765625 47.91954803466796875 47.326198577880859375 46.706188201904296875 46.064105987548828125 45.398319244384765625 44.7070159912109375 43.988162994384765625 43.239467620849609375 42.458347320556640625 41.641864776611328125 40.7866668701171875 39.8889007568359375 38.944103240966796875 37.9470672607421875 36.89168548583984375 35.77069854736328125 34.575408935546875 33.295257568359375 31.917272567749023438 31.637697219848632812 31.637697219848632812 31.637697219848632812 31.637697219848632812 31.244478225708007812 29.693248748779296875 27.99596405029296875 26.122234344482421875 24.031070709228515625 22.563520431518554688 21.319002151489257812 19.98221588134765625 18.538381576538085938 17.440275192260742188 18.274692535400390625 19.07221221923828125 19.83596038818359375 20.5686798095703125 22.464824676513671875 24.7342071533203125 26.749727249145507812 28.562511444091796875 30.2096405029296875 31.718873977661132812 33.111522674560546875 34.404323577880859375 35.61063385009765625 36.594482421875 37.4229583740234375 38.21504974365234375 38.97381591796875 39.701953887939453125 40.401836395263671875 41.075572967529296875 41.7250518798828125 42.351955413818359375 42.8546295166015625 43.24092864990234375 43.619129180908203125 43.98956298828125 44.352542877197265625 44.708362579345703125 45.057300567626953125 45.399616241455078125 45.73555755615234375 46.1288299560546875 46.599842071533203125 47.058872222900390625 47.50650787353515625 47.94330596923828125 47.995342254638671875 47.995342254638671875 -9999 
68.47186279296875 69.53143310546875 71.79146575927734375 73.79961395263671875 75.6064300537109375 77.24863433837890625 77.11524200439453125 76.7628631591796875 76.4034576416015625 76.0367431640625 75.317291259765625 73.87969207763671875 72.3175201416015625 70.60712432861328125 68.7174072265625 68.33675384521484375 68.33675384521484375 68.33675384521484375 68.33675384521484375 68.1068878173828125 67.23604583740234375 66.321014404296875 65.357086181640625 64.33872222900390625 63.818157196044921875 63.487087249755859375 63.149829864501953125 62.806148529052734375 62.225963592529296875 60.607845306396484375 58.830142974853515625 56.857906341552734375 54.6432647705078125 53.628841400146484375 53.344207763671875 53.0550079345703125 52.7610931396484375 52.47072601318359375 52.24013519287109375 52.006561279296875 51.76992034912109375 51.530132293701171875 51.287113189697265625 51.04077911376953125 50.7910308837890625 50.537776947021484375 50.29105377197265625 50.29105377197265625 50.29105377197265625 50.29105377197265625 50.29105377197265625 50.0716400146484375 49.624969482421875 49.166957855224609375 48.69701385498046875 48.21450042724609375 47.62839508056640625 47.01885986328125 46.388004302978515625 45.734283447265625 45.055980682373046875 44.351169586181640625 43.61769866943359375 42.8531341552734375 42.05472564697265625 41.219333648681640625 40.3433685302734375 39.4226837158203125 38.452472686767578125 37.427093505859375 36.339900970458984375 35.182952880859375 33.946685791015625 32.619419097900390625 32.350597381591796875 32.350597381591796875 32.350597381591796875 32.350597381591796875 31.972776412963867188 30.485532760620117188 28.864561080932617188 27.083415985107421875 25.106937408447265625 23.727691650390625 22.563520431518554688 21.319002151489257812 19.98221588134765625 18.909517288208007812 19.366455078125 19.812103271484375 20.247005462646484375 20.67166900634765625 22.464824676513671875 24.7342071533203125 26.749727249145507812 28.562511444091796875 30.2096405029296875 31.718873977661132812 33.111522674560546875 34.404323577880859375 35.61063385009765625 36.52455902099609375 37.23911285400390625 37.926441192626953125 38.588535308837890625 39.2271881103515625 39.843997955322265625 40.4404144287109375 41.017742156982421875 41.577159881591796875 42.056285858154296875 42.459873199462890625 42.8546295166015625 43.24092864990234375 43.619129180908203125 43.98956298828125 44.352542877197265625 44.708362579345703125 45.057300567626953125 45.496562957763671875 46.056339263916015625 46.599262237548828125 47.126323699951171875 47.63842010498046875 47.69928741455078125 47.69928741455078125 -9999 
69.0293731689453125 70.082000732421875 72.3285064697265625 74.32596588134765625 76.1241302490234375 77.759185791015625 77.84371185302734375 77.743255615234375 77.6422271728515625 77.5406341552734375 76.945037841796875 75.3401641845703125 73.57845306396484375 71.6258697509765625 69.4359893798828125 68.99031829833984375 68.99031829833984375 68.99031829833984375 68.99031829833984375 68.81870269775390625 68.1735992431640625 67.50457763671875 66.80977630615234375 66.0871429443359375 65.65586090087890625 65.3323974609375 65.00302886962890625 64.66754150390625 64.0515899658203125 62.187938690185546875 60.1093292236328125 57.759624481201171875 55.05735015869140625 53.87310028076171875 53.6396942138671875 53.403232574462890625 53.16362762451171875 52.923252105712890625 52.6984100341796875 52.47072601318359375 52.24013519287109375 52.006561279296875 51.76992034912109375 51.530132293701171875 51.287113189697265625 51.04077911376953125 50.800884246826171875 50.800884246826171875 50.800884246826171875 50.800884246826171875 50.800884246826171875 50.559558868408203125 50.067371368408203125 49.561374664306640625 49.040775299072265625 48.50470733642578125 47.925609588623046875 47.326198577880859375 46.706188201904296875 46.064105987548828125 45.398319244384765625 44.7070159912109375 43.988162994384765625 43.239467620849609375 42.458347320556640625 41.641864776611328125 40.7866668701171875 39.8889007568359375 38.944103240966796875 37.9470672607421875 36.89168548583984375 35.77069854736328125 34.575408935546875 33.295257568359375 33.0363922119140625 33.0363922119140625 33.0363922119140625 33.0363922119140625 32.672809600830078125 31.244478225708007812 29.693248748779296875 27.99596405029296875 26.122234344482421875 24.821262359619140625 23.727691650390625 22.563520431518554688 21.319002151489257812 20.268049240112304688 20.395893096923828125 20.522836685180664062 20.648893356323242188 20.774074554443359375 22.464824676513671875 24.7342071533203125 26.749727249145507812 28.562511444091796875 30.2096405029296875 31.718873977661132812 33.111522674560546875 34.404323577880859375 35.61063385009765625 36.454364776611328125 37.053379058837890625 37.633136749267578125 38.194843292236328125 38.73958587646484375 39.2683563232421875 39.782070159912109375 40.281558990478515625 40.76758575439453125 41.220966339111328125 41.643463134765625 42.056285858154296875 42.459873199462890625 42.8546295166015625 43.24092864990234375 43.619129180908203125 43.98956298828125 44.352542877197265625 44.841335296630859375 45.49594879150390625 46.127635955810546875 46.737949371337890625 47.328289031982421875 47.398288726806640625 47.398288726806640625 -9999 
70.7052154541015625 71.59943389892578125 73.53319549560546875 75.27959442138671875 76.871734619140625 78.3346710205078125 78.50272369384765625 78.5164031982421875 78.53006744384765625 78.5437164306640625 78.06036376953125 76.5740509033203125 74.954193115234375 73.1743927001953125 71.1995697021484375 70.80062103271484375 70.80062103271484375 70.80062103271484375 70.80062103271484375 70.6618194580078125 70.142364501953125 69.60750579833984375 69.05629730224609375 68.4877166748046875 67.90728759765625 67.31005859375 66.6923828125 66.05279541015625 65.2630615234375 63.877521514892578125 62.3766326904296875 60.73944091796875 58.938690185546875 57.645572662353515625 56.6419677734375 55.5792236328125 54.44992828369140625 53.3647003173828125 53.14532470703125 52.923252105712890625 52.6984100341796875 52.47072601318359375 52.24013519287109375 52.006561279296875 51.76992034912109375 51.530132293701171875 51.295490264892578125 51.264556884765625 51.233570098876953125 51.2025299072265625 51.171436309814453125 50.9075469970703125 50.400768280029296875 49.879337310791015625 49.342380523681640625 48.788951873779296875 48.218006134033203125 47.62839508056640625 47.01885986328125 46.388004302978515625 45.734283447265625 45.055980682373046875 44.351169586181640625 43.61769866943359375 42.8531341552734375 42.05472564697265625 41.219333648681640625 40.3433685302734375 39.4226837158203125 38.452472686767578125 37.427093505859375 36.339900970458984375 35.182952880859375 33.946685791015625 33.6970672607421875 33.6970672607421875 33.6970672607421875 33.6970672607421875 33.34668731689453125 31.972776412963867188 30.485532760620117188 28.864561080932617188 27.083415985107421875 25.94435882568359375 25.051599502563476562 24.112346649169921875 23.121486663818359375 22.2474365234375 22.092100143432617188 21.935415267944335938 21.777357101440429688 21.617902755737304688 23.049373626708984375 25.11920928955078125 26.975799560546875 28.6590118408203125 30.19847869873046875 31.616832733154296875 32.9317474365234375 34.157291412353515625 35.304843902587890625 36.10157012939453125 36.66058349609375 37.202793121337890625 37.72917938232421875 38.24063873291015625 38.737995147705078125 39.222003936767578125 39.69336700439453125 40.152729034423828125 40.600677490234375 41.037776947021484375 41.46453094482421875 41.8814239501953125 42.2888946533203125 42.68737030029296875 43.077228546142578125 43.458843231201171875 43.832550048828125 44.349559783935546875 45.0544281005859375 45.7327880859375 46.386562347412109375 47.017467498779296875 47.092182159423828125 47.092182159423828125 -9999 
72.97434234619140625 73.64546966552734375 75.12454986572265625 76.49149322509765625 77.76210784912109375 78.9490814208984375 79.1089019775390625 79.14514923095703125 79.18132781982421875 79.21743011474609375 78.84112548828125 77.64678955078125 76.36772918701171875 74.99100494384765625 73.50046539306640625 73.2042694091796875 73.2042694091796875 73.2042694091796875 73.2042694091796875 73.078460693359375 72.60843658447265625 72.1258392333984375 71.629974365234375 71.12009429931640625 70.28676605224609375 69.2938385009765625 68.24306488037109375 67.12726593017578125 66.08013916015625 65.582122802734375 65.06996917724609375 64.5428466796875 63.999851226806640625 62.665569305419921875 60.76879119873046875 58.648876190185546875 56.2462310791015625 53.795604705810546875 53.581439971923828125 53.3647003173828125 53.14532470703125 52.923252105712890625 52.6984100341796875 52.47072601318359375 52.24013519287109375 52.006561279296875 51.7760162353515625 51.693271636962890625 51.610141754150390625 51.526630401611328125 51.44272613525390625 51.155696868896484375 50.65593719482421875 50.141933441162109375 49.612857818603515625 49.067790985107421875 48.5057373046875 47.925609588623046875 47.326198577880859375 46.706188201904296875 46.064105987548828125 45.398319244384765625 44.7070159912109375 43.988162994384765625 43.239467620849609375 42.458347320556640625 41.641864776611328125 40.7866668701171875 39.8889007568359375 38.944103240966796875 37.9470672607421875 36.89168548583984375 35.77069854736328125 34.575408935546875 34.3343963623046875 34.3343963623046875 34.3343963623046875 34.3343963623046875 33.9962921142578125 32.672809600830078125 31.244478225708007812 29.693248748779296875 27.99596405029296875 27.065853118896484375 26.443132400512695312 25.7981414794921875 25.129230499267578125 24.497533798217773438 24.119047164916992188 23.732448577880859375 23.337383270263671875 22.933469772338867188 24.025203704833984375 25.771335601806640625 27.36325836181640625 28.826017379760742188 30.179006576538085938 31.437557220458984375 32.613994598388671875 33.718387603759765625 34.759044647216796875 35.524677276611328125 36.10157012939453125 36.66058349609375 37.202793121337890625 37.72917938232421875 38.24063873291015625 38.737995147705078125 39.222003936767578125 39.69336700439453125 40.152729034423828125 40.600677490234375 41.037776947021484375 41.46453094482421875 41.8814239501953125 42.2888946533203125 42.68737030029296875 43.077228546142578125 43.458843231201171875 43.98651885986328125 44.70543670654296875 45.39679718017578125 46.0626373291015625 46.70477294921875 46.780788421630859375 46.780788421630859375 -9999 
74.98966217041015625 75.4828948974609375 76.58683013916015625 77.6270751953125 78.610595703125 79.54325103759765625 79.69536590576171875 79.752716064453125 79.8098907470703125 79.86688232421875 79.58950042724609375 78.65929412841796875 77.678497314453125 76.64129638671875 75.54079437255859375 75.3249664306640625 75.3249664306640625 75.3249664306640625 75.3249664306640625 75.209259033203125 74.77756500244140625 74.3352813720703125 73.8818817138671875 73.4167938232421875 72.3886260986328125 71.08090972900390625 69.670928955078125 68.141326904296875 66.8618011474609375 67.13945770263671875 67.41291046142578125 67.682281494140625 67.94768524169921875 66.58837127685546875 64.12505340576171875 61.27133941650390625 57.8797454833984375 54.21645355224609375 54.00725555419921875 53.795604705810546875 53.581439971923828125 53.3647003173828125 53.14532470703125 52.923252105712890625 52.6984100341796875 52.47072601318359375 52.244075775146484375 52.112030029296875 51.979015350341796875 51.84500885009765625 51.70999908447265625 51.400482177734375 50.9075469970703125 50.400768280029296875 49.879337310791015625 49.342380523681640625 48.788951873779296875 48.218006134033203125 47.62839508056640625 47.01885986328125 46.388004302978515625 45.734283447265625 45.055980682373046875 44.351169586181640625 43.61769866943359375 42.8531341552734375 42.05472564697265625 41.219333648681640625 40.3433685302734375 39.4226837158203125 38.452472686767578125 37.427093505859375 36.339900970458984375 35.182952880859375 34.94997406005859375 34.94997406005859375 34.94997406005859375 34.94997406005859375 34.623317718505859375 33.34668731689453125 31.972776412963867188 30.485532760620117188 28.864561080932617188 28.121686935424804688 27.734964370727539062 27.339769363403320312 26.93572235107421875 26.497833251953125 25.941066741943359375 25.366567611694335938 24.773166656494140625 24.159580230712890625 24.9509429931640625 26.400705337524414062 27.742570877075195312 28.991491317749023438 30.159511566162109375 31.256479263305664062 32.290546417236328125 33.268535614013671875 34.196216583251953125 34.9287261962890625 35.524677276611328125 36.10157012939453125 36.66058349609375 37.202793121337890625 37.72917938232421875 38.24063873291015625 38.737995147705078125 39.222003936767578125 39.69336700439453125 40.152729034423828125 40.600677490234375 41.037776947021484375 41.46453094482421875 41.8814239501953125 42.2888946533203125 42.68737030029296875 43.077228546142578125 43.61602020263671875 44.349559783935546875 45.0544281005859375 45.7327880859375 46.386562347412109375 46.463932037353515625 46.463932037353515625 -9999 
76.802276611328125 77.1503448486328125 77.93939971923828125 78.6953887939453125 79.42095947265625 80.11847686767578125 80.26335906982421875 80.34049224853515625 80.41728973388671875 80.4937591552734375 80.30805206298828125 79.61797332763671875 78.90044403076171875 78.1531829833984375 77.37361907958984375 77.2223663330078125 77.2223663330078125 77.2223663330078125 77.2223663330078125 77.11474609375 76.71363067626953125 76.30339813232421875 75.88361358642578125 75.453826904296875 74.27094268798828125 72.706787109375 70.9940185546875 69.1013946533203125 67.61100006103515625 68.572967529296875 69.48622894287109375 70.35547637939453125 71.18475341796875 69.80861663818359375 66.9537353515625 63.560497283935546875 59.377544403076171875 54.62770843505859375 54.423252105712890625 54.21645355224609375 54.00725555419921875 53.795604705810546875 53.581439971923828125 53.3647003173828125 53.14532470703125 52.923252105712890625 52.70029449462890625 52.521289825439453125 52.34049224853515625 52.157863616943359375 51.973369598388671875 51.641986846923828125 51.155696868896484375 50.65593719482421875 50.141933441162109375 49.612857818603515625 49.067790985107421875 48.5057373046875 47.925609588623046875 47.326198577880859375 46.706188201904296875 46.064105987548828125 45.398319244384765625 44.7070159912109375 43.988162994384765625 43.239467620849609375 42.458347320556640625 41.641864776611328125 40.7866668701171875 39.8889007568359375 38.944103240966796875 37.9470672607421875 36.89168548583984375 35.77069854736328125 35.545238494873046875 35.545238494873046875 35.545238494873046875 35.545238494873046875 35.229278564453125 33.9962921142578125 32.672809600830078125 31.244478225708007812 29.693248748779296875 29.119121551513671875 28.940433502197265625 28.75995635986328125 28.577655792236328125 28.2982940673828125 27.595815658569335938 26.864870071411132812 26.103048324584960938 25.307628631591796875 25.831483840942382812 27.00885772705078125 28.114068984985351562 29.155458450317382812 30.139995574951171875 31.073566436767578125 31.96118927001953125 32.807178497314453125 33.615261077880859375 34.312408447265625 34.9287261962890625 35.524677276611328125 36.10157012939453125 36.66058349609375 37.202793121337890625 37.72917938232421875 38.24063873291015625 38.737995147705078125 39.222003936767578125 39.69336700439453125 40.152729034423828125 40.600677490234375 41.037776947021484375 41.46453094482421875 41.8814239501953125 42.2888946533203125 42.68737030029296875 43.237751007080078125 43.98651885986328125 44.70543670654296875 45.39679718017578125 46.0626373291015625 46.141407012939453125 46.141407012939453125 -9999 
78.45116424560546875 78.6812896728515625 79.208526611328125 79.72078704833984375 80.218902587890625 80.7036285400390625 80.8418426513671875 80.9370269775390625 81.031707763671875 81.1259002685546875 81.023284912109375 80.54718780517578125 80.05817413330078125 79.5555419921875 79.0384979248046875 78.939056396484375 78.939056396484375 78.939056396484375 78.939056396484375 78.8359375 78.45184326171875 78.05939483642578125 77.6582183837890625 77.2479095458984375 75.94141387939453125 74.17188262939453125 72.2097015380859375 70.00772857666015625 68.3285675048828125 69.85980224609375 71.27117156982421875 72.58008575439453125 73.80040740966796875 72.411834716796875 69.28505706787109375 65.50023651123046875 60.704502105712890625 55.029796600341796875 54.82987213134765625 54.62770843505859375 54.423252105712890625 54.21645355224609375 54.00725555419921875 53.795604705810546875 53.581439971923828125 53.3647003173828125 53.145259857177734375 52.92147064208984375 52.6948699951171875 52.465389251708984375 52.23294830322265625 51.88030242919921875 51.400482177734375 50.9075469970703125 50.400768280029296875 49.879337310791015625 49.342380523681640625 48.788951873779296875 48.218006134033203125 47.62839508056640625 47.01885986328125 46.388004302978515625 45.734283447265625 45.055980682373046875 44.351169586181640625 43.61769866943359375 42.8531341552734375 42.05472564697265625 41.219333648681640625 40.3433685302734375 39.4226837158203125 38.452472686767578125 37.427093505859375 36.339900970458984375 36.12148284912109375 36.12148284912109375 36.12148284912109375 36.12148284912109375 35.816722869873046875 34.629306793212890625 33.358184814453125 31.99065399169921875 30.510881423950195312 30.087451934814453125 30.087451934814453125 30.087451934814453125 30.087451934814453125 29.936410903930664062 29.119075775146484375 28.262939453125 27.364137649536132812 26.418195724487304688 26.70433807373046875 27.628808975219726562 28.508203506469726562 29.346714019775390625 30.147970199584960938 30.9151458740234375 31.651018142700195312 32.3580474853515625 33.038402557373046875 33.699737548828125 34.34177398681640625 34.961742401123046875 35.5611114501953125 36.14105224609375 36.698863983154296875 37.23993682861328125 37.765254974365234375 38.275707244873046875 38.770252227783203125 39.249752044677734375 39.716838836669921875 40.1721343994140625 40.61621856689453125 41.052799224853515625 41.479206085205078125 41.89575958251953125 42.30291748046875 42.863719940185546875 43.62497711181640625 44.355403900146484375 45.057399749755859375 45.733097076416015625 45.813007354736328125 45.813007354736328125 -9999 
80.009979248046875 80.2118988037109375 80.67568206787109375 81.12784576416015625 81.56894683837890625 81.9995269775390625 82.13468170166015625 82.23299407958984375 82.330780029296875 82.42803192138671875 82.3455963134765625 81.9232940673828125 81.490875244140625 81.0478363037109375 80.5936431884765625 80.5064697265625 80.5064697265625 80.5064697265625 80.5064697265625 80.353485107421875 79.77988433837890625 79.18744659423828125 78.57488250732421875 77.9407806396484375 76.5856475830078125 74.83745574951171875 72.9014739990234375 70.732452392578125 68.97196197509765625 69.9606781005859375 70.89800262451171875 71.78902435302734375 72.638092041015625 71.22759246826171875 68.2926025390625 64.7854766845703125 60.4278106689453125 55.423114776611328125 55.227527618408203125 55.029796600341796875 54.82987213134765625 54.62770843505859375 54.423252105712890625 54.21645355224609375 54.00725555419921875 53.795604705810546875 53.5795135498046875 53.31296539306640625 53.04241943359375 52.76775360107421875 52.4888458251953125 52.115509033203125 51.641986846923828125 51.155696868896484375 50.65593719482421875 50.141933441162109375 49.612857818603515625 49.067790985107421875 48.5057373046875 47.925609588623046875 47.326198577880859375 46.706188201904296875 46.064105987548828125 45.398319244384765625 44.7070159912109375 43.988162994384765625 43.239467620849609375 42.458347320556640625 41.641864776611328125 40.7866668701171875 39.8889007568359375 38.944103240966796875 37.9470672607421875 36.89168548583984375 36.6798858642578125 36.6798858642578125 36.6798858642578125 36.6798858642578125 36.417400360107421875 35.400653839111328125 34.32315826416015625 33.177188873291015625 31.953449249267578125 31.6065216064453125 31.6065216064453125 31.6065216064453125 31.6065216064453125 31.4677276611328125 30.718313217163085938 29.936410903930664062 29.119075775146484375 28.262939453125 28.397073745727539062 29.056728363037109375 29.693111419677734375 30.307804107666015625 30.902240753173828125 31.477710723876953125 32.035388946533203125 32.5763397216796875 33.101543426513671875 33.78148651123046875 34.55745697021484375 35.301422119140625 36.0159149169921875 36.698863983154296875 37.23993682861328125 37.765254974365234375 38.275707244873046875 38.772113800048828125 39.201267242431640625 39.56665802001953125 39.924793243408203125 40.275959014892578125 40.620418548583984375 41.052799224853515625 41.479206085205078125 41.89575958251953125 42.30291748046875 42.82773590087890625 43.507701873779296875 44.1629638671875 44.795253753662109375 45.406131744384765625 45.478519439697265625 45.478519439697265625 -9999 
81.44474029541015625 81.6227264404296875 82.032440185546875 82.43304443359375 82.824951171875 83.208526611328125 83.34102630615234375 83.44207000732421875 83.54254150390625 83.64246368408203125 83.57755279541015625 83.20183563232421875 82.818115234375 82.426055908203125 82.02529144287109375 81.94850921630859375 81.94850921630859375 81.94850921630859375 81.94850921630859375 81.7532196044921875 81.01682281494140625 80.24908447265625 79.44720458984375 78.60802459716796875 77.20766448974609375 75.47933197021484375 73.56768798828125 71.4291839599609375 69.59320068359375 70.0609893798828125 70.5169525146484375 70.961669921875 71.39569091796875 69.9600982666015625 67.24234771728515625 64.041229248046875 60.146808624267578125 55.808040618896484375 55.616603851318359375 55.423114776611328125 55.227527618408203125 55.029796600341796875 54.82987213134765625 54.62770843505859375 54.423252105712890625 54.21645355224609375 54.003559112548828125 53.69614410400390625 53.38339996337890625 53.0651397705078125 52.741161346435546875 52.347686767578125 51.88030242919921875 51.400482177734375 50.9075469970703125 50.400768280029296875 49.879337310791015625 49.342380523681640625 48.788951873779296875 48.218006134033203125 47.62839508056640625 47.01885986328125 46.388004302978515625 45.734283447265625 45.055980682373046875 44.351169586181640625 43.61769866943359375 42.8531341552734375 42.05472564697265625 41.219333648681640625 40.3433685302734375 39.4226837158203125 38.452472686767578125 37.427093505859375 37.221527099609375 37.221527099609375 37.221527099609375 37.221527099609375 36.99871826171875 36.1403656005859375 35.2391204833984375 34.290470123291015625 33.28914642333984375 33.00754547119140625 33.00754547119140625 33.00754547119140625 33.00754547119140625 32.87915802001953125 32.187244415283203125 31.4677276611328125 30.718313217163085938 29.936410903930664062 29.9445037841796875 30.37985992431640625 30.804958343505859375 31.220270156860351562 31.626232147216796875 32.023258209228515625 32.411739349365234375 32.792022705078125 33.164459228515625 33.862865447998046875 34.770595550537109375 35.634822845458984375 36.459537506103515625 37.23993682861328125 37.765254974365234375 38.275707244873046875 38.772113800048828125 39.255222320556640625 39.622222900390625 39.87808990478515625 40.130382537841796875 40.37918853759765625 40.624614715576171875 41.052799224853515625 41.479206085205078125 41.89575958251953125 42.30291748046875 42.791683197021484375 43.389659881591796875 43.968448638916015625 44.529247283935546875 45.073131561279296875 45.137714385986328125 45.137714385986328125 -9999 
82.77374267578125 82.93117523193359375 83.29424285888671875 83.65015411376953125 83.99916839599609375 84.3415679931640625 84.4717254638671875 84.575164794921875 84.678009033203125 84.7802734375 84.73073577880859375 84.39571380615234375 84.054351806640625 83.70641326904296875 83.35162353515625 83.28375244140625 83.28375244140625 83.28375244140625 83.28375244140625 83.05211639404296875 82.1743621826171875 81.25170135498046875 80.27928924560546875 79.25145721435546875 77.80893707275390625 76.09915924072265625 74.21018218994140625 72.100006103515625 70.193756103515625 70.16074371337890625 70.1276702880859375 70.09454345703125 70.06134796142578125 68.596771240234375 66.12714385986328125 63.264949798583984375 59.861362457275390625 56.1849212646484375 55.997467041015625 55.808040618896484375 55.616603851318359375 55.423114776611328125 55.227527618408203125 55.029796600341796875 54.82987213134765625 54.62770843505859375 54.4178619384765625 54.071353912353515625 53.71805572509765625 53.357700347900390625 52.98999786376953125 52.576915740966796875 52.115509033203125 51.641986846923828125 51.155696868896484375 50.65593719482421875 50.141933441162109375 49.612857818603515625 49.067790985107421875 48.5057373046875 47.925609588623046875 47.326198577880859375 46.706188201904296875 46.064105987548828125 45.398319244384765625 44.7070159912109375 43.988162994384765625 43.239467620849609375 42.458347320556640625 41.641864776611328125 40.7866668701171875 39.8889007568359375 38.944103240966796875 37.9470672607421875 37.747371673583984375 37.747371673583984375 37.747371673583984375 37.747371673583984375 37.561885833740234375 36.8509368896484375 36.110813140869140625 35.339019775390625 34.53272247314453125 34.307552337646484375 34.307552337646484375 34.307552337646484375 34.307552337646484375 34.1881256103515625 33.545513153076171875 32.87915802001953125 32.187244415283203125 31.4677276611328125 31.3696136474609375 31.612539291381835938 31.852237701416015625 32.0887908935546875 32.322284698486328125 32.55279541015625 32.7803955078125 33.005161285400390625 33.2271575927734375 33.943881988525390625 34.98123931884765625 35.962177276611328125 36.89250946044921875 37.765254974365234375 38.275707244873046875 38.772113800048828125 39.255222320556640625 39.725727081298828125 40.033580780029296875 40.184238433837890625 40.333648681640625 40.48183441162109375 40.628810882568359375 41.052799224853515625 41.479206085205078125 41.89575958251953125 42.30291748046875 42.75555419921875 43.270839691162109375 43.771816253662109375 44.25925445556640625 44.733867645263671875 44.79034423828125 44.79034423828125 -9999 
84.01151275634765625 84.151092529296875 84.4735260009765625 84.7902984619140625 85.10160064697265625 85.407623291015625 85.5357208251953125 85.64127349853515625 85.7462158203125 85.85054779052734375 85.81459808349609375 85.51546478271484375 85.21128082275390625 84.90187835693359375 84.5870819091796875 84.52693939208984375 84.52693939208984375 84.52693939208984375 84.52693939208984375 84.26373291015625 83.26207733154296875 82.201507568359375 81.074676513671875 79.8727264404296875 78.3908233642578125 76.69838714599609375 74.83056640625 72.74676513671875 70.77495574951171875 70.25994873046875 69.7298126220703125 69.18361663818359375 68.62036895751953125 67.121917724609375 64.93842315673828125 62.4537506103515625 59.571323394775390625 56.5540924072265625 56.370452880859375 56.1849212646484375 55.997467041015625 55.808040618896484375 55.616603851318359375 55.423114776611328125 55.227527618408203125 55.029796600341796875 54.822864532470703125 54.438915252685546875 54.0466156005859375 53.64559173583984375 53.235446929931640625 52.8032684326171875 52.347686767578125 51.88030242919921875 51.400482177734375 50.9075469970703125 50.400768280029296875 49.879337310791015625 49.342380523681640625 48.788951873779296875 48.218006134033203125 47.62839508056640625 47.01885986328125 46.388004302978515625 45.734283447265625 45.055980682373046875 44.351169586181640625 43.61769866943359375 42.8531341552734375 42.05472564697265625 41.219333648681640625 40.3433685302734375 39.4226837158203125 38.452472686767578125 38.25832366943359375 38.25832366943359375 38.25832366943359375 38.25832366943359375 38.108001708984375 37.534572601318359375 36.942317962646484375 36.3299560546875 35.696071624755859375 35.520137786865234375 35.520137786865234375 35.520137786865234375 35.520137786865234375 35.408496856689453125 34.808628082275390625 34.1881256103515625 33.545513153076171875 32.87915802001953125 32.69033050537109375 32.7663421630859375 32.842037200927734375 32.91741180419921875 32.992473602294921875 33.067226409912109375 33.14167022705078125 33.2158050537109375 33.289638519287109375 34.024532318115234375 35.189456939697265625 36.283695220947265625 37.31533050537109375 38.275707244873046875 38.772113800048828125 39.255222320556640625 39.725727081298828125 40.18427276611328125 40.435764312744140625 40.485279083251953125 40.534656524658203125 40.58390045166015625 40.633007049560546875 41.052799224853515625 41.479206085205078125 41.89575958251953125 42.30291748046875 42.719356536865234375 43.15123748779296875 43.573017120361328125 43.98516082763671875 44.38809967041015625 44.436153411865234375 44.436153411865234375 -9999 
85.18831634521484375 85.310394287109375 85.5928497314453125 85.87094879150390625 86.1448211669921875 86.41460418701171875 86.523590087890625 86.6122894287109375 86.7005462646484375 86.7883758544921875 86.71819305419921875 86.3498992919921875 85.9739227294921875 85.5899505615234375 85.19762420654296875 85.1224822998046875 85.1224822998046875 85.1224822998046875 85.1224822998046875 84.84035491943359375 83.76393890380859375 82.6191864013671875 81.3968353271484375 80.085601806640625 78.5618438720703125 76.85346221923828125 74.96619415283203125 72.858154296875 70.800140380859375 69.95247650146484375 69.06301116943359375 68.1273956298828125 67.14058685302734375 65.65663909912109375 63.781864166259765625 61.689403533935546875 59.3219757080078125 56.91357421875 56.713794708251953125 56.51177978515625 56.307476043701171875 56.100833892822265625 55.89179229736328125 55.68030548095703125 55.466304779052734375 55.249736785888671875 55.02359771728515625 54.621372222900390625 54.20996856689453125 53.788967132568359375 53.35790252685546875 52.916286468505859375 52.46358489990234375 51.999233245849609375 51.52260589599609375 51.033046722412109375 50.529827117919921875 50.01216888427734375 49.47920989990234375 48.930027008056640625 48.37688446044921875 47.824951171875 47.255596160888671875 46.6676788330078125 46.05995941162109375 45.398319244384765625 44.7070159912109375 43.988162994384765625 43.239467620849609375 42.473392486572265625 41.70314788818359375 40.89853668212890625 40.05635833740234375 39.172924041748046875 38.9966583251953125 38.9966583251953125 38.9966583251953125 38.9966583251953125 38.86685943603515625 38.3730926513671875 37.865428924560546875 37.343059539794921875 36.80511474609375 36.65631866455078125 36.65631866455078125 36.65631866455078125 36.65631866455078125 36.551513671875 35.989055633544921875 35.408496856689453125 34.808628082275390625 34.1881256103515625 34.54799652099609375 35.4063568115234375 36.225719451904296875 37.0094757080078125 37.588382720947265625 36.770221710205078125 35.913181304931640625 35.0133819580078125 34.0663299560546875 34.33840179443359375 35.484897613525390625 36.562854766845703125 37.580013275146484375 38.557544708251953125 39.870418548583984375 41.094188690185546875 42.240184783935546875 43.317707061767578125 43.897609710693359375 44.0180206298828125 44.13763427734375 44.25646209716796875 44.374507904052734375 45.048061370849609375 45.721157073974609375 46.370037078857421875 46.996387481689453125 47.629116058349609375 48.2772064208984375 48.9028167724609375 49.507457733154296875 50.092487335205078125 50.161865234375 50.161865234375 -9999 
86.31072235107421875 86.41561126708984375 86.65865325927734375 86.898468017578125 87.13513946533203125 87.368743896484375 87.44390869140625 87.49925994873046875 87.554443359375 87.6094512939453125 87.46280670166015625 86.93109130859375 86.38323211669921875 85.818206787109375 85.2349090576171875 85.1224822998046875 85.1224822998046875 85.1224822998046875 85.1224822998046875 84.8312225341796875 83.71855926513671875 82.5327301025390625 81.263427734375 79.8979949951171875 78.3271331787109375 76.5687408447265625 74.62024688720703125 72.43550872802734375 70.26256561279296875 69.20989990234375 68.09197235107421875 66.90015411376953125 65.623992919921875 64.2169342041015625 62.6714935302734375 60.981128692626953125 59.11583709716796875 57.263751983642578125 57.028667449951171875 56.790477752685546875 56.549102783203125 56.304454803466796875 56.056446075439453125 55.804973602294921875 55.54994964599609375 55.29126739501953125 55.02359771728515625 54.621372222900390625 54.20996856689453125 53.788967132568359375 53.35790252685546875 52.916286468505859375 52.46358489990234375 51.999233245849609375 51.52260589599609375 51.033046722412109375 50.529827117919921875 50.01216888427734375 49.47920989990234375 48.930027008056640625 48.4036407470703125 47.917629241943359375 47.418163299560546875 46.904468536376953125 46.3757171630859375 45.734283447265625 45.055980682373046875 44.351169586181640625 43.61769866943359375 42.897495269775390625 42.234783172607421875 41.546787261962890625 40.831512451171875 40.086696624755859375 39.938777923583984375 39.938777923583984375 39.938777923583984375 39.938777923583984375 39.815608978271484375 39.347469329833984375 38.86685943603515625 38.3730926513671875 37.865428924560546875 37.72515869140625 37.72515869140625 37.72515869140625 37.72515869140625 37.626399993896484375 37.09696197509765625 36.551513671875 35.989055633544921875 35.408496856689453125 36.793720245361328125 38.9949493408203125 40.95654296875 42.72559356689453125 43.973903656005859375 42.195709228515625 40.22286224365234375 38.00745391845703125 35.481357574462890625 34.87725067138671875 35.86472320556640625 36.800933837890625 37.69094085693359375 38.617748260498046875 41.47686767578125 43.9442138671875 46.11431884765625 48.051166534423828125 49.09027099609375 49.361476898193359375 49.628662109375 49.89194488525390625 50.1514434814453125 51.1247406005859375 52.07828521728515625 52.983943939208984375 53.846302032470703125 54.725116729736328125 55.636993408203125 56.504985809326171875 57.33312225341796875 58.12490081787109375 58.218204498291015625 58.218204498291015625 -9999 
87.36737060546875 87.457000732421875 87.66498565673828125 87.87060546875 88.0738983154296875 88.274932861328125 88.31954193115234375 88.34465789794921875 88.36974334716796875 88.39478302001953125 88.17789459228515625 87.49414825439453125 86.78345489501953125 86.043609619140625 85.272125244140625 85.1224822998046875 85.1224822998046875 85.1224822998046875 85.1224822998046875 84.82208251953125 83.673065185546875 82.44585418701171875 81.1290130615234375 79.70842742919921875 78.08933258056640625 76.2794647216796875 74.26753997802734375 72.00272369384765625 69.70848846435546875 68.43543243408203125 67.065673828125 65.58329010009765625 63.96808624267578125 62.65229034423828125 61.488262176513671875 60.243907928466796875 58.90731048583984375 57.607257843017578125 57.338134765625 57.064937591552734375 56.787540435791015625 56.50580596923828125 56.2196044921875 55.9287872314453125 55.633209228515625 55.33270263671875 55.02359771728515625 54.621372222900390625 54.20996856689453125 53.788967132568359375 53.35790252685546875 52.916286468505859375 52.46358489990234375 51.999233245849609375 51.52260589599609375 51.033046722412109375 50.529827117919921875 50.01216888427734375 49.47920989990234375 48.930027008056640625 48.43035888671875 48.009838104248046875 47.57927703857421875 47.138187408447265625 46.68604278564453125 46.064105987548828125 45.398319244384765625 44.7070159912109375 43.988162994384765625 43.311855316162109375 42.75119781494140625 42.172550201416015625 41.574726104736328125 40.9564056396484375 40.83412933349609375 40.83412933349609375 40.83412933349609375 40.83412933349609375 40.71694183349609375 40.27190399169921875 39.815608978271484375 39.347469329833984375 38.86685943603515625 38.734195709228515625 38.734195709228515625 38.734195709228515625 38.734195709228515625 38.6408233642578125 38.14073944091796875 37.626399993896484375 37.09696197509765625 36.551513671875 38.790561676025390625 41.986724853515625 44.7009124755859375 47.059612274169921875 48.680484771728515625 46.361110687255859375 43.69889068603515625 40.57459259033203125 36.793415069580078125 35.400470733642578125 36.23671722412109375 37.035907745361328125 37.801189422607421875 38.677753448486328125 42.95188140869140625 46.40477752685546875 49.301731109619140625 51.79718017578125 53.117443084716796875 53.47849273681640625 53.83245849609375 54.1796112060546875 54.52021026611328125 55.66210174560546875 56.76949310302734375 57.812816619873046875 58.79907989501953125 59.80449676513671875 60.849224090576171875 61.836742401123046875 62.772991180419921875 63.6630401611328125 63.767604827880859375 63.767604827880859375 -9999 
88.36553192138671875 88.44153594970703125 88.618133544921875 88.7930145263671875 88.966217041015625 89.1377716064453125 89.154632568359375 89.1522064208984375 89.14977264404296875 89.14734649658203125 88.86571502685546875 88.04015350341796875 87.17499542236328125 86.2662353515625 85.30925750732421875 85.1224822998046875 85.1224822998046875 85.1224822998046875 85.1224822998046875 84.81293487548828125 83.6274566650390625 82.35855865478515625 80.99359893798828125 79.51683807373046875 77.84835052490234375 75.98546600341796875 73.90779876708984375 71.55930328369140625 69.1368408203125 67.626220703125 65.97743988037109375 64.16265869140625 62.1446685791015625 60.938930511474609375 60.2219390869140625 59.4752655029296875 58.696346282958984375 57.944347381591796875 57.64238739013671875 57.335285186767578125 57.022861480712890625 56.704936981201171875 56.3813018798828125 56.0517578125 55.716083526611328125 55.374042510986328125 55.02359771728515625 54.621372222900390625 54.20996856689453125 53.788967132568359375 53.35790252685546875 52.916286468505859375 52.46358489990234375 51.999233245849609375 51.52260589599609375 51.033046722412109375 50.529827117919921875 50.01216888427734375 49.47920989990234375 48.930027008056640625 48.457035064697265625 48.101573944091796875 47.738964080810546875 47.36891937255859375 46.991119384765625 46.388004302978515625 45.734283447265625 45.055980682373046875 44.351169586181640625 43.716915130615234375 43.253238677978515625 42.7773284912109375 42.288524627685546875 41.786106109619140625 41.687129974365234375 41.687129974365234375 41.687129974365234375 41.687129974365234375 41.575374603271484375 41.151264190673828125 40.71694183349609375 40.27190399169921875 39.815608978271484375 39.68976593017578125 39.68976593017578125 39.68976593017578125 39.68976593017578125 39.601222991943359375 39.127410888671875 38.6408233642578125 38.14073944091796875 37.626399993896484375 40.588222503662109375 44.552173614501953125 47.800060272216796875 50.551425933837890625 52.409679412841796875 49.74280548095703125 46.612091064453125 42.82149505615234375 38.01647186279296875 35.908939361572265625 36.601192474365234375 37.267864227294921875 37.9107666015625 38.737560272216796875 44.315349578857421875 48.569644927978515625 52.00960540771484375 54.897457122802734375 56.4075927734375 56.828281402587890625 57.239383697509765625 57.641323089599609375 58.0345001220703125 59.2844696044921875 60.48905181884765625 61.61820220947265625 62.680816650390625 63.763378143310546875 64.88812255859375 65.94683074951171875 66.94683837890625 67.8943023681640625 68.00542449951171875 68.00542449951171875 -9999 
89.31134033203125 89.3751068115234375 89.52342987060546875 89.67053985595703125 89.81646728515625 89.96121978759765625 89.95276641845703125 89.925140380859375 89.8974761962890625 89.8697662353515625 89.52826690673828125 88.57012176513671875 87.5582122802734375 86.48614501953125 85.3463134765625 85.1224822998046875 85.1224822998046875 85.1224822998046875 85.1224822998046875 84.8037872314453125 83.58173370361328125 82.27083587646484375 80.85715484619140625 79.32318878173828125 77.6041107177734375 75.6865997314453125 73.540740966796875 71.104705810546875 68.54648590087890625 66.77899932861328125 64.81932830810546875 62.620517730712890625 60.11598968505859375 59.045581817626953125 58.85996246337890625 58.6724090576171875 58.48288726806640625 58.2752532958984375 57.94158935546875 57.6016387939453125 57.255157470703125 56.901889801025390625 56.54156494140625 56.17389678955078125 55.798580169677734375 55.415287017822265625 55.02359771728515625 54.621372222900390625 54.20996856689453125 53.788967132568359375 53.35790252685546875 52.916286468505859375 52.46358489990234375 51.999233245849609375 51.52260589599609375 51.033046722412109375 50.529827117919921875 50.01216888427734375 49.47920989990234375 48.930027008056640625 48.483673095703125 48.192844390869140625 47.897251129150390625 47.59673309326171875 47.2911224365234375 46.706188201904296875 46.064105987548828125 45.398319244384765625 44.7070159912109375 44.11307525634765625 43.7416839599609375 43.362491607666015625 42.97515106201171875 42.579315185546875 42.501613616943359375 42.501613616943359375 42.501613616943359375 42.501613616943359375 42.394802093505859375 41.989742279052734375 41.575374603271484375 41.151264190673828125 40.71694183349609375 40.59725189208984375 40.59725189208984375 40.59725189208984375 40.59725189208984375 40.5130615234375 40.06290435791015625 39.601222991943359375 39.127410888671875 38.6408233642578125 42.222858428955078125 46.797786712646484375 50.444011688232421875 53.475696563720703125 55.498439788818359375 52.589511871337890625 49.119579315185546875 44.819271087646484375 39.161846160888671875 36.403469085693359375 36.958454132080078125 37.4968719482421875 38.019687652587890625 38.7971649169921875 45.582958221435546875 50.502315521240234375 54.363544464111328125 57.54222869873046875 59.18920135498046875 59.652362823486328125 60.103931427001953125 60.54447174072265625 60.974506378173828125 62.299663543701171875 63.57120513916015625 64.7589874267578125 65.8733673095703125 67.0078582763671875 68.1860809326171875 69.2920379638671875 70.3340911865234375 71.3192138671875 71.4346160888671875 71.4346160888671875 -9999 
89.7716522216796875 89.87505340576171875 90.11470794677734375 90.351226806640625 90.58467864990234375 90.81514739990234375 90.682647705078125 90.5031585693359375 90.32187652587890625 90.1387481689453125 89.6894683837890625 88.71369171142578125 87.68210601806640625 86.587921142578125 85.42305755615234375 85.19411468505859375 85.19411468505859375 85.19411468505859375 85.19411468505859375 84.87412261962890625 83.64687347412109375 82.32999420166015625 80.90936279296875 79.3672027587890625 77.64797210693359375 75.7341766357421875 73.59297943115234375 71.1629486083984375 68.61446380615234375 66.86695098876953125 64.93181610107421875 62.76385498046875 60.299285888671875 59.24164581298828125 59.050014495849609375 58.856327056884765625 58.6605377197265625 58.44744110107421875 58.11539459228515625 57.77712249755859375 57.432384490966796875 57.0809326171875 56.722492218017578125 56.35678863525390625 55.983516693115234375 55.60235595703125 55.2129669189453125 54.8149871826171875 54.408031463623046875 53.99167633056640625 53.565486907958984375 53.128986358642578125 52.681659698486328125 52.222957611083984375 51.752285003662109375 51.269001007080078125 50.772411346435546875 50.2617645263671875 49.736240386962890625 49.1949462890625 48.7563018798828125 48.472568511962890625 48.18430328369140625 47.891353607177734375 47.593570709228515625 47.07654571533203125 46.515087127685546875 45.935588836669921875 45.336856842041015625 44.81320953369140625 44.459468841552734375 44.09865570068359375 43.730480194091796875 43.3546295166015625 43.2808990478515625 43.2808990478515625 43.2808990478515625 43.2808990478515625 43.178619384765625 42.7909698486328125 42.394802093505859375 41.989742279052734375 41.575374603271484375 42.469600677490234375 43.767673492431640625 44.978572845458984375 46.11327362060546875 46.886470794677734375 46.36931610107421875 45.8368988037109375 45.288288116455078125 44.72246551513671875 46.926036834716796875 50.09059906005859375 52.781978607177734375 55.123447418212890625 56.730743408203125 54.396411895751953125 51.71445465087890625 48.562923431396484375 44.741729736328125 42.3846893310546875 41.584751129150390625 40.747684478759765625 39.86988067626953125 39.202617645263671875 44.69004058837890625 48.89173126220703125 52.297275543212890625 55.160846710205078125 57.02056121826171875 58.12117767333984375 59.158481597900390625 60.139369964599609375 61.0696563720703125 63.37778472900390625 65.47878265380859375 67.3603973388671875 69.06414794921875 70.06948089599609375 70.26699066162109375 70.46236419677734375 70.6556396484375 70.84687042236328125 70.86981964111328125 70.86981964111328125 -9999 
90.2011260986328125 90.34444427490234375 90.6753997802734375 91.00038909912109375 91.3196258544921875 91.63330841064453125 91.38265228271484375 91.056121826171875 90.72357177734375 90.384765625 89.8277435302734375 88.83946990966796875 87.7938995361328125 86.68396759033203125 85.50124359130859375 85.268646240234375 85.268646240234375 85.268646240234375 85.268646240234375 84.94771575927734375 83.71671295166015625 82.3955078125 80.9698333740234375 79.4217376708984375 77.70462799072265625 75.79715728759765625 73.66388702392578125 71.24405670166015625 68.7118377685546875 66.9967803955078125 65.1013641357421875 62.983154296875 60.58269500732421875 59.531402587890625 59.308319091796875 59.082447052001953125 58.85370635986328125 58.61119842529296875 58.2821807861328125 57.947052001953125 57.605579376220703125 57.25751495361328125 56.9026031494140625 56.54056549072265625 56.17111968994140625 55.7939453125 55.40871429443359375 55.01507568359375 54.6126556396484375 54.201053619384765625 53.779842376708984375 53.3485565185546875 52.906707763671875 52.453765869140625 51.989154815673828125 51.51226043701171875 51.0224151611328125 50.518894195556640625 50.00091552734375 49.467620849609375 49.035640716552734375 48.7563018798828125 48.472568511962890625 48.18430328369140625 47.891353607177734375 47.44197845458984375 46.960597991943359375 46.4660186767578125 45.95749664306640625 45.50052642822265625 45.1601409912109375 44.81320953369140625 44.459468841552734375 44.09865570068359375 44.027912139892578125 44.027912139892578125 44.027912139892578125 44.027912139892578125 43.9297943115234375 43.558116912841796875 43.178619384765625 42.7909698486328125 42.394802093505859375 44.205654144287109375 46.546527862548828125 48.61822509765625 50.476318359375 51.74938201904296875 51.193958282470703125 50.620883941650390625 50.029003143310546875 49.417041778564453125 50.7596435546875 52.9220123291015625 54.852695465087890625 56.596569061279296875 57.82282257080078125 56.011566162109375 53.99793243408203125 51.730945587158203125 49.137546539306640625 47.033527374267578125 45.4018707275390625 43.60781097412109375 41.61540985107421875 39.6141510009765625 43.646518707275390625 46.940128326416015625 49.72420501708984375 52.13549041748046875 54.28574371337890625 56.228336334228515625 57.981922149658203125 59.58003997802734375 61.048023223876953125 64.32860565185546875 67.17371368408203125 69.63062286376953125 71.79265594482421875 72.698089599609375 72.10340118408203125 71.48844146728515625 70.851776123046875 70.19181060791015625 70.1104583740234375 70.1104583740234375 -9999 
90.62060546875 90.8019256591796875 91.21917724609375 91.62699127197265625 92.02579498291015625 92.4159698486328125 92.05651092529296875 91.5926361083984375 91.11651611328125 90.6274871826171875 89.9649658203125 88.9643707275390625 87.904998779296875 86.779510498046875 85.57909393310546875 85.34287261962890625 85.34287261962890625 85.34287261962890625 85.34287261962890625 85.02101898193359375 83.786285400390625 82.460784912109375 81.0301055908203125 79.476104736328125 77.76110076904296875 75.85992431640625 73.7345123291015625 71.32480621337890625 68.808685302734375 67.12567901611328125 65.26934051513671875 63.199817657470703125 60.86171722412109375 59.816577911376953125 59.56298065185546875 59.30576324462890625 59.044826507568359375 58.7734832763671875 58.44744110107421875 58.11539459228515625 57.77712249755859375 57.432384490966796875 57.0809326171875 56.722492218017578125 56.35678863525390625 55.983516693115234375 55.60235595703125 55.2129669189453125 54.8149871826171875 54.408031463623046875 53.99167633056640625 53.565486907958984375 53.128986358642578125 52.681659698486328125 52.222957611083984375 51.752285003662109375 51.269001007080078125 50.772411346435546875 50.2617645263671875 49.736240386962890625 49.310718536376953125 49.035640716552734375 48.7563018798828125 48.472568511962890625 48.18430328369140625 47.8001556396484375 47.3953704833984375 46.981296539306640625 46.557491302490234375 46.16262054443359375 45.8346099853515625 45.50052642822265625 45.1601409912109375 44.81320953369140625 44.74521636962890625 44.74521636962890625 44.74521636962890625 44.74521636962890625 44.65093231201171875 44.293964385986328125 43.9297943115234375 43.558116912841796875 43.178619384765625 45.7891998291015625 48.953899383544921875 51.645374298095703125 53.986911773681640625 55.57582855224609375 54.9967193603515625 54.39839935302734375 53.779552459716796875 53.1387176513671875 53.91960906982421875 55.36870574951171875 56.709995269775390625 57.9584197998046875 58.852542877197265625 57.493915557861328125 56.024566650390625 54.42482757568359375 52.669292449951171875 50.7264556884765625 48.550632476806640625 46.075897216796875 43.206836700439453125 40.016510009765625 42.538906097412109375 44.75147247314453125 46.7220611572265625 48.49842071533203125 51.0609130859375 54.11334228515625 56.723236083984375 59.002811431884765625 61.0263671875 65.23180389404296875 68.72298431396484375 71.6468048095703125 74.16216278076171875 74.991912841796875 73.77001190185546875 72.45928192138671875 71.04579925537109375 69.5120697021484375 69.317718505859375 69.317718505859375 -9999 
91.03055572509765625 91.2480926513671875 91.74704742431640625 92.23256683349609375 92.70536041259765625 93.16607666015625 92.7061004638671875 92.11365509033203125 91.5010833740234375 90.866973876953125 90.10115814208984375 89.08841705322265625 88.0154266357421875 86.874542236328125 85.65660858154296875 85.41680145263671875 85.41680145263671875 85.41680145263671875 85.41680145263671875 85.09401702880859375 83.85558319091796875 82.52582550048828125 81.09017181396484375 79.53031158447265625 77.8173980712890625 75.9224700927734375 73.80486297607421875 71.40518951416015625 68.90502166748046875 67.25366973876953125 65.435760498046875 63.413909912109375 61.1364898681640625 60.097316741943359375 59.81409454345703125 59.5263519287109375 59.233943939208984375 58.934322357177734375 58.61119842529296875 58.2821807861328125 57.947052001953125 57.605579376220703125 57.25751495361328125 56.9026031494140625 56.54056549072265625 56.17111968994140625 55.7939453125 55.40871429443359375 55.01507568359375 54.6126556396484375 54.201053619384765625 53.779842376708984375 53.3485565185546875 52.906707763671875 52.453765869140625 51.989154815673828125 51.51226043701171875 51.0224151611328125 50.518894195556640625 50.00091552734375 49.5816650390625 49.310718536376953125 49.035640716552734375 48.7563018798828125 48.472568511962890625 48.15135955810546875 47.819911956787109375 47.48226165771484375 47.1381683349609375 46.801265716552734375 46.484767913818359375 46.16262054443359375 45.8346099853515625 45.50052642822265625 45.435085296630859375 45.435085296630859375 45.435085296630859375 45.435085296630859375 45.3443450927734375 45.000972747802734375 44.65093231201171875 44.293964385986328125 43.9297943115234375 47.244884490966796875 51.077487945556640625 54.2367706298828125 56.924335479736328125 58.730930328369140625 58.135723114013671875 57.520198822021484375 56.882930755615234375 56.222320556640625 56.607662200927734375 57.522823333740234375 58.39379119873046875 59.22463226318359375 59.826641082763671875 58.8636474609375 57.8463287353515625 56.7681884765625 55.621490478515625 53.79032135009765625 51.23058319091796875 48.24658203125 44.669178009033203125 40.410083770751953125 41.358806610107421875 42.260112762451171875 43.11852264404296875 43.937931060791015625 47.13128662109375 51.71701812744140625 55.370086669921875 58.406497955322265625 61.004680633544921875 66.09192657470703125 70.14965057373046875 73.4601287841796875 76.2562408447265625 77.0266876220703125 75.2955780029296875 73.38053131103515625 71.237762451171875 68.80570220947265625 68.488525390625 68.488525390625 -9999 
91.26479339599609375 91.50261688232421875 92.047119140625 92.5756683349609375 93.08916473388671875 93.58844757080078125 93.07344818115234375 92.40991973876953125 91.7210540771484375 91.00482940673828125 90.179901123046875 89.16017913818359375 88.079345703125 86.929595947265625 85.7015380859375 85.45966339111328125 85.45966339111328125 85.45966339111328125 85.45966339111328125 85.13634490966796875 83.89577484130859375 82.56354522705078125 81.12502288818359375 79.561767578125 77.850067138671875 75.9587554931640625 73.8456573486328125 71.4517822265625 68.96082305908203125 67.32769775390625 65.5318603515625 63.5372772216796875 61.29441070556640625 60.2586212158203125 59.958560943603515625 59.6534271240234375 59.34304046630859375 59.027217864990234375 58.70577239990234375 58.378490447998046875 58.045162200927734375 57.705554962158203125 57.35943603515625 57.006542205810546875 56.6466064453125 56.279346466064453125 55.904453277587890625 55.52159881591796875 55.130443572998046875 54.730621337890625 54.3217315673828125 53.90335845947265625 53.4750518798828125 53.0363311767578125 52.586669921875 52.125514984130859375 51.65225982666015625 51.16625213623046875 50.66678619384765625 50.15309906005859375 49.737407684326171875 49.46881103515625 49.196147918701171875 48.91930389404296875 48.63814544677734375 48.352535247802734375 48.062328338623046875 47.767375946044921875 47.46752166748046875 47.16259765625 46.8524322509765625 46.536838531494140625 46.2156219482421875 45.88858795166015625 45.8245391845703125 45.8245391845703125 45.8245391845703125 45.8245391845703125 45.735744476318359375 45.399806976318359375 45.0574951171875 44.708560943603515625 44.35274505615234375 48.040515899658203125 52.206661224365234375 55.58884429931640625 58.435901641845703125 60.340579986572265625 59.7381744384765625 59.11495208740234375 58.46942901611328125 57.7999420166015625 58.00473785400390625 58.666805267333984375 59.30542755126953125 59.922214508056640625 60.36994171142578125 59.614994049072265625 58.82706451416015625 58.003139495849609375 57.1397705078125 55.35906982421875 52.6239013671875 49.398578643798828125 45.468227386474609375 40.635120391845703125 40.635120391845703125 40.635120391845703125 40.635120391845703125 40.635120391845703125 44.377658843994140625 50.16115570068359375 54.53365325927734375 58.05036163330078125 60.992053985595703125 66.57398223876953125 70.93036651611328125 74.43665313720703125 77.371063232421875 78.1125640869140625 76.126983642578125 73.89550018310546875 71.348480224609375 68.38175201416015625 67.98809051513671875 67.98809051513671875 -9999 
91.26479339599609375 91.50261688232421875 92.047119140625 92.5756683349609375 93.08916473388671875 93.58844757080078125 93.07344818115234375 92.40991973876953125 91.7210540771484375 91.00482940673828125 90.179901123046875 89.16017913818359375 88.079345703125 86.929595947265625 85.7015380859375 85.45966339111328125 85.45966339111328125 85.45966339111328125 85.45966339111328125 85.13634490966796875 83.89577484130859375 82.56354522705078125 81.12502288818359375 79.561767578125 77.850067138671875 75.9587554931640625 73.8456573486328125 71.4517822265625 68.96082305908203125 67.32769775390625 65.5318603515625 63.5372772216796875 61.29441070556640625 60.2586212158203125 59.958560943603515625 59.6534271240234375 59.34304046630859375 59.027217864990234375 58.70577239990234375 58.378490447998046875 58.045162200927734375 57.705554962158203125 57.35943603515625 57.006542205810546875 56.6466064453125 56.279346466064453125 55.904453277587890625 55.52159881591796875 55.130443572998046875 54.730621337890625 54.3217315673828125 53.90335845947265625 53.4750518798828125 53.0363311767578125 52.586669921875 52.125514984130859375 51.65225982666015625 51.16625213623046875 50.66678619384765625 50.15309906005859375 49.737407684326171875 49.46881103515625 49.196147918701171875 48.91930389404296875 48.63814544677734375 48.352535247802734375 48.062328338623046875 47.767375946044921875 47.46752166748046875 47.16259765625 46.8524322509765625 46.536838531494140625 46.2156219482421875 45.88858795166015625 45.8245391845703125 45.8245391845703125 45.8245391845703125 45.8245391845703125 45.735744476318359375 45.399806976318359375 45.0574951171875 44.708560943603515625 44.35274505615234375 48.040515899658203125 52.206661224365234375 55.58884429931640625 58.435901641845703125 60.340579986572265625 59.7381744384765625 59.11495208740234375 58.46942901611328125 57.7999420166015625 58.00473785400390625 58.666805267333984375 59.30542755126953125 59.922214508056640625 60.36994171142578125 59.614994049072265625 58.82706451416015625 58.003139495849609375 57.1397705078125 55.35906982421875 52.6239013671875 49.398578643798828125 45.468227386474609375 40.635120391845703125 40.635120391845703125 40.635120391845703125 40.635120391845703125 40.635120391845703125 44.377658843994140625 50.16115570068359375 54.53365325927734375 58.05036163330078125 60.992053985595703125 66.57398223876953125 70.93036651611328125 74.43665313720703125 77.371063232421875 78.1125640869140625 76.126983642578125 73.89550018310546875 71.348480224609375 68.38175201416015625 67.98809051513671875 67.98809051513671875 -9999 
-9999 -9999 -9999 -9999 -9999 -9999 -9999 -9999 -9999 -9999 -9999 -9999 -9999 -9999 -9999 -9999 -9999 -9999 -9999 -9999 -9999 -9999 -9999 -9999 -9999 -9999 -9999 -9999 -9999 -9999 -9999 -9999 -9999 -9999 -9999 -9999 -9999 -9999 -9999 -9999 -9999 -9999 -9999 -9999 -9999 -9999 -9999 -9999 -9999 -9999 -9999 -9999 -9999 -9999 -9999 -9999 -9999 -9999 -9999 -9999 -9999 -9999 -9999 -9999 -9999 -9999 -9999 -9999 -9999 -9999 -9999 -9999 -9999 -9999 -9999 -9999 -9999 -9999 -9999 -9999 -9999 -9999 -9999 -9999 -9999 -9999 -9999 -9999 -9999 -9999 -9999 -9999 -9999 -9999 -9999 -9999 -9999 -9999 -9999 -9999 -9999 -9999 -9999 -9999 -9999 -9999 -9999 -9999 -9999 -9999 -9999 -9999 -9999 -9999 -9999 -9999 -9999 -9999 -9999 -9999 -9999 -9999 -9999 -9999 -9999 -9999 -9999 
-9999 -9999 -9999 -9999 -9999 -9999 -9999 -9999 -9999 -9999 -9999 -9999 -9999 -9999 -9999 -9999 -9999 -9999 -9999 -9999 -9999 -9999 -9999 -9999 -9999 -9999 -9999 -9999 -9999 -9999 -9999 -9999 -9999 -9999 -9999 -9999 -9999 -9999 -9999 -9999 -9999 -9999 -9999 -9999 -9999 -9999 -9999 -9999 -9999 -9999 -9999 -9999 -9999 -9999 -9999 -9999 -9999 -9999 -9999 -9999 -9999 -9999 -9999 -9999 -9999 -9999 -9999 -9999 -9999 -9999 -9999 -9999 -9999 -9999 -9999 -9999 -9999 -9999 -9999 -9999 -9999 -9999 -9999 -9999 -9999 -9999 -9999 -9999 -9999 -9999 -9999 -9999 -9999 -9999 -9999 -9999 -9999 -9999 -9999 -9999 -9999 -9999 -9999 -9999 -9999 -9999 -9999 -9999 -9999 -9999 -9999 -9999 -9999 -9999 -9999 -9999 -9999 -9999 -9999 -9999 -9999 -9999 -9999 -9999 -9999 -9999 -9999 
