ncols        127
nrows        131
xllcorner    -71.681135979344
yllcorner    -16.519694133538
cellsize     0.001836012963
NODATA_value -9999
-9999.0 -9999 -9999 -9999 -9999 -9999 -9999 -9999 -9999 -9999 -9999 -9999 -9999 -9999 -9999 -9999 -9999 -9999 -9999 -9999 -9999 -9999 -9999 -9999 -9999 -9999 -9999 -9999 -9999 -9999 -9999 -9999 -9999 -9999 -9999 -9999 -9999 -9999 -9999 -9999 -9999 -9999 -9999 -9999 -9999 -9999 -9999 -9999 -9999 -9999 -9999 -9999 -9999 -9999 -9999 -9999 -9999 -9999 -9999 -9999 -9999 -9999 -9999 -9999 -9999 -9999 -9999 -9999 -9999 -9999 -9999 -9999 -9999 -9999 -9999 -9999 -9999 -9999 -9999 -9999 -9999 -9999 -9999 -9999 -9999 -9999 -9999 -9999 -9999 -9999 -9999 -9999 -9999 -9999 -9999 -9999 -9999 -9999 -9999 -9999 -9999 -9999 -9999 -9999 -9999 -9999 -9999 -9999 -9999 -9999 -9999 -9999 -9999 -9999 -9999 -9999 -9999 -9999 -9999 -9999 -9999 -9999 -9999 -9999 -9999 -9999 -9999 
-9999 -9999 -9999 -9999 -9999 -9999 -9999 -9999 -9999 -9999 -9999 -9999 -9999 -9999 -9999 -9999 -9999 -9999 -9999 -9999 -9999 -9999 -9999 -9999 -9999 -9999 -9999 -9999 -9999 -9999 -9999 -9999 -9999 -9999 -9999 -9999 -9999 -9999 -9999 -9999 -9999 -9999 -9999 -9999 -9999 -9999 -9999 -9999 -9999 -9999 -9999 -9999 -9999 -9999 -9999 -9999 -9999 -9999 -9999 -9999 -9999 -9999 -9999 -9999 -9999 -9999 -9999 -9999 -9999 -9999 -9999 -9999 -9999 -9999 -9999 -9999 -9999 -9999 -9999 -9999 -9999 -9999 -9999 -9999 -9999 -9999 -9999 -9999 -9999 -9999 -9999 -9999 -9999 -9999 -9999 -9999 -9999 -9999 -9999 -9999 -9999 -9999 -9999 -9999 -9999 -9999 -9999 -9999 -9999 -9999 -9999 -9999 -9999 -9999 -9999 -9999 -9999 -9999 -9999 -9999 -9999 -9999 -9999 -9999 -9999 -9999 -9999 
27.70812225341796875 26.635562896728515625 24.126049041748046875 21.616537094116210938 19.107023239135742188 16.59751129150390625 15.856534957885742188 15.337325096130371094 14.818117141723632812 14.298907279968261719 13.41650390625 11.858875274658203125 10.30124664306640625 8.743618011474609375 7.1859889030456542969 6.8914976119995117188 6.8914976119995117188 6.8914976119995117188 6.8914976119995117188 6.8444027900695800781 6.6713328361511230469 6.4982628822326660156 6.3251929283142089844 6.1521234512329101562 6.0425086021423339844 5.9559736251831054688 5.8694391250610351562 5.7829041481018066406 5.696369171142578125 5.6098341941833496094 5.5232992172241210938 5.4367642402648925781 5.3502292633056640625 5.2636942863464355469 5.1771593093872070312 5.0906248092651367188 5.0040898323059082031 4.9276647567749023438 4.9276647567749023438 4.9276647567749023438 4.9276647567749023438 4.9276647567749023438 4.9276647567749023438 4.9276647567749023438 4.9276647567749023438 4.9276647567749023438 4.9242734909057617188 4.8377385139465332031 4.7512035369873046875 4.6646685600280761719 4.5781335830688476562 4.4915986061096191406 4.405063629150390625 4.3185286521911621094 4.2319941520690917969 4.1454591751098632812 4.2253394126892089844 4.3118743896484375 4.3984093666076660156 4.4849443435668945312 4.5714793205261230469 4.6580142974853515625 4.7445492744445800781 4.8310842514038085938 4.9176187515258789062 4.9276647567749023438 4.9276647567749023438 4.9276647567749023438 4.9276647567749023438 4.95752716064453125 5.0440621376037597656 5.1305971145629882812 5.2171320915222167969 5.3036665916442871094 5.3204312324523925781 5.3204312324523925781 5.3204312324523925781 5.3204312324523925781 5.3667187690734863281 5.5397887229919433594 5.7128586769104003906 5.8859281539916992188 6.05899810791015625 6.10596466064453125 6.10596466064453125 6.10596466064453125 6.10596466064453125 6.10596466064453125 6.10596466064453125 6.10596466064453125 6.10596466064453125 6.10596466064453125 6.10596466064453125 6.10596466064453125 6.10596466064453125 6.10596466064453125 6.4845099449157714844 9.8593721389770507812 13.234233856201171875 16.609096527099609375 19.983957290649414062 22.515375137329101562 24.4191436767578125 26.322912216186523438 28.226680755615234375 30.040819168090820312 29.348539352416992188 28.656261444091796875 27.96398162841796875 27.271701812744140625 26.751005172729492188 26.404865264892578125 26.058727264404296875 25.712587356567382812 25.36644744873046875 30.31975555419921875 35.511852264404296875 40.703948974609375 45.8960418701171875 53.11405181884765625 63.152111053466796875 73.19016265869140625 83.22821044921875 93.26625823974609375 94.478424072265625 94.478424072265625 -9999 
27.70812225341796875 26.635562896728515625 24.126049041748046875 21.616537094116210938 19.107023239135742188 16.59751129150390625 15.856534957885742188 15.337325096130371094 14.818117141723632812 14.298907279968261719 13.41650390625 11.858875274658203125 10.30124664306640625 8.743618011474609375 7.1859889030456542969 6.8914976119995117188 6.8914976119995117188 6.8914976119995117188 6.8914976119995117188 6.8444027900695800781 6.6713328361511230469 6.4982628822326660156 6.3251929283142089844 6.1521234512329101562 6.0425086021423339844 5.9559736251831054688 5.8694391250610351562 5.7829041481018066406 5.696369171142578125 5.6098341941833496094 5.5232992172241210938 5.4367642402648925781 5.3502292633056640625 5.2636942863464355469 5.1771593093872070312 5.0906248092651367188 5.0040898323059082031 4.9276647567749023438 4.9276647567749023438 4.9276647567749023438 4.9276647567749023438 4.9276647567749023438 4.9276647567749023438 4.9276647567749023438 4.9276647567749023438 4.9276647567749023438 4.9242734909057617188 4.8377385139465332031 4.7512035369873046875 4.6646685600280761719 4.5781335830688476562 4.4915986061096191406 4.405063629150390625 4.3185286521911621094 4.2319941520690917969 4.1454591751098632812 4.2253394126892089844 4.3118743896484375 4.3984093666076660156 4.4849443435668945312 4.5714793205261230469 4.6580142974853515625 4.7445492744445800781 4.8310842514038085938 4.9176187515258789062 4.9276647567749023438 4.9276647567749023438 4.9276647567749023438 4.9276647567749023438 4.95752716064453125 5.0440621376037597656 5.1305971145629882812 5.2171320915222167969 5.3036665916442871094 5.3204312324523925781 5.3204312324523925781 5.3204312324523925781 5.3204312324523925781 5.3667187690734863281 5.5397887229919433594 5.7128586769104003906 5.8859281539916992188 6.05899810791015625 6.10596466064453125 6.10596466064453125 6.10596466064453125 6.10596466064453125 6.10596466064453125 6.10596466064453125 6.10596466064453125 6.10596466064453125 6.10596466064453125 6.10596466064453125 6.10596466064453125 6.10596466064453125 6.10596466064453125 6.4845099449157714844 9.8593721389770507812 13.234233856201171875 16.609096527099609375 19.983957290649414062 22.515375137329101562 24.4191436767578125 26.322912216186523438 28.226680755615234375 30.040819168090820312 29.348539352416992188 28.656261444091796875 27.96398162841796875 27.271701812744140625 26.751005172729492188 26.404865264892578125 26.058727264404296875 25.712587356567382812 25.36644744873046875 30.31975555419921875 35.511852264404296875 40.703948974609375 45.8960418701171875 53.11405181884765625 63.152111053466796875 73.19016265869140625 83.22821044921875 93.26625823974609375 94.478424072265625 94.478424072265625 -9999 
27.70812225341796875 26.635562896728515625 24.126049041748046875 21.616537094116210938 19.107023239135742188 16.59751129150390625 15.856534957885742188 15.337325096130371094 14.818117141723632812 14.298907279968261719 13.41650390625 11.858875274658203125 10.30124664306640625 8.743618011474609375 7.1859889030456542969 6.8914976119995117188 6.8914976119995117188 6.8914976119995117188 6.8914976119995117188 6.8444027900695800781 6.6713328361511230469 6.4982628822326660156 6.3251929283142089844 6.1521234512329101562 6.0425086021423339844 5.9559736251831054688 5.8694391250610351562 5.7829041481018066406 5.696369171142578125 5.6098341941833496094 5.5232992172241210938 5.4367642402648925781 5.3502292633056640625 5.2636942863464355469 5.1771593093872070312 5.0906248092651367188 5.0040898323059082031 4.9276647567749023438 4.9276647567749023438 4.9276647567749023438 4.9276647567749023438 4.9276647567749023438 4.9276647567749023438 4.9276647567749023438 4.9276647567749023438 4.9276647567749023438 4.9242734909057617188 4.8377385139465332031 4.7512035369873046875 4.6646685600280761719 4.5781335830688476562 4.4915986061096191406 4.405063629150390625 4.3185286521911621094 4.2319941520690917969 4.1454591751098632812 4.2253394126892089844 4.3118743896484375 4.3984093666076660156 4.4849443435668945312 4.5714793205261230469 4.6580142974853515625 4.7445492744445800781 4.8310842514038085938 4.9176187515258789062 4.9276647567749023438 4.9276647567749023438 4.9276647567749023438 4.9276647567749023438 4.95752716064453125 5.0440621376037597656 5.1305971145629882812 5.2171320915222167969 5.3036665916442871094 5.3204312324523925781 5.3204312324523925781 5.3204312324523925781 5.3204312324523925781 5.3667187690734863281 5.5397887229919433594 5.7128586769104003906 5.8859281539916992188 6.05899810791015625 6.10596466064453125 6.10596466064453125 6.10596466064453125 6.10596466064453125 6.10596466064453125 6.10596466064453125 6.10596466064453125 6.10596466064453125 6.10596466064453125 6.10596466064453125 6.10596466064453125 6.10596466064453125 6.10596466064453125 6.4845099449157714844 9.8593721389770507812 13.234233856201171875 16.609096527099609375 19.983957290649414062 22.515375137329101562 24.4191436767578125 26.322912216186523438 28.226680755615234375 30.040819168090820312 29.348539352416992188 28.656261444091796875 27.96398162841796875 27.271701812744140625 26.751005172729492188 26.404865264892578125 26.058727264404296875 25.712587356567382812 25.36644744873046875 30.31975555419921875 35.511852264404296875 40.703948974609375 45.8960418701171875 53.11405181884765625 63.152111053466796875 73.19016265869140625 83.22821044921875 93.26625823974609375 94.478424072265625 94.478424072265625 -9999 
28.795389175415039062 27.856716156005859375 25.660459518432617188 23.464200973510742188 21.2679443359375 19.071687698364257812 17.97264862060546875 17.011194229125976562 16.049741744995117188 15.088289260864257812 13.989212989807128906 12.634280204772949219 11.279346466064453125 9.9244127273559570312 8.5694789886474609375 8.3133096694946289062 8.3133096694946289062 8.3133096694946289062 8.3133096694946289062 8.261199951171875 8.0697031021118164062 7.8782067298889160156 7.6867098808288574219 7.4952135086059570312 7.1509761810302734375 6.7511854171752929688 6.3513946533203125 5.9516034126281738281 5.6127328872680664062 5.5261979103088378906 5.439662933349609375 5.3531284332275390625 5.2665934562683105469 5.1679768562316894531 5.063014984130859375 4.9580535888671875 4.8530917167663574219 4.7603931427001953125 4.7603931427001953125 4.7603931427001953125 4.7603931427001953125 4.7603931427001953125 4.7603931427001953125 4.7603931427001953125 4.7603931427001953125 4.7603931427001953125 4.7570013999938964844 4.6704668998718261719 4.5839319229125976562 4.4973969459533691406 4.410861968994140625 4.3243269920349121094 4.2377920150756835938 4.1512570381164550781 4.0647220611572265625 3.9781870841979980469 4.0580677986145019531 4.1446027755737304688 4.2311377525329589844 4.3176727294921875 4.4042077064514160156 4.4907426834106445312 4.5772771835327148438 4.6638121604919433594 4.750347137451171875 4.7603931427001953125 4.7603931427001953125 4.7603931427001953125 4.7603931427001953125 4.7966141700744628906 4.9015760421752929688 5.0065379142761230469 5.1114993095397949219 5.2164607048034667969 5.2367954254150390625 5.2367954254150390625 5.2367954254150390625 5.2367954254150390625 5.2781543731689453125 5.4327974319458007812 5.58744049072265625 5.7420835494995117188 5.8967266082763671875 5.9386925697326660156 5.9386925697326660156 5.9386925697326660156 5.9386925697326660156 5.9421896934509277344 5.9606170654296875 5.9790434837341308594 5.9974703788757324219 6.0158972740173339844 6.0343236923217773438 6.0527510643005371094 6.0711774826049804688 6.0896048545837402344 6.4080357551574707031 9.1011056900024414062 11.794176101684570312 14.487246513366699219 17.180315017700195312 19.621576309204101562 21.875453948974609375 24.129331588745117188 26.383209228515625 28.517559051513671875 27.309328079223632812 26.101099014282226562 24.8928680419921875 23.684637069702148438 23.314790725708007812 23.797857284545898438 24.280923843383789062 24.7639923095703125 25.247058868408203125 31.011941909790039062 37.014820098876953125 43.01769256591796875 49.02056884765625 56.525516510009765625 66.12133026123046875 75.717132568359375 85.3129425048828125 94.90875244140625 96.0675048828125 96.0675048828125 -9999 
29.920343399047851562 29.120195388793945312 27.248052597045898438 25.37590789794921875 23.503763198852539062 21.631620407104492188 20.162107467651367188 18.743082046508789062 17.32405853271484375 15.905032157897949219 14.581774711608886719 13.436560630798339844 12.291348457336425781 11.146134376525878906 10.000922203063964844 9.7844028472900390625 9.7844028472900390625 9.7844028472900390625 9.7844028472900390625 9.7271060943603515625 9.5165433883666992188 9.3059816360473632812 9.0954198837280273438 8.884857177734375 8.2978639602661132812 7.5739598274230957031 6.8500552177429199219 6.1261506080627441406 5.5261979103088378906 5.439662933349609375 5.3531284332275390625 5.2665934562683105469 5.1800584793090820312 5.0689415931701660156 4.9449143409729003906 4.8208870887756347656 4.6968598365783691406 4.5873231887817382812 4.5873231887817382812 4.5873231887817382812 4.5873231887817382812 4.5873231887817382812 4.5873231887817382812 4.5873231887817382812 4.5873231887817382812 4.5873231887817382812 4.5839319229125976562 4.4973969459533691406 4.410861968994140625 4.3243269920349121094 4.2377920150756835938 4.1512570381164550781 4.0647220611572265625 3.9781870841979980469 3.8916521072387695312 3.8051171302795410156 3.8849978446960449219 3.9715325832366943359 4.0580677986145019531 4.1446027755737304688 4.2311377525329589844 4.3176727294921875 4.4042077064514160156 4.4907426834106445312 4.5772771835327148438 4.5873231887817382812 4.5873231887817382812 4.5873231887817382812 4.5873231887817382812 4.6301236152648925781 4.7541508674621582031 4.8781781196594238281 5.0022053718566894531 5.1262326240539550781 5.15026092529296875 5.15026092529296875 5.15026092529296875 5.15026092529296875 5.1865200996398925781 5.3220977783203125 5.4576754570007324219 5.5932531356811523438 5.7288308143615722656 5.7656226158142089844 5.7656226158142089844 5.7656226158142089844 5.7656226158142089844 5.7727389335632324219 5.8102312088012695312 5.8477239608764648438 5.88521575927734375 5.9227080345153808594 5.9602003097534179688 5.9976925849914550781 6.0351848602294921875 6.0726776123046875 6.3289113044738769531 8.3165578842163085938 10.304203033447265625 12.291849136352539062 14.2794952392578125 16.627475738525390625 19.243597030639648438 21.859720230102539062 24.475843429565429688 26.941499710083007812 25.199434280395507812 23.457368850708007812 21.715305328369140625 19.973241806030273438 19.759473800659179688 21.100488662719726562 22.441503524780273438 23.782518386840820312 25.123533248901367188 31.728120803833007812 38.56987762451171875 45.4116363525390625 52.25339508056640625 60.055225372314453125 69.19345855712890625 78.331695556640625 87.46993255615234375 96.6081695556640625 97.711669921875 97.711669921875 -9999 
31.045297622680664062 30.383672714233398438 28.835643768310546875 27.287616729736328125 25.739583969116210938 24.191555023193359375 22.351568222045898438 20.474969863891601562 18.598371505737304688 16.721775054931640625 15.174334526062011719 14.238842964172363281 13.303350448608398438 12.367856979370117188 11.432364463806152344 11.255496978759765625 11.255496978759765625 11.255496978759765625 11.255496978759765625 11.193011283874511719 10.963384628295898438 10.733756065368652344 10.504128456115722656 10.274500846862792969 9.444751739501953125 8.3967342376708984375 7.3487157821655273438 6.3006978034973144531 5.439662933349609375 5.3531284332275390625 5.2665934562683105469 5.1800584793090820312 5.0935235023498535156 4.9699063301086425781 4.8268136978149414062 4.6837210655212402344 4.5406279563903808594 4.41425323486328125 4.41425323486328125 4.41425323486328125 4.41425323486328125 4.41425323486328125 4.41425323486328125 4.41425323486328125 4.41425323486328125 4.41425323486328125 4.410861968994140625 4.3243269920349121094 4.2377920150756835938 4.1512570381164550781 4.0647220611572265625 3.9781870841979980469 3.8916521072387695312 3.8051171302795410156 3.7185823917388916016 3.6320474147796630859 3.7119278907775878906 3.7984628677368164062 3.8849978446960449219 3.9715325832366943359 4.0580677986145019531 4.1446027755737304688 4.2311377525329589844 4.3176727294921875 4.4042077064514160156 4.41425323486328125 4.41425323486328125 4.41425323486328125 4.41425323486328125 4.4636330604553222656 4.6067256927490234375 4.7498183250427246094 4.8929114341735839844 5.0360040664672851562 5.0637259483337402344 5.0637259483337402344 5.0637259483337402344 5.0637259483337402344 5.09488677978515625 5.2113986015319824219 5.3279104232788085938 5.4444222450256347656 5.5609345436096191406 5.5925526618957519531 5.5925526618957519531 5.5925526618957519531 5.5925526618957519531 5.6032876968383789062 5.6598453521728515625 5.7164034843444824219 5.7729611396789550781 5.8295192718505859375 5.8860769271850585938 5.9426350593566894531 5.9991927146911621094 6.0557503700256347656 6.249786376953125 7.532009124755859375 8.8142309188842773438 10.096453666687011719 11.378676414489746094 13.633375167846679688 16.611743927001953125 19.590108871459960938 22.568477630615234375 25.36544036865234375 23.089540481567382812 20.813642501831054688 18.537744522094726562 16.261844635009765625 16.20415496826171875 18.403118133544921875 20.602081298828125 22.801044464111328125 25.00000762939453125 32.444301605224609375 40.12493896484375 47.80558013916015625 55.486217498779296875 63.584934234619140625 72.265594482421875 80.946258544921875 89.626922607421875 98.307586669921875 99.3558349609375 99.3558349609375 -9999 
32.170253753662109375 31.647151947021484375 30.423236846923828125 29.199319839477539062 27.97540283203125 26.751489639282226562 24.541027069091796875 22.206857681274414062 19.87268829345703125 17.538516998291015625 15.766896247863769531 15.041123390197753906 14.315351486206054688 13.589580535888671875 12.86380767822265625 12.726590156555175781 12.726590156555175781 12.726590156555175781 12.726590156555175781 12.658917427062988281 12.41022491455078125 12.161530494689941406 11.912837982177734375 11.664144515991210938 10.591639518737792969 9.2195081710815429688 7.8473763465881347656 6.4752445220947265625 5.3531284332275390625 5.2665934562683105469 5.1800584793090820312 5.0935235023498535156 5.006988525390625 4.8708710670471191406 4.7087125778198242188 4.5465545654296875 4.3843960762023925781 4.2411832809448242188 4.2411832809448242188 4.2411832809448242188 4.2411832809448242188 4.2411832809448242188 4.2411832809448242188 4.2411832809448242188 4.2411832809448242188 4.2411832809448242188 4.2377920150756835938 4.1512570381164550781 4.0647220611572265625 3.9781870841979980469 3.8916521072387695312 3.8051171302795410156 3.7185823917388916016 3.6320474147796630859 3.5455124378204345703 3.4589774608612060547 3.5388581752777099609 3.625392913818359375 3.7119278907775878906 3.7984628677368164062 3.8849978446960449219 3.9715325832366943359 4.0580677986145019531 4.1446027755737304688 4.2311377525329589844 4.2411832809448242188 4.2411832809448242188 4.2411832809448242188 4.2411832809448242188 4.2971425056457519531 4.4593005180358886719 4.6214590072631835938 4.7836170196533203125 4.9457755088806152344 4.9771909713745117188 4.9771909713745117188 4.9771909713745117188 4.9771909713745117188 5.0032525062561035156 5.1006989479064941406 5.1981453895568847656 5.2955923080444335938 5.3930387496948242188 5.4194827079772949219 5.4194827079772949219 5.4194827079772949219 5.4194827079772949219 5.4338364601135253906 5.5094599723815917969 5.5850834846496582031 5.6607065200805664062 5.7363300323486328125 5.8119530677795410156 5.8875765800476074219 5.9632000923156738281 6.0388236045837402344 6.17066192626953125 6.7474603652954101562 7.3242583274841308594 7.9010572433471679688 8.477855682373046875 10.63927459716796875 13.979887008666992188 17.320497512817382812 20.66110992431640625 23.789381027221679688 20.979646682739257812 18.16991424560546875 15.360181808471679688 12.550448417663574219 12.648838043212890625 15.705747604370117188 18.762659072875976562 21.819570541381835938 24.8764801025390625 33.1604766845703125 41.68000030517578125 50.19952392578125 58.719043731689453125 67.1146392822265625 75.33773040771484375 83.560821533203125 91.78391265869140625 100.0070037841796875 101 101 -9999 
33.998382568359375 33.505771636962890625 32.353199005126953125 31.200624465942382812 30.0480499267578125 28.895477294921875 26.576190948486328125 24.110607147216796875 21.645023345947265625 19.179437637329101562 17.350084304809570312 16.703569412231445312 16.057054519653320312 15.410542488098144531 14.764027595520019531 14.641794204711914062 14.641794204711914062 14.641794204711914062 14.641794204711914062 14.504587173461914062 14.000365257263183594 13.496142387390136719 12.99192047119140625 12.487697601318359375 11.216997146606445312 9.667522430419921875 8.1180477142333984375 6.568572998046875 5.3020167350769042969 5.2073283195495605469 5.1126389503479003906 5.0179505348205566406 4.9232616424560546875 4.7771816253662109375 4.6041121482849121094 4.4310421943664550781 4.2579722404479980469 4.1041703224182128906 4.0960164070129394531 4.0878620147705078125 4.079708099365234375 4.0715546607971191406 4.0681133270263671875 4.0681133270263671875 4.0681133270263671875 4.0681133270263671875 4.0647220611572265625 3.9781870841979980469 3.8916521072387695312 3.8051171302795410156 3.7185823917388916016 3.6320474147796630859 3.5455124378204345703 3.4589774608612060547 3.3724424839019775391 3.285907745361328125 3.3657882213592529297 3.4523231983184814453 3.5388581752777099609 3.625392913818359375 3.7119278907775878906 3.7984628677368164062 3.8849978446960449219 3.9715325832366943359 4.0580677986145019531 4.0825281143188476562 4.0988359451293945312 4.1151437759399414062 4.1314516067504882812 4.2018566131591796875 4.3749265670776367188 4.5479960441589355469 4.7210659980773925781 4.8941359519958496094 4.9276647567749023438 4.9276647567749023438 4.9276647567749023438 4.9276647567749023438 4.9486279487609863281 5.0270085334777832031 5.1053895950317382812 5.1837711334228515625 5.2621517181396484375 5.2834224700927734375 5.2834224700927734375 5.2834224700927734375 5.2834224700927734375 5.3013949394226074219 5.396083831787109375 5.4907727241516113281 5.5854611396789550781 5.6801500320434570312 5.7748394012451171875 5.8695278167724609375 5.9642167091369628906 6.0589056015014648438 6.1623859405517578125 6.3354558944702148438 6.508525848388671875 6.6815958023071289062 6.8546652793884277344 8.9299726486206054688 12.420827865600585938 15.911683082580566406 19.402536392211914062 22.666439056396484375 19.583799362182617188 16.501155853271484375 13.418515205383300781 10.335873603820800781 10.55620574951171875 14.136752128601074219 17.7173004150390625 21.297849655151367188 24.87839508056640625 32.903156280517578125 41.128162384033203125 49.353176116943359375 57.578182220458984375 65.444061279296875 72.81003570556640625 80.17601776123046875 87.5419921875 94.90796661376953125 95.79746246337890625 95.79746246337890625 -9999 
36.767498016357421875 36.1608123779296875 34.741321563720703125 33.321826934814453125 31.902338027954101562 30.482847213745117188 28.404878616333007812 26.244342803955078125 24.083805084228515625 21.923269271850585938 20.258930206298828125 19.51708984375 18.77524566650390625 18.033405303955078125 17.291563034057617188 17.15130615234375 17.15130615234375 17.15130615234375 17.15130615234375 16.858461380004882812 15.7822723388671875 14.706084251403808594 13.629897117614746094 12.553709030151367188 11.144443511962890625 9.6140336990356445312 8.0836248397827148438 6.5532155036926269531 5.298309326171875 5.1845550537109375 5.0708003044128417969 4.9570460319519042969 4.8432917594909667969 4.690647125244140625 4.5175771713256835938 4.3445072174072265625 4.1714372634887695312 4.015407562255859375 3.9881882667541503906 3.9609689712524414062 3.9337491989135742188 3.9065299034118652344 3.8950438499450683594 3.8950438499450683594 3.8950438499450683594 3.8950438499450683594 3.8916521072387695312 3.8051171302795410156 3.7185823917388916016 3.6320474147796630859 3.5455124378204345703 3.4589774608612060547 3.3724424839019775391 3.285907745361328125 3.1993727684020996094 3.1128377914428710938 3.192718505859375 3.2792532444000244141 3.3657882213592529297 3.4523231983184814453 3.5388581752777099609 3.625392913818359375 3.7119278907775878906 3.7984628677368164062 3.8849978446960449219 3.9431626796722412109 3.9976015090942382812 4.0520405769348144531 4.1064791679382324219 4.2018566131591796875 4.3749265670776367188 4.5479960441589355469 4.7210659980773925781 4.8941359519958496094 4.9276647567749023438 4.9276647567749023438 4.9276647567749023438 4.9276647567749023438 4.9435286521911621094 5.0028443336486816406 5.0621595382690429688 5.1214752197265625 5.1807909011840820312 5.1968874931335449219 5.1968874931335449219 5.1968874931335449219 5.1968874931335449219 5.2184786796569824219 5.3322329521179199219 5.4459872245788574219 5.5597414970397949219 5.6734957695007324219 5.787250518798828125 5.901004791259765625 6.0147595405578613281 6.1285138130187988281 6.2489209175109863281 6.4219908714294433594 6.5950608253479003906 6.7681307792663574219 6.94120025634765625 8.9399900436401367188 12.29738616943359375 15.654782295227050781 19.012176513671875 22.14986419677734375 19.143484115600585938 16.137104034423828125 13.130723953247070312 10.124344825744628906 10.420939445495605469 14.077748298645019531 17.73455810546875 21.391368865966796875 25.048177719116210938 31.3430938720703125 37.7568817138671875 44.170665740966796875 50.58444976806640625 56.814456939697265625 62.788654327392578125 68.76285552978515625 74.7370452880859375 80.71124267578125 81.4326629638671875 81.4326629638671875 -9999 
39.536617279052734375 38.81584930419921875 37.1294403076171875 35.44303131103515625 33.756626129150390625 32.070217132568359375 30.2335662841796875 28.378076553344726562 26.522588729858398438 24.667100906372070312 23.167776107788085938 22.330606460571289062 21.493438720703125 20.656269073486328125 19.81909942626953125 19.66082000732421875 19.66082000732421875 19.66082000732421875 19.66082000732421875 19.21233367919921875 17.564178466796875 15.916026115417480469 14.267873764038085938 12.619720458984375 11.071888923645019531 9.5605449676513671875 8.0492010116577148438 6.5378580093383789062 5.2946014404296875 5.16178131103515625 5.0289616584777832031 4.8961420059204101562 4.7633218765258789062 4.6041121482849121094 4.4310421943664550781 4.2579722404479980469 4.0849022865295410156 3.9266452789306640625 3.8803603649139404297 3.8340752124786376953 3.7877905368804931641 3.7415053844451904297 3.7219738960266113281 3.7219738960266113281 3.7219738960266113281 3.7219738960266113281 3.7185823917388916016 3.6320474147796630859 3.5455124378204345703 3.4589774608612060547 3.3724424839019775391 3.285907745361328125 3.1993727684020996094 3.1128377914428710938 3.0263028144836425781 2.9397678375244140625 3.0196485519409179688 3.1061835289001464844 3.192718505859375 3.2792532444000244141 3.3657882213592529297 3.4523231983184814453 3.5388581752777099609 3.625392913818359375 3.7119278907775878906 3.8037972450256347656 3.8963670730590820312 3.9889371395111083984 4.0815072059631347656 4.2018566131591796875 4.3749265670776367188 4.5479960441589355469 4.7210659980773925781 4.8941359519958496094 4.9276647567749023438 4.9276647567749023438 4.9276647567749023438 4.9276647567749023438 4.9384298324584960938 4.978679656982421875 5.0189294815063476562 5.0591797828674316406 5.0994296073913574219 5.1103525161743164062 5.1103525161743164062 5.1103525161743164062 5.1103525161743164062 5.1355624198913574219 5.2683825492858886719 5.4012022018432617188 5.5340223312377929688 5.6668419837951660156 5.7996616363525390625 5.9324817657470703125 6.0653018951416015625 6.1981215476989746094 6.3354558944702148438 6.508525848388671875 6.6815958023071289062 6.8546652793884277344 7.0277352333068847656 8.9500074386596679688 12.173944473266601562 15.397881507873535156 18.62181854248046875 21.633287429809570312 18.703168869018554688 15.773051261901855469 12.84293365478515625 9.9128170013427734375 10.285672187805175781 14.018744468688964844 17.7518157958984375 21.484888076782226562 25.217960357666015625 29.783033370971679688 34.38559722900390625 38.988155364990234375 43.59072113037109375 48.1848602294921875 52.76727294921875 57.349681854248046875 61.932098388671875 66.51450347900390625 67.06786346435546875 67.06786346435546875 -9999 
42.30573272705078125 41.47088623046875 39.5175628662109375 37.564239501953125 35.610912322998046875 33.65758514404296875 32.062255859375 30.511814117431640625 28.961374282836914062 27.4109344482421875 26.07662200927734375 25.144124984741210938 24.211627960205078125 23.279132843017578125 22.346635818481445312 22.1703338623046875 22.1703338623046875 22.1703338623046875 22.1703338623046875 21.566205978393554688 19.346086502075195312 17.125967025756835938 14.905849456787109375 12.685730934143066406 10.999335289001464844 9.5070562362670898438 8.01477813720703125 6.5225000381469726562 5.2908935546875 5.1390080451965332031 4.9871230125427246094 4.8352375030517578125 4.6833524703979492188 4.5175771713256835938 4.3445072174072265625 4.1714372634887695312 3.9983675479888916016 3.8378827571868896484 3.7725324630737304688 3.7071819305419921875 3.6418313980102539062 3.5764811038970947266 3.5489041805267333984 3.5489041805267333984 3.5489041805267333984 3.5489041805267333984 3.5455124378204345703 3.4589774608612060547 3.3724424839019775391 3.285907745361328125 3.1993727684020996094 3.1128377914428710938 3.0263028144836425781 2.9397678375244140625 2.8532330989837646484 2.7666981220245361328 2.8465788364410400391 2.9331135749816894531 3.0196485519409179688 3.1061835289001464844 3.192718505859375 3.2792532444000244141 3.3657882213592529297 3.4523231983184814453 3.5388581752777099609 3.6644318103790283203 3.7951326370239257812 3.9258337020874023438 4.0565347671508789062 4.2018566131591796875 4.3749265670776367188 4.5479960441589355469 4.7210659980773925781 4.8941359519958496094 4.9276647567749023438 4.9276647567749023438 4.9276647567749023438 4.9276647567749023438 4.933330535888671875 4.9545154571533203125 4.9756994247436523438 4.9968843460083007812 5.0180683135986328125 5.0238175392150878906 5.0238175392150878906 5.0238175392150878906 5.0238175392150878906 5.0526461601257324219 5.2045321464538574219 5.3564171791076660156 5.5083026885986328125 5.6601877212524414062 5.8120732307434082031 5.963958740234375 6.1158442497253417969 6.2677292823791503906 6.4219908714294433594 6.5950608253479003906 6.7681307792663574219 6.94120025634765625 7.1142702102661132812 8.9600238800048828125 12.050502777099609375 15.140981674194335938 18.2314605712890625 21.116708755493164062 18.26285552978515625 15.408999443054199219 12.555143356323242188 9.7012882232666015625 10.150406837463378906 13.959740638732910156 17.769073486328125 21.57840728759765625 25.3877410888671875 28.222970962524414062 31.014312744140625 33.805652618408203125 36.596988677978515625 39.55525970458984375 42.74588775634765625 45.936519622802734375 49.127147674560546875 52.317775726318359375 52.703067779541015625 52.703067779541015625 -9999 
45.07485198974609375 44.12592315673828125 41.905681610107421875 39.6854400634765625 37.465198516845703125 35.244953155517578125 33.890941619873046875 32.645549774169921875 31.400157928466796875 30.154764175415039062 28.98546600341796875 27.957643508911132812 26.929819107055664062 25.901996612548828125 24.874170303344726562 24.679845809936523438 24.679845809936523438 24.679845809936523438 24.679845809936523438 23.920078277587890625 21.127994537353515625 18.335908889770507812 15.543827056884765625 12.751743316650390625 10.92678070068359375 9.4535675048828125 7.9803552627563476562 6.5071420669555664062 5.2871861457824707031 5.1162347793579101562 4.9452838897705078125 4.7743330001831054688 4.6033825874328613281 4.4310421943664550781 4.2579722404479980469 4.0849022865295410156 3.9118325710296630859 3.7491204738616943359 3.6647045612335205078 3.5802884101867675781 3.4958727359771728516 3.4114565849304199219 3.3758342266082763672 3.3758342266082763672 3.3758342266082763672 3.3758342266082763672 3.3724424839019775391 3.285907745361328125 3.1993727684020996094 3.1128377914428710938 3.0263028144836425781 2.9397678375244140625 2.8532330989837646484 2.7666981220245361328 2.6801631450653076172 2.5936281681060791016 2.6735088825225830078 2.7600438594818115234 2.8465788364410400391 2.9331135749816894531 3.0196485519409179688 3.1061835289001464844 3.192718505859375 3.2792532444000244141 3.3657882213592529297 3.525066375732421875 3.6938984394073486328 3.8627302646636962891 4.0315618515014648438 4.2018566131591796875 4.3749265670776367188 4.5479960441589355469 4.7210659980773925781 4.8941359519958496094 4.9276647567749023438 4.9276647567749023438 4.9276647567749023438 4.9276647567749023438 4.9282317161560058594 4.9303507804870605469 4.9324693679809570312 4.9345884323120117188 4.9367074966430664062 4.937282562255859375 4.937282562255859375 4.937282562255859375 4.937282562255859375 4.969730377197265625 5.1406812667846679688 5.3116321563720703125 5.4825830459594726562 5.653533935546875 5.8244843482971191406 5.9954357147216796875 6.1663866043090820312 6.337337493896484375 6.508525848388671875 6.6815958023071289062 6.8546652793884277344 7.0277352333068847656 7.2008051872253417969 8.9700412750244140625 11.927061080932617188 14.884081840515136719 17.841100692749023438 20.600133895874023438 17.822540283203125 15.044946670532226562 12.267353057861328125 9.4897594451904296875 10.015139579772949219 13.900734901428222656 17.7863311767578125 21.671926498413085938 25.557523727416992188 26.662912368774414062 27.643026351928710938 28.623142242431640625 29.603258132934570312 30.925655364990234375 32.7245025634765625 34.523349761962890625 36.322200775146484375 38.1210479736328125 38.338268280029296875 38.338268280029296875 -9999 
46.9978790283203125 46.13043212890625 44.100826263427734375 42.071224212646484375 40.041622161865234375 38.012020111083984375 36.513614654541015625 35.081821441650390625 33.650028228759765625 32.218231201171875 30.799554824829101562 29.405256271362304688 28.010961532592773438 26.616664886474609375 25.222368240356445312 24.9587554931640625 24.9587554931640625 24.9587554931640625 24.9587554931640625 24.181690216064453125 21.326038360595703125 18.470384597778320312 15.614731788635253906 12.7590789794921875 10.9187164306640625 9.4476232528686523438 7.9765295982360839844 6.5054354667663574219 5.2867741584777832031 5.1137042045593261719 4.9406342506408691406 4.7675642967224121094 4.5944943428039550781 4.42142486572265625 4.2483549118041992188 4.0752849578857421875 3.9022150039672851562 3.7372753620147705078 3.6337938308715820312 3.5303122997283935547 3.4268310070037841797 3.3233494758605957031 3.2698862552642822266 3.2529397010803222656 3.2359931468963623047 3.2190465927124023438 3.1993727684020996094 3.1128377914428710938 3.0263028144836425781 2.9397678375244140625 2.8532330989837646484 2.7666981220245361328 2.6801631450653076172 2.5936281681060791016 2.5070934295654296875 2.4205584526062011719 2.5004391670227050781 2.5869739055633544922 2.6735088825225830078 2.7600438594818115234 2.8537425994873046875 2.9572241306304931641 3.0607056617736816406 3.1641869544982910156 3.2676684856414794922 3.4326598644256591797 3.6057298183441162109 3.7787995338439941406 3.9518694877624511719 4.12493896484375 4.2980089187622070312 4.4710788726806640625 4.6441488265991210938 4.8172183036804199219 4.8507475852966308594 4.8507475852966308594 4.8507475852966308594 4.8507475852966308594 4.8507475852966308594 4.8507475852966308594 4.8507475852966308594 4.8507475852966308594 4.8507475852966308594 4.8630952835083007812 4.8800420761108398438 4.8969883918762207031 4.9139351844787597656 4.9605150222778320312 5.1335849761962890625 5.3066549301147460938 5.4797244071960449219 5.6527943611145019531 5.8258643150329589844 5.9989342689514160156 6.1720037460327148438 6.345073699951171875 6.5181436538696289062 6.6912136077880859375 6.8642830848693847656 7.0373530387878417969 7.2104229927062988281 8.6408023834228515625 11.006807327270507812 13.372812271118164062 15.738816261291503906 17.946252822875976562 15.719426155090332031 13.492597579956054688 11.26576995849609375 9.0389413833618164062 9.4766511917114257812 12.625074386596679688 15.773497581481933594 18.9219207763671875 22.070344924926757812 22.821599960327148438 23.464841842651367188 24.108083724975585938 24.751325607299804688 25.67840576171875 27.000585556030273438 28.322765350341796875 29.6449432373046875 30.967123031616210938 31.1267852783203125 31.1267852783203125 -9999 
48.8151092529296875 48.05359649658203125 46.27184295654296875 44.490093231201171875 42.708343505859375 40.9265899658203125 39.235569000244140625 37.5559234619140625 35.87627410888671875 34.19663238525390625 32.47675323486328125 30.682079315185546875 28.887409210205078125 27.092737197875976562 25.298063278198242188 24.9587554931640625 24.9587554931640625 24.9587554931640625 24.9587554931640625 24.181690216064453125 21.326038360595703125 18.470384597778320312 15.614731788635253906 12.7590789794921875 10.9187164306640625 9.4476232528686523438 7.9765295982360839844 6.5054354667663574219 5.2867741584777832031 5.1137042045593261719 4.9406342506408691406 4.7675642967224121094 4.5944943428039550781 4.42142486572265625 4.2483549118041992188 4.0752849578857421875 3.9022150039672851562 3.7350478172302246094 3.6125009059906005859 3.4899539947509765625 3.3674070835113525391 3.2448599338531494141 3.1723313331604003906 3.1363191604614257812 3.1003072261810302734 3.0642950534820556641 3.0263028144836425781 2.9397678375244140625 2.8532330989837646484 2.7666981220245361328 2.6801631450653076172 2.5936281681060791016 2.5070934295654296875 2.4205584526062011719 2.3340234756469726562 2.2474884986877441406 2.3273692131042480469 2.4139041900634765625 2.5004391670227050781 2.5869739055633544922 2.6887323856353759766 2.811279296875 2.9338262081146240234 3.0563733577728271484 3.1789202690124511719 3.3461248874664306641 3.5191948413848876953 3.692264556884765625 3.8653345108032226562 4.0384044647216796875 4.2114739418029785156 4.3845438957214355469 4.5576138496398925781 4.7306833267211914062 4.7642126083374023438 4.7642126083374023438 4.7642126083374023438 4.7642126083374023438 4.7642126083374023438 4.7642126083374023438 4.7642126083374023438 4.7642126083374023438 4.7642126083374023438 4.7904520034790039062 4.8264641761779785156 4.8624758720397949219 4.8984880447387695312 4.9605150222778320312 5.1335849761962890625 5.3066549301147460938 5.4797244071960449219 5.6527943611145019531 5.8258643150329589844 5.9989342689514160156 6.1720037460327148438 6.345073699951171875 6.5181436538696289062 6.6912136077880859375 6.8642830848693847656 7.0373530387878417969 7.2104229927062988281 8.2691440582275390625 9.9869222640991210938 11.704699516296386719 13.422476768493652344 15.025129318237304688 13.408397674560546875 11.791666030883789062 10.17493438720703125 8.5582027435302734375 8.8877429962158203125 11.197283744812011719 13.506824493408203125 15.816366195678710938 18.12590789794921875 18.69504547119140625 19.185762405395507812 19.676481246948242188 20.167200088500976562 20.8540802001953125 21.814014434814453125 22.773946762084960938 23.733882904052734375 24.693817138671875 24.809736251831054688 24.809736251831054688 -9999 
50.632343292236328125 49.9767608642578125 48.442859649658203125 46.908962249755859375 45.37506103515625 43.841159820556640625 41.95751953125 40.03002166748046875 38.102527618408203125 36.17502593994140625 34.153949737548828125 31.958904266357421875 29.76385498046875 27.568807601928710938 25.373762130737304688 24.9587554931640625 24.9587554931640625 24.9587554931640625 24.9587554931640625 24.181690216064453125 21.326038360595703125 18.470384597778320312 15.614731788635253906 12.7590789794921875 10.9187164306640625 9.4476232528686523438 7.9765295982360839844 6.5054354667663574219 5.2867741584777832031 5.1137042045593261719 4.9406342506408691406 4.7675642967224121094 4.5944943428039550781 4.42142486572265625 4.2483549118041992188 4.0752849578857421875 3.9022150039672851562 3.7328205108642578125 3.5912079811096191406 3.4495954513549804688 3.3079829216003417969 3.166370391845703125 3.0747761726379394531 3.0196986198425292969 2.9646210670471191406 2.9095435142517089844 2.8532330989837646484 2.7666981220245361328 2.6801631450653076172 2.5936281681060791016 2.5070934295654296875 2.4205584526062011719 2.3340234756469726562 2.2474884986877441406 2.1609537601470947266 2.0744187831878662109 2.1542994976043701172 2.2408342361450195312 2.3273692131042480469 2.4139041900634765625 2.5237219333648681641 2.6653344631195068359 2.8069469928741455078 2.9485595226287841797 3.0901720523834228516 3.2595899105072021484 3.4326598644256591797 3.6057298183441162109 3.7787995338439941406 3.9518694877624511719 4.12493896484375 4.2980089187622070312 4.4710788726806640625 4.6441488265991210938 4.6776781082153320312 4.6776781082153320312 4.6776781082153320312 4.6776781082153320312 4.6776781082153320312 4.6776781082153320312 4.6776781082153320312 4.6776781082153320312 4.6776781082153320312 4.7178087234497070312 4.7728862762451171875 4.8279638290405273438 4.8830413818359375 4.9605150222778320312 5.1335849761962890625 5.3066549301147460938 5.4797244071960449219 5.6527943611145019531 5.8258643150329589844 5.9989342689514160156 6.1720037460327148438 6.345073699951171875 6.5181436538696289062 6.6912136077880859375 6.8642830848693847656 7.0373530387878417969 7.2104229927062988281 7.8974857330322265625 8.9670362472534179688 10.036585807800292969 11.106136322021484375 12.104006767272949219 11.097371101379394531 10.090735435485839844 9.0840997695922851562 8.0774641036987304688 8.2988348007202148438 9.7694940567016601562 11.240152359008789062 12.710811614990234375 14.181469917297363281 14.568490982055664062 14.906685829162597656 15.244878768920898438 15.583072662353515625 16.029752731323242188 16.62744140625 17.225131988525390625 17.82282257080078125 18.420511245727539062 18.492685317993164062 18.492685317993164062 -9999 
52.44957733154296875 51.89992523193359375 50.6138763427734375 49.327831268310546875 48.041778564453125 46.755733489990234375 44.679470062255859375 42.504123687744140625 40.32877349853515625 38.1534271240234375 35.83115386962890625 33.235729217529296875 30.6403045654296875 28.044881820678710938 25.449457168579101562 24.9587554931640625 24.9587554931640625 24.9587554931640625 24.9587554931640625 24.181690216064453125 21.326038360595703125 18.470384597778320312 15.614731788635253906 12.7590789794921875 10.9187164306640625 9.4476232528686523438 7.9765295982360839844 6.5054354667663574219 5.2867741584777832031 5.1137042045593261719 4.9406342506408691406 4.7675642967224121094 4.5944943428039550781 4.42142486572265625 4.2483549118041992188 4.0752849578857421875 3.9022150039672851562 3.7305929660797119141 3.5699148178100585938 3.409236907958984375 3.2485589981079101562 3.0878808498382568359 2.9772212505340576172 2.9030780792236328125 2.8289351463317871094 2.7547919750213623047 2.6801631450653076172 2.5936281681060791016 2.5070934295654296875 2.4205584526062011719 2.3340234756469726562 2.2474884986877441406 2.1609537601470947266 2.0744187831878662109 1.9878839254379272461 1.9013489484786987305 1.9812294244766235352 2.0677645206451416016 2.1542994976043701172 2.2408342361450195312 2.3587117195129394531 2.5193896293640136719 2.6800677776336669922 2.8407456874847412109 3.0014235973358154297 3.1730551719665527344 3.3461248874664306641 3.5191948413848876953 3.692264556884765625 3.8653345108032226562 4.0384044647216796875 4.2114739418029785156 4.3845438957214355469 4.5576138496398925781 4.5911431312561035156 4.5911431312561035156 4.5911431312561035156 4.5911431312561035156 4.5911431312561035156 4.5911431312561035156 4.5911431312561035156 4.5911431312561035156 4.5911431312561035156 4.6451654434204101562 4.7193083763122558594 4.7934513092041015625 4.8675947189331054688 4.9605150222778320312 5.1335849761962890625 5.3066549301147460938 5.4797244071960449219 5.6527943611145019531 5.8258643150329589844 5.9989342689514160156 6.1720037460327148438 6.345073699951171875 6.5181436538696289062 6.6912136077880859375 6.8642830848693847656 7.0373530387878417969 7.2104229927062988281 7.5258278846740722656 7.9471502304077148438 8.368473052978515625 8.7897968292236328125 9.1828823089599609375 8.786342620849609375 8.3898038864135742188 7.9932646751403808594 7.5967254638671875 7.7099275588989257812 8.3417034149169921875 8.973480224609375 9.6052560806274414062 10.237032890319824219 10.441936492919921875 10.627606391906738281 10.813275337219238281 10.998945236206054688 11.205425262451171875 11.440870285034179688 11.6763153076171875 11.911760330200195312 12.147205352783203125 12.175637245178222656 12.175637245178222656 -9999 
53.630710601806640625 53.14990997314453125 52.02495574951171875 50.899997711181640625 49.77504730224609375 48.65009307861328125 46.448638916015625 44.112194061279296875 41.77574920654296875 39.43930816650390625 36.9212646484375 34.065616607666015625 31.209962844848632812 28.354310989379882812 25.4986572265625 24.9587554931640625 24.9587554931640625 24.9587554931640625 24.9587554931640625 24.181690216064453125 21.326038360595703125 18.470384597778320312 15.614731788635253906 12.7590789794921875 10.9187164306640625 9.4476232528686523438 7.9765295982360839844 6.5054354667663574219 5.2867741584777832031 5.1137042045593261719 4.9406342506408691406 4.7675642967224121094 4.5944943428039550781 4.42142486572265625 4.2483549118041992188 4.0752849578857421875 3.9022150039672851562 3.729145050048828125 3.5560753345489501953 3.3830053806304931641 3.2099356651306152344 3.0368657112121582031 2.9138143062591552734 2.8272793292999267578 2.7407443523406982422 2.6542093753814697266 2.5676743984222412109 2.4811396598815917969 2.3946046829223632812 2.3080697059631347656 2.22153472900390625 2.1349999904632568359 2.0484650135040283203 1.9619300365447998047 1.8753950595855712891 1.7888602018356323242 1.8687406778335571289 1.9552756547927856445 2.0418105125427246094 2.128345489501953125 2.2514615058898925781 2.4245312213897705078 2.5976011753082275391 2.7706708908081054688 2.9437408447265625 3.1168105602264404297 3.2898805141448974609 3.4629502296447753906 3.6360201835632324219 3.8090901374816894531 3.9821598529815673828 4.1552295684814453125 4.3282995223999023438 4.501369476318359375 4.5348982810974121094 4.5348982810974121094 4.5348982810974121094 4.5348982810974121094 4.5348982810974121094 4.5348982810974121094 4.5348982810974121094 4.5348982810974121094 4.5348982810974121094 4.597949981689453125 4.6844849586486816406 4.7710199356079101562 4.8575549125671386719 4.9605150222778320312 5.1335849761962890625 5.3066549301147460938 5.4797244071960449219 5.6527943611145019531 5.8258643150329589844 5.9989342689514160156 6.1720037460327148438 6.345073699951171875 6.5181436538696289062 6.6912136077880859375 6.8642830848693847656 7.0373530387878417969 7.2104229927062988281 7.2842640876770019531 7.2842640876770019531 7.2842640876770019531 7.2842640876770019531 7.2842640876770019531 7.2842640876770019531 7.2842640876770019531 7.2842640876770019531 7.2842640876770019531 7.327159881591796875 7.4136948585510253906 7.5002298355102539062 7.5867648124694824219 7.6732997894287109375 7.7598347663879394531 7.8463687896728515625 7.9329037666320800781 8.0194387435913085938 8.0697965621948242188 8.0697965621948242188 8.0697965621948242188 8.0697965621948242188 8.0697965621948242188 8.0697965621948242188 8.0697965621948242188 -9999 
53.630710601806640625 53.14990997314453125 52.02495574951171875 50.899997711181640625 49.77504730224609375 48.65009307861328125 46.448638916015625 44.112194061279296875 41.77574920654296875 39.43930816650390625 36.9212646484375 34.065616607666015625 31.209962844848632812 28.354310989379882812 25.4986572265625 24.9587554931640625 24.9587554931640625 24.9587554931640625 24.9587554931640625 24.181690216064453125 21.326038360595703125 18.470384597778320312 15.614731788635253906 12.7590789794921875 10.9187164306640625 9.4476232528686523438 7.9765295982360839844 6.5054354667663574219 5.2867741584777832031 5.1137042045593261719 4.9406342506408691406 4.7675642967224121094 4.5944943428039550781 4.42142486572265625 4.2483549118041992188 4.0752849578857421875 3.9022150039672851562 3.729145050048828125 3.5560753345489501953 3.3830053806304931641 3.2099356651306152344 3.0368657112121582031 2.9138143062591552734 2.8272793292999267578 2.7407443523406982422 2.6542093753814697266 2.5676743984222412109 2.4811396598815917969 2.3946046829223632812 2.3080697059631347656 2.22153472900390625 2.1349999904632568359 2.0484650135040283203 1.9619300365447998047 1.8753950595855712891 1.7888602018356323242 1.8687406778335571289 1.9552756547927856445 2.0418105125427246094 2.128345489501953125 2.2514615058898925781 2.4245312213897705078 2.5976011753082275391 2.7706708908081054688 2.9437408447265625 3.1168105602264404297 3.2898805141448974609 3.4629502296447753906 3.6360201835632324219 3.8090901374816894531 3.9821598529815673828 4.1552295684814453125 4.3282995223999023438 4.501369476318359375 4.5348982810974121094 4.5348982810974121094 4.5348982810974121094 4.5348982810974121094 4.5348982810974121094 4.5348982810974121094 4.5348982810974121094 4.5348982810974121094 4.5348982810974121094 4.597949981689453125 4.6844849586486816406 4.7710199356079101562 4.8575549125671386719 4.9605150222778320312 5.1335849761962890625 5.3066549301147460938 5.4797244071960449219 5.6527943611145019531 5.8258643150329589844 5.9989342689514160156 6.1720037460327148438 6.345073699951171875 6.5181436538696289062 6.6912136077880859375 6.8642830848693847656 7.0373530387878417969 7.2104229927062988281 7.2842640876770019531 7.2842640876770019531 7.2842640876770019531 7.2842640876770019531 7.2842640876770019531 7.2842640876770019531 7.2842640876770019531 7.2842640876770019531 7.2842640876770019531 7.327159881591796875 7.4136948585510253906 7.5002298355102539062 7.5867648124694824219 7.6732997894287109375 7.7598347663879394531 7.8463687896728515625 7.9329037666320800781 8.0194387435913085938 8.0697965621948242188 8.0697965621948242188 8.0697965621948242188 8.0697965621948242188 8.0697965621948242188 8.0697965621948242188 8.0697965621948242188 -9999 
53.630710601806640625 53.14990997314453125 52.02495574951171875 50.899997711181640625 49.77504730224609375 48.65009307861328125 46.448638916015625 44.112194061279296875 41.77574920654296875 39.43930816650390625 36.9212646484375 34.065616607666015625 31.209962844848632812 28.354310989379882812 25.4986572265625 24.9587554931640625 24.9587554931640625 24.9587554931640625 24.9587554931640625 24.181690216064453125 21.326038360595703125 18.470384597778320312 15.614731788635253906 12.7590789794921875 10.9187164306640625 9.4476232528686523438 7.9765295982360839844 6.5054354667663574219 5.2867741584777832031 5.1137042045593261719 4.9406342506408691406 4.7675642967224121094 4.5944943428039550781 4.42142486572265625 4.2483549118041992188 4.0752849578857421875 3.9022150039672851562 3.729145050048828125 3.5560753345489501953 3.3830053806304931641 3.2099356651306152344 3.0368657112121582031 2.9138143062591552734 2.8272793292999267578 2.7407443523406982422 2.6542093753814697266 2.5676743984222412109 2.4811396598815917969 2.3946046829223632812 2.3080697059631347656 2.22153472900390625 2.1349999904632568359 2.0484650135040283203 1.9619300365447998047 1.8753950595855712891 1.7888602018356323242 1.8687406778335571289 1.9552756547927856445 2.0418105125427246094 2.128345489501953125 2.2514615058898925781 2.4245312213897705078 2.5976011753082275391 2.7706708908081054688 2.9437408447265625 3.1168105602264404297 3.2898805141448974609 3.4629502296447753906 3.6360201835632324219 3.8090901374816894531 3.9821598529815673828 4.1552295684814453125 4.3282995223999023438 4.501369476318359375 4.5348982810974121094 4.5348982810974121094 4.5348982810974121094 4.5348982810974121094 4.5348982810974121094 4.5348982810974121094 4.5348982810974121094 4.5348982810974121094 4.5348982810974121094 4.597949981689453125 4.6844849586486816406 4.7710199356079101562 4.8575549125671386719 4.9605150222778320312 5.1335849761962890625 5.3066549301147460938 5.4797244071960449219 5.6527943611145019531 5.8258643150329589844 5.9989342689514160156 6.1720037460327148438 6.345073699951171875 6.5181436538696289062 6.6912136077880859375 6.8642830848693847656 7.0373530387878417969 7.2104229927062988281 7.2842640876770019531 7.2842640876770019531 7.2842640876770019531 7.2842640876770019531 7.2842640876770019531 7.2842640876770019531 7.2842640876770019531 7.2842640876770019531 7.2842640876770019531 7.327159881591796875 7.4136948585510253906 7.5002298355102539062 7.5867648124694824219 7.6732997894287109375 7.7598347663879394531 7.8463687896728515625 7.9329037666320800781 8.0194387435913085938 8.0697965621948242188 8.0697965621948242188 8.0697965621948242188 8.0697965621948242188 8.0697965621948242188 8.0697965621948242188 8.0697965621948242188 -9999 
53.630710601806640625 53.14990997314453125 52.02495574951171875 50.899997711181640625 49.77504730224609375 48.65009307861328125 46.448638916015625 44.112194061279296875 41.77574920654296875 39.43930816650390625 36.9212646484375 34.065616607666015625 31.209962844848632812 28.354310989379882812 25.4986572265625 24.9587554931640625 24.9587554931640625 24.9587554931640625 24.9587554931640625 24.181690216064453125 21.326038360595703125 18.470384597778320312 15.614731788635253906 12.7590789794921875 10.9187164306640625 9.4476232528686523438 7.9765295982360839844 6.5054354667663574219 5.2867741584777832031 5.1137042045593261719 4.9406342506408691406 4.7675642967224121094 4.5944943428039550781 4.42142486572265625 4.2483549118041992188 4.0752849578857421875 3.9022150039672851562 3.729145050048828125 3.5560753345489501953 3.3830053806304931641 3.2099356651306152344 3.0368657112121582031 2.9138143062591552734 2.8272793292999267578 2.7407443523406982422 2.6542093753814697266 2.5676743984222412109 2.4811396598815917969 2.3946046829223632812 2.3080697059631347656 2.22153472900390625 2.1349999904632568359 2.0484650135040283203 1.9619300365447998047 1.8753950595855712891 1.7888602018356323242 1.8687406778335571289 1.9552756547927856445 2.0418105125427246094 2.128345489501953125 2.2514615058898925781 2.4245312213897705078 2.5976011753082275391 2.7706708908081054688 2.9437408447265625 3.1168105602264404297 3.2898805141448974609 3.4629502296447753906 3.6360201835632324219 3.8090901374816894531 3.9821598529815673828 4.1552295684814453125 4.3282995223999023438 4.501369476318359375 4.5348982810974121094 4.5348982810974121094 4.5348982810974121094 4.5348982810974121094 4.5348982810974121094 4.5348982810974121094 4.5348982810974121094 4.5348982810974121094 4.5348982810974121094 4.597949981689453125 4.6844849586486816406 4.7710199356079101562 4.8575549125671386719 4.9605150222778320312 5.1335849761962890625 5.3066549301147460938 5.4797244071960449219 5.6527943611145019531 5.8258643150329589844 5.9989342689514160156 6.1720037460327148438 6.345073699951171875 6.5181436538696289062 6.6912136077880859375 6.8642830848693847656 7.0373530387878417969 7.2104229927062988281 7.2842640876770019531 7.2842640876770019531 7.2842640876770019531 7.2842640876770019531 7.2842640876770019531 7.2842640876770019531 7.2842640876770019531 7.2842640876770019531 7.2842640876770019531 7.327159881591796875 7.4136948585510253906 7.5002298355102539062 7.5867648124694824219 7.6732997894287109375 7.7598347663879394531 7.8463687896728515625 7.9329037666320800781 8.0194387435913085938 8.0697965621948242188 8.0697965621948242188 8.0697965621948242188 8.0697965621948242188 8.0697965621948242188 8.0697965621948242188 8.0697965621948242188 -9999 
53.630710601806640625 53.14990997314453125 52.02495574951171875 50.899997711181640625 49.77504730224609375 48.65009307861328125 46.448638916015625 44.112194061279296875 41.77574920654296875 39.43930816650390625 36.9212646484375 34.065616607666015625 31.209962844848632812 28.354310989379882812 25.4986572265625 24.9587554931640625 24.9587554931640625 24.9587554931640625 24.9587554931640625 24.181690216064453125 21.326038360595703125 18.470384597778320312 15.614731788635253906 12.7590789794921875 10.9187164306640625 9.4476232528686523438 7.9765295982360839844 6.5054354667663574219 5.2867741584777832031 5.1137042045593261719 4.9406342506408691406 4.7675642967224121094 4.5944943428039550781 4.42142486572265625 4.2483549118041992188 4.0752849578857421875 3.9022150039672851562 3.729145050048828125 3.5560753345489501953 3.3830053806304931641 3.2099356651306152344 3.0368657112121582031 2.9138143062591552734 2.8272793292999267578 2.7407443523406982422 2.6542093753814697266 2.5676743984222412109 2.4811396598815917969 2.3946046829223632812 2.3080697059631347656 2.22153472900390625 2.1349999904632568359 2.0484650135040283203 1.9619300365447998047 1.8753950595855712891 1.7888602018356323242 1.8687406778335571289 1.9552756547927856445 2.0418105125427246094 2.128345489501953125 2.2514615058898925781 2.4245312213897705078 2.5976011753082275391 2.7706708908081054688 2.9437408447265625 3.1168105602264404297 3.2898805141448974609 3.4629502296447753906 3.6360201835632324219 3.8090901374816894531 3.9821598529815673828 4.1552295684814453125 4.3282995223999023438 4.501369476318359375 4.5348982810974121094 4.5348982810974121094 4.5348982810974121094 4.5348982810974121094 4.5348982810974121094 4.5348982810974121094 4.5348982810974121094 4.5348982810974121094 4.5348982810974121094 4.597949981689453125 4.6844849586486816406 4.7710199356079101562 4.8575549125671386719 4.9605150222778320312 5.1335849761962890625 5.3066549301147460938 5.4797244071960449219 5.6527943611145019531 5.8258643150329589844 5.9989342689514160156 6.1720037460327148438 6.345073699951171875 6.5181436538696289062 6.6912136077880859375 6.8642830848693847656 7.0373530387878417969 7.2104229927062988281 7.2842640876770019531 7.2842640876770019531 7.2842640876770019531 7.2842640876770019531 7.2842640876770019531 7.2842640876770019531 7.2842640876770019531 7.2842640876770019531 7.2842640876770019531 7.327159881591796875 7.4136948585510253906 7.5002298355102539062 7.5867648124694824219 7.6732997894287109375 7.7598347663879394531 7.8463687896728515625 7.9329037666320800781 8.0194387435913085938 8.0697965621948242188 8.0697965621948242188 8.0697965621948242188 8.0697965621948242188 8.0697965621948242188 8.0697965621948242188 8.0697965621948242188 -9999 
54.613491058349609375 54.020313262939453125 52.6324310302734375 51.2445526123046875 49.8566741943359375 48.468791961669921875 46.196811676025390625 43.813968658447265625 41.43112945556640625 39.04828643798828125 36.510894775390625 33.686176300048828125 30.861454010009765625 28.036733627319335938 25.212015151977539062 24.677961349487304688 24.677961349487304688 24.677961349487304688 24.677961349487304688 23.91352081298828125 21.104267120361328125 18.295013427734375 15.485758781433105469 12.67650604248046875 10.859859466552734375 9.404232025146484375 7.948604583740234375 6.4929766654968261719 5.2867741584777832031 5.1137042045593261719 4.9406342506408691406 4.7675642967224121094 4.5944943428039550781 4.42142486572265625 4.2483549118041992188 4.0752849578857421875 3.9022150039672851562 3.729145050048828125 3.5560753345489501953 3.3830053806304931641 3.2099356651306152344 3.0368657112121582031 2.9048745632171630859 2.8028733730316162109 2.7008721828460693359 2.5988707542419433594 2.4974758625030517578 2.4109408855438232422 2.3244059085845947266 2.2378709316253662109 2.1513361930847167969 2.0570621490478515625 1.9550610780715942383 1.8530598878860473633 1.7510586977005004883 1.6490575075149536133 1.7432149648666381836 1.8452162742614746094 1.9472174644470214844 2.0492186546325683594 2.1812627315521240234 2.3543324470520019531 2.5274024009704589844 2.7004723548889160156 2.8735420703887939453 3.0466120243072509766 3.2196817398071289062 3.3927516937255859375 3.5658216476440429688 3.7388913631439208984 3.9119613170623779297 4.0850310325622558594 4.2581005096435546875 4.4311704635620117188 4.4646997451782226562 4.4646997451782226562 4.4646997451782226562 4.4646997451782226562 4.4646997451782226562 4.4646997451782226562 4.4646997451782226562 4.4646997451782226562 4.4646997451782226562 4.5277514457702636719 4.6142864227294921875 4.7008213996887207031 4.7873563766479492188 4.890316009521484375 5.0633859634399414062 5.2364559173583984375 5.4095258712768554688 5.5825958251953125 5.7556653022766113281 5.9287352561950683594 6.1018052101135253906 6.2748751640319824219 6.4462099075317382812 6.6038136482238769531 6.7614169120788574219 6.9190211296081542969 7.0766243934631347656 7.1527338027954101562 7.1682004928588867188 7.1836667060852050781 7.1991329193115234375 7.213531494140625 7.1980648040771484375 7.1825990676879882812 7.1671323776245117188 7.1516661643981933594 7.1867623329162597656 7.2732973098754882812 7.3598322868347167969 7.4463672637939453125 7.5329022407531738281 7.6194372177124023438 7.7059721946716308594 7.792507171630859375 7.8790421485900878906 7.9293994903564453125 7.9293994903564453125 7.9293994903564453125 7.9293994903564453125 7.9293994903564453125 7.9293994903564453125 7.9293994903564453125 -9999 
55.824977874755859375 55.0932769775390625 53.381282806396484375 51.66928863525390625 49.957294464111328125 48.24530029296875 45.886383056640625 43.44634246826171875 41.006305694580078125 38.566265106201171875 36.005023956298828125 33.2184295654296875 30.431842803955078125 27.645254135131835938 24.85866546630859375 24.331821441650390625 24.331821441650390625 24.331821441650390625 24.331821441650390625 23.582944869995117188 20.8308868408203125 18.078830718994140625 15.326772689819335938 12.574715614318847656 10.787304878234863281 9.3507432937622070312 7.9141812324523925781 6.477619171142578125 5.2867741584777832031 5.1137042045593261719 4.9406342506408691406 4.7675642967224121094 4.5944943428039550781 4.42142486572265625 4.2483549118041992188 4.0752849578857421875 3.9022150039672851562 3.729145050048828125 3.5560753345489501953 3.3830053806304931641 3.2099356651306152344 3.0368657112121582031 2.8938543796539306641 2.7727875709533691406 2.6517210006713867188 2.5306541919708251953 2.4109408855438232422 2.3244059085845947266 2.2378709316253662109 2.1513361930847167969 2.0648012161254882812 1.9609875679016113281 1.8399208784103393555 1.718854069709777832 1.5977873802185058594 1.4767206907272338867 1.5884776115417480469 1.7095443010330200195 1.830611109733581543 1.9516777992248535156 2.0947277545928955078 2.2677977085113525391 2.4408674240112304688 2.6139373779296875 2.7870073318481445312 2.9600770473480224609 3.1331470012664794922 3.3062167167663574219 3.4792866706848144531 3.6523563861846923828 3.8254263401031494141 3.9984962940216064453 4.171566009521484375 4.3446354866027832031 4.3781647682189941406 4.3781647682189941406 4.3781647682189941406 4.3781647682189941406 4.3781647682189941406 4.3781647682189941406 4.3781647682189941406 4.3781647682189941406 4.3781647682189941406 4.4412164688110351562 4.5277514457702636719 4.6142864227294921875 4.7008213996887207031 4.8037810325622558594 4.9768509864807128906 5.1499209403991699219 5.3229908943176269531 5.4960608482360839844 5.6691303253173828125 5.8422002792358398438 6.015270233154296875 6.1883401870727539062 6.3575367927551269531 6.496074676513671875 6.6346125602722167969 6.7731509208679199219 6.9116888046264648438 6.9905953407287597656 7.025127410888671875 7.0596590042114257812 7.0941905975341796875 7.1263384819030761719 7.0918059349060058594 7.0572743415832519531 7.0227427482604980469 6.9882111549377441406 7.0136923789978027344 7.10022735595703125 7.1867623329162597656 7.2732973098754882812 7.3598322868347167969 7.4463672637939453125 7.5329022407531738281 7.6194372177124023438 7.7059721946716308594 7.7563295364379882812 7.7563295364379882812 7.7563295364379882812 7.7563295364379882812 7.7563295364379882812 7.7563295364379882812 7.7563295364379882812 -9999 
57.036468505859375 56.166240692138671875 54.130138397216796875 52.094028472900390625 50.057918548583984375 48.021808624267578125 45.575954437255859375 43.0787200927734375 40.581485748291015625 38.08425140380859375 35.499149322509765625 32.750690460205078125 30.002233505249023438 27.25377655029296875 24.505315780639648438 23.985683441162109375 23.985683441162109375 23.985683441162109375 23.985683441162109375 23.252368927001953125 20.557508468627929688 17.86264801025390625 15.167786598205566406 12.472927093505859375 10.714750289916992188 9.2972545623779296875 7.8797583580017089844 6.462261199951171875 5.2867741584777832031 5.1137042045593261719 4.9406342506408691406 4.7675642967224121094 4.5944943428039550781 4.42142486572265625 4.2483549118041992188 4.0752849578857421875 3.9022150039672851562 3.729145050048828125 3.5560753345489501953 3.3830053806304931641 3.2099356651306152344 3.0368657112121582031 2.8828341960906982422 2.7427020072937011719 2.6025698184967041016 2.4624376296997070312 2.3244059085845947266 2.2378709316253662109 2.1513361930847167969 2.0648012161254882812 1.9782662391662597656 1.8649127483367919922 1.7247805595397949219 1.5846483707427978516 1.4445160627365112305 1.3043838739395141602 1.4337402582168579102 1.5738724470138549805 1.7140046358108520508 1.8541369438171386719 2.0081927776336669922 2.1812627315521240234 2.3543324470520019531 2.5274024009704589844 2.7004723548889160156 2.8735420703887939453 3.0466120243072509766 3.2196817398071289062 3.3927516937255859375 3.5658216476440429688 3.7388913631439208984 3.9119613170623779297 4.0850310325622558594 4.2581005096435546875 4.2916302680969238281 4.2916302680969238281 4.2916302680969238281 4.2916302680969238281 4.2916302680969238281 4.2916302680969238281 4.2916302680969238281 4.2916302680969238281 4.2916302680969238281 4.3546814918518066406 4.4412164688110351562 4.5277514457702636719 4.6142864227294921875 4.7172465324401855469 4.890316009521484375 5.0633859634399414062 5.2364559173583984375 5.4095258712768554688 5.5825958251953125 5.7556653022766113281 5.9287352561950683594 6.1018052101135253906 6.2688632011413574219 6.3883357048034667969 6.5078082084655761719 6.6272807121276855469 6.7467532157897949219 6.828456878662109375 6.8820543289184570312 6.9356513023376464844 6.9892487525939941406 7.0391449928283691406 6.9855475425720214844 6.9319505691528320312 6.878353118896484375 6.8247561454772949219 6.8406229019165039062 6.9271578788757324219 7.0136923789978027344 7.10022735595703125 7.1867623329162597656 7.2732973098754882812 7.3598322868347167969 7.4463672637939453125 7.5329022407531738281 7.5832600593566894531 7.5832600593566894531 7.5832600593566894531 7.5832600593566894531 7.5832600593566894531 7.5832600593566894531 7.5832600593566894531 -9999 
58.247959136962890625 57.23920440673828125 54.878986358642578125 52.51876068115234375 50.158538818359375 47.798320770263671875 45.26552581787109375 42.71109771728515625 40.1566619873046875 37.602230072021484375 34.993274688720703125 32.28295135498046875 29.572620391845703125 26.862295150756835938 24.151968002319335938 23.639543533325195312 23.639543533325195312 23.639543533325195312 23.639543533325195312 22.921792984008789062 20.284130096435546875 17.646465301513671875 15.008801460266113281 12.371137619018554688 10.642195701599121094 9.2437658309936523438 7.8453340530395507812 6.4469037055969238281 5.2867741584777832031 5.1137042045593261719 4.9406342506408691406 4.7675642967224121094 4.5944943428039550781 4.42142486572265625 4.2483549118041992188 4.0752849578857421875 3.9022150039672851562 3.729145050048828125 3.5560753345489501953 3.3830053806304931641 3.2099356651306152344 3.0368657112121582031 2.8718142509460449219 2.7126164436340332031 2.5534186363220214844 2.3942208290100097656 2.2378709316253662109 2.1513361930847167969 2.0648012161254882812 1.9782662391662597656 1.8917313814163208008 1.768838047981262207 1.6096402406692504883 1.4504425525665283203 1.2912448644638061523 1.1320470571517944336 1.2790027856826782227 1.4382005929946899414 1.5973982810974121094 1.7565960884094238281 1.9216579198837280273 2.0947277545928955078 2.2677977085113525391 2.4408674240112304688 2.6139373779296875 2.7870073318481445312 2.9600770473480224609 3.1331470012664794922 3.3062167167663574219 3.4792866706848144531 3.6523563861846923828 3.8254263401031494141 3.9984962940216064453 4.171566009521484375 4.2050952911376953125 4.2050952911376953125 4.2050952911376953125 4.2050952911376953125 4.2050952911376953125 4.2050952911376953125 4.2050952911376953125 4.2050952911376953125 4.2050952911376953125 4.268146514892578125 4.3546814918518066406 4.4412164688110351562 4.5277514457702636719 4.6307115554809570312 4.8037810325622558594 4.9768509864807128906 5.1499209403991699219 5.3229908943176269531 5.4960608482360839844 5.6691303253173828125 5.8422002792358398438 6.015270233154296875 6.1801900863647460938 6.2805967330932617188 6.3810038566589355469 6.481410980224609375 6.5818181037902832031 6.6663179397583007812 6.7389807701110839844 6.8116436004638671875 6.8843064308166503906 6.9519515037536621094 6.8792891502380371094 6.8066263198852539062 6.7339630126953125 6.6613006591796875 6.667552947998046875 6.7540879249572753906 6.8406229019165039062 6.9271578788757324219 7.0136923789978027344 7.10022735595703125 7.1867623329162597656 7.2732973098754882812 7.3598322868347167969 7.4101901054382324219 7.4101901054382324219 7.4101901054382324219 7.4101901054382324219 7.4101901054382324219 7.4101901054382324219 7.4101901054382324219 -9999 
59.08229827880859375 57.974971771240234375 55.38411712646484375 52.79326629638671875 50.2024078369140625 47.6115570068359375 45.016086578369140625 42.420040130615234375 39.8239898681640625 37.22794342041015625 34.60344696044921875 31.926055908203125 29.248666763305664062 26.571277618408203125 23.893888473510742188 23.387689590454101562 23.387689590454101562 23.387689590454101562 23.387689590454101562 22.681264877319335938 20.085218429565429688 17.489170074462890625 14.893122673034667969 12.297074317932128906 10.593214035034179688 9.213848114013671875 7.8344831466674804688 6.4551177024841308594 5.3103456497192382812 5.13727569580078125 4.9642057418823242188 4.7911362648010253906 4.6180663108825683594 4.4449963569641113281 4.2719264030456542969 4.0988569259643554688 3.9257869720458984375 3.7527170181274414062 3.5796473026275634766 3.4065773487091064453 3.2335076332092285156 3.0604376792907714844 2.8873679637908935547 2.7142980098724365234 2.5412280559539794922 2.3681583404541015625 2.1982762813568115234 2.1065480709075927734 2.0148196220397949219 1.9230914115905761719 1.8313630819320678711 1.704131007194519043 1.5414479970932006836 1.3787648677825927734 1.2160818576812744141 1.0533987283706665039 1.2035717964172363281 1.3662549257278442383 1.5289379358291625977 1.6916210651397705078 1.858694911003112793 2.0317647457122802734 2.2048346996307373047 2.3779044151306152344 2.5509743690490722656 2.7240440845489501953 2.8971140384674072266 3.0701837539672851562 3.2432537078857421875 3.4127390384674072266 3.5754222869873046875 3.7381052970886230469 3.9007883071899414062 4.0634713172912597656 4.0949883460998535156 4.0949883460998535156 4.0949883460998535156 4.0949883460998535156 4.0963768959045410156 4.1015706062316894531 4.1067638397216796875 4.111957550048828125 4.1171507835388183594 4.1816115379333496094 4.268146514892578125 4.3546814918518066406 4.4412164688110351562 4.5441765785217285156 4.7172465324401855469 4.890316009521484375 5.0633859634399414062 5.2364559173583984375 5.4061450958251953125 5.5740213394165039062 5.7418980598449707031 5.9097743034362792969 6.0691094398498535156 6.1608376502990722656 6.2525658607482910156 6.3442945480346679688 6.4360227584838867188 6.5217957496643066406 6.6031374931335449219 6.684478759765625 6.7658205032348632812 6.841365814208984375 6.7548308372497558594 6.6682963371276855469 6.5817613601684570312 6.4952263832092285156 6.4944829940795898438 6.5810179710388183594 6.667552947998046875 6.7540879249572753906 6.8406229019165039062 6.9271578788757324219 7.0136923789978027344 7.10022735595703125 7.1867623329162597656 7.3196244239807128906 7.5169739723205566406 7.7143225669860839844 7.9116716384887695312 8.109020233154296875 8.1328516006469726562 8.1328516006469726562 -9999 
58.909229278564453125 57.81005096435546875 55.238262176513671875 52.666473388671875 50.094684600830078125 47.52289581298828125 44.9295501708984375 42.33350372314453125 39.737457275390625 37.14141082763671875 34.523578643798828125 31.865255355834960938 29.20693206787109375 26.54860687255859375 23.890283584594726562 23.387689590454101562 23.387689590454101562 23.387689590454101562 23.387689590454101562 22.681264877319335938 20.085218429565429688 17.489170074462890625 14.893122673034667969 12.297074317932128906 10.607194900512695312 9.24689483642578125 7.8865947723388671875 6.526294708251953125 5.3968806266784667969 5.2238106727600097656 5.0507407188415527344 4.8776707649230957031 4.704601287841796875 4.5315313339233398438 4.3584613800048828125 4.1853914260864257812 4.0123219490051269531 3.8392519950866699219 3.6661822795867919922 3.4931123256683349609 3.3200426101684570312 3.14697265625 2.9739027023315429688 2.8008329868316650391 2.6277630329132080078 2.4546930789947509766 2.2840640544891357422 2.1732702255249023438 2.0624763965606689453 1.9516825675964355469 1.8408887386322021484 1.7232106924057006836 1.5986586809158325195 1.4741065502166748047 1.3495545387268066406 1.2250025272369384766 1.3399767875671386719 1.4645287990570068359 1.589080810546875 1.7136329412460327148 1.858694911003112793 2.0317647457122802734 2.2048346996307373047 2.3779044151306152344 2.5509743690490722656 2.7240440845489501953 2.8971140384674072266 3.0701837539672851562 3.2432537078857421875 3.3995807170867919922 3.5241324901580810547 3.6486847400665283203 3.7732367515563964844 3.8977887630462646484 3.9219183921813964844 3.9219183921813964844 3.9219183921813964844 3.9219183921813964844 3.9284064769744873047 3.9526650905609130859 3.9769241809844970703 4.0011830329895019531 4.0254421234130859375 4.0950770378112792969 4.1816115379333496094 4.268146514892578125 4.3546814918518066406 4.4576416015625 4.6307115554809570312 4.8037810325622558594 4.9768509864807128906 5.1499209403991699219 5.3071985244750976562 5.4560093879699707031 5.6048207283020019531 5.753631591796875 5.8981781005859375 6.0089716911315917969 6.1197657585144042969 6.2305593490600585938 6.3413534164428710938 6.4243297576904296875 6.4866056442260742188 6.5488820075988769531 6.6111578941345214844 6.6682963371276855469 6.5817613601684570312 6.4952263832092285156 6.40869140625 6.3221564292907714844 6.3214130401611328125 6.4079480171203613281 6.4944829940795898438 6.5810179710388183594 6.667552947998046875 6.7540879249572753906 6.8406229019165039062 6.9271578788757324219 7.0136923789978027344 7.4494371414184570312 8.3712759017944335938 9.29311370849609375 10.214951515197753906 11.136790275573730469 11.248108863830566406 11.248108863830566406 -9999 
58.7361602783203125 57.645130157470703125 55.0924072265625 52.539684295654296875 49.98696136474609375 47.434238433837890625 44.843013763427734375 42.24697113037109375 39.650920867919921875 37.054874420166015625 34.4437103271484375 31.804454803466796875 29.165195465087890625 26.525938034057617188 23.886678695678710938 23.387689590454101562 23.387689590454101562 23.387689590454101562 23.387689590454101562 22.681264877319335938 20.085218429565429688 17.489170074462890625 14.893122673034667969 12.297074317932128906 10.621174812316894531 9.2799406051635742188 7.9387068748474121094 6.5974721908569335938 5.4834156036376953125 5.3103456497192382812 5.13727569580078125 4.9642057418823242188 4.7911362648010253906 4.6180663108825683594 4.4449963569641113281 4.2719264030456542969 4.0988569259643554688 3.9257869720458984375 3.7527170181274414062 3.5796473026275634766 3.4065773487091064453 3.2335076332092285156 3.0604376792907714844 2.8873679637908935547 2.7142980098724365234 2.5412280559539794922 2.3698518276214599609 2.2399923801422119141 2.1101331710815429688 1.9802737236022949219 1.8504143953323364258 1.7422903776168823242 1.6558693647384643555 1.5694483518600463867 1.4830272197723388672 1.3966063261032104492 1.4763816595077514648 1.5628026723861694336 1.6492236852645874023 1.7356448173522949219 1.858694911003112793 2.0317647457122802734 2.2048346996307373047 2.3779044151306152344 2.5509743690490722656 2.7240440845489501953 2.8971140384674072266 3.0701837539672851562 3.2432537078857421875 3.3864219188690185547 3.472843170166015625 3.5592639446258544922 3.6456849575042724609 3.7321062088012695312 3.7488484382629394531 3.7488484382629394531 3.7488484382629394531 3.7488484382629394531 3.7604355812072753906 3.8037600517272949219 3.8470842838287353516 3.8904087543487548828 3.9337332248687744141 4.0085420608520507812 4.0950770378112792969 4.1816115379333496094 4.268146514892578125 4.3711066246032714844 4.5441765785217285156 4.7172465324401855469 4.890316009521484375 5.0633859634399414062 5.2082524299621582031 5.3379979133605957031 5.4677433967590332031 5.5974888801574707031 5.7272467613220214844 5.8571062088012695312 5.986965179443359375 6.1168246269226074219 6.2466840744018554688 6.3268637657165527344 6.3700742721557617188 6.4132847785949707031 6.4564952850341796875 6.4952263832092285156 6.40869140625 6.3221564292907714844 6.2356214523315429688 6.1490864753723144531 6.1483430862426757812 6.2348780632019042969 6.3214130401611328125 6.4079480171203613281 6.4944829940795898438 6.5810179710388183594 6.667552947998046875 6.7540879249572753906 6.8406229019165039062 7.5792498588562011719 9.22557830810546875 10.871905326843261719 12.518233299255371094 14.164560317993164062 14.363367080688476562 14.363367080688476562 -9999 
58.56308746337890625 57.480205535888671875 54.946552276611328125 52.412891387939453125 49.87923431396484375 47.345577239990234375 44.756481170654296875 42.160434722900390625 39.56438446044921875 36.9683380126953125 34.3638458251953125 31.743654251098632812 29.1234588623046875 26.503267288208007812 23.883073806762695312 23.387689590454101562 23.387689590454101562 23.387689590454101562 23.387689590454101562 22.681264877319335938 20.085218429565429688 17.489170074462890625 14.893122673034667969 12.297074317932128906 10.635155677795410156 9.3129873275756835938 7.990818023681640625 6.6686491966247558594 5.5699505805969238281 5.3968806266784667969 5.2238106727600097656 5.0507407188415527344 4.8776707649230957031 4.704601287841796875 4.5315313339233398438 4.3584613800048828125 4.1853914260864257812 4.0123219490051269531 3.8392519950866699219 3.6661822795867919922 3.4931123256683349609 3.3200426101684570312 3.14697265625 2.9739027023315429688 2.8008329868316650391 2.6277630329132080078 2.4556396007537841797 2.3067145347595214844 2.1577897071838378906 2.0088648796081542969 1.8599400520324707031 1.7613700628280639648 1.7130800485610961914 1.664790034294128418 1.6165000200271606445 1.5682100057601928711 1.6127866506576538086 1.661076664924621582 1.7093666791915893555 1.7576566934585571289 1.858694911003112793 2.0317647457122802734 2.2048346996307373047 2.3779044151306152344 2.5509743690490722656 2.7240440845489501953 2.8971140384674072266 3.0701837539672851562 3.2432537078857421875 3.3732633590698242188 3.4215533733367919922 3.4698433876037597656 3.5181334018707275391 3.5664234161376953125 3.5757787227630615234 3.5757787227630615234 3.5757787227630615234 3.5757787227630615234 3.5924646854400634766 3.6548545360565185547 3.7172446250915527344 3.7796344757080078125 3.8420245647430419922 3.9220070838928222656 4.0085420608520507812 4.0950770378112792969 4.1816115379333496094 4.2845716476440429688 4.4576416015625 4.6307115554809570312 4.8037810325622558594 4.9768509864807128906 5.1093058586120605469 5.2199859619140625 5.3306660652160644531 5.4413456916809082031 5.5563154220581054688 5.7052402496337890625 5.8541650772094726562 6.00308990478515625 6.1520152091979980469 6.2293977737426757812 6.2535424232482910156 6.2776875495910644531 6.3018326759338378906 6.3221564292907714844 6.2356214523315429688 6.1490864753723144531 6.0625514984130859375 5.9760165214538574219 5.9752736091613769531 6.0618085861206054688 6.1483430862426757812 6.2348780632019042969 6.3214130401611328125 6.4079480171203613281 6.4944829940795898438 6.5810179710388183594 6.667552947998046875 7.7090630531311035156 10.0798797607421875 12.450696945190429688 14.821514129638671875 17.19232940673828125 17.478624343872070312 17.478624343872070312 -9999 
58.390018463134765625 57.315288543701171875 54.80069732666015625 52.286102294921875 49.771511077880859375 47.256916046142578125 44.66994476318359375 42.0738983154296875 39.47785186767578125 36.881805419921875 34.283977508544921875 31.682849884033203125 29.08172607421875 26.480596542358398438 23.8794708251953125 23.387689590454101562 23.387689590454101562 23.387689590454101562 23.387689590454101562 22.681264877319335938 20.085218429565429688 17.489170074462890625 14.893122673034667969 12.297074317932128906 10.649136543273925781 9.3460330963134765625 8.0429296493530273438 6.739826202392578125 5.6564850807189941406 5.4834156036376953125 5.3103456497192382812 5.13727569580078125 4.9642057418823242188 4.7911362648010253906 4.6180663108825683594 4.4449963569641113281 4.2719264030456542969 4.0988569259643554688 3.9257869720458984375 3.7527170181274414062 3.5796473026275634766 3.4065773487091064453 3.2335076332092285156 3.0604376792907714844 2.8873679637908935547 2.7142980098724365234 2.5414271354675292969 2.3734369277954101562 2.2054464817047119141 2.0374560356140136719 1.8694657087326049805 1.7804497480392456055 1.7702907323837280273 1.7601317167282104492 1.7499727010726928711 1.7398138046264648438 1.7491915225982666016 1.7593505382537841797 1.7695095539093017578 1.7796685695648193359 1.858694911003112793 2.0317647457122802734 2.2048346996307373047 2.3779044151306152344 2.5509743690490722656 2.7240440845489501953 2.8971140384674072266 3.0701837539672851562 3.2432537078857421875 3.3601047992706298828 3.3702638149261474609 3.3804225921630859375 3.3905818462371826172 3.4007406234741210938 3.4027087688446044922 3.4027087688446044922 3.4027087688446044922 3.4027087688446044922 3.4244940280914306641 3.5059492588043212891 3.5874047279357910156 3.6688601970672607422 3.7503156661987304688 3.83547210693359375 3.9220070838928222656 4.0085420608520507812 4.0950770378112792969 4.1980366706848144531 4.3711066246032714844 4.5441765785217285156 4.7172465324401855469 4.890316009521484375 5.0103597640991210938 5.1019740104675292969 5.1935882568359375 5.2852029800415039062 5.3853840827941894531 5.5533742904663085938 5.7213644981384277344 5.8893551826477050781 6.0573453903198242188 6.1319317817687988281 6.1370110511779785156 6.1420907974243164062 6.1471700668334960938 6.1490864753723144531 6.0625514984130859375 5.9760165214538574219 5.8894815444946289062 5.8029470443725585938 5.8022036552429199219 5.8887386322021484375 5.9752736091613769531 6.0618085861206054688 6.1483430862426757812 6.2348780632019042969 6.3214130401611328125 6.4079480171203613281 6.4944829940795898438 7.8388757705688476562 10.934182167053222656 14.029488563537597656 17.12479400634765625 20.22010040283203125 20.593881607055664062 20.593881607055664062 -9999 
57.6456298828125 56.632843017578125 54.26319122314453125 51.8935394287109375 49.52388763427734375 47.15423583984375 44.58341217041015625 41.98736572265625 39.391315460205078125 36.795269012451171875 34.204113006591796875 31.622051239013671875 29.039989471435546875 26.457927703857421875 23.875865936279296875 23.387689590454101562 23.387689590454101562 23.387689590454101562 23.387689590454101562 22.685071945190429688 20.103010177612304688 17.520948410034179688 14.938886642456054688 12.356824874877929688 10.716341018676757812 9.4183177947998046875 8.1202936172485351562 6.822269439697265625 5.7430200576782226562 5.5699505805969238281 5.3968806266784667969 5.2238106727600097656 5.0507407188415527344 4.8776707649230957031 4.704601287841796875 4.5315313339233398438 4.3584613800048828125 4.1853914260864257812 4.0123219490051269531 3.8392519950866699219 3.6661822795867919922 3.4931123256683349609 3.3200426101684570312 3.14697265625 2.9739027023315429688 2.8008329868316650391 2.6283111572265625 2.4692273139953613281 2.3101434707641601562 2.1510596275329589844 1.9919757843017578125 1.9124929904937744141 1.9124929904937744141 1.9124929904937744141 1.9124929904937744141 1.9124929904937744141 1.9124929904937744141 1.9124929904937744141 1.9124929904937744141 1.9124929904937744141 1.9797426462173461914 2.1388263702392578125 2.2979102134704589844 2.4569940567016601562 2.6160781383514404297 2.7751617431640625 2.9342455863952636719 3.0933294296264648438 3.2524132728576660156 3.3517725467681884766 3.3377864360809326172 3.3238005638122558594 3.309814453125 3.2958285808563232422 3.2931189537048339844 3.2931189537048339844 3.2931189537048339844 3.2931189537048339844 3.3200032711029052734 3.4205241203308105469 3.5210449695587158203 3.6215658187866210938 3.7220869064331054688 3.8022265434265136719 3.8747754096984863281 3.9473245143890380859 4.0198731422424316406 4.1088471412658691406 4.2679309844970703125 4.4270148277282714844 4.5860986709594726562 4.7451825141906738281 4.8661427497863769531 4.9666638374328613281 5.0671844482421875 5.167705535888671875 5.2747950553894042969 5.4338788986206054688 5.5929627418518066406 5.7520465850830078125 5.9111309051513671875 5.9790043830871582031 5.9790043830871582031 5.9790043830871582031 5.9790043830871582031 5.9760165214538574219 5.8894815444946289062 5.8029470443725585938 5.7164120674133300781 5.6298770904541015625 5.6291337013244628906 5.7156686782836914062 5.8022036552429199219 5.8887386322021484375 5.9752736091613769531 6.0618085861206054688 6.1483430862426757812 6.2348780632019042969 6.3214130401611328125 7.5243129730224609375 10.281171798706054688 13.038030624389648438 15.794888496398925781 18.551748275756835938 18.884656906127929688 18.884656906127929688 -9999 
56.693744659423828125 55.762447357177734375 53.583446502685546875 51.404449462890625 49.225452423095703125 47.04645538330078125 44.496875762939453125 41.900829315185546875 39.304779052734375 36.708736419677734375 34.124248504638671875 31.561250686645507812 28.99825286865234375 26.4352569580078125 23.87226104736328125 23.387689590454101562 23.387689590454101562 23.387689590454101562 23.387689590454101562 22.690259933471679688 20.127264022827148438 17.564268112182617188 15.001270294189453125 12.438274383544921875 10.802876472473144531 9.504852294921875 8.2068281173706054688 6.9088044166564941406 5.8295550346374511719 5.6564850807189941406 5.4834156036376953125 5.3103456497192382812 5.13727569580078125 4.9642057418823242188 4.7911362648010253906 4.6180663108825683594 4.4449963569641113281 4.2719264030456542969 4.0988569259643554688 3.9257869720458984375 3.7527170181274414062 3.5796473026275634766 3.4065773487091064453 3.2335076332092285156 3.0604376792907714844 2.8873679637908935547 2.7155933380126953125 2.5755748748779296875 2.4355566501617431641 2.2955384254455566406 2.1555199623107910156 2.0855629444122314453 2.0855629444122314453 2.0855629444122314453 2.0855629444122314453 2.0855629444122314453 2.0855629444122314453 2.0855629444122314453 2.0855629444122314453 2.0855629444122314453 2.1447529792785644531 2.2847712039947509766 2.4247894287109375 2.564807891845703125 2.7048261165618896484 2.8448445796966552734 2.9848628044128417969 3.1248810291290283203 3.2648994922637939453 3.3451933860778808594 3.3121416568756103516 3.2790901660919189453 3.2460386753082275391 3.2129871845245361328 3.2065839767456054688 3.2065839767456054688 3.2065839767456054688 3.2065839767456054688 3.238567352294921875 3.3581535816192626953 3.4777402877807617188 3.5973265171051025391 3.7169129848480224609 3.7883348464965820312 3.8418183326721191406 3.89530181884765625 3.9487850666046142578 4.0186934471130371094 4.1587119102478027344 4.2987298965454101562 4.4387488365173339844 4.5787668228149414062 4.7054843902587890625 4.8250703811645507812 4.9446568489074707031 5.0642437934875488281 5.1861219406127929688 5.3261404037475585938 5.4661583900451660156 5.6061768531799316406 5.7461948394775390625 5.805934906005859375 5.805934906005859375 5.805934906005859375 5.805934906005859375 5.8029470443725585938 5.7164120674133300781 5.6298770904541015625 5.5433421134948730469 5.4568071365356445312 5.4560637474060058594 5.542598724365234375 5.6291337013244628906 5.7156686782836914062 5.8022036552429199219 5.8887386322021484375 5.9752736091613769531 6.0618085861206054688 6.1483430862426757812 7.0483608245849609375 9.0807294845581054688 11.113099098205566406 13.145468711853027344 15.177837371826171875 15.423260688781738281 15.423260688781738281 -9999 
55.74185943603515625 54.8920440673828125 52.903705596923828125 50.915363311767578125 48.927021026611328125 46.9386749267578125 44.41033935546875 41.81429290771484375 39.2182464599609375 36.62220001220703125 34.04438018798828125 31.50045013427734375 28.956516265869140625 26.412588119506835938 23.868656158447265625 23.387689590454101562 23.387689590454101562 23.387689590454101562 23.387689590454101562 22.695447921752929688 20.151515960693359375 17.607585906982421875 15.063655853271484375 12.519724845886230469 10.889410972595214844 9.5913867950439453125 8.2933635711669921875 6.9953393936157226562 5.9160900115966796875 5.7430200576782226562 5.5699505805969238281 5.3968806266784667969 5.2238106727600097656 5.0507407188415527344 4.8776707649230957031 4.704601287841796875 4.5315313339233398438 4.3584613800048828125 4.1853914260864257812 4.0123219490051269531 3.8392519950866699219 3.6661822795867919922 3.4931123256683349609 3.3200426101684570312 3.14697265625 2.9739027023315429688 2.802875518798828125 2.6819226741790771484 2.5609698295593261719 2.4400169849395751953 2.3190641403198242188 2.258632659912109375 2.258632659912109375 2.258632659912109375 2.258632659912109375 2.258632659912109375 2.258632659912109375 2.258632659912109375 2.258632659912109375 2.258632659912109375 2.3097631931304931641 2.4307160377502441406 2.5516688823699951172 2.6726217269897460938 2.7935743331909179688 2.9145271778106689453 3.0354800224304199219 3.1564328670501708984 3.277385711669921875 3.3386139869689941406 3.2864968776702880859 3.2343800067901611328 3.1822628974914550781 3.1301457881927490234 3.1200492382049560547 3.1200492382049560547 3.1200492382049560547 3.1200492382049560547 3.157131195068359375 3.2957832813262939453 3.4344353675842285156 3.5730872154235839844 3.7117393016815185547 3.7744433879852294922 3.8088612556457519531 3.8432791233062744141 3.877696990966796875 3.9285397529602050781 4.0494928359985351562 4.1704454421997070312 4.2913980484008789062 4.4123511314392089844 4.5448255538940429688 4.6834778785705566406 4.8221297264099121094 4.9607815742492675781 5.0974483489990234375 5.2184014320373535156 5.3393540382385253906 5.4603066444396972656 5.5812597274780273438 5.6328649520874023438 5.6328649520874023438 5.6328649520874023438 5.6328649520874023438 5.6298770904541015625 5.5433421134948730469 5.4568071365356445312 5.3702721595764160156 5.2837371826171875 5.2829942703247070312 5.3695287704467773438 5.4560637474060058594 5.542598724365234375 5.6291337013244628906 5.7156686782836914062 5.8022036552429199219 5.8887386322021484375 5.9752736091613769531 6.5724081993103027344 7.8802876472473144531 9.188167572021484375 10.4960479736328125 11.803927421569824219 11.961863517761230469 11.961863517761230469 -9999 
54.789974212646484375 54.021648406982421875 52.223957061767578125 50.426273345947265625 48.6285858154296875 46.830898284912109375 44.3238067626953125 41.72776031494140625 39.131710052490234375 36.535663604736328125 33.964511871337890625 31.439645767211914062 28.914783477783203125 26.389917373657226562 23.86505126953125 23.387689590454101562 23.387689590454101562 23.387689590454101562 23.387689590454101562 22.700635910034179688 20.175771713256835938 17.650905609130859375 15.126040458679199219 12.601175308227539062 10.975945472717285156 9.6779222488403320312 8.3798980712890625 7.0818743705749511719 6.0026249885559082031 5.8295550346374511719 5.6564850807189941406 5.4834156036376953125 5.3103456497192382812 5.13727569580078125 4.9642057418823242188 4.7911362648010253906 4.6180663108825683594 4.4449963569641113281 4.2719264030456542969 4.0988569259643554688 3.9257869720458984375 3.7527170181274414062 3.5796473026275634766 3.4065773487091064453 3.2335076332092285156 3.0604376792907714844 2.8901576995849609375 2.7882702350616455078 2.6863830089569091797 2.5844957828521728516 2.4826083183288574219 2.4317026138305664062 2.4317026138305664062 2.4317026138305664062 2.4317026138305664062 2.4317026138305664062 2.4317026138305664062 2.4317026138305664062 2.4317026138305664062 2.4317026138305664062 2.474773406982421875 2.5766608715057373047 2.6785480976104736328 2.7804353237152099609 2.8823225498199462891 2.9842100143432617188 3.0860972404479980469 3.187984466552734375 3.2898719310760498047 3.3320345878601074219 3.2608520984649658203 3.1896696090698242188 3.1184868812561035156 3.0473043918609619141 3.0335142612457275391 3.0335142612457275391 3.0335142612457275391 3.0335142612457275391 3.0756952762603759766 3.2334129810333251953 3.3911302089691162109 3.5488479137420654297 3.7065651416778564453 3.7605516910552978516 3.7759039402008056641 3.7912564277648925781 3.8066086769104003906 3.8383860588073730469 3.9402735233306884766 4.0421605110168457031 4.1440477371215820312 4.2459354400634765625 4.3841671943664550781 4.5418848991394042969 4.6996021270751953125 4.8573198318481445312 5.0087747573852539062 5.1106619834899902344 5.2125496864318847656 5.3144369125366210938 5.4163241386413574219 5.4597949981689453125 5.4597949981689453125 5.4597949981689453125 5.4597949981689453125 5.4568071365356445312 5.3702721595764160156 5.2837371826171875 5.1972022056579589844 5.1106672286987304688 5.10992431640625 5.1964592933654785156 5.2829942703247070312 5.3695287704467773438 5.4560637474060058594 5.542598724365234375 5.6291337013244628906 5.7156686782836914062 5.8022036552429199219 6.0964555740356445312 6.6798462867736816406 7.26323699951171875 7.8466272354125976562 8.4300174713134765625 8.5004663467407226562 8.5004663467407226562 -9999 
53.5515899658203125 52.861568450927734375 51.247112274169921875 49.63265228271484375 48.01819610595703125 46.403736114501953125 44.00284576416015625 41.503337860107421875 39.003833770751953125 36.50432586669921875 34.00131988525390625 31.491807937622070312 28.982294082641601562 26.472782135009765625 23.963268280029296875 23.488809585571289062 23.488809585571289062 23.488809585571289062 23.488809585571289062 22.805932998657226562 20.296421051025390625 17.786907196044921875 15.277394294738769531 12.767881393432617188 11.165806770324707031 9.8937749862670898438 8.62174224853515625 7.3497104644775390625 6.2820110321044921875 6.0606703758239746094 5.8393301963806152344 5.6179895401000976562 5.3966493606567382812 5.2093920707702636719 5.040035247802734375 4.8706789016723632812 4.7013220787048339844 4.5315313339233398438 4.3584613800048828125 4.1853914260864257812 4.0123219490051269531 3.8392519950866699219 3.6683282852172851562 3.4989717006683349609 3.3296148777008056641 3.1602582931518554688 2.9941475391387939453 2.9076125621795654297 2.8210775852203369141 2.7345426082611083984 2.6480078697204589844 2.6047723293304443359 2.6047723293304443359 2.6047723293304443359 2.6047723293304443359 2.6047723293304443359 2.6047723293304443359 2.6047723293304443359 2.6047723293304443359 2.6047723293304443359 2.6397836208343505859 2.7226054668426513672 2.8054273128509521484 2.8882489204406738281 2.9710707664489746094 3.0538926124572753906 3.1367144584655761719 3.2195363044738769531 3.3023581504821777344 3.3254551887512207031 3.2352073192596435547 3.1449592113494873047 3.0547111034393310547 2.9644629955291748047 2.9469792842864990234 2.9469792842864990234 2.9469792842864990234 2.9469792842864990234 2.9922735691070556641 3.1616301536560058594 3.3309869766235351562 3.5003435611724853516 3.6697003841400146484 3.7156591415405273438 3.7156591415405273438 3.7156591415405273438 3.7156591415405273438 3.7327888011932373047 3.8230369091033935547 3.9132847785949707031 4.0035328865051269531 4.0937809944152832031 4.2355275154113769531 4.40488433837890625 4.5742411613464355469 4.7435979843139648438 4.9036645889282226562 4.9901995658874511719 5.0767345428466796875 5.1632695198059082031 5.2498044967651367188 5.2867250442504882812 5.2867250442504882812 5.2867250442504882812 5.2867250442504882812 5.2837371826171875 5.1972022056579589844 5.1106672286987304688 5.0241322517395019531 4.9375977516174316406 4.9368543624877929688 5.0233893394470214844 5.10992431640625 5.1964592933654785156 5.2829942703247070312 5.3695287704467773438 5.4560637474060058594 5.542598724365234375 5.6291337013244628906 5.6794915199279785156 5.6794915199279785156 5.6794915199279785156 5.6794915199279785156 5.6794915199279785156 5.6794915199279785156 5.6794915199279785156 -9999 
51.12860870361328125 50.5037841796875 49.04184722900390625 47.5799102783203125 46.117977142333984375 44.65604400634765625 42.712619781494140625 40.7088165283203125 38.70500946044921875 36.701206207275390625 34.520526885986328125 32.011016845703125 29.50150299072265625 26.991992950439453125 24.482479095458984375 24.00801849365234375 24.00801849365234375 24.00801849365234375 24.00801849365234375 23.32514190673828125 20.8156280517578125 18.306116104125976562 15.796604156494140625 13.287090301513671875 11.782880783081054688 10.644307136535644531 9.5057344436645507812 8.367160797119140625 7.3587646484375 6.8895726203918457031 6.4203801155090332031 5.9511880874633789062 5.4819960594177246094 5.2218923568725585938 5.0716009140014648438 4.9213099479675292969 4.77101898193359375 4.6180663108825683594 4.4449963569641113281 4.2719264030456542969 4.0988569259643554688 3.9257869720458984375 3.7658832073211669922 3.6155922412872314453 3.4653007984161376953 3.3150098323822021484 3.167217254638671875 3.0806825160980224609 2.9941475391387939453 2.9076125621795654297 2.8210775852203369141 2.7778422832489013672 2.7778422832489013672 2.7778422832489013672 2.7778422832489013672 2.7778422832489013672 2.7778422832489013672 2.7778422832489013672 2.7778422832489013672 2.7778422832489013672 2.8047940731048583984 2.8685503005981445312 2.9323065280914306641 2.9960627555847167969 3.0598192214965820312 3.1235754489898681641 3.1873316764831542969 3.2510881423950195312 3.3148443698883056641 3.3188760280609130859 3.2095625400543212891 3.1002488136291503906 2.9909353256225585938 2.8816218376159667969 2.8604443073272705078 2.8604443073272705078 2.8604443073272705078 2.8604443073272705078 2.9006395339965820312 3.0509305000305175781 3.2012219429016113281 3.3515131473541259766 3.501804351806640625 3.5425891876220703125 3.5425891876220703125 3.5425891876220703125 3.5425891876220703125 3.5633375644683837891 3.6726512908935546875 3.7819647789001464844 3.8912782669067382812 4.0005917549133300781 4.1365814208984375 4.28687286376953125 4.4371638298034667969 4.5874547958374023438 4.7305951118469238281 4.8171300888061523438 4.9036645889282226562 4.9901995658874511719 5.0767345428466796875 5.1136555671691894531 5.1136555671691894531 5.1136555671691894531 5.1136555671691894531 5.1106672286987304688 5.0241322517395019531 4.9375977516174316406 4.851062774658203125 4.7645277976989746094 4.7637844085693359375 4.8503193855285644531 4.9368543624877929688 5.0233893394470214844 5.10992431640625 5.1964592933654785156 5.2829942703247070312 5.3695287704467773438 5.4560637474060058594 5.5064220428466796875 5.5064220428466796875 5.5064220428466796875 5.5064220428466796875 5.5064220428466796875 5.5064220428466796875 5.5064220428466796875 -9999 
48.705631256103515625 48.145992279052734375 46.836582183837890625 45.527172088623046875 44.2177581787109375 42.908351898193359375 41.422389984130859375 39.914287567138671875 38.40618896484375 36.8980865478515625 35.039737701416015625 32.5302276611328125 30.02071380615234375 27.511198043823242188 25.001688003540039062 24.52722930908203125 24.52722930908203125 24.52722930908203125 24.52722930908203125 23.844350814819335938 21.3348388671875 18.825326919555664062 16.315813064575195312 13.806300163269042969 12.399954795837402344 11.394840240478515625 10.389725685119628906 9.3846101760864257812 8.4355182647705078125 7.7184739112854003906 7.001430511474609375 6.2843866348266601562 5.5673427581787109375 5.2343926429748535156 5.1031670570373535156 4.9719414710998535156 4.8407158851623535156 4.704601287841796875 4.5315313339233398438 4.3584613800048828125 4.1853914260864257812 4.0123219490051269531 3.8634383678436279297 3.7322127819061279297 3.6009871959686279297 3.4697613716125488281 3.3402872085571289062 3.2537522315979003906 3.167217254638671875 3.0806825160980224609 2.9941475391387939453 2.9509122371673583984 2.9509122371673583984 2.9509122371673583984 2.9509122371673583984 2.9509122371673583984 2.9509122371673583984 2.9509122371673583984 2.9509122371673583984 2.9509122371673583984 2.9698042869567871094 3.0144951343536376953 3.0591857433319091797 3.1038765907287597656 3.14856719970703125 3.1932580471038818359 3.2379488945007324219 3.2826397418975830078 3.3273305892944335938 3.3122966289520263672 3.1839177608489990234 3.0555386543273925781 2.9271595478057861328 2.7987804412841796875 2.7739095687866210938 2.7739095687866210938 2.7739095687866210938 2.7739095687866210938 2.8090054988861083984 2.9402313232421875 3.0714569091796875 3.2026824951171875 3.3339083194732666016 3.3695192337036132812 3.3695192337036132812 3.3695192337036132812 3.3695192337036132812 3.393886566162109375 3.5222656726837158203 3.6506447792053222656 3.7790238857269287109 3.9074029922485351562 4.0376353263854980469 4.1688604354858398438 4.3000864982604980469 4.4313120841979980469 4.5575251579284667969 4.6440601348876953125 4.7305951118469238281 4.8171300888061523438 4.9036645889282226562 4.9405856132507324219 4.9405856132507324219 4.9405856132507324219 4.9405856132507324219 4.9375977516174316406 4.851062774658203125 4.7645277976989746094 4.6779928207397460938 4.5914578437805175781 4.5907144546508789062 4.6772494316101074219 4.7637844085693359375 4.8503193855285644531 4.9368543624877929688 5.0233893394470214844 5.10992431640625 5.1964592933654785156 5.2829942703247070312 5.3333520889282226562 5.3333520889282226562 5.3333520889282226562 5.3333520889282226562 5.3333520889282226562 5.3333520889282226562 5.3333520889282226562 -9999 
46.282649993896484375 45.788204193115234375 44.631317138671875 43.474430084228515625 42.31754302978515625 41.1606597900390625 40.132160186767578125 39.119762420654296875 38.10736846923828125 37.094970703125 35.558948516845703125 33.0494384765625 30.539922714233398438 28.030408859252929688 25.52089691162109375 25.046438217163085938 25.046438217163085938 25.046438217163085938 25.046438217163085938 24.363561630249023438 21.854047775268554688 19.34453582763671875 16.835023880004882812 14.325509071350097656 13.01702880859375 12.145372390747070312 11.273715972900390625 10.402059555053710938 9.5122709274291992188 8.5473756790161132812 7.5824804306030273438 6.6175851821899414062 5.6526894569396972656 5.2468934059143066406 5.1347327232360839844 5.0225725173950195312 4.9104127883911132812 4.7911362648010253906 4.6180663108825683594 4.4449963569641113281 4.2719264030456542969 4.0988569259643554688 3.9609932899475097656 3.8488333225250244141 3.7366731166839599609 3.6245126724243164062 3.5133569240570068359 3.4268221855163574219 3.3402872085571289062 3.2537522315979003906 3.167217254638671875 3.1239819526672363281 3.1239819526672363281 3.1239819526672363281 3.1239819526672363281 3.1239819526672363281 3.1239819526672363281 3.1239819526672363281 3.1239819526672363281 3.1239819526672363281 3.1348145008087158203 3.1604399681091308594 3.1860649585723876953 3.2116904258728027344 3.2373156547546386719 3.2629408836364746094 3.2885661125183105469 3.3141915798187255859 3.3398165702819824219 3.30571746826171875 3.1582727432250976562 3.0108282566070556641 2.8633837699890136719 2.7159390449523925781 2.6873745918273925781 2.6873745918273925781 2.6873745918273925781 2.6873745918273925781 2.7173714637756347656 2.8295319080352783203 2.9416918754577636719 3.053852081298828125 3.1660122871398925781 3.1964495182037353516 3.1964495182037353516 3.1964495182037353516 3.1964495182037353516 3.2244355678558349609 3.3718800544738769531 3.5193247795104980469 3.6667692661285400391 3.8142137527465820312 3.9386887550354003906 4.0508489608764648438 4.1630091667175292969 4.27516937255859375 4.3844552040100097656 4.4709901809692382812 4.5575251579284667969 4.6440601348876953125 4.7305951118469238281 4.7675156593322753906 4.7675156593322753906 4.7675156593322753906 4.7675156593322753906 4.7645277976989746094 4.6779928207397460938 4.5914578437805175781 4.5049228668212890625 4.4183878898620605469 4.4176449775695800781 4.5041794776916503906 4.5907144546508789062 4.6772494316101074219 4.7637844085693359375 4.8503193855285644531 4.9368543624877929688 5.0233893394470214844 5.10992431640625 5.160282135009765625 5.160282135009765625 5.160282135009765625 5.160282135009765625 5.160282135009765625 5.160282135009765625 5.160282135009765625 -9999 
43.859676361083984375 43.43041229248046875 42.426052093505859375 41.42169189453125 40.417327880859375 39.4129638671875 38.8419342041015625 38.3252410888671875 37.808544158935546875 37.291851043701171875 36.078159332275390625 33.568645477294921875 31.059131622314453125 28.549617767333984375 26.040105819702148438 25.565647125244140625 25.565647125244140625 25.565647125244140625 25.565647125244140625 24.882770538330078125 22.373258590698242188 19.86374664306640625 17.354230880737304688 14.84471893310546875 13.634102821350097656 12.895904541015625 12.15770721435546875 11.4195098876953125 10.589024543762207031 9.3762769699096679688 8.1635303497314453125 6.9507832527160644531 5.7380366325378417969 5.2593936920166015625 5.1662988662719726562 5.07320404052734375 4.9801092147827148438 4.8776707649230957031 4.704601287841796875 4.5315313339233398438 4.3584613800048828125 4.1853914260864257812 4.0585484504699707031 3.9654538631439208984 3.8723590373992919922 3.7792644500732421875 3.6864268779754638672 3.5998919010162353516 3.5133569240570068359 3.4268221855163574219 3.3402872085571289062 3.2970519065856933594 3.2970519065856933594 3.2970519065856933594 3.2970519065856933594 3.2970519065856933594 3.2970519065856933594 3.2970519065856933594 3.2970519065856933594 3.2970519065856933594 3.2998247146606445312 3.3063845634460449219 3.3129444122314453125 3.3195040225982666016 3.3260638713836669922 3.3326234817504882812 3.3391835689544677734 3.3457431793212890625 3.3523027896881103516 3.2991380691528320312 3.1326279640197753906 2.96611785888671875 2.7996077537536621094 2.6330978870391845703 2.6008396148681640625 2.6008396148681640625 2.6008396148681640625 2.6008396148681640625 2.6257376670837402344 2.7188322544097900391 2.8119268417358398438 2.90502166748046875 2.9981162548065185547 3.0233795642852783203 3.0233795642852783203 3.0233795642852783203 3.0233795642852783203 3.0549843311309814453 3.2214944362640380859 3.3880047798156738281 3.5545148849487304688 3.7210247516632080078 3.8397424221038818359 3.9328370094299316406 4.0259318351745605469 4.1190266609191894531 4.2113852500915527344 4.29792022705078125 4.3844552040100097656 4.4709901809692382812 4.5575251579284667969 4.5944457054138183594 4.5944457054138183594 4.5944457054138183594 4.5944457054138183594 4.5914578437805175781 4.5049228668212890625 4.4183878898620605469 4.3318529129028320312 4.2453179359436035156 4.2445750236511230469 4.3311100006103515625 4.4176449775695800781 4.5041794776916503906 4.5907144546508789062 4.6772494316101074219 4.7637844085693359375 4.8503193855285644531 4.9368543624877929688 4.9872121810913085938 4.9872121810913085938 4.9872121810913085938 4.9872121810913085938 4.9872121810913085938 4.9872121810913085938 4.9872121810913085938 -9999 
41.493457794189453125 41.081279754638671875 40.11688995361328125 39.152500152587890625 38.1881103515625 37.223720550537109375 36.80869293212890625 36.462554931640625 36.116413116455078125 35.770275115966796875 34.77683258056640625 32.579959869384765625 30.383090972900390625 28.186223983764648438 25.989355087280273438 25.574005126953125 25.574005126953125 25.574005126953125 25.574005126953125 24.911546707153320312 22.477067947387695312 20.042589187622070312 17.608112335205078125 15.173633575439453125 14.00753021240234375 13.302744865417480469 12.597959518432617188 11.893174171447753906 11.073019027709960938 9.7749958038330078125 8.4769716262817382812 7.17894744873046875 5.8809237480163574219 5.3690176010131835938 5.2699770927429199219 5.1709361076354980469 5.0718960762023925781 4.9656672477722167969 4.8051028251647949219 4.64453887939453125 4.4839749336242675781 4.3234105110168457031 4.2056365013122558594 4.1191015243530273438 4.0325665473937988281 3.9460315704345703125 3.8594968318939208984 3.7729618549346923828 3.6864268779754638672 3.5998919010162353516 3.5133569240570068359 3.4701216220855712891 3.4701216220855712891 3.4701216220855712891 3.4701216220855712891 3.4701216220855712891 3.4701216220855712891 3.4701216220855712891 3.4701216220855712891 3.4701216220855712891 3.4648351669311523438 3.4523293972015380859 3.4398236274719238281 3.4273178577423095703 3.4148120880126953125 3.3912525177001953125 3.3662409782409667969 3.3412294387817382812 3.3162178993225097656 3.2401130199432373047 3.0670430660247802734 2.8939733505249023438 2.7209033966064453125 2.5478336811065673828 2.5143046379089355469 2.5143046379089355469 2.5143046379089355469 2.5143046379089355469 2.5341036319732666016 2.6081328392028808594 2.6821620464324951172 2.7561910152435302734 2.8302202224731445312 2.8594217300415039062 2.8719277381896972656 2.8844332695007324219 2.8969390392303466797 2.9399209022521972656 3.1129908561706542969 3.2860608100891113281 3.4591305255889892578 3.6322004795074462891 3.7407960891723632812 3.8148252964019775391 3.8888545036315917969 3.9628837108612060547 4.0383157730102539062 4.1248507499694824219 4.2113852500915527344 4.29792022705078125 4.3844552040100097656 4.4213757514953613281 4.4213757514953613281 4.4213757514953613281 4.4213757514953613281 4.4183878898620605469 4.3318529129028320312 4.2453179359436035156 4.1587834358215332031 4.0722484588623046875 4.0715050697326660156 4.1580400466918945312 4.2445750236511230469 4.3311100006103515625 4.4176449775695800781 4.5041794776916503906 4.5907144546508789062 4.6772494316101074219 4.7637844085693359375 4.8141422271728515625 4.8141422271728515625 4.8141422271728515625 4.8141422271728515625 4.8141422271728515625 4.8141422271728515625 4.8141422271728515625 -9999 
39.157016754150390625 38.73668670654296875 37.75323486328125 36.769779205322265625 35.78632354736328125 34.802867889404296875 34.385715484619140625 34.03957366943359375 33.6934356689453125 33.34729766845703125 32.52056121826171875 30.800327301025390625 29.080099105834960938 27.359867095947265625 25.6396331787109375 25.31439971923828125 25.31439971923828125 25.31439971923828125 25.31439971923828125 24.683069229125976562 22.36298370361328125 20.042898178100585938 17.722814559936523438 15.402729034423828125 14.253154754638671875 13.529302597045898438 12.805452346801757812 12.081602096557617188 11.246088981628417969 9.9480657577514648438 8.6500415802001953125 7.3520178794860839844 6.0539937019348144531 5.5295872688293457031 5.4114809036254882812 5.2933750152587890625 5.1752686500549316406 5.0544295310974121094 4.9129309654235839844 4.7714323997497558594 4.6299333572387695312 4.4884352684020996094 4.3787064552307128906 4.292171478271484375 4.2056365013122558594 4.1191015243530273438 4.0325665473937988281 3.9460315704345703125 3.8594968318939208984 3.7729618549346923828 3.6864268779754638672 3.6431915760040283203 3.6431915760040283203 3.6431915760040283203 3.6431915760040283203 3.6431915760040283203 3.6431915760040283203 3.6431915760040283203 3.6431915760040283203 3.6431915760040283203 3.6298453807830810547 3.5982739925384521484 3.5667028427124023438 3.5351316928863525391 3.5035603046417236328 3.4440829753875732422 3.3809404373168945312 3.3177978992462158203 3.2546553611755371094 3.1535780429840087891 2.9805080890655517578 2.8074383735656738281 2.6343684196472167969 2.4612987041473388672 2.4277696609497070312 2.4277696609497070312 2.4277696609497070312 2.4277696609497070312 2.4424695968627929688 2.4974334239959716797 2.5523970127105712891 2.6073606014251708984 2.6623241901397705078 2.7002437114715576172 2.7318148612976074219 2.7633860111236572266 2.7949573993682861328 2.8533861637115478516 3.0264558792114257812 3.1995258331298828125 3.3725955486297607422 3.5456655025482177734 3.6418497562408447266 3.6968135833740234375 3.7517771720886230469 3.8067407608032226562 3.8652455806732177734 3.9517805576324462891 4.0383157730102539062 4.1248507499694824219 4.2113852500915527344 4.2483062744140625 4.2483062744140625 4.2483062744140625 4.2483062744140625 4.2453179359436035156 4.1587834358215332031 4.0722484588623046875 3.9857134819030761719 3.8991787433624267578 3.8984351158142089844 3.9849700927734375 4.0715050697326660156 4.1580400466918945312 4.2445750236511230469 4.3311100006103515625 4.4176449775695800781 4.5041794776916503906 4.5907144546508789062 4.6410727500915527344 4.6410727500915527344 4.6410727500915527344 4.6410727500915527344 4.6410727500915527344 4.6410727500915527344 4.6410727500915527344 -9999 
36.8205718994140625 36.39209747314453125 35.389575958251953125 34.387054443359375 33.384532928466796875 32.382015228271484375 31.962739944458007812 31.61660003662109375 31.270460128784179688 30.924320220947265625 30.26428985595703125 29.020694732666015625 27.777103424072265625 26.53350830078125 25.289915084838867188 25.054796218872070312 25.054796218872070312 25.054796218872070312 25.054796218872070312 24.454593658447265625 22.2489013671875 20.043209075927734375 17.837514877319335938 15.631823539733886719 14.498777389526367188 13.755861282348632812 13.012946128845214844 12.270029067993164062 11.419158935546875 10.121134757995605469 8.8231115341186523438 7.5250878334045410156 6.2270636558532714844 5.6901564598083496094 5.5529851913452148438 5.415813446044921875 5.2786417007446289062 5.1431918144226074219 5.0207586288452148438 4.8983259201049804688 4.7758927345275878906 4.6534595489501953125 4.5517759323120117188 4.4652414321899414062 4.3787064552307128906 4.292171478271484375 4.2056365013122558594 4.1191015243530273438 4.0325665473937988281 3.9460315704345703125 3.8594968318939208984 3.81626129150390625 3.81626129150390625 3.81626129150390625 3.81626129150390625 3.81626129150390625 3.81626129150390625 3.81626129150390625 3.81626129150390625 3.81626129150390625 3.7948555946350097656 3.7442188262939453125 3.6935820579528808594 3.6429455280303955078 3.5923087596893310547 3.4969134330749511719 3.3956398963928222656 3.2943663597106933594 3.1930930614471435547 3.0670430660247802734 2.8939733505249023438 2.7209033966064453125 2.5478336811065673828 2.3747637271881103516 2.3412349224090576172 2.3412349224090576172 2.3412349224090576172 2.3412349224090576172 2.3508355617523193359 2.3867337703704833984 2.4226319789886474609 2.4585301876068115234 2.4944283962249755859 2.5410654544830322266 2.5917022228240966797 2.6423389911651611328 2.6929757595062255859 2.7668511867523193359 2.9399209022521972656 3.1129908561706542969 3.2860608100891113281 3.4591305255889892578 3.5429034233093261719 3.5788016319274902344 3.6146998405456542969 3.6505980491638183594 3.6921758651733398438 3.7787108421325683594 3.8652455806732177734 3.9517805576324462891 4.0383157730102539062 4.0752363204956054688 4.0752363204956054688 4.0752363204956054688 4.0752363204956054688 4.0722484588623046875 3.9857134819030761719 3.8991787433624267578 3.8126437664031982422 3.7261087894439697266 3.7253654003143310547 3.8119003772735595703 3.8984351158142089844 3.9849700927734375 4.0715050697326660156 4.1580400466918945312 4.2445750236511230469 4.3311100006103515625 4.4176449775695800781 4.4680027961730957031 4.4680027961730957031 4.4680027961730957031 4.4680027961730957031 4.4680027961730957031 4.4680027961730957031 4.4680027961730957031 -9999 
34.484127044677734375 34.04750823974609375 33.025920867919921875 32.00433349609375 30.982746124267578125 29.96115875244140625 29.539760589599609375 29.193620681762695312 28.84748077392578125 28.501340866088867188 28.00801849365234375 27.241060256958007812 26.474107742309570312 25.707151412963867188 24.940195083618164062 24.795190811157226562 24.795190811157226562 24.795190811157226562 24.795190811157226562 24.226116180419921875 22.134817123413085938 20.04351806640625 17.952219009399414062 15.860918998718261719 14.744401931762695312 13.982419967651367188 13.220438957214355469 12.458456993103027344 11.592228889465332031 10.2942047119140625 8.996181488037109375 7.6981568336486816406 6.4001331329345703125 5.8507261276245117188 5.6944890022277832031 5.5382518768310546875 5.3820147514343261719 5.2319540977478027344 5.1285867691040039062 5.025218963623046875 4.9218516349792480469 4.8184843063354492188 4.72484588623046875 4.6383109092712402344 4.5517759323120117188 4.4652414321899414062 4.3787064552307128906 4.292171478271484375 4.2056365013122558594 4.1191015243530273438 4.0325665473937988281 3.9893312454223632812 3.9893312454223632812 3.9893312454223632812 3.9893312454223632812 3.9893312454223632812 3.9893312454223632812 3.9893312454223632812 3.9893312454223632812 3.9893312454223632812 3.9598658084869384766 3.8901636600494384766 3.820461273193359375 3.750759124755859375 3.6810567378997802734 3.5497441291809082031 3.41033935546875 3.2709348201751708984 3.1315302848815917969 2.9805080890655517578 2.8074383735656738281 2.6343684196472167969 2.4612987041473388672 2.2882287502288818359 2.2546999454498291016 2.2546999454498291016 2.2546999454498291016 2.2546999454498291016 2.2592017650604248047 2.2760343551635742188 2.2928669452667236328 2.3096997737884521484 2.3265323638916015625 2.3818871974945068359 2.4515895843505859375 2.5212917327880859375 2.5909941196441650391 2.6803162097930908203 2.8533861637115478516 3.0264558792114257812 3.1995258331298828125 3.3725955486297607422 3.4439573287963867188 3.4607899188995361328 3.4776225090026855469 3.4944550991058349609 3.5191059112548828125 3.6056408882141113281 3.6921758651733398438 3.7787108421325683594 3.8652455806732177734 3.9021661281585693359 3.9021661281585693359 3.9021661281585693359 3.9021661281585693359 3.8991787433624267578 3.8126437664031982422 3.7261087894439697266 3.6395738124847412109 3.5530390739440917969 3.5522954463958740234 3.6388304233551025391 3.7253654003143310547 3.8119003772735595703 3.8984351158142089844 3.9849700927734375 4.0715050697326660156 4.1580400466918945312 4.2445750236511230469 4.2949328422546386719 4.2949328422546386719 4.2949328422546386719 4.2949328422546386719 4.2949328422546386719 4.2949328422546386719 4.2949328422546386719 -9999 
32.29970550537109375 31.840616226196289062 30.76647186279296875 29.692327499389648438 28.618183135986328125 27.544038772583007812 27.114797592163085938 26.76642608642578125 26.41805267333984375 26.069681167602539062 25.722869873046875 25.378963470458984375 25.03505706787109375 24.691148757934570312 24.347242355346679688 24.282222747802734375 24.282222747802734375 24.282222747802734375 24.282222747802734375 23.753389358520507812 21.809976577758789062 19.866563796997070312 17.923151016235351562 15.979736328125 14.880494117736816406 14.088282585144042969 13.296071052551269531 12.503859519958496094 11.618925094604492188 10.349928855895996094 9.0809316635131835938 7.8119354248046875 6.5429387092590332031 5.995418548583984375 5.8268141746520996094 5.6582102775573730469 5.4896063804626464844 5.3305907249450683594 5.2440557479858398438 5.1575207710266113281 5.0709857940673828125 4.9844508171081542969 4.8979158401489257812 4.8113808631896972656 4.72484588623046875 4.6383109092712402344 4.5517759323120117188 4.4652414321899414062 4.3787064552307128906 4.292171478271484375 4.2056365013122558594 4.1624011993408203125 4.1624011993408203125 4.1624011993408203125 4.1624011993408203125 4.1624011993408203125 4.1581072807312011719 4.1536412239074707031 4.1491756439208984375 4.1447095870971679688 4.1046071052551269531 4.0158390998840332031 3.9270715713500976562 3.8383035659790039062 3.7495357990264892578 3.588226318359375 3.4173893928527832031 3.2465524673461914062 3.0757155418395996094 2.9041078090667724609 2.7310380935668945312 2.5579681396484375 2.3848984241485595703 2.2118284702301025391 2.1782994270324707031 2.1782994270324707031 2.1782994270324707031 2.1782994270324707031 2.1777024269104003906 2.1754693984985351562 2.1732366085052490234 2.1710038185119628906 2.1687707901000976562 2.2312166690826416016 2.3177516460418701172 2.4042866230010986328 2.4908213615417480469 2.5933575630187988281 2.764194488525390625 2.9350314140319824219 3.1058683395385742188 3.2767055034637451172 3.3363296985626220703 3.3363296985626220703 3.3363296985626220703 3.3363296985626220703 3.3460361957550048828 3.4325709342956542969 3.5191059112548828125 3.6056408882141113281 3.6921758651733398438 3.7290961742401123047 3.7290961742401123047 3.7290961742401123047 3.7290961742401123047 3.7261087894439697266 3.6395738124847412109 3.5530390739440917969 3.4665040969848632812 3.3799691200256347656 3.3792257308959960938 3.4657604694366455078 3.5522954463958740234 3.6388304233551025391 3.7253654003143310547 3.8119003772735595703 3.8984351158142089844 3.9849700927734375 4.0715050697326660156 4.123729705810546875 4.1281952857971191406 4.1326613426208496094 4.137126922607421875 4.1415929794311523438 4.142131805419921875 4.142131805419921875 -9999 
31.261287689208984375 30.671823501586914062 29.292631149291992188 27.9134368896484375 26.534242630004882812 25.155050277709960938 24.674879074096679688 24.30744171142578125 23.94000244140625 23.572565078735351562 23.220026016235351562 22.895183563232421875 22.570343017578125 22.245500564575195312 21.920660018920898438 21.85924530029296875 21.85924530029296875 21.85924530029296875 21.85924530029296875 21.439359664916992188 19.896322250366210938 18.353284835815429688 16.810247421264648438 15.267210006713867188 14.190866470336914062 13.284260749816894531 12.377655982971191406 11.471052169799804688 10.542172431945800781 9.521026611328125 8.499881744384765625 7.47873687744140625 6.457592010498046875 6.0204191207885742188 5.88994598388671875 5.7594728469848632812 5.6289997100830078125 5.5036602020263671875 5.4171252250671386719 5.3305907249450683594 5.2440557479858398438 5.1575207710266113281 5.0709857940673828125 4.9844508171081542969 4.8979158401489257812 4.8113808631896972656 4.72484588623046875 4.6383109092712402344 4.5517759323120117188 4.4652414321899414062 4.3787064552307128906 4.3354711532592773438 4.3354711532592773438 4.3354711532592773438 4.3354711532592773438 4.3354711532592773438 4.2945122718811035156 4.25191497802734375 4.2093186378479003906 4.1667218208312988281 4.0965476036071777344 3.9887142181396484375 3.8808810710906982422 3.7730476856231689453 3.6652143001556396484 3.5185437202453613281 3.3667721748352050781 3.2150006294250488281 3.0632293224334716797 2.9041078090667724609 2.7310380935668945312 2.5579681396484375 2.3848984241485595703 2.2118284702301025391 2.1782994270324707031 2.1782994270324707031 2.1782994270324707031 2.1782994270324707031 2.1726033687591552734 2.1513049602508544922 2.1300065517425537109 2.1087081432342529297 2.0874097347259521484 2.1446816921234130859 2.2312166690826416016 2.3177516460418701172 2.4042866230010986328 2.5032038688659667969 2.6549754142761230469 2.8067467212677001953 2.9585182666778564453 3.1102898120880126953 3.1632599830627441406 3.1632599830627441406 3.1632599830627441406 3.1632599830627441406 3.1729662418365478516 3.2595012187957763672 3.3460361957550048828 3.4325709342956542969 3.5191059112548828125 3.556026458740234375 3.556026458740234375 3.556026458740234375 3.556026458740234375 3.5530390739440917969 3.4665040969848632812 3.3799691200256347656 3.29343414306640625 3.2068991661071777344 3.2061557769775390625 3.2926907539367675781 3.3792257308959960938 3.4657604694366455078 3.5522954463958740234 3.6388304233551025391 3.7253654003143310547 3.8119003772735595703 3.8984351158142089844 3.9666011333465576172 4.0091977119445800781 4.0517945289611816406 4.0943913459777832031 4.1369881629943847656 4.142131805419921875 4.142131805419921875 -9999 
30.222867965698242188 29.503025054931640625 27.818784713745117188 26.13454437255859375 24.4503021240234375 22.766061782836914062 22.234960556030273438 21.84845733642578125 21.46195220947265625 21.075448989868164062 20.717180252075195312 20.411405563354492188 20.10562896728515625 19.799852371215820312 19.494077682495117188 19.436267852783203125 19.436267852783203125 19.436267852783203125 19.436267852783203125 19.125329971313476562 17.982669830322265625 16.840005874633789062 15.697345733642578125 14.554682731628417969 13.501237869262695312 12.4802398681640625 11.459241867065429688 10.438243865966796875 9.4654188156127929688 8.6921253204345703125 7.9188318252563476562 7.1455388069152832031 6.3722453117370605469 6.0454196929931640625 5.9530777931213378906 5.8607358932495117188 5.7683935165405273438 5.6767301559448242188 5.5901951789855957031 5.5036602020263671875 5.4171252250671386719 5.3305907249450683594 5.2440557479858398438 5.1575207710266113281 5.0709857940673828125 4.9844508171081542969 4.8979158401489257812 4.8113808631896972656 4.72484588623046875 4.6383109092712402344 4.5517759323120117188 4.5085406303405761719 4.5085406303405761719 4.5085406303405761719 4.5085406303405761719 4.5085406303405761719 4.4309172630310058594 4.350189208984375 4.2694616317749023438 4.1887335777282714844 4.0884881019592285156 3.9615890979766845703 3.8346903324127197266 3.7077915668487548828 3.5808928012847900391 3.4488608837127685547 3.3161549568176269531 3.1834490299224853516 3.0507428646087646484 2.9041078090667724609 2.7310380935668945312 2.5579681396484375 2.3848984241485595703 2.2118284702301025391 2.1782994270324707031 2.1782994270324707031 2.1782994270324707031 2.1782994270324707031 2.1675043106079101562 2.1271402835845947266 2.0867764949798583984 2.0464127063751220703 2.0060486793518066406 2.0581469535827636719 2.1446816921234130859 2.2312166690826416016 2.3177516460418701172 2.4130501747131347656 2.5457561016082763672 2.6784620285034179688 2.8111679553985595703 2.9438738822937011719 2.9901900291442871094 2.9901900291442871094 2.9901900291442871094 2.9901900291442871094 2.9998962879180908203 3.0864312648773193359 3.1729662418365478516 3.2595012187957763672 3.3460361957550048828 3.3829565048217773438 3.3829565048217773438 3.3829565048217773438 3.3829565048217773438 3.3799691200256347656 3.29343414306640625 3.2068991661071777344 3.1203644275665283203 3.0338294506072998047 3.0330858230590820312 3.1196208000183105469 3.2061557769775390625 3.2926907539367675781 3.3792257308959960938 3.4657604694366455078 3.5522954463958740234 3.6388304233551025391 3.7253654003143310547 3.8094725608825683594 3.8902001380920410156 3.9709279537200927734 4.0516557693481445312 4.1323833465576171875 4.142131805419921875 4.142131805419921875 -9999 
29.1844482421875 28.334230422973632812 26.344942092895507812 24.35565185546875 22.366363525390625 20.377073287963867188 19.795042037963867188 19.38947296142578125 18.983903884887695312 18.578332901000976562 18.214336395263671875 17.927625656127929688 17.6409149169921875 17.354206085205078125 17.067495346069335938 17.013288497924804688 17.013288497924804688 17.013288497924804688 17.013288497924804688 16.811300277709960938 16.0690155029296875 15.326729774475097656 14.584443092346191406 13.842156410217285156 12.811609268188476562 11.676218032836914062 10.540827751159667969 9.405437469482421875 8.3886661529541015625 7.863224029541015625 7.3377819061279296875 6.8123402595520019531 6.2868986129760742188 6.0704207420349121094 6.0162096023559570312 5.9619984626770019531 5.907787322998046875 5.84980010986328125 5.7632651329040527344 5.6767301559448242188 5.5901951789855957031 5.5036602020263671875 5.4171252250671386719 5.3305907249450683594 5.2440557479858398438 5.1575207710266113281 5.0709857940673828125 4.9844508171081542969 4.8979158401489257812 4.8113808631896972656 4.72484588623046875 4.6816105842590332031 4.6816105842590332031 4.6816105842590332031 4.6816105842590332031 4.6816105842590332031 4.56732177734375 4.4484629631042480469 4.3296041488647460938 4.2107453346252441406 4.0804286003112792969 3.9344639778137207031 3.7884998321533203125 3.6425354480743408203 3.4965713024139404297 3.3791780471801757812 3.2655377388000488281 3.1518971920013427734 3.0382568836212158203 2.9041078090667724609 2.7310380935668945312 2.5579681396484375 2.3848984241485595703 2.2118284702301025391 2.1782994270324707031 2.1782994270324707031 2.1782994270324707031 2.1782994270324707031 2.1624052524566650391 2.1029758453369140625 2.0435464382171630859 1.9841170310974121094 1.9246876239776611328 1.9716118574142456055 2.0581469535827636719 2.1446816921234130859 2.2312166690826416016 2.3228964805603027344 2.4365370273590087891 2.5501773357391357422 2.6638178825378417969 2.7774584293365478516 2.8171203136444091797 2.8171203136444091797 2.8171203136444091797 2.8171203136444091797 2.8268265724182128906 2.9133615493774414062 2.9998962879180908203 3.0864312648773193359 3.1729662418365478516 3.2098867893218994141 3.2098867893218994141 3.2098867893218994141 3.2098867893218994141 3.2068991661071777344 3.1203644275665283203 3.0338294506072998047 2.9472944736480712891 2.8607594966888427734 2.8600161075592041016 2.9465510845184326172 3.0330858230590820312 3.1196208000183105469 3.2061557769775390625 3.2926907539367675781 3.3792257308959960938 3.4657604694366455078 3.5522954463958740234 3.65234375 3.7712025642395019531 3.8900613784790039062 4.0089201927185058594 4.1277790069580078125 4.142131805419921875 4.142131805419921875 -9999 
28.146028518676757812 27.165433883666992188 24.871097564697265625 22.57675933837890625 20.282421112060546875 17.988084793090820312 17.355121612548828125 16.93048858642578125 16.505853652954101562 16.081218719482421875 15.711492538452148438 15.44384765625 15.176202774047851562 14.908557891845703125 14.640912055969238281 14.590310096740722656 14.590310096740722656 14.590310096740722656 14.590310096740722656 14.497271537780761719 14.155361175537109375 13.813450813293457031 13.471540451049804688 13.129630088806152344 12.121980667114257812 10.872197151184082031 9.6224126815795898438 8.3726291656494140625 7.31191253662109375 7.0343222618103027344 6.7567319869995117188 6.4791421890258789062 6.2015514373779296875 6.0954213142395019531 6.0793414115905761719 6.0632615089416503906 6.0471816062927246094 6.0228700637817382812 5.9363350868225097656 5.84980010986328125 5.7632651329040527344 5.6767301559448242188 5.5901951789855957031 5.5036602020263671875 5.4171252250671386719 5.3305907249450683594 5.2440557479858398438 5.1575207710266113281 5.0709857940673828125 4.9844508171081542969 4.8979158401489257812 4.8546805381774902344 4.8546805381774902344 4.8546805381774902344 4.8546805381774902344 4.8546805381774902344 4.7037267684936523438 4.5467367172241210938 4.3897471427917480469 4.2327570915222167969 4.072368621826171875 3.9073390960693359375 3.7423090934753417969 3.5772793292999267578 3.4122495651245117188 3.3094954490661621094 3.2149205207824707031 3.1203455924987792969 3.0257706642150878906 2.9041078090667724609 2.7310380935668945312 2.5579681396484375 2.3848984241485595703 2.2118284702301025391 2.1782994270324707031 2.1782994270324707031 2.1782994270324707031 2.1782994270324707031 2.1573061943054199219 2.0788111686706542969 2.0003163814544677734 1.9218214750289916992 1.843326568603515625 1.8850769996643066406 1.9716118574142456055 2.0581469535827636719 2.1446816921234130859 2.2327427864074707031 2.3273177146911621094 2.4218926429748535156 2.5164675712585449219 2.6110424995422363281 2.6440503597259521484 2.6440503597259521484 2.6440503597259521484 2.6440503597259521484 2.6537566184997558594 2.740291595458984375 2.8268265724182128906 2.9133615493774414062 2.9998962879180908203 3.0368168354034423828 3.0368168354034423828 3.0368168354034423828 3.0368168354034423828 3.0338294506072998047 2.9472944736480712891 2.8607594966888427734 2.7742245197296142578 2.6876897811889648438 2.6869461536407470703 2.7734811305999755859 2.8600161075592041016 2.9465510845184326172 3.0330858230590820312 3.1196208000183105469 3.2061557769775390625 3.2926907539367675781 3.3792257308959960938 3.4952151775360107422 3.6522049903869628906 3.8091948032379150391 3.9661846160888671875 4.1231741905212402344 4.142131805419921875 4.142131805419921875 -9999 
26.306924819946289062 25.375020980834960938 23.194604873657226562 21.014186859130859375 18.833770751953125 16.653352737426757812 15.927968978881835938 15.385040283203125 14.842110633850097656 14.299180030822753906 13.859202384948730469 13.610623359680175781 13.362044334411621094 13.11346435546875 12.864885330200195312 12.817887306213378906 12.817887306213378906 12.817887306213378906 12.817887306213378906 12.770792961120605469 12.597723007202148438 12.424653053283691406 12.251583099365234375 12.078513145446777344 11.193709373474121094 10.050042152404785156 8.9063749313354492188 7.7627081871032714844 6.8099412918090820312 6.6478967666625976562 6.4858522415161132812 6.3238081932067871094 6.1617641448974609375 6.098735809326171875 6.0877099037170410156 6.0766844749450683594 6.0656590461730957031 6.0458116531372070312 5.9592766761779785156 5.87274169921875 5.7862067222595214844 5.6996717453002929688 5.6131367683410644531 5.5266022682189941406 5.440067291259765625 5.3535323143005371094 5.2669973373413085938 5.1804623603820800781 5.0939273834228515625 5.0073924064636230469 4.9208574295043945312 4.8721055984497070312 4.861080169677734375 4.8500547409057617188 4.8390288352966308594 4.8280034065246582031 4.6717658042907714844 4.5097212791442871094 4.3476767539978027344 4.1856322288513183594 4.0189275741577148438 3.8458573818206787109 3.6727876663208007812 3.49971771240234375 3.3266479969024658203 3.2300672531127929688 3.1435322761535644531 3.0569972991943359375 2.9704623222351074219 2.8540651798248291016 2.6809954643249511719 2.5079255104064941406 2.3348557949066162109 2.1617858409881591797 2.1282567977905273438 2.1282567977905273438 2.1282567977905273438 2.1282567977905273438 2.1051132678985595703 2.0185782909393310547 1.9320433139801025391 1.8455084562301635742 1.7589734792709350586 1.798542022705078125 1.8850769996643066406 1.9716118574142456055 2.0581469535827636719 2.1425890922546386719 2.2180986404418945312 2.2936079502105712891 2.3691172599792480469 2.4446268081665039062 2.4709806442260742188 2.4709806442260742188 2.4709806442260742188 2.4709806442260742188 2.4819235801696777344 2.5794839859008789062 2.6770443916320800781 2.77460479736328125 2.8721652030944824219 2.9074683189392089844 2.8964428901672363281 2.8854174613952636719 2.8743920326232910156 2.8607594966888427734 2.7742245197296142578 2.6876897811889648438 2.6011548042297363281 2.5146198272705078125 2.5138764381408691406 2.6004114151000976562 2.6869461536407470703 2.7734811305999755859 2.8600161075592041016 2.9571011066436767578 3.0546615123748779297 3.1522219181060791016 3.2497823238372802734 3.3789105415344238281 3.5519804954528808594 3.7250502109527587891 3.8981201648712158203 4.07118988037109375 4.0920891761779785156 4.0920891761779785156 -9999 
23.88394927978515625 23.131313323974609375 21.370336532592773438 19.6093597412109375 17.848384857177734375 16.087408065795898438 15.239348411560058594 14.505764007568359375 13.772179603576660156 13.038594245910644531 12.481311798095703125 12.251797676086425781 12.022283554077148438 11.7927703857421875 11.563256263732910156 11.519864082336425781 11.519864082336425781 11.519864082336425781 11.519864082336425781 11.472768783569335938 11.299698829650878906 11.126628875732421875 10.953558921813964844 10.780488967895507812 10.091414451599121094 9.214664459228515625 8.3379144668579101562 7.4611639976501464844 6.7271142005920410156 6.5841355323791503906 6.4411563873291015625 6.2981777191162109375 6.1551990509033203125 6.08623504638671875 6.0561442375183105469 6.0260529518127441406 5.9959621429443359375 5.9592766761779785156 5.87274169921875 5.7862067222595214844 5.6996717453002929688 5.6131367683410644531 5.5266022682189941406 5.440067291259765625 5.3535323143005371094 5.2669973373413085938 5.1804623603820800781 5.0939273834228515625 5.0073924064636230469 4.9208574295043945312 4.8343224525451660156 4.7760305404663085938 4.7459397315979003906 4.7158484458923339844 4.6857576370239257812 4.6556668281555175781 4.5170283317565917969 4.3740491867065429688 4.2310705184936523438 4.0880918502807617188 3.9323923587799072266 3.7593224048614501953 3.5862526893615722656 3.4131827354431152344 3.2401130199432373047 3.1435322761535644531 3.0569972991943359375 2.9704623222351074219 2.8839273452758789062 2.7675302028656005859 2.5944604873657226562 2.421390533447265625 2.2483208179473876953 2.0752508640289306641 2.0417218208312988281 2.0417218208312988281 2.0417218208312988281 2.0417218208312988281 2.0185782909393310547 1.9320433139801025391 1.8455084562301635742 1.7589734792709350586 1.672438502311706543 1.7120071649551391602 1.798542022705078125 1.8850769996643066406 1.9716118574142456055 2.0524353981018066406 2.1088793277740478516 2.1653232574462890625 2.2217671871185302734 2.2782111167907714844 2.2979106903076171875 2.2979106903076171875 2.2979106903076171875 2.2979106903076171875 2.3109922409057617188 2.4276182651519775391 2.5442440509796142578 2.6608700752258300781 2.7774958610534667969 2.8100023269653320312 2.7799115180969238281 2.7498204708099365234 2.7197294235229492188 2.6876897811889648438 2.6011548042297363281 2.5146198272705078125 2.4280848503112792969 2.3415498733520507812 2.3408064842224121094 2.427341461181640625 2.5138764381408691406 2.6004114151000976562 2.6869461536407470703 2.8022747039794921875 2.9189004898071289062 3.0355265140533447266 3.1521525382995605469 3.2923755645751953125 3.4654455184936523438 3.6385152339935302734 3.8115851879119873047 3.9846551418304443359 4.00555419921875 4.00555419921875 -9999 
21.460969924926757812 20.887601852416992188 19.546068191528320312 18.204532623291015625 16.862997055053710938 15.521463394165039062 14.550726890563964844 13.62648773193359375 12.70224761962890625 11.778008460998535156 11.103421211242675781 10.892972946166992188 10.682524681091308594 10.472076416015625 10.261628150939941406 10.22183990478515625 10.22183990478515625 10.22183990478515625 10.22183990478515625 10.174744606018066406 10.001674652099609375 9.82860565185546875 9.6555356979370117188 9.4824657440185546875 8.9891195297241210938 8.3792867660522460938 7.7694535255432128906 7.1596207618713378906 6.644287109375 6.5203738212585449219 6.3964600563049316406 6.2725467681884765625 6.1486334800720214844 6.0737347602844238281 6.024578094482421875 5.975421905517578125 5.9262652397155761719 5.87274169921875 5.7862067222595214844 5.6996717453002929688 5.6131367683410644531 5.5266022682189941406 5.440067291259765625 5.3535323143005371094 5.2669973373413085938 5.1804623603820800781 5.0939273834228515625 5.0073924064636230469 4.9208574295043945312 4.8343224525451660156 4.7477874755859375 4.6799559593200683594 4.6307997703552246094 4.5816431045532226562 4.5324864387512207031 4.48332977294921875 4.3622908592224121094 4.2383775711059570312 4.1144642829895019531 3.9905507564544677734 3.8458573818206787109 3.6727876663208007812 3.49971771240234375 3.3266479969024658203 3.1535780429840087891 3.0569972991943359375 2.9704623222351074219 2.8839273452758789062 2.7973926067352294922 2.6809954643249511719 2.5079255104064941406 2.3348557949066162109 2.1617858409881591797 1.9887158870697021484 1.9551869630813598633 1.9551869630813598633 1.9551869630813598633 1.9551869630813598633 1.9320433139801025391 1.8455084562301635742 1.7589734792709350586 1.672438502311706543 1.5859036445617675781 1.6254721879959106445 1.7120071649551391602 1.798542022705078125 1.8850769996643066406 1.9622817039489746094 1.9996600151062011719 2.0370385646820068359 2.0744168758392333984 2.1117954254150390625 2.1248409748077392578 2.1248409748077392578 2.1248409748077392578 2.1248409748077392578 2.1400609016418457031 2.2757523059844970703 2.4114437103271484375 2.5471351146697998047 2.6828265190124511719 2.7125363349914550781 2.6633799076080322266 2.6142232418060302734 2.5650668144226074219 2.5146198272705078125 2.4280848503112792969 2.3415498733520507812 2.2550148963928222656 2.1684801578521728516 2.1677367687225341797 2.2542717456817626953 2.3408064842224121094 2.427341461181640625 2.5138764381408691406 2.6474483013153076172 2.7831399440765380859 2.9188313484191894531 3.0545227527618408203 3.2058405876159667969 3.3789105415344238281 3.5519804954528808594 3.7250502109527587891 3.8981201648712158203 3.9190194606781005859 3.9190194606781005859 -9999 
19.037992477416992188 18.643892288208007812 17.721797943115234375 16.799703598022460938 15.877612113952636719 14.955517768859863281 13.862104415893554688 12.747210502624511719 11.63231658935546875 10.517420768737792969 9.7255306243896484375 9.5341482162475585938 9.3427648544311523438 9.1513824462890625 8.95999908447265625 8.9238157272338867188 8.9238157272338867188 8.9238157272338867188 8.9238157272338867188 8.8767213821411132812 8.70365142822265625 8.5305814743041992188 8.3575115203857421875 8.1844415664672851562 7.8868246078491210938 7.5439090728759765625 7.2009935379028320312 6.8580775260925292969 6.5614595413208007812 6.4566121101379394531 6.3517642021179199219 6.2469162940979003906 6.1420683860778808594 6.0612344741821289062 5.9930124282836914062 5.9247903823852539062 5.8565683364868164062 5.7862067222595214844 5.6996717453002929688 5.6131367683410644531 5.5266022682189941406 5.440067291259765625 5.3535323143005371094 5.2669973373413085938 5.1804623603820800781 5.0939273834228515625 5.0073924064636230469 4.9208574295043945312 4.8343224525451660156 4.7477874755859375 4.6612529754638671875 4.583881378173828125 4.5156588554382324219 4.447437286376953125 4.3792147636413574219 4.310993194580078125 4.2075533866882324219 4.1027054786682128906 3.9978578090667724609 3.8930099010467529297 3.7593224048614501953 3.5862526893615722656 3.4131827354431152344 3.2401130199432373047 3.0670430660247802734 2.9704623222351074219 2.8839273452758789062 2.7973926067352294922 2.7108576297760009766 2.5944604873657226562 2.421390533447265625 2.2483208179473876953 2.0752508640289306641 1.9021810293197631836 1.8686521053314208984 1.8686521053314208984 1.8686521053314208984 1.8686521053314208984 1.8455084562301635742 1.7589734792709350586 1.672438502311706543 1.5859036445617675781 1.4993686676025390625 1.5389373302459716797 1.6254721879959106445 1.7120071649551391602 1.798542022705078125 1.8721280097961425781 1.890440821647644043 1.9087537527084350586 1.9270666837692260742 1.9453796148300170898 1.9517711400985717773 1.9517711400985717773 1.9517711400985717773 1.9517711400985717773 1.9691295623779296875 2.1238865852355957031 2.2786433696746826172 2.4334003925323486328 2.5881571769714355469 2.615070343017578125 2.546848297119140625 2.478626251220703125 2.410404205322265625 2.3415498733520507812 2.2550148963928222656 2.1684801578521728516 2.0819451808929443359 1.9954102039337158203 1.9946668148040771484 2.0812017917633056641 2.1677367687225341797 2.2542717456817626953 2.3408064842224121094 2.4926221370697021484 2.6473789215087890625 2.8021359443664550781 2.9568927288055419922 3.1193058490753173828 3.2923755645751953125 3.4654455184936523438 3.6385152339935302734 3.8115851879119873047 3.8324844837188720703 3.8324844837188720703 -9999 
16.710659027099609375 16.488750457763671875 15.969541549682617188 15.4503326416015625 14.931122779846191406 14.411912918090820312 13.200666427612304688 11.902643203735351562 10.604619026184082031 9.3065958023071289062 8.40203094482421875 8.2289609909057617188 8.0558910369873046875 7.8828215599060058594 7.7097516059875488281 7.6770305633544921875 7.6770305633544921875 7.6770305633544921875 7.6770305633544921875 7.6299357414245605469 7.4568657875061035156 7.2837958335876464844 7.1107258796691894531 6.937656402587890625 6.8280415534973144531 6.7415065765380859375 6.654972076416015625 6.5684370994567871094 6.4819021224975585938 6.3953671455383300781 6.3088321685791015625 6.2222971916198730469 6.1357622146606445312 6.0492272377014160156 5.9626922607421875 5.8761577606201171875 5.7896227836608886719 5.7030878067016601562 5.6165528297424316406 5.530017852783203125 5.4434828758239746094 5.3569478988647460938 5.2704129219055175781 5.1838779449462890625 5.0973429679870605469 5.0108084678649902344 4.9242734909057617188 4.8377385139465332031 4.7512035369873046875 4.6646685600280761719 4.5781335830688476562 4.4915986061096191406 4.405063629150390625 4.3185286521911621094 4.2319941520690917969 4.1454591751098632812 4.0589241981506347656 3.9723894596099853516 3.8858544826507568359 3.7993195056915283203 3.6762037277221679688 3.5031337738037109375 3.3300638198852539062 3.1569941043853759766 2.9839241504669189453 2.8873434066772460938 2.8008084297180175781 2.7142736911773681641 2.6277387142181396484 2.5113413333892822266 2.3382716178894042969 2.1652016639709472656 1.9921318292617797852 1.8190619945526123047 1.7855329513549804688 1.7855329513549804688 1.7855329513549804688 1.7855329513549804688 1.7623893022537231445 1.6758544445037841797 1.5893194675445556641 1.5027846097946166992 1.4162496328353881836 1.4558182954788208008 1.5423531532287597656 1.6288881301879882812 1.7154229879379272461 1.7855329513549804688 1.7855329513549804688 1.7855329513549804688 1.7855329513549804688 1.7855329513549804688 1.7855329513549804688 1.7855329513549804688 1.7855329513549804688 1.7855329513549804688 1.8049455881118774414 1.9780154228210449219 2.1510853767395019531 2.3241550922393798828 2.4972250461578369141 2.5214514732360839844 2.4349164962768554688 2.3483817577362060547 2.2618467807769775391 2.1753118038177490234 2.0887768268585205078 2.0022420883178710938 1.9157071113586425781 1.8291721343994140625 1.8284287452697753906 1.9149637222290039062 2.0014986991882324219 2.0880334377288818359 2.1745684146881103516 2.3439073562622070312 2.5169770717620849609 2.6900470256805419922 2.8631167411804199219 3.0361866950988769531 3.2092564105987548828 3.3823263645172119141 3.5553960800170898438 3.728466033935546875 3.7493655681610107422 3.7493655681610107422 -9999 
16.710659027099609375 16.488750457763671875 15.969541549682617188 15.4503326416015625 14.931122779846191406 14.411912918090820312 13.200666427612304688 11.902643203735351562 10.604619026184082031 9.3065958023071289062 8.40203094482421875 8.2289609909057617188 8.0558910369873046875 7.8828215599060058594 7.7097516059875488281 7.6770305633544921875 7.6770305633544921875 7.6770305633544921875 7.6770305633544921875 7.6299357414245605469 7.4568657875061035156 7.2837958335876464844 7.1107258796691894531 6.937656402587890625 6.8280415534973144531 6.7415065765380859375 6.654972076416015625 6.5684370994567871094 6.4819021224975585938 6.3953671455383300781 6.3088321685791015625 6.2222971916198730469 6.1357622146606445312 6.0492272377014160156 5.9626922607421875 5.8761577606201171875 5.7896227836608886719 5.7030878067016601562 5.6165528297424316406 5.530017852783203125 5.4434828758239746094 5.3569478988647460938 5.2704129219055175781 5.1838779449462890625 5.0973429679870605469 5.0108084678649902344 4.9242734909057617188 4.8377385139465332031 4.7512035369873046875 4.6646685600280761719 4.5781335830688476562 4.4915986061096191406 4.405063629150390625 4.3185286521911621094 4.2319941520690917969 4.1454591751098632812 4.0589241981506347656 3.9723894596099853516 3.8858544826507568359 3.7993195056915283203 3.6762037277221679688 3.5031337738037109375 3.3300638198852539062 3.1569941043853759766 2.9839241504669189453 2.8873434066772460938 2.8008084297180175781 2.7142736911773681641 2.6277387142181396484 2.5113413333892822266 2.3382716178894042969 2.1652016639709472656 1.9921318292617797852 1.8190619945526123047 1.7855329513549804688 1.7855329513549804688 1.7855329513549804688 1.7855329513549804688 1.7623893022537231445 1.6758544445037841797 1.5893194675445556641 1.5027846097946166992 1.4162496328353881836 1.4558182954788208008 1.5423531532287597656 1.6288881301879882812 1.7154229879379272461 1.7855329513549804688 1.7855329513549804688 1.7855329513549804688 1.7855329513549804688 1.7855329513549804688 1.7855329513549804688 1.7855329513549804688 1.7855329513549804688 1.7855329513549804688 1.8049455881118774414 1.9780154228210449219 2.1510853767395019531 2.3241550922393798828 2.4972250461578369141 2.5214514732360839844 2.4349164962768554688 2.3483817577362060547 2.2618467807769775391 2.1753118038177490234 2.0887768268585205078 2.0022420883178710938 1.9157071113586425781 1.8291721343994140625 1.8284287452697753906 1.9149637222290039062 2.0014986991882324219 2.0880334377288818359 2.1745684146881103516 2.3439073562622070312 2.5169770717620849609 2.6900470256805419922 2.8631167411804199219 3.0361866950988769531 3.2092564105987548828 3.3823263645172119141 3.5553960800170898438 3.728466033935546875 3.7493655681610107422 3.7493655681610107422 -9999 
16.710659027099609375 16.488750457763671875 15.969541549682617188 15.4503326416015625 14.931122779846191406 14.411912918090820312 13.200666427612304688 11.902643203735351562 10.604619026184082031 9.3065958023071289062 8.40203094482421875 8.2289609909057617188 8.0558910369873046875 7.8828215599060058594 7.7097516059875488281 7.6770305633544921875 7.6770305633544921875 7.6770305633544921875 7.6770305633544921875 7.6299357414245605469 7.4568657875061035156 7.2837958335876464844 7.1107258796691894531 6.937656402587890625 6.8280415534973144531 6.7415065765380859375 6.654972076416015625 6.5684370994567871094 6.4819021224975585938 6.3953671455383300781 6.3088321685791015625 6.2222971916198730469 6.1357622146606445312 6.0492272377014160156 5.9626922607421875 5.8761577606201171875 5.7896227836608886719 5.7030878067016601562 5.6165528297424316406 5.530017852783203125 5.4434828758239746094 5.3569478988647460938 5.2704129219055175781 5.1838779449462890625 5.0973429679870605469 5.0108084678649902344 4.9242734909057617188 4.8377385139465332031 4.7512035369873046875 4.6646685600280761719 4.5781335830688476562 4.4915986061096191406 4.405063629150390625 4.3185286521911621094 4.2319941520690917969 4.1454591751098632812 4.0589241981506347656 3.9723894596099853516 3.8858544826507568359 3.7993195056915283203 3.6762037277221679688 3.5031337738037109375 3.3300638198852539062 3.1569941043853759766 2.9839241504669189453 2.8873434066772460938 2.8008084297180175781 2.7142736911773681641 2.6277387142181396484 2.5113413333892822266 2.3382716178894042969 2.1652016639709472656 1.9921318292617797852 1.8190619945526123047 1.7855329513549804688 1.7855329513549804688 1.7855329513549804688 1.7855329513549804688 1.7623893022537231445 1.6758544445037841797 1.5893194675445556641 1.5027846097946166992 1.4162496328353881836 1.4558182954788208008 1.5423531532287597656 1.6288881301879882812 1.7154229879379272461 1.7855329513549804688 1.7855329513549804688 1.7855329513549804688 1.7855329513549804688 1.7855329513549804688 1.7855329513549804688 1.7855329513549804688 1.7855329513549804688 1.7855329513549804688 1.8049455881118774414 1.9780154228210449219 2.1510853767395019531 2.3241550922393798828 2.4972250461578369141 2.5214514732360839844 2.4349164962768554688 2.3483817577362060547 2.2618467807769775391 2.1753118038177490234 2.0887768268585205078 2.0022420883178710938 1.9157071113586425781 1.8291721343994140625 1.8284287452697753906 1.9149637222290039062 2.0014986991882324219 2.0880334377288818359 2.1745684146881103516 2.3439073562622070312 2.5169770717620849609 2.6900470256805419922 2.8631167411804199219 3.0361866950988769531 3.2092564105987548828 3.3823263645172119141 3.5553960800170898438 3.728466033935546875 3.7493655681610107422 3.7493655681610107422 -9999 
16.710659027099609375 16.488750457763671875 15.969541549682617188 15.4503326416015625 14.931122779846191406 14.411912918090820312 13.200666427612304688 11.902643203735351562 10.604619026184082031 9.3065958023071289062 8.40203094482421875 8.2289609909057617188 8.0558910369873046875 7.8828215599060058594 7.7097516059875488281 7.6770305633544921875 7.6770305633544921875 7.6770305633544921875 7.6770305633544921875 7.6299357414245605469 7.4568657875061035156 7.2837958335876464844 7.1107258796691894531 6.937656402587890625 6.8280415534973144531 6.7415065765380859375 6.654972076416015625 6.5684370994567871094 6.4819021224975585938 6.3953671455383300781 6.3088321685791015625 6.2222971916198730469 6.1357622146606445312 6.0492272377014160156 5.9626922607421875 5.8761577606201171875 5.7896227836608886719 5.7030878067016601562 5.6165528297424316406 5.530017852783203125 5.4434828758239746094 5.3569478988647460938 5.2704129219055175781 5.1838779449462890625 5.0973429679870605469 5.0108084678649902344 4.9242734909057617188 4.8377385139465332031 4.7512035369873046875 4.6646685600280761719 4.5781335830688476562 4.4915986061096191406 4.405063629150390625 4.3185286521911621094 4.2319941520690917969 4.1454591751098632812 4.0589241981506347656 3.9723894596099853516 3.8858544826507568359 3.7993195056915283203 3.6762037277221679688 3.5031337738037109375 3.3300638198852539062 3.1569941043853759766 2.9839241504669189453 2.8873434066772460938 2.8008084297180175781 2.7142736911773681641 2.6277387142181396484 2.5113413333892822266 2.3382716178894042969 2.1652016639709472656 1.9921318292617797852 1.8190619945526123047 1.7855329513549804688 1.7855329513549804688 1.7855329513549804688 1.7855329513549804688 1.7623893022537231445 1.6758544445037841797 1.5893194675445556641 1.5027846097946166992 1.4162496328353881836 1.4558182954788208008 1.5423531532287597656 1.6288881301879882812 1.7154229879379272461 1.7855329513549804688 1.7855329513549804688 1.7855329513549804688 1.7855329513549804688 1.7855329513549804688 1.7855329513549804688 1.7855329513549804688 1.7855329513549804688 1.7855329513549804688 1.8049455881118774414 1.9780154228210449219 2.1510853767395019531 2.3241550922393798828 2.4972250461578369141 2.5214514732360839844 2.4349164962768554688 2.3483817577362060547 2.2618467807769775391 2.1753118038177490234 2.0887768268585205078 2.0022420883178710938 1.9157071113586425781 1.8291721343994140625 1.8284287452697753906 1.9149637222290039062 2.0014986991882324219 2.0880334377288818359 2.1745684146881103516 2.3439073562622070312 2.5169770717620849609 2.6900470256805419922 2.8631167411804199219 3.0361866950988769531 3.2092564105987548828 3.3823263645172119141 3.5553960800170898438 3.728466033935546875 3.7493655681610107422 3.7493655681610107422 -9999 
16.710659027099609375 16.488750457763671875 15.969541549682617188 15.4503326416015625 14.931122779846191406 14.411912918090820312 13.200666427612304688 11.902643203735351562 10.604619026184082031 9.3065958023071289062 8.40203094482421875 8.2289609909057617188 8.0558910369873046875 7.8828215599060058594 7.7097516059875488281 7.6770305633544921875 7.6770305633544921875 7.6770305633544921875 7.6770305633544921875 7.6299357414245605469 7.4568657875061035156 7.2837958335876464844 7.1107258796691894531 6.937656402587890625 6.8280415534973144531 6.7415065765380859375 6.654972076416015625 6.5684370994567871094 6.4819021224975585938 6.3953671455383300781 6.3088321685791015625 6.2222971916198730469 6.1357622146606445312 6.0492272377014160156 5.9626922607421875 5.8761577606201171875 5.7896227836608886719 5.7030878067016601562 5.6165528297424316406 5.530017852783203125 5.4434828758239746094 5.3569478988647460938 5.2704129219055175781 5.1838779449462890625 5.0973429679870605469 5.0108084678649902344 4.9242734909057617188 4.8377385139465332031 4.7512035369873046875 4.6646685600280761719 4.5781335830688476562 4.4915986061096191406 4.405063629150390625 4.3185286521911621094 4.2319941520690917969 4.1454591751098632812 4.0589241981506347656 3.9723894596099853516 3.8858544826507568359 3.7993195056915283203 3.6762037277221679688 3.5031337738037109375 3.3300638198852539062 3.1569941043853759766 2.9839241504669189453 2.8873434066772460938 2.8008084297180175781 2.7142736911773681641 2.6277387142181396484 2.5113413333892822266 2.3382716178894042969 2.1652016639709472656 1.9921318292617797852 1.8190619945526123047 1.7855329513549804688 1.7855329513549804688 1.7855329513549804688 1.7855329513549804688 1.7623893022537231445 1.6758544445037841797 1.5893194675445556641 1.5027846097946166992 1.4162496328353881836 1.4558182954788208008 1.5423531532287597656 1.6288881301879882812 1.7154229879379272461 1.7855329513549804688 1.7855329513549804688 1.7855329513549804688 1.7855329513549804688 1.7855329513549804688 1.7855329513549804688 1.7855329513549804688 1.7855329513549804688 1.7855329513549804688 1.8049455881118774414 1.9780154228210449219 2.1510853767395019531 2.3241550922393798828 2.4972250461578369141 2.5214514732360839844 2.4349164962768554688 2.3483817577362060547 2.2618467807769775391 2.1753118038177490234 2.0887768268585205078 2.0022420883178710938 1.9157071113586425781 1.8291721343994140625 1.8284287452697753906 1.9149637222290039062 2.0014986991882324219 2.0880334377288818359 2.1745684146881103516 2.3439073562622070312 2.5169770717620849609 2.6900470256805419922 2.8631167411804199219 3.0361866950988769531 3.2092564105987548828 3.3823263645172119141 3.5553960800170898438 3.728466033935546875 3.7493655681610107422 3.7493655681610107422 -9999 
16.450716018676757812 16.196168899536132812 15.600598335266113281 15.005026817321777344 14.409457206726074219 13.813885688781738281 12.7043914794921875 11.530455589294433594 10.356519699096679688 9.1825838088989257812 8.3620452880859375 8.1985216140747070312 8.03499603271484375 7.8714718818664550781 7.70794677734375 7.6770305633544921875 7.6770305633544921875 7.6770305633544921875 7.6770305633544921875 7.6299357414245605469 7.4568657875061035156 7.2837958335876464844 7.1107258796691894531 6.937656402587890625 6.8210425376892089844 6.7249622344970703125 6.6288819313049316406 6.5328021049499511719 6.4385781288146972656 6.35204315185546875 6.2655081748962402344 6.1789731979370117188 6.0924382209777832031 6.0059032440185546875 5.919368743896484375 5.8328337669372558594 5.7462987899780273438 5.6597638130187988281 5.5732288360595703125 5.4866938591003417969 5.4001588821411132812 5.3136239051818847656 5.22708892822265625 5.1405539512634277344 5.0540194511413574219 4.9674844741821289062 4.8809494972229003906 4.794414520263671875 4.7078795433044433594 4.6213445663452148438 4.5348095893859863281 4.4482746124267578125 4.3617396354675292969 4.2752046585083007812 4.1886701583862304688 4.1021351814270019531 4.0156002044677734375 3.9290652275085449219 3.8425302505493164062 3.7559952735900878906 3.6369147300720214844 3.4733898639678955078 3.3098654747009277344 3.1463406085968017578 2.9828162193298339844 2.87890625 2.7828261852264404297 2.6867458820343017578 2.5906658172607421875 2.4713113307952880859 2.3077867031097412109 2.1442620754241943359 1.9807374477386474609 1.8172128200531005859 1.7855329513549804688 1.7855329513549804688 1.7855329513549804688 1.7855329513549804688 1.7598365545272827148 1.6637563705444335938 1.5676761865615844727 1.4715961217880249023 1.3755159378051757812 1.4124941825866699219 1.4990291595458984375 1.5855640172958374023 1.672098994255065918 1.7403972148895263672 1.7308520078659057617 1.7213068008422851562 1.7117615938186645508 1.7022163867950439453 1.7113125324249267578 1.7304030656814575195 1.7494934797286987305 1.7685838937759399414 1.8049455881118774414 1.9780154228210449219 2.1510853767395019531 2.3241550922393798828 2.4972250461578369141 2.5159788131713867188 2.4198987483978271484 2.3238186836242675781 2.2277383804321289062 2.1316583156585693359 2.0355782508850097656 1.9394979476928710938 1.8434178829193115234 1.7473376989364624023 1.746512293815612793 1.8425924777984619141 1.9386726617813110352 2.0347526073455810547 2.1308329105377197266 2.3005833625793457031 2.4736530780792236328 2.6467230319976806641 2.8197927474975585938 2.992862701416015625 3.1659324169158935547 3.3390023708343505859 3.5120723247528076172 3.6851420402526855469 3.7060413360595703125 3.7060413360595703125 -9999 
15.931506156921386719 15.611772537231445312 14.863677024841308594 14.115581512451171875 13.367486000061035156 12.619391441345214844 11.713138580322265625 10.787054061889648438 9.86096954345703125 8.9348850250244140625 8.2821788787841796875 8.1377201080322265625 7.9932608604431152344 7.8488011360168457031 7.7043428421020507812 7.6770305633544921875 7.6770305633544921875 7.6770305633544921875 7.6770305633544921875 7.6299357414245605469 7.4568657875061035156 7.2837958335876464844 7.1107258796691894531 6.937656402587890625 6.8070616722106933594 6.6919159889221191406 6.5767703056335449219 6.4616246223449707031 6.35204315185546875 6.2655081748962402344 6.1789731979370117188 6.0924382209777832031 6.0059032440185546875 5.919368743896484375 5.8328337669372558594 5.7462987899780273438 5.6597638130187988281 5.5732288360595703125 5.4866938591003417969 5.4001588821411132812 5.3136239051818847656 5.22708892822265625 5.1405539512634277344 5.0540194511413574219 4.9674844741821289062 4.8809494972229003906 4.794414520263671875 4.7078795433044433594 4.6213445663452148438 4.5348095893859863281 4.4482746124267578125 4.3617396354675292969 4.2752046585083007812 4.1886701583862304688 4.1021351814270019531 4.0156002044677734375 3.9290652275085449219 3.8425302505493164062 3.7559952735900878906 3.669460296630859375 3.5584392547607421875 3.4139800071716308594 3.2695209980010986328 3.1250617504119873047 2.9806027412414550781 2.8620541095733642578 2.7469084262847900391 2.6317627429962158203 2.5166170597076416016 2.3913557529449462891 2.2468965053558349609 2.1024374961853027344 1.957978367805480957 1.8135191202163696289 1.7855329513549804688 1.7855329513549804688 1.7855329513549804688 1.7855329513549804688 1.7547374963760375977 1.6395918130874633789 1.5244461297988891602 1.4093005657196044922 1.2941548824310302734 1.325959324836730957 1.4124941825866699219 1.4990291595458984375 1.5855640172958374023 1.6502435207366943359 1.6216328144073486328 1.5930221080780029297 1.5644114017486572266 1.5358005762100219727 1.5630655288696289062 1.6202869415283203125 1.6775083541870117188 1.7347298860549926758 1.8049455881118774414 1.9780154228210449219 2.1510853767395019531 2.3241550922393798828 2.4972250461578369141 2.5050477981567382812 2.3899021148681640625 2.2747564315795898438 2.159610748291015625 2.0444650650024414062 1.9293195009231567383 1.8141738176345825195 1.6990281343460083008 1.5838825702667236328 1.58289337158203125 1.698038935661315918 1.8131846189498901367 1.9283303022384643555 2.0434758663177490234 2.2140483856201171875 2.3871181011199951172 2.5601880550384521484 2.7332577705383300781 2.9063277244567871094 3.0793976783752441406 3.2524673938751220703 3.4255373477935791016 3.5986070632934570312 3.6195063591003417969 3.6195063591003417969 -9999 
15.412296295166015625 15.027373313903808594 14.1267547607421875 13.22613525390625 12.3255157470703125 11.424896240234375 10.721884727478027344 10.043652534484863281 9.3654184341430664062 8.6871862411499023438 8.2023115158081054688 8.0769186019897460938 7.9515252113342285156 7.8261313438415527344 7.7007379531860351562 7.6770305633544921875 7.6770305633544921875 7.6770305633544921875 7.6770305633544921875 7.6299357414245605469 7.4568657875061035156 7.2837958335876464844 7.1107258796691894531 6.937656402587890625 6.7930812835693359375 6.6588697433471679688 6.5246586799621582031 6.3904476165771484375 6.2655081748962402344 6.1789731979370117188 6.0924382209777832031 6.0059032440185546875 5.919368743896484375 5.8328337669372558594 5.7462987899780273438 5.6597638130187988281 5.5732288360595703125 5.4866938591003417969 5.4001588821411132812 5.3136239051818847656 5.22708892822265625 5.1405539512634277344 5.0540194511413574219 4.9674844741821289062 4.8809494972229003906 4.794414520263671875 4.7078795433044433594 4.6213445663452148438 4.5348095893859863281 4.4482746124267578125 4.3617396354675292969 4.2752046585083007812 4.1886701583862304688 4.1021351814270019531 4.0156002044677734375 3.9290652275085449219 3.8425302505493164062 3.7559952735900878906 3.669460296630859375 3.5829255580902099609 3.4799637794494628906 3.3545703887939453125 3.2291767597198486328 3.1037828922271728516 2.9783895015716552734 2.8452017307281494141 2.7109906673431396484 2.5767796039581298828 2.4425685405731201172 2.3114001750946044922 2.1860065460205078125 2.0606129169464111328 1.9352192878723144531 1.8098256587982177734 1.7855329513549804688 1.7855329513549804688 1.7855329513549804688 1.7855329513549804688 1.7496384382247924805 1.6154272556304931641 1.4812160730361938477 1.347005009651184082 1.2127938270568847656 1.2394243478775024414 1.325959324836730957 1.4124941825866699219 1.4990291595458984375 1.5600898265838623047 1.5124136209487915039 1.4647374153137207031 1.4170610904693603516 1.3693848848342895508 1.4148184061050415039 1.5101709365844726562 1.6055233478546142578 1.7008758783340454102 1.8049455881118774414 1.9780154228210449219 2.1510853767395019531 2.3241550922393798828 2.4972250461578369141 2.4941165447235107422 2.3599054813385009766 2.2256941795349121094 2.0914831161499023438 1.9572719335556030273 1.8230608701705932617 1.6888495683670043945 1.5546385049819946289 1.4204273223876953125 1.4192743301391601562 1.5534855127334594727 1.6876966953277587891 1.8219077587127685547 1.9561189413070678711 2.1275134086608886719 2.3005833625793457031 2.4736530780792236328 2.6467230319976806641 2.8197927474975585938 2.992862701416015625 3.1659324169158935547 3.3390023708343505859 3.5120723247528076172 3.5329716205596923828 3.5329716205596923828 -9999 
14.893087387084960938 14.442976951599121094 13.389832496643066406 12.336688995361328125 11.283545494079589844 10.230401992797851562 9.7306308746337890625 9.3002490997314453125 8.8698682785034179688 8.439487457275390625 8.1224460601806640625 8.0161180496215820312 7.9097895622253417969 7.8034615516662597656 7.6971330642700195312 7.6770305633544921875 7.6770305633544921875 7.6770305633544921875 7.6770305633544921875 7.6299357414245605469 7.4568657875061035156 7.2837958335876464844 7.1107258796691894531 6.937656402587890625 6.7791004180908203125 6.6258234977722167969 6.4725470542907714844 6.3192706108093261719 6.1789731979370117188 6.0924382209777832031 6.0059032440185546875 5.919368743896484375 5.8328337669372558594 5.7462987899780273438 5.6597638130187988281 5.5732288360595703125 5.4866938591003417969 5.4001588821411132812 5.3136239051818847656 5.22708892822265625 5.1405539512634277344 5.0540194511413574219 4.9674844741821289062 4.8809494972229003906 4.794414520263671875 4.7078795433044433594 4.6213445663452148438 4.5348095893859863281 4.4482746124267578125 4.3617396354675292969 4.2752046585083007812 4.1886701583862304688 4.1021351814270019531 4.0156002044677734375 3.9290652275085449219 3.8425302505493164062 3.7559952735900878906 3.669460296630859375 3.5829255580902099609 3.4963905811309814453 3.4014885425567626953 3.2951605319976806641 3.1888325214385986328 3.0825042724609375 2.9761760234832763672 2.8283495903015136719 2.6750729084014892578 2.5217964649200439453 2.3685197830200195312 2.2314445972442626953 2.1251163482666015625 2.0187883377075195312 1.9124600887298583984 1.8061320781707763672 1.7855329513549804688 1.7855329513549804688 1.7855329513549804688 1.7855329513549804688 1.7445393800735473633 1.5912626981735229492 1.4379860162734985352 1.2847093343734741211 1.1314327716827392578 1.1528894901275634766 1.2394243478775024414 1.325959324836730957 1.4124941825866699219 1.4699361324310302734 1.403194427490234375 1.3364526033401489258 1.2697108983993530273 1.2029691934585571289 1.2665714025497436523 1.4000548124313354492 1.5335383415222167969 1.6670218706130981445 1.8049455881118774414 1.9780154228210449219 2.1510853767395019531 2.3241550922393798828 2.4972250461578369141 2.4831855297088623047 2.3299088478088378906 2.1766321659088134766 2.0233554840087890625 1.8700788021087646484 1.7168021202087402344 1.5635254383087158203 1.4102487564086914062 1.2569720745086669922 1.2556554079055786133 1.4089319705963134766 1.5622086524963378906 1.7154853343963623047 1.8687620162963867188 2.0409784317016601562 2.2140483856201171875 2.3871181011199951172 2.5601880550384521484 2.7332577705383300781 2.9063277244567871094 3.0793976783752441406 3.2524673938751220703 3.4255373477935791016 3.4464366436004638672 3.4464366436004638672 -9999 
14.373877525329589844 13.858577728271484375 12.652911186218261719 11.44724273681640625 10.241575241088867188 9.035907745361328125 8.7393770217895507812 8.5568475723266601562 8.3743181228637695312 8.1917877197265625 8.0425786972045898438 7.9553165435791015625 7.868053436279296875 7.7807912826538085938 7.6935286521911621094 7.6770305633544921875 7.6770305633544921875 7.6770305633544921875 7.6770305633544921875 7.6299357414245605469 7.4568657875061035156 7.2837958335876464844 7.1107258796691894531 6.937656402587890625 6.7651195526123046875 6.5927777290344238281 6.4204354286193847656 6.2480931282043457031 6.0924382209777832031 6.0059032440185546875 5.919368743896484375 5.8328337669372558594 5.7462987899780273438 5.6597638130187988281 5.5732288360595703125 5.4866938591003417969 5.4001588821411132812 5.3136239051818847656 5.22708892822265625 5.1405539512634277344 5.0540194511413574219 4.9674844741821289062 4.8809494972229003906 4.794414520263671875 4.7078795433044433594 4.6213445663452148438 4.5348095893859863281 4.4482746124267578125 4.3617396354675292969 4.2752046585083007812 4.1886701583862304688 4.1021351814270019531 4.0156002044677734375 3.9290652275085449219 3.8425302505493164062 3.7559952735900878906 3.669460296630859375 3.5829255580902099609 3.4963905811309814453 3.4098556041717529297 3.3230133056640625 3.2357506752014160156 3.1484880447387695312 3.0612254142761230469 2.9739627838134765625 2.8114974498748779297 2.6391553878784179688 2.4668130874633789062 2.2944710254669189453 2.1514887809753417969 2.0642261505126953125 1.9769636392593383789 1.8897011280059814453 1.8024383783340454102 1.7855329513549804688 1.7855329513549804688 1.7855329513549804688 1.7855329513549804688 1.7394403219223022461 1.5670981407165527344 1.3947559595108032227 1.2224137783050537109 1.0500715970993041992 1.0663545131683349609 1.1528894901275634766 1.2394243478775024414 1.325959324836730957 1.3797824382781982422 1.2939752340316772461 1.2081679105758666992 1.1223607063293457031 1.0365533828735351562 1.11832427978515625 1.289938807487487793 1.4615533351898193359 1.6331678628921508789 1.8049455881118774414 1.9780154228210449219 2.1510853767395019531 2.3241550922393798828 2.4972250461578369141 2.4722542762756347656 2.2999122142791748047 2.1275699138641357422 1.9552278518676757812 1.7828856706619262695 1.610543370246887207 1.4382011890411376953 1.2658591270446777344 1.0935169458389282227 1.0920363664627075195 1.2643785476684570312 1.436720728874206543 1.6090629100799560547 1.7814050912857055664 1.9544435739517211914 2.1275134086608886719 2.3005833625793457031 2.4736530780792236328 2.6467230319976806641 2.8197927474975585938 2.992862701416015625 3.1659324169158935547 3.3390023708343505859 3.3599016666412353516 3.3599016666412353516 -9999 
13.105578422546386719 12.697516441345214844 11.742757797241210938 10.787999153137207031 9.8332386016845703125 8.8784799575805664062 8.6183118820190429688 8.4452419281005859375 8.2721729278564453125 8.0991029739379882812 7.9498844146728515625 7.8450121879577636719 7.7401394844055175781 7.6352663040161132812 7.5303940773010253906 7.5105662345886230469 7.5105662345886230469 7.5105662345886230469 7.5105662345886230469 7.4684610366821289062 7.3137292861938476562 7.1589970588684082031 7.0042653083801269531 6.8495330810546875 6.6813540458679199219 6.5082845687866210938 6.3352146148681640625 6.1621446609497070312 6.0023374557495117188 5.897464752197265625 5.7925915718078613281 5.6877188682556152344 5.5828461647033691406 5.4899969100952148438 5.4034619331359863281 5.3169269561767578125 5.2303919792175292969 5.1438570022583007812 5.0573220252990722656 4.97078704833984375 4.8842520713806152344 4.7977170944213867188 4.7111821174621582031 4.6246476173400878906 4.538112640380859375 4.4515776634216308594 4.3650426864624023438 4.2785077095031738281 4.1919727325439453125 4.1054377555847167969 4.0189032554626464844 3.9323680400848388672 3.8458330631256103516 3.7592980861663818359 3.6727631092071533203 3.5862283706665039062 3.4996933937072753906 3.413158416748046875 3.3266234397888183594 3.2400884628295898438 3.1535537242889404297 3.0670187473297119141 2.9804837703704833984 2.8939487934112548828 2.8074140548706054688 2.6605989933013916016 2.50586700439453125 2.3511350154876708984 2.1964030265808105469 2.0652050971984863281 1.9786701202392578125 1.8921352624893188477 1.805600285530090332 1.7190653085708618164 1.7023009061813354492 1.7023009061813354492 1.7023009061813354492 1.7023009061813354492 1.6658223867416381836 1.5294282436370849609 1.3930341005325317383 1.2566399574279785156 1.1202456951141357422 1.1462838649749755859 1.2328188419342041016 1.3193536996841430664 1.405888676643371582 1.4595736265182495117 1.3730387687683105469 1.2865037918090820312 1.1999689340591430664 1.1134339570999145508 1.1720229387283325195 1.3084170818328857422 1.4448113441467285156 1.5812054872512817383 1.7196565866470336914 1.874388575553894043 2.0291204452514648438 2.1838526725769042969 2.3385846614837646484 2.3369145393371582031 2.2188582420349121094 2.1008019447326660156 1.9827455282211303711 1.8634229898452758789 1.7086910009384155273 1.5539590120315551758 1.3992269039154052734 1.2444949150085449219 1.2431657314300537109 1.3978977203369140625 1.5526297092437744141 1.7073616981506347656 1.862093806266784668 2.0343728065490722656 2.2074427604675292969 2.3805127143859863281 2.5535824298858642578 2.7266523838043212891 2.8997220993041992188 3.07279205322265625 3.2458617687225341797 3.4189317226409912109 3.4398312568664550781 3.4398312568664550781 -9999 
11.807555198669433594 11.51357269287109375 10.825731277465820312 10.137887954711914062 9.450046539306640625 8.7622041702270507812 8.53177642822265625 8.3587064743041992188 8.1856374740600585938 8.0125675201416015625 7.8566813468933105469 7.7327432632446289062 7.6088051795959472656 7.484867095947265625 7.3609290122985839844 7.3374962806701660156 7.3374962806701660156 7.3374962806701660156 7.3374962806701660156 7.3005795478820800781 7.1649127006530761719 7.0292463302612304688 6.8935794830322265625 6.7579131126403808594 6.5948190689086914062 6.4217495918273925781 6.2486796379089355469 6.0756096839904785156 5.9120945930480957031 5.7881565093994140625 5.6642179489135742188 5.5402798652648925781 5.4163417816162109375 5.3169269561767578125 5.2303919792175292969 5.1438570022583007812 5.0573220252990722656 4.97078704833984375 4.8842520713806152344 4.7977170944213867188 4.7111821174621582031 4.6246476173400878906 4.538112640380859375 4.4515776634216308594 4.3650426864624023438 4.2785077095031738281 4.1919727325439453125 4.1054377555847167969 4.0189032554626464844 3.9323680400848388672 3.8458330631256103516 3.7592980861663818359 3.6727631092071533203 3.5862283706665039062 3.4996933937072753906 3.413158416748046875 3.3266234397888183594 3.2400884628295898438 3.1535537242889404297 3.0670187473297119141 2.9804837703704833984 2.8939487934112548828 2.8074140548706054688 2.7208790779113769531 2.6343441009521484375 2.5043814182281494141 2.3687148094177246094 2.2330484390258789062 2.0973818302154541016 1.9786701202392578125 1.8921352624893188477 1.805600285530090332 1.7190653085708618164 1.6325304508209228516 1.6157659292221069336 1.6157659292221069336 1.6157659292221069336 1.6157659292221069336 1.5894856452941894531 1.491222381591796875 1.3929592370986938477 1.2946960926055908203 1.196432948112487793 1.2328188419342041016 1.3193536996841430664 1.405888676643371582 1.4924235343933105469 1.5461086034774780273 1.4595736265182495117 1.3730387687683105469 1.2865037918090820312 1.1999689340591430664 1.2337350845336914062 1.3319982290267944336 1.4302613735198974609 1.5285246372222900391 1.6309831142425537109 1.7666496038436889648 1.9023160934448242188 2.0379827022552490234 2.1736490726470947266 2.1966381072998046875 2.1357784271240234375 2.0749185085296630859 2.0140585899353027344 1.9506161212921142578 1.8149496316909790039 1.67928314208984375 1.5436166524887084961 1.4079501628875732422 1.4067846536636352539 1.5424511432647705078 1.6781176328659057617 1.8137842416763305664 1.9494506120681762695 2.1209077835083007812 2.2939777374267578125 2.4670474529266357422 2.6401174068450927734 2.8131871223449707031 2.9862570762634277344 3.1593267917633056641 3.3323967456817626953 3.5054666996002197266 3.5263659954071044922 3.5263659954071044922 -9999 
10.509531021118164062 10.32962799072265625 9.9087038040161132812 9.4877786636352539062 9.0668535232543945312 8.6459283828735351562 8.4452419281005859375 8.2721729278564453125 8.0991029739379882812 7.9260325431823730469 7.7634782791137695312 7.6204748153686523438 7.4774708747863769531 7.3344669342041015625 7.1914629936218261719 7.1644263267517089844 7.1644263267517089844 7.1644263267517089844 7.1644263267517089844 7.1326975822448730469 7.0160961151123046875 6.8994956016540527344 6.7828946113586425781 6.6662936210632324219 6.5082845687866210938 6.3352146148681640625 6.1621446609497070312 5.98907470703125 5.8218517303466796875 5.6788482666015625 5.5358443260192871094 5.3928403854370117188 5.2498369216918945312 5.1438570022583007812 5.0573220252990722656 4.97078704833984375 4.8842520713806152344 4.7977170944213867188 4.7111821174621582031 4.6246476173400878906 4.538112640380859375 4.4515776634216308594 4.3650426864624023438 4.2785077095031738281 4.1919727325439453125 4.1054377555847167969 4.0189032554626464844 3.9323680400848388672 3.8458330631256103516 3.7592980861663818359 3.6727631092071533203 3.5862283706665039062 3.4996933937072753906 3.413158416748046875 3.3266234397888183594 3.2400884628295898438 3.1535537242889404297 3.0670187473297119141 2.9804837703704833984 2.8939487934112548828 2.8074140548706054688 2.7208790779113769531 2.6343441009521484375 2.5478091239929199219 2.4612743854522705078 2.3481638431549072266 2.2315626144409179688 2.1149616241455078125 1.9983606338500976562 1.8921352624893188477 1.805600285530090332 1.7190653085708618164 1.6325304508209228516 1.5459954738616943359 1.529230952262878418 1.529230952262878418 1.529230952262878418 1.529230952262878418 1.5131487846374511719 1.4530166387557983398 1.3928844928741455078 1.3327523469924926758 1.2726202011108398438 1.3193536996841430664 1.405888676643371582 1.4924235343933105469 1.5789585113525390625 1.6326434612274169922 1.5461086034774780273 1.4595736265182495117 1.3730387687683105469 1.2865037918090820312 1.295447230339050293 1.355579376220703125 1.415711522102355957 1.4758436679840087891 1.5423096418380737305 1.6589107513427734375 1.775511622428894043 1.8921126127243041992 2.0087137222290039062 2.0563616752624511719 2.0526983737945556641 2.0490350723266601562 2.0453717708587646484 2.0378093719482421875 1.9212083816528320312 1.8046072721481323242 1.688006281852722168 1.5714052915573120117 1.5704036951065063477 1.6870045661926269531 1.8036056756973266602 1.9202066659927368164 2.0368075370788574219 2.2074427604675292969 2.3805127143859863281 2.5535824298858642578 2.7266523838043212891 2.8997220993041992188 3.07279205322265625 3.2458617687225341797 3.4189317226409912109 3.5920014381408691406 3.6129009723663330078 3.6129009723663330078 -9999 
9.2115068435668945312 9.1456842422485351562 8.9916772842407226562 8.8376684188842773438 8.6836605072021484375 8.5296525955200195312 8.3587064743041992188 8.1856374740600585938 8.0125675201416015625 7.8394975662231445312 7.6702752113342285156 7.5082058906555175781 7.3461365699768066406 7.1840672492980957031 7.0219979286193847656 6.9913568496704101562 6.9913568496704101562 6.9913568496704101562 6.9913568496704101562 6.9648156166076660156 6.8672804832458496094 6.7697443962097167969 6.6722092628479003906 6.5746736526489257812 6.4217495918273925781 6.2486796379089355469 6.0756096839904785156 5.9025397300720214844 5.731609344482421875 5.5695400238037109375 5.407470703125 5.2454013824462890625 5.083332061767578125 4.97078704833984375 4.8842520713806152344 4.7977170944213867188 4.7111821174621582031 4.6246476173400878906 4.538112640380859375 4.4515776634216308594 4.3650426864624023438 4.2785077095031738281 4.1919727325439453125 4.1054377555847167969 4.0189032554626464844 3.9323680400848388672 3.8458330631256103516 3.7592980861663818359 3.6727631092071533203 3.5862283706665039062 3.4996933937072753906 3.413158416748046875 3.3266234397888183594 3.2400884628295898438 3.1535537242889404297 3.0670187473297119141 2.9804837703704833984 2.8939487934112548828 2.8074140548706054688 2.7208790779113769531 2.6343441009521484375 2.5478091239929199219 2.4612743854522705078 2.3747394084930419922 2.2882044315338134766 2.1919460296630859375 2.0944106578826904297 1.9968750476837158203 1.8993395566940307617 1.805600285530090332 1.7190653085708618164 1.6325304508209228516 1.5459954738616943359 1.4594604969024658203 1.4426960945129394531 1.4426960945129394531 1.4426960945129394531 1.4426960945129394531 1.4368119239807128906 1.4148107767105102539 1.3928096294403076172 1.3708084821701049805 1.3488074541091918945 1.405888676643371582 1.4924235343933105469 1.5789585113525390625 1.6654934883117675781 1.7191784381866455078 1.6326434612274169922 1.5461086034774780273 1.4595736265182495117 1.3730387687683105469 1.3571593761444091797 1.3791605234146118164 1.4011616706848144531 1.4231626987457275391 1.4536362886428833008 1.5511717796325683594 1.648707270622253418 1.7462427616119384766 1.8437781333923339844 1.9160852432250976562 1.9696184396743774414 2.0231516361236572266 2.0766849517822265625 2.1250023841857910156 2.0274670124053955078 1.9299315214157104492 1.8323960304260253906 1.734860539436340332 1.7340226173400878906 1.8315581083297729492 1.9290935993194580078 2.0266292095184326172 2.124164581298828125 2.2939777374267578125 2.4670474529266357422 2.6401174068450927734 2.8131871223449707031 2.9862570762634277344 3.1593267917633056641 3.3323967456817626953 3.5054666996002197266 3.6785364151000976562 3.6994359493255615234 3.6994359493255615234 -9999 
8.4259576797485351562 8.4225111007690429688 8.4144458770751953125 8.4063816070556640625 8.3983163833618164062 8.3902521133422851562 8.2427339553833007812 8.077728271484375 7.912723541259765625 7.74771881103515625 7.5798926353454589844 7.4068226814270019531 7.233753204345703125 7.0606832504272460938 6.8876132965087890625 6.8548922538757324219 6.8548922538757324219 6.8548922538757324219 6.8548922538757324219 6.8313446044921875 6.7448096275329589844 6.6582746505737304688 6.5717396736145019531 6.4852046966552734375 6.3411283493041992188 6.1761236190795898438 6.0111184120178222656 5.8461136817932128906 5.6811089515686035156 5.5161037445068359375 5.3510990142822265625 5.1860942840576171875 5.0210890769958496094 4.9128212928771972656 4.8343515396118164062 4.7558813095092773438 4.6774110794067382812 4.5979990959167480469 4.5114641189575195312 4.4249291419982910156 4.3383941650390625 4.2518591880798339844 4.1653242111206054688 4.0787897109985351562 3.9922544956207275391 3.9057195186614990234 3.8191845417022705078 3.7326498031616210938 3.6461148262023925781 3.5595798492431640625 3.4730448722839355469 3.3865098953247070312 3.2999751567840576172 3.2134401798248291016 3.1269052028656005859 3.0403702259063720703 2.9460806846618652344 2.8514807224273681641 2.7568809986114501953 2.662281036376953125 2.5710902214050292969 2.4845554828643798828 2.3980205059051513672 2.3114855289459228516 2.2249505519866943359 2.1384158134460449219 2.0518808364868164062 1.9653458595275878906 1.8788110017776489258 1.7922760248184204102 1.7057411670684814453 1.6192061901092529297 1.5326712131500244141 1.4461363554000854492 1.4293718338012695312 1.4293718338012695312 1.4293718338012695312 1.4293718338012695312 1.4293718338012695312 1.4293718338012695312 1.4293718338012695312 1.4293718338012695312 1.4293718338012695312 1.4924235343933105469 1.5789585113525390625 1.6654934883117675781 1.752028346061706543 1.8072441816329956055 1.7287741899490356445 1.6503041982650756836 1.5718342065811157227 1.4933642148971557617 1.4659771919250488281 1.4659771919250488281 1.4659771919250488281 1.4659771919250488281 1.4747788906097412109 1.5532488822937011719 1.6317188739776611328 1.7101888656616210938 1.7886587381362915039 1.8717527389526367188 1.9582877159118652344 2.04482269287109375 2.1313574314117431641 2.2121956348419189453 2.1337256431579589844 2.0552556514739990234 1.9767857789993286133 1.8983157873153686523 1.8976416587829589844 1.9761116504669189453 2.0545816421508789062 2.1330516338348388672 2.2115216255187988281 2.3727953433990478516 2.5378003120422363281 2.7028050422668457031 2.8678102493286132812 3.0328149795532226562 3.1978199481964111328 3.3628249168395996094 3.5278296470642089844 3.6928346157073974609 3.7127602100372314453 3.7127602100372314453 -9999 
8.3394231796264648438 8.32782745361328125 8.30069732666015625 8.2735662460327148438 8.2464361190795898438 8.2193059921264648438 8.086605072021484375 7.9406647682189941406 7.7947258949279785156 7.6487860679626464844 7.4933576583862304688 7.3202877044677734375 7.1472182273864746094 6.9741482734680175781 6.8010783195495605469 6.7683572769165039062 6.7683572769165039062 6.7683572769165039062 6.7683572769165039062 6.7448096275329589844 6.6582746505737304688 6.5717396736145019531 6.4852046966552734375 6.3986697196960449219 6.2685742378234863281 6.1226348876953125 5.9766955375671386719 5.8307561874389648438 5.6848168373107910156 5.5388770103454589844 5.3929376602172851562 5.2469983100891113281 5.1010589599609375 5.0118565559387207031 4.9524517059326171875 4.893047332763671875 4.8336429595947265625 4.7710690498352050781 4.6845340728759765625 4.5979990959167480469 4.5114641189575195312 4.4249291419982910156 4.3383941650390625 4.2518591880798339844 4.1653242111206054688 4.0787897109985351562 3.9922544956207275391 3.9057195186614990234 3.8191845417022705078 3.7326498031616210938 3.6461148262023925781 3.5595798492431640625 3.4730448722839355469 3.3865098953247070312 3.2999751567840576172 3.2134401798248291016 3.1008179187774658203 2.9871525764465332031 2.8734872341156005859 2.7598218917846679688 2.6576251983642578125 2.5710902214050292969 2.4845554828643798828 2.3980205059051513672 2.3114855289459228516 2.2249505519866943359 2.1384158134460449219 2.0518808364868164062 1.9653458595275878906 1.8788110017776489258 1.7922760248184204102 1.7057411670684814453 1.6192061901092529297 1.5326712131500244141 1.5159068107604980469 1.5159068107604980469 1.5159068107604980469 1.5159068107604980469 1.5159068107604980469 1.5159068107604980469 1.5159068107604980469 1.5159068107604980469 1.5159068107604980469 1.5789585113525390625 1.6654934883117675781 1.752028346061706543 1.8385633230209350586 1.8973978757858276367 1.8379933834075927734 1.7785890102386474609 1.7191845178604125977 1.6597800254821777344 1.6390470266342163086 1.6390470266342163086 1.6390470266342163086 1.6390470266342163086 1.6457102298736572266 1.7051147222518920898 1.7645192146301269531 1.8239235877990722656 1.8833280801773071289 1.9582877159118652344 2.04482269287109375 2.1313574314117431641 2.2178924083709716797 2.299388885498046875 2.2399842739105224609 2.1805799007415771484 2.1211752891540527344 2.0617709159851074219 2.0612607002258300781 2.1206650733947753906 2.1800694465637207031 2.2394740581512451172 2.2988784313201904297 2.4410867691040039062 2.5870263576507568359 2.7329657077789306641 2.8789050579071044922 3.0248444080352783203 3.1707837581634521484 3.3167233467102050781 3.4626626968383789062 3.6086020469665527344 3.6262252330780029297 3.6262252330780029297 -9999 
8.252887725830078125 8.2331447601318359375 8.1869478225708007812 8.1407518386840820312 8.0945558547973632812 8.0483598709106445312 7.9304757118225097656 7.8036017417907714844 7.6767277717590332031 7.549854278564453125 7.4068226814270019531 7.233753204345703125 7.0606832504272460938 6.8876132965087890625 6.7145433425903320312 6.6818222999572753906 6.6818222999572753906 6.6818222999572753906 6.6818222999572753906 6.6582746505737304688 6.5717396736145019531 6.4852046966552734375 6.3986697196960449219 6.3121352195739746094 6.1960196495056152344 6.0691461563110351562 5.9422717094421386719 5.8153982162475585938 5.6885242462158203125 5.5616502761840820312 5.43477630615234375 5.3079023361206054688 5.1810288429260253906 5.1108918190002441406 5.070552825927734375 5.0302138328552246094 4.9898748397827148438 4.9441385269165039062 4.8576035499572753906 4.7710690498352050781 4.6845340728759765625 4.5979990959167480469 4.5114641189575195312 4.4249291419982910156 4.3383941650390625 4.2518591880798339844 4.1653242111206054688 4.0787897109985351562 3.9922544956207275391 3.9057195186614990234 3.8191845417022705078 3.7326498031616210938 3.6461148262023925781 3.5595798492431640625 3.4730448722839355469 3.3865098953247070312 3.2555553913116455078 3.1228244304656982422 2.9900934696197509766 2.8573627471923828125 2.7441601753234863281 2.6576251983642578125 2.5710902214050292969 2.4845554828643798828 2.3980205059051513672 2.3114855289459228516 2.2249505519866943359 2.1384158134460449219 2.0518808364868164062 1.9653458595275878906 1.8788110017776489258 1.7922760248184204102 1.7057411670684814453 1.6192061901092529297 1.6024416685104370117 1.6024416685104370117 1.6024416685104370117 1.6024416685104370117 1.6024416685104370117 1.6024416685104370117 1.6024416685104370117 1.6024416685104370117 1.6024416685104370117 1.6654934883117675781 1.752028346061706543 1.8385633230209350586 1.9250982999801635742 1.987551569938659668 1.9472125768661499023 1.9068737030029296875 1.8665347099304199219 1.8261957168579101562 1.8121168613433837891 1.8121168613433837891 1.8121168613433837891 1.8121168613433837891 1.8166415691375732422 1.856980443000793457 1.8973194360733032227 1.9376584291458129883 1.9779974222183227539 2.04482269287109375 2.1313574314117431641 2.2178924083709716797 2.3044273853302001953 2.3865821361541748047 2.3462431430816650391 2.3059041500091552734 2.2655651569366455078 2.2252261638641357422 2.2248795032501220703 2.2652184963226318359 2.3055574893951416016 2.3458964824676513672 2.3862354755401611328 2.5093781948089599609 2.6362521648406982422 2.7631261348724365234 2.8899998664855957031 3.0168738365173339844 3.1437478065490722656 3.2706215381622314453 3.3974955081939697266 3.5243692398071289062 3.5396902561187744141 3.5396902561187744141 -9999 
8.1663532257080078125 8.1384601593017578125 8.0731992721557617188 8.007938385009765625 7.942676544189453125 7.877414703369140625 7.7743468284606933594 7.6665387153625488281 7.5587301254272460938 7.4509220123291015625 7.3202877044677734375 7.1472182273864746094 6.9741482734680175781 6.8010783195495605469 6.6280083656311035156 6.595287322998046875 6.595287322998046875 6.595287322998046875 6.595287322998046875 6.5717396736145019531 6.4852046966552734375 6.3986697196960449219 6.3121352195739746094 6.2256002426147460938 6.1234655380249023438 6.0156569480895996094 5.9078488349914550781 5.8000402450561523438 5.6922321319580078125 5.5844235420227050781 5.4766154289245605469 5.3688068389892578125 5.2609987258911132812 5.2099270820617675781 5.1886534690856933594 5.1673803329467773438 5.146106719970703125 5.1172084808349609375 5.0306735038757324219 4.9441385269165039062 4.8576035499572753906 4.7710690498352050781 4.6845340728759765625 4.5979990959167480469 4.5114641189575195312 4.4249291419982910156 4.3383941650390625 4.2518591880798339844 4.1653242111206054688 4.0787897109985351562 3.9922544956207275391 3.9057195186614990234 3.8191845417022705078 3.7326498031616210938 3.6461148262023925781 3.5595798492431640625 3.4102928638458251953 3.2584962844848632812 3.1066999435424804688 2.9549036026000976562 2.8306951522827148438 2.7441601753234863281 2.6576251983642578125 2.5710902214050292969 2.4845554828643798828 2.3980205059051513672 2.3114855289459228516 2.2249505519866943359 2.1384158134460449219 2.0518808364868164062 1.9653458595275878906 1.8788110017776489258 1.7922760248184204102 1.7057411670684814453 1.6889766454696655273 1.6889766454696655273 1.6889766454696655273 1.6889766454696655273 1.6889766454696655273 1.6889766454696655273 1.6889766454696655273 1.6889766454696655273 1.6889766454696655273 1.752028346061706543 1.8385633230209350586 1.9250982999801635742 2.0116331577301025391 2.07770538330078125 2.0564317703247070312 2.0351583957672119141 2.0138847827911376953 1.9926114082336425781 1.9851866960525512695 1.9851866960525512695 1.9851866960525512695 1.9851866960525512695 1.9875729084014892578 2.008846282958984375 2.0301198959350585938 2.0513932704925537109 2.0726666450500488281 2.1313574314117431641 2.2178924083709716797 2.3044273853302001953 2.3909623622894287109 2.4737751483917236328 2.4525017738342285156 2.4312281608581542969 2.4099547863006591797 2.3886814117431640625 2.3884985446929931641 2.4097719192504882812 2.4310455322265625 2.4523189067840576172 2.4735925197601318359 2.5776696205139160156 2.6854779720306396484 2.7932863235473632812 2.9010946750640869141 3.0089030265808105469 3.1167116165161132812 3.2245199680328369141 3.3323283195495605469 3.4401369094848632812 3.453155517578125 3.453155517578125 -9999 
8.0798177719116210938 8.0437765121459960938 7.9594502449035644531 7.8751230239868164062 7.7907958030700683594 7.7064695358276367188 7.6182184219360351562 7.5294756889343261719 7.4407329559326171875 7.3519902229309082031 7.233753204345703125 7.0606832504272460938 6.8876132965087890625 6.7145433425903320312 6.5414738655090332031 6.5087523460388183594 6.5087523460388183594 6.5087523460388183594 6.5087523460388183594 6.4852046966552734375 6.3986697196960449219 6.3121352195739746094 6.2256002426147460938 6.1390652656555175781 6.05091094970703125 5.9621682167053222656 5.8734254837036132812 5.7846827507019042969 5.6959395408630371094 5.607196807861328125 5.5184540748596191406 5.4297113418579101562 5.3409686088562011719 5.3089623451232910156 5.3067541122436523438 5.3045468330383300781 5.3023386001586914062 5.2902784347534179688 5.2037434577941894531 5.1172084808349609375 5.0306735038757324219 4.9441385269165039062 4.8576035499572753906 4.7710690498352050781 4.6845340728759765625 4.5979990959167480469 4.5114641189575195312 4.4249291419982910156 4.3383941650390625 4.2518591880798339844 4.1653242111206054688 4.0787897109985351562 3.9922544956207275391 3.9057195186614990234 3.8191845417022705078 3.7326498031616210938 3.5650300979614257812 3.3941683769226074219 3.2233061790466308594 3.0524444580078125 2.9172298908233642578 2.8306951522827148438 2.7441601753234863281 2.6576251983642578125 2.5710902214050292969 2.4845554828643798828 2.3980205059051513672 2.3114855289459228516 2.2249505519866943359 2.1384158134460449219 2.0518808364868164062 1.9653458595275878906 1.8788110017776489258 1.7922760248184204102 1.775511622428894043 1.775511622428894043 1.775511622428894043 1.775511622428894043 1.775511622428894043 1.775511622428894043 1.775511622428894043 1.775511622428894043 1.775511622428894043 1.8385633230209350586 1.9250982999801635742 2.0116331577301025391 2.0981681346893310547 2.1678590774536132812 2.1656510829925537109 2.1634430885314941406 2.1612350940704345703 2.1590273380279541016 2.15825653076171875 2.15825653076171875 2.15825653076171875 2.15825653076171875 2.1585042476654052734 2.1607122421264648438 2.1629202365875244141 2.1651279926300048828 2.1673359870910644531 2.2178924083709716797 2.3044273853302001953 2.3909623622894287109 2.477497100830078125 2.5609683990478515625 2.5587604045867919922 2.5565524101257324219 2.5543444156646728516 2.5521366596221923828 2.5521175861358642578 2.5543255805969238281 2.5565333366394042969 2.5587413311004638672 2.5609493255615234375 2.6459610462188720703 2.7347040176391601562 2.8234469890594482422 2.9121897220611572266 3.0009326934814453125 3.0896754264831542969 3.1784183979034423828 3.2671613693237304688 3.3559041023254394531 3.3666205406188964844 3.3666205406188964844 -9999 
7.9932832717895507812 7.956298828125 7.8697638511657714844 7.7832288742065429688 7.6966938972473144531 7.6101589202880859375 7.5236239433288574219 7.4370889663696289062 7.3505539894104003906 7.264019012451171875 7.15311431884765625 6.9969019889831542969 6.8406896591186523438 6.6844773292541503906 6.5282649993896484375 6.4987311363220214844 6.4987311363220214844 6.4987311363220214844 6.4987311363220214844 6.4751834869384765625 6.3886485099792480469 6.3021135330200195312 6.2155785560607910156 6.1290435791015625 6.0548701286315917969 5.9851927757263183594 5.9155154228210449219 5.8458385467529296875 5.7728824615478515625 5.6863474845886230469 5.5998125076293945312 5.5132780075073242188 5.4267430305480957031 5.3969445228576660156 5.3969445228576660156 5.3969445228576660156 5.3969445228576660156 5.3868346214294433594 5.3002996444702148438 5.2137646675109863281 5.1272301673889160156 5.0406951904296875 4.9541602134704589844 4.8676252365112304688 4.7810902595520019531 4.6945552825927734375 4.6080203056335449219 4.5214853286743164062 4.4349503517150878906 4.348415374755859375 4.2618808746337890625 4.1669106483459472656 4.0635180473327636719 3.9601256847381591797 3.8567333221435546875 3.7533407211303710938 3.5829498767852783203 3.4098801612854003906 3.2368102073669433594 3.0637404918670654297 2.9272515773773193359 2.8407166004180908203 2.7541816234588623047 2.6676466464996337891 2.581111907958984375 2.5094773769378662109 2.4398000240325927734 2.3701229095458984375 2.3004453182220458984 2.2307679653167724609 2.1610906124114990234 2.0914132595062255859 2.0217359066009521484 1.9520585536956787109 1.9385600090026855469 1.9385600090026855469 1.9385600090026855469 1.9385600090026855469 1.9340513944625854492 1.9171938896179199219 1.9003362655639648438 1.8834787607192993164 1.8666211366653442383 1.9128153324127197266 1.9824926853179931641 2.0521700382232666016 2.1218473911285400391 2.1750998497009277344 2.1582422256469726562 2.1413846015930175781 2.1245269775390625 2.1076695919036865234 2.1127600669860839844 2.1296176910400390625 2.1464750766754150391 2.1633327007293701172 2.1801903247833251953 2.1970479488372802734 2.2139055728912353516 2.2307629585266113281 2.2476205825805664062 2.2947621345520019531 2.3644394874572753906 2.4341168403625488281 2.5037941932678222656 2.5716481208801269531 2.5885057449340820312 2.6053631305694580078 2.6222205162048339844 2.6390781402587890625 2.6475794315338134766 2.6475794315338134766 2.6475794315338134766 2.6475794315338134766 2.6475794315338134766 2.7303833961486816406 2.8169183731079101562 2.9034533500671386719 2.9899883270263671875 3.0765230655670166016 3.1630580425262451172 3.2495930194854736328 3.3361279964447021484 3.4226627349853515625 3.4331123828887939453 3.4331123828887939453 -9999 
7.9067482948303222656 7.8697638511657714844 7.7832288742065429688 7.6966938972473144531 7.6101589202880859375 7.5236239433288574219 7.4370889663696289062 7.3505539894104003906 7.264019012451171875 7.1774840354919433594 7.0732474327087402344 6.9361004829406738281 6.798954010009765625 6.6618070602416992188 6.5246605873107910156 6.4987311363220214844 6.4987311363220214844 6.4987311363220214844 6.4987311363220214844 6.4751834869384765625 6.3886485099792480469 6.3021135330200195312 6.2155785560607910156 6.1290435791015625 6.0688509941101074219 6.0182390213012695312 5.9676275253295898438 5.9170155525207519531 5.8594174385070800781 5.7728824615478515625 5.6863474845886230469 5.5998125076293945312 5.5132780075073242188 5.4834794998168945312 5.4834794998168945312 5.4834794998168945312 5.4834794998168945312 5.473369598388671875 5.3868346214294433594 5.3002996444702148438 5.2137646675109863281 5.1272301673889160156 5.0406951904296875 4.9541602134704589844 4.8676252365112304688 4.7810902595520019531 4.6945552825927734375 4.6080203056335449219 4.5214853286743164062 4.4349503517150878906 4.348415374755859375 4.2439060211181640625 4.1214480400085449219 3.9989898204803466797 3.8765318393707275391 3.7540738582611083984 3.5829498767852783203 3.4098801612854003906 3.2368102073669433594 3.0637404918670654297 2.9272515773773193359 2.8407166004180908203 2.7541816234588623047 2.6676466464996337891 2.581111907958984375 2.5263297557830810547 2.4757177829742431641 2.425106048583984375 2.3744940757751464844 2.3238823413848876953 2.2732703685760498047 2.2226586341857910156 2.172046661376953125 2.1214349269866943359 2.1116297245025634766 2.1116297245025634766 2.1116297245025634766 2.1116297245025634766 2.1020221710205078125 2.0660991668701171875 2.0301761627197265625 1.9942530393600463867 1.9583299160003662109 1.9854586124420166016 2.0360703468322753906 2.0866823196411132812 2.1372940540313720703 2.1714808940887451172 2.1355578899383544922 2.0996348857879638672 2.0637116432189941406 2.0277886390686035156 2.0386364459991455078 2.0745596885681152344 2.1104826927185058594 2.1464056968688964844 2.1823289394378662109 2.2182519435882568359 2.2541749477386474609 2.2900979518890380859 2.3260211944580078125 2.3703660964965820312 2.4209778308868408203 2.4715895652770996094 2.5222015380859375 2.5723061561584472656 2.6082291603088378906 2.6441524028778076172 2.6800754070281982422 2.7159984111785888672 2.7341144084930419922 2.7341144084930419922 2.7341144084930419922 2.7341144084930419922 2.7341144084930419922 2.8169183731079101562 2.9034533500671386719 2.9899883270263671875 3.0765230655670166016 3.1630580425262451172 3.2495930194854736328 3.3361279964447021484 3.4226627349853515625 3.5091977119445800781 3.5196473598480224609 3.5196473598480224609 -9999 
7.82021331787109375 7.7832288742065429688 7.6966938972473144531 7.6101589202880859375 7.5236239433288574219 7.4370889663696289062 7.3505539894104003906 7.264019012451171875 7.1774840354919433594 7.0909495353698730469 6.9933810234069824219 6.8752999305725097656 6.7572183609008789062 6.63913726806640625 6.5210556983947753906 6.4987311363220214844 6.4987311363220214844 6.4987311363220214844 6.4987311363220214844 6.4751834869384765625 6.3886485099792480469 6.3021135330200195312 6.2155785560607910156 6.1290435791015625 6.0828318595886230469 6.0512852668762207031 6.0197386741638183594 5.9881930351257324219 5.9459524154663085938 5.8594174385070800781 5.7728824615478515625 5.6863474845886230469 5.5998125076293945312 5.5700144767761230469 5.5700144767761230469 5.5700144767761230469 5.5700144767761230469 5.5599045753479003906 5.473369598388671875 5.3868346214294433594 5.3002996444702148438 5.2137646675109863281 5.1272301673889160156 5.0406951904296875 4.9541602134704589844 4.8676252365112304688 4.7810902595520019531 4.6945552825927734375 4.6080203056335449219 4.5214853286743164062 4.4349503517150878906 4.3209009170532226562 4.1793775558471679688 4.0378537178039550781 3.8963303565979003906 3.7548067569732666016 3.5829498767852783203 3.4098801612854003906 3.2368102073669433594 3.0637404918670654297 2.9272515773773193359 2.8407166004180908203 2.7541816234588623047 2.6676466464996337891 2.581111907958984375 2.5431818962097167969 2.5116355419158935547 2.4800891876220703125 2.4485428333282470703 2.4169964790344238281 2.3854501247406005859 2.3539037704467773438 2.3223574161529541016 2.2908110618591308594 2.2846996784210205078 2.2846996784210205078 2.2846996784210205078 2.2846996784210205078 2.2699930667877197266 2.2150044441223144531 2.1600158214569091797 2.1050271987915039062 2.0500385761260986328 2.0581018924713134766 2.0896482467651367188 2.1211946010589599609 2.1527409553527832031 2.1678621768951416016 2.1128735542297363281 2.0578851699829101562 2.0028965473175048828 1.9479079246520996094 1.964512944221496582 2.0195014476776123047 2.0744900703430175781 2.1294786930084228516 2.184467315673828125 2.2394559383392333984 2.2944445610046386719 2.3494331836700439453 2.4044218063354492188 2.4459698200225830078 2.47751617431640625 2.5090625286102294922 2.5406086444854736328 2.5729644298553466797 2.6279530525207519531 2.6829416751861572266 2.7379302978515625 2.7929186820983886719 2.8206493854522705078 2.8206493854522705078 2.8206493854522705078 2.8206493854522705078 2.8206493854522705078 2.9034533500671386719 2.9899883270263671875 3.0765230655670166016 3.1630580425262451172 3.2495930194854736328 3.3361279964447021484 3.4226627349853515625 3.5091977119445800781 3.5957326889038085938 3.6061823368072509766 3.6061823368072509766 -9999 
7.7336783409118652344 7.6966938972473144531 7.6101589202880859375 7.5236239433288574219 7.4370889663696289062 7.3505539894104003906 7.264019012451171875 7.1774840354919433594 7.0909495353698730469 7.0044145584106445312 6.9135141372680664062 6.8144989013671875 6.7154827117919921875 6.6164669990539550781 6.5174512863159179688 6.4987311363220214844 6.4987311363220214844 6.4987311363220214844 6.4987311363220214844 6.4751834869384765625 6.3886485099792480469 6.3021135330200195312 6.2155785560607910156 6.1290435791015625 6.0968122482299804688 6.084331512451171875 6.0718507766723632812 6.0593700408935546875 6.0324873924255371094 5.9459524154663085938 5.8594174385070800781 5.7728824615478515625 5.6863474845886230469 5.6565494537353515625 5.6565494537353515625 5.6565494537353515625 5.6565494537353515625 5.6464395523071289062 5.5599045753479003906 5.473369598388671875 5.3868346214294433594 5.3002996444702148438 5.2137646675109863281 5.1272301673889160156 5.0406951904296875 4.9541602134704589844 4.8676252365112304688 4.7810902595520019531 4.6945552825927734375 4.6080203056335449219 4.5214853286743164062 4.39789581298828125 4.2373070716857910156 4.0767178535461425781 3.9161288738250732422 3.7555398941040039062 3.5829498767852783203 3.4098801612854003906 3.2368102073669433594 3.0637404918670654297 2.9272515773773193359 2.8407166004180908203 2.7541816234588623047 2.6676466464996337891 2.581111907958984375 2.5600340366363525391 2.5475533008575439453 2.53507232666015625 2.5225915908813476562 2.5101108551025390625 2.4976298809051513672 2.4851491451263427734 2.4726681709289550781 2.4601874351501464844 2.4577693939208984375 2.4577693939208984375 2.4577693939208984375 2.4577693939208984375 2.4379637241363525391 2.3639097213745117188 2.2898557186126708984 2.2158014774322509766 2.1417474746704101562 2.1307451725006103516 2.1432259082794189453 2.1557066440582275391 2.1681876182556152344 2.1642434597015380859 2.0901894569396972656 2.0161352157592773438 1.9420810937881469727 1.8680270910263061523 1.8903894424438476562 1.9644435644149780273 2.0384976863861083984 2.1125516891479492188 2.1866059303283691406 2.2606599330902099609 2.3347139358520507812 2.4087681770324707031 2.4828221797943115234 2.5215735435485839844 2.5340545177459716797 2.5465352535247802734 2.5590159893035888672 2.5736227035522460938 2.6476769447326660156 2.7217309474945068359 2.7957849502563476562 2.8698389530181884766 2.9071841239929199219 2.9071841239929199219 2.9071841239929199219 2.9071841239929199219 2.9071841239929199219 2.9899883270263671875 3.0765230655670166016 3.1630580425262451172 3.2495930194854736328 3.3361279964447021484 3.4226627349853515625 3.5091977119445800781 3.5957326889038085938 3.6822676658630371094 3.6927170753479003906 3.6927170753479003906 -9999 
7.7069172859191894531 7.6699323654174804688 7.5833973884582519531 7.4968624114990234375 7.4103274345397949219 7.3237924575805664062 7.2372579574584960938 7.1507229804992675781 7.0641880035400390625 6.9776530265808105469 6.8911180496215820312 6.8045830726623535156 6.718048095703125 6.6315131187438964844 6.5449781417846679688 6.5286173820495605469 6.5286173820495605469 6.5286173820495605469 6.5286173820495605469 6.5050702095031738281 6.4185352325439453125 6.3320002555847167969 6.2454652786254882812 6.1589303016662597656 6.1358509063720703125 6.1358509063720703125 6.1358509063720703125 6.1358509063720703125 6.1203031539916992188 6.0403528213500976562 5.9604024887084960938 5.8804521560668945312 5.8005018234252929688 5.7729711532592773438 5.7729711532592773438 5.7729711532592773438 5.7729711532592773438 5.7620916366577148438 5.6689724922180175781 5.5758528709411621094 5.4827332496643066406 5.3896131515502929688 5.2964935302734375 5.2033743858337402344 5.1102547645568847656 5.0171351432800292969 4.9240155220031738281 4.8308959007263183594 4.7377758026123046875 4.6446566581726074219 4.5515370368957519531 4.4217076301574707031 4.255222320556640625 4.0887370109558105469 3.9222519397735595703 3.7557666301727294922 3.5892815589904785156 3.4227964878082275391 3.2563109397888183594 3.0898258686065673828 2.9571380615234375 2.8706033229827880859 2.7840683460235595703 2.6975333690643310547 2.6109983921051025391 2.6067728996276855469 2.6133577823638916016 2.6199421882629394531 2.6265270709991455078 2.6285669803619384766 2.6219823360443115234 2.6153976917266845703 2.6088130474090576172 2.6022281646728515625 2.6009526252746582031 2.6009526252746582031 2.6009526252746582031 2.6009526252746582031 2.5760478973388671875 2.4829285144805908203 2.38980865478515625 2.2966890335083007812 2.2035696506500244141 2.1735017299652099609 2.1669170856475830078 2.1603324413299560547 2.15374755859375 2.1307380199432373047 2.0376183986663818359 1.9444987773895263672 1.8513791561126708984 1.7582595348358154297 1.7863792181015014648 1.8794988393783569336 1.9726184606552124023 2.0657382011413574219 2.1588575839996337891 2.2519772052764892578 2.3450968265533447266 2.4382164478302001953 2.5313360691070556641 2.5786166191101074219 2.5917859077453613281 2.6049554347991943359 2.6181247234344482422 2.6335997581481933594 2.7135498523712158203 2.7935001850128173828 2.8734505176544189453 2.9534006118774414062 2.9937191009521484375 2.9937191009521484375 2.9937191009521484375 2.9937191009521484375 2.9937191009521484375 3.0765230655670166016 3.1630580425262451172 3.2495930194854736328 3.3361279964447021484 3.4226627349853515625 3.5091977119445800781 3.5957326889038085938 3.6822676658630371094 3.768802642822265625 3.7792520523071289062 3.7792520523071289062 -9999 
7.7934517860412597656 7.7564673423767089844 7.6699323654174804688 7.5833973884582519531 7.4968624114990234375 7.4103274345397949219 7.3237924575805664062 7.2372579574584960938 7.1507229804992675781 7.0641880035400390625 6.9776530265808105469 6.8911180496215820312 6.8045830726623535156 6.718048095703125 6.6315131187438964844 6.6151523590087890625 6.6151523590087890625 6.6151523590087890625 6.6151523590087890625 6.5916051864624023438 6.5050702095031738281 6.4185352325439453125 6.3320002555847167969 6.2454652786254882812 6.2223858833312988281 6.2223858833312988281 6.2223858833312988281 6.2223858833312988281 6.2105455398559570312 6.1496605873107910156 6.0887761116027832031 6.0278916358947753906 5.967006683349609375 5.946041107177734375 5.946041107177734375 5.946041107177734375 5.946041107177734375 5.9329342842102050781 5.8207488059997558594 5.7085642814636230469 5.5963788032531738281 5.4841938018798828125 5.3720088005065917969 5.2598233222961425781 5.1476383209228515625 5.0354533195495605469 4.9232683181762695312 4.8110828399658203125 4.6988978385925292969 4.5867128372192382812 4.4745278358459472656 4.3447122573852539062 4.197292327880859375 4.0498728752136230469 3.9024534225463867188 3.7550337314605712891 3.6076140403747558594 3.4601943492889404297 3.312774658203125 3.1653549671173095703 3.0436730384826660156 2.9571380615234375 2.8706033229827880859 2.7840683460235595703 2.6975333690643310547 2.7101600170135498047 2.7358102798461914062 2.7614603042602539062 2.7871105670928955078 2.7950575351715087891 2.7694075107574462891 2.7437572479248046875 2.7181069850921630859 2.6924569606781005859 2.6874876022338867188 2.6874876022338867188 2.6874876022338867188 2.6874876022338867188 2.6574838161468505859 2.5452988147735595703 2.4331135749816894531 2.3209285736083984375 2.2087433338165283203 2.1596100330352783203 2.1339597702026367188 2.1083095073699951172 2.0826594829559326172 2.0405843257904052734 1.928399205207824707 1.8162140846252441406 1.7040289640426635742 1.5918438434600830078 1.6257207393646240234 1.7379058599472045898 1.8500909805297851562 1.9622761011123657227 2.0744612216949462891 2.1866462230682373047 2.2988314628601074219 2.4110167026519775391 2.5232017040252685547 2.6004788875579833984 2.6517791748046875 2.7030794620513916016 2.7543799877166748047 2.8060114383697509766 2.8668961524963378906 2.9277806282043457031 2.9886653423309326172 3.0495500564575195312 3.0802540779113769531 3.0802540779113769531 3.0802540779113769531 3.0802540779113769531 3.0802540779113769531 3.1630580425262451172 3.2495930194854736328 3.3361279964447021484 3.4226627349853515625 3.5091977119445800781 3.5957326889038085938 3.6822676658630371094 3.768802642822265625 3.8553373813629150391 3.8657870292663574219 3.8657870292663574219 -9999 
7.8799867630004882812 7.8430023193359375 7.7564673423767089844 7.6699323654174804688 7.5833973884582519531 7.4968624114990234375 7.4103274345397949219 7.3237924575805664062 7.2372579574584960938 7.1507229804992675781 7.0641880035400390625 6.9776530265808105469 6.8911180496215820312 6.8045830726623535156 6.718048095703125 6.7016873359680175781 6.7016873359680175781 6.7016873359680175781 6.7016873359680175781 6.6781401634216308594 6.5916051864624023438 6.5050702095031738281 6.4185352325439453125 6.3320002555847167969 6.3089208602905273438 6.3089208602905273438 6.3089208602905273438 6.3089208602905273438 6.3007884025573730469 6.2589688301086425781 6.2171497344970703125 6.1753306388854980469 6.1335110664367675781 6.1191110610961914062 6.1191110610961914062 6.1191110610961914062 6.1191110610961914062 6.1037764549255371094 5.9725260734558105469 5.8412756919860839844 5.7100243568420410156 5.5787739753723144531 5.4475235939025878906 5.316272735595703125 5.1850218772888183594 5.0537714958190917969 4.9225211143493652344 4.7912702560424804688 4.6600198745727539062 4.5287690162658691406 4.3975186347961425781 4.2677168846130371094 4.1393628120422363281 4.0110087394714355469 3.8826546669006347656 3.7543005943298339844 3.6259465217590332031 3.4975922107696533203 3.3692381381988525391 3.2408840656280517578 3.1302080154418945312 3.0436730384826660156 2.9571380615234375 2.8706033229827880859 2.7840683460235595703 2.8135471343994140625 2.8582630157470703125 2.9029784202575683594 2.9476943016052246094 2.9615480899810791016 2.9168324470520019531 2.8721168041229248047 2.8274011611938476562 2.7826852798461914062 2.7740225791931152344 2.7740225791931152344 2.7740225791931152344 2.7740225791931152344 2.7389197349548339844 2.6076691150665283203 2.4764184951782226562 2.3451678752899169922 2.2139172554016113281 2.1457183361053466797 2.1010026931762695312 2.0562870502471923828 2.0115711688995361328 1.9504306316375732422 1.8191800117492675781 1.6879293918609619141 1.55667877197265625 1.4254281520843505859 1.465062260627746582 1.5963129997253417969 1.7275636196136474609 1.858814239501953125 1.9900648593902587891 2.1213154792785644531 2.2525660991668701172 2.3838167190551757812 2.5150673389434814453 2.622341156005859375 2.7117726802825927734 2.8012039661407470703 2.8906352519989013672 2.9784228801727294922 3.0202422142028808594 3.062061309814453125 3.1038806438446044922 3.1456997394561767578 3.1667890548706054688 3.1667890548706054688 3.1667890548706054688 3.1667890548706054688 3.1667890548706054688 3.2495930194854736328 3.3361279964447021484 3.4226627349853515625 3.5091977119445800781 3.5957326889038085938 3.6822676658630371094 3.768802642822265625 3.8553373813629150391 3.9418723583221435547 3.9523220062255859375 3.9523220062255859375 -9999 
7.9665217399597167969 7.9295372962951660156 7.8430023193359375 7.7564673423767089844 7.6699323654174804688 7.5833973884582519531 7.4968624114990234375 7.4103274345397949219 7.3237924575805664062 7.2372579574584960938 7.1507229804992675781 7.0641880035400390625 6.9776530265808105469 6.8911180496215820312 6.8045830726623535156 6.7882223129272460938 6.7882223129272460938 6.7882223129272460938 6.7882223129272460938 6.764675140380859375 6.6781401634216308594 6.5916051864624023438 6.5050702095031738281 6.4185352325439453125 6.3954558372497558594 6.3954558372497558594 6.3954558372497558594 6.3954558372497558594 6.3910307884216308594 6.3682770729064941406 6.3455233573913574219 6.3227696418762207031 6.3000159263610839844 6.2921805381774902344 6.2921805381774902344 6.2921805381774902344 6.2921805381774902344 6.2746191024780273438 6.1243028640747070312 5.9739866256713867188 5.8236708641052246094 5.6733546257019042969 5.5230383872985839844 5.3727221488952636719 5.2224059104919433594 5.0720896720886230469 4.9217739105224609375 4.771457672119140625 4.6211414337158203125 4.4708251953125 4.3205089569091796875 4.1907219886779785156 4.0814332962036132812 3.9721448421478271484 3.8628561496734619141 3.7535676956176757812 3.6442790031433105469 3.5349903106689453125 3.4257016181945800781 3.3164129257202148438 3.2167429924011230469 3.1302080154418945312 3.0436730384826660156 2.9571380615234375 2.8706033229827880859 2.9169342517852783203 2.9807155132293701172 3.0444967746734619141 3.1082777976989746094 3.1280386447906494141 3.0642573833465576172 3.0004761219024658203 2.9366948604583740234 2.8729138374328613281 2.8605573177337646484 2.8605573177337646484 2.8605573177337646484 2.8605573177337646484 2.8203556537628173828 2.6700394153594970703 2.5197234153747558594 2.3694071769714355469 2.2190911769866943359 2.1318266391754150391 2.0680456161499023438 2.0042643547058105469 1.94048309326171875 1.8602769374847412109 1.7099608182907104492 1.5596446990966796875 1.409328460693359375 1.2590123414993286133 1.3044039011001586914 1.4547200202941894531 1.6050361394882202148 1.7553522586822509766 1.9056683778762817383 2.0559844970703125 2.2063007354736328125 2.3566167354583740234 2.5069329738616943359 2.64420318603515625 2.7717657089233398438 2.8993279933929443359 3.0268905162811279297 3.1508343219757080078 3.1735882759094238281 3.1963419914245605469 3.2190957069396972656 3.2418494224548339844 3.2533237934112548828 3.2533237934112548828 3.2533237934112548828 3.2533237934112548828 3.2533237934112548828 3.3361279964447021484 3.4226627349853515625 3.5091977119445800781 3.5957326889038085938 3.6822676658630371094 3.768802642822265625 3.8553373813629150391 3.9418723583221435547 4.0284070968627929688 4.0388569831848144531 4.0388569831848144531 -9999 
8.0530567169189453125 8.0160722732543945312 7.9295372962951660156 7.8430023193359375 7.7564673423767089844 7.6699323654174804688 7.5833973884582519531 7.4968624114990234375 7.4103274345397949219 7.3237924575805664062 7.2372579574584960938 7.1507229804992675781 7.0641880035400390625 6.9776530265808105469 6.8911180496215820312 6.8747572898864746094 6.8747572898864746094 6.8747572898864746094 6.8747572898864746094 6.8512096405029296875 6.764675140380859375 6.6781401634216308594 6.5916051864624023438 6.5050702095031738281 6.481990814208984375 6.481990814208984375 6.481990814208984375 6.481990814208984375 6.481273651123046875 6.4775853157043457031 6.4738969802856445312 6.4702086448669433594 6.4665207862854003906 6.4652504920959472656 6.4652504920959472656 6.4652504920959472656 6.4652504920959472656 6.445461273193359375 6.2760796546936035156 6.1066980361938476562 5.9373164176940917969 5.7679347991943359375 5.5985531806945800781 5.4291715621948242188 5.2597899436950683594 5.0904083251953125 4.9210262298583984375 4.7516450881958007812 4.5822634696960449219 4.4128813743591308594 4.243499755859375 4.1137270927429199219 4.0235037803649902344 3.9332807064056396484 3.8430576324462890625 3.752834320068359375 3.6626114845275878906 3.5723881721496582031 3.4821650981903076172 3.3919417858123779297 3.3032779693603515625 3.2167429924011230469 3.1302080154418945312 3.0436730384826660156 2.9571380615234375 3.0203213691711425781 3.1031682491302490234 3.1860148906707763672 3.2688615322113037109 3.2945291996002197266 3.2116825580596923828 3.1288359165191650391 3.0459890365600585938 2.96314239501953125 2.9470922946929931641 2.9470922946929931641 2.9470922946929931641 2.9470922946929931641 2.9017915725708007812 2.7324099540710449219 2.5630283355712890625 2.3936467170715332031 2.2242648601531982422 2.1179351806640625 2.0350883007049560547 1.9522415399551391602 1.8693948984146118164 1.7701232433319091797 1.6007415056228637695 1.4313598871231079102 1.2619782686233520508 1.0925966501235961914 1.14374542236328125 1.3131270408630371094 1.4825087785720825195 1.6518903970718383789 1.8212720155715942383 1.9906536340713500977 2.1600353717803955078 2.3294169902801513672 2.4987986087799072266 2.6660656929016113281 2.8317589759826660156 2.9974524974822998047 3.1631460189819335938 3.323246002197265625 3.3269343376159667969 3.3306224346160888672 3.3343107700347900391 3.3379988670349121094 3.3398587703704833984 3.3398587703704833984 3.3398587703704833984 3.3398587703704833984 3.3398587703704833984 3.4226627349853515625 3.5091977119445800781 3.5957326889038085938 3.6822676658630371094 3.768802642822265625 3.8553373813629150391 3.9418723583221435547 4.0284070968627929688 4.1149420738220214844 4.1253919601440429688 4.1253919601440429688 -9999 
8.139591217041015625 8.1026067733764648438 8.0160722732543945312 7.9295372962951660156 7.8430023193359375 7.7564673423767089844 7.6699323654174804688 7.5833973884582519531 7.4968624114990234375 7.4103274345397949219 7.3291711807250976562 7.2580132484436035156 7.186855316162109375 7.1156983375549316406 7.0445404052734375 7.0310869216918945312 7.0310869216918945312 7.0310869216918945312 7.0310869216918945312 7.0075397491455078125 6.9210047721862792969 6.8344697952270507812 6.7479348182678222656 6.66139984130859375 6.6383204460144042969 6.6383204460144042969 6.6383204460144042969 6.6383204460144042969 6.6353302001953125 6.6199526786804199219 6.6045756340026855469 6.5891981124877929688 6.5738210678100585938 6.5483613014221191406 6.5176067352294921875 6.4868521690368652344 6.4560976028442382812 6.4105124473571777344 6.2528200149536132812 6.095127105712890625 5.9374346733093261719 5.7797422409057617188 5.6131615638732910156 5.4400916099548339844 5.2670216560363769531 5.0939517021179199219 4.9208817481994628906 4.7478122711181640625 4.5747423171997070312 4.40167236328125 4.2286024093627929688 4.0988321304321289062 4.0122976303100585938 3.9257624149322509766 3.8392274379730224609 3.7526926994323730469 3.6809437274932861328 3.6097860336303710938 3.5386283397674560547 3.4674708843231201172 3.3963131904602050781 3.3251554965972900391 3.2539980411529541016 3.1828403472900390625 3.111682891845703125 3.1527268886566162109 3.2085070610046386719 3.2642874717712402344 3.3200678825378417969 3.321430206298828125 3.2195179462432861328 3.1176056861877441406 3.0156934261322021484 2.9137811660766601562 2.8940377235412597656 2.8940377235412597656 2.8940377235412597656 2.8940377235412597656 2.8477504253387451172 2.6746807098388671875 2.5016107559204101562 2.328540802001953125 2.1554710865020751953 2.0566573143005371094 1.9854996204376220703 1.9143419265747070312 1.843184351921081543 1.7585204839706420898 1.6162052154541015625 1.4738900661468505859 1.3315747976303100586 1.1892595291137695312 1.2422454357147216797 1.3999379873275756836 1.5576305389404296875 1.7153230905532836914 1.8747404813766479492 2.0478103160858154297 2.2208800315856933594 2.3939499855041503906 2.5670197010040283203 2.7400896549224853516 2.9131596088409423828 3.0862293243408203125 3.2592992782592773438 3.4269247055053710938 3.4423019886016845703 3.4576792716979980469 3.4730565547943115234 3.488433837890625 3.4961886405944824219 3.4961886405944824219 3.4961886405944824219 3.4961886405944824219 3.4961886405944824219 3.5789923667907714844 3.66552734375 3.7520623207092285156 3.8385972976684570312 3.9251320362091064453 4.0116672515869140625 4.0982022285461425781 4.1847367286682128906 4.2712717056274414062 4.2817215919494628906 4.2817215919494628906 -9999 
8.2261266708374023438 8.1891422271728515625 8.1026067733764648438 8.0160722732543945312 7.9295372962951660156 7.8430023193359375 7.7564673423767089844 7.6699323654174804688 7.5833973884582519531 7.4968624114990234375 7.4223742485046386719 7.3702821731567382812 7.3181896209716796875 7.2660980224609375 7.2140054702758789062 7.2041568756103515625 7.2041568756103515625 7.2041568756103515625 7.2041568756103515625 7.1806097030639648438 7.0940747261047363281 7.0075397491455078125 6.9210047721862792969 6.8344697952270507812 6.8113903999328613281 6.8113903999328613281 6.8113903999328613281 6.8113903999328613281 6.8046917915344238281 6.7702493667602539062 6.7358064651489257812 6.7013640403747558594 6.6669211387634277344 6.6098952293395996094 6.5410099029541015625 6.4721245765686035156 6.4032387733459472656 6.3262047767639160156 6.1875777244567871094 6.0489511489868164062 5.9103240966796875 5.7716965675354003906 5.6131615638732910156 5.4400916099548339844 5.2670216560363769531 5.0939517021179199219 4.9208817481994628906 4.7478122711181640625 4.5747423171997070312 4.40167236328125 4.2286024093627929688 4.0988321304321289062 4.0122976303100585938 3.9257624149322509766 3.8392274379730224609 3.7526926994323730469 3.6992762088775634766 3.6471841335296630859 3.5950920581817626953 3.5429999828338623047 3.4909076690673828125 3.4388155937194824219 3.3867235183715820312 3.3346314430236816406 3.28253936767578125 3.2920923233032226562 3.3097414970397949219 3.3273909091949462891 3.3450403213500976562 3.3148508071899414062 3.1938729286193847656 3.0728952884674072266 2.9519176483154296875 2.8309397697448730469 2.80750274658203125 2.80750274658203125 2.80750274658203125 2.80750274658203125 2.7612154483795166016 2.5881457328796386719 2.4150757789611816406 2.2420058250427246094 2.0689361095428466797 1.9840139150619506836 1.931921839714050293 1.8798297643661499023 1.8277375698089599609 1.7657580375671386719 1.6615738868713378906 1.5573896169662475586 1.4532053470611572266 1.3490211963653564453 1.4029037952423095703 1.5415309667587280273 1.6801578998565673828 1.8187849521636962891 1.9612753391265869141 2.1343452930450439453 2.307415008544921875 2.4804849624633789062 2.6535549163818359375 2.8266246318817138672 2.9996945858001708984 3.1727643013000488281 3.3458342552185058594 3.5141177177429199219 3.5485606193542480469 3.5830035209655761719 3.6174464225769042969 3.6518890857696533203 3.6692585945129394531 3.6692585945129394531 3.6692585945129394531 3.6692585945129394531 3.6692585945129394531 3.7520623207092285156 3.8385972976684570312 3.9251320362091064453 4.0116672515869140625 4.0982022285461425781 4.1847367286682128906 4.2712717056274414062 4.3578066825866699219 4.4443416595458984375 4.4547915458679199219 4.4547915458679199219 -9999 
8.3126611709594726562 8.275676727294921875 8.1891422271728515625 8.1026067733764648438 8.0160722732543945312 7.9295372962951660156 7.8430023193359375 7.7564673423767089844 7.6699323654174804688 7.5833973884582519531 7.5155773162841796875 7.4825506210327148438 7.44952392578125 7.4164972305297851562 7.3834705352783203125 7.3772263526916503906 7.3772263526916503906 7.3772263526916503906 7.3772263526916503906 7.353679656982421875 7.2671446800231933594 7.1806097030639648438 7.0940747261047363281 7.0075397491455078125 6.9844603538513183594 6.9844603538513183594 6.9844603538513183594 6.9844603538513183594 6.9740543365478515625 6.9205455780029296875 6.8670377731323242188 6.8135294914245605469 6.760021209716796875 6.6714296340942382812 6.5644130706787109375 6.4573965072631835938 6.3503794670104980469 6.2418975830078125 6.1223359107971191406 6.0027747154235839844 5.883213043212890625 5.7636513710021972656 5.6131615638732910156 5.4400916099548339844 5.2670216560363769531 5.0939517021179199219 4.9208817481994628906 4.7478122711181640625 4.5747423171997070312 4.40167236328125 4.2286024093627929688 4.0988321304321289062 4.0122976303100585938 3.9257624149322509766 3.8392274379730224609 3.7526926994323730469 3.7176086902618408203 3.6845819950103759766 3.6515555381774902344 3.6185288429260253906 3.5855023860931396484 3.5524756908416748047 3.5194489955902099609 3.4864223003387451172 3.453395843505859375 3.4314577579498291016 3.4109759330749511719 3.3904943466186523438 3.3700127601623535156 3.3082716464996337891 3.1682283878326416016 3.0281848907470703125 2.888141632080078125 2.7480986118316650391 2.7209677696228027344 2.7209677696228027344 2.7209677696228027344 2.7209677696228027344 2.6746807098388671875 2.5016107559204101562 2.328540802001953125 2.1554710865020751953 1.9824011325836181641 1.9113706350326538086 1.8783440589904785156 1.8453174829483032227 1.8122909069061279297 1.7729955911636352539 1.706942439079284668 1.6408891677856445312 1.5748360157012939453 1.5087827444076538086 1.5635622739791870117 1.6831238269805908203 1.8026853799819946289 1.9222469329833984375 2.0478103160858154297 2.2208800315856933594 2.3939499855041503906 2.5670197010040283203 2.7400896549224853516 2.9131596088409423828 3.0862293243408203125 3.2592992782592773438 3.432369232177734375 3.6013112068176269531 3.6548192501068115234 3.7083275318145751953 3.7618360519409179688 3.8153443336486816406 3.8423283100128173828 3.8423283100128173828 3.8423283100128173828 3.8423283100128173828 3.8423283100128173828 3.9251320362091064453 4.0116672515869140625 4.0982022285461425781 4.1847367286682128906 4.2712717056274414062 4.3578066825866699219 4.4443416595458984375 4.5308766365051269531 4.6174116134643554688 4.6278614997863769531 4.6278614997863769531 -9999 
8.399196624755859375 8.3622121810913085938 8.275676727294921875 8.1891422271728515625 8.1026067733764648438 8.0160722732543945312 7.9295372962951660156 7.8430023193359375 7.7564673423767089844 7.6699323654174804688 7.6087803840637207031 7.5948195457458496094 7.5808587074279785156 7.5668973922729492188 7.552936553955078125 7.5502963066101074219 7.5502963066101074219 7.5502963066101074219 7.5502963066101074219 7.5267496109008789062 7.4402146339416503906 7.353679656982421875 7.2671446800231933594 7.1806097030639648438 7.1575298309326171875 7.1575298309326171875 7.1575298309326171875 7.1575298309326171875 7.1434164047241210938 7.070842742919921875 6.9982686042785644531 6.9256949424743652344 6.8531212806701660156 6.7329640388488769531 6.5878162384033203125 6.4426684379577636719 6.2975211143493652344 6.1575899124145507812 6.0570940971374511719 5.9565982818603515625 5.85610198974609375 5.7556061744689941406 5.6131615638732910156 5.4400916099548339844 5.2670216560363769531 5.0939517021179199219 4.9208817481994628906 4.7478122711181640625 4.5747423171997070312 4.40167236328125 4.2286024093627929688 4.0988321304321289062 4.0122976303100585938 3.9257624149322509766 3.8392274379730224609 3.7526926994323730469 3.7359411716461181641 3.7219800949096679688 3.7080190181732177734 3.6940579414367675781 3.6800966262817382812 3.6661357879638671875 3.6521744728088378906 3.6382133960723876953 3.6242525577545166016 3.5708231925964355469 3.5122106075286865234 3.4535977840423583984 3.3949849605560302734 3.3016922473907470703 3.1425836086273193359 2.9834747314453125 2.8243658542633056641 2.6652572154998779297 2.6344330310821533203 2.6344330310821533203 2.6344330310821533203 2.6344330310821533203 2.5881457328796386719 2.4150757789611816406 2.2420058250427246094 2.0689361095428466797 1.8958662748336791992 1.8387274742126464844 1.8247663974761962891 1.810805201530456543 1.7968442440032958984 1.7802331447601318359 1.7523109912872314453 1.7243887186050415039 1.6964665651321411133 1.6685444116592407227 1.7242207527160644531 1.8247168064117431641 1.9252127408981323242 2.0257089138031005859 2.1343452930450439453 2.307415008544921875 2.4804849624633789062 2.6535549163818359375 2.8266246318817138672 2.9996945858001708984 3.1727643013000488281 3.3458342552185058594 3.5189039707183837891 3.6885042190551757812 3.761077880859375 3.8336517810821533203 3.9062256813049316406 3.9787995815277099609 4.0153980255126953125 4.0153980255126953125 4.0153980255126953125 4.0153980255126953125 4.0153980255126953125 4.0982022285461425781 4.1847367286682128906 4.2712717056274414062 4.3578066825866699219 4.4443416595458984375 4.5308766365051269531 4.6174116134643554688 4.7039465904235839844 4.7904815673828125 4.8009309768676757812 4.8009309768676757812 -9999 
8.508899688720703125 8.4719152450561523438 8.385379791259765625 8.2988452911376953125 8.2123098373413085938 8.1257753372192382812 8.1072750091552734375 8.0973062515258789062 8.087337493896484375 8.07736968994140625 8.0441074371337890625 7.9675412178039550781 7.8909749984741210938 7.8144087791442871094 7.7378420829772949219 7.7233662605285644531 7.7233662605285644531 7.7233662605285644531 7.7233662605285644531 7.6998190879821777344 7.6132845878601074219 7.5267496109008789062 7.4402146339416503906 7.353679656982421875 7.3268570899963378906 7.3217525482177734375 7.3166480064392089844 7.3115439414978027344 7.2896103858947753906 7.1979708671569824219 7.1063318252563476562 7.0146923065185546875 6.9230532646179199219 6.7780237197875976562 6.604953765869140625 6.4318838119506835938 6.2588138580322265625 6.0958542823791503906 6.009319305419921875 5.9227843284606933594 5.8362493515014648438 5.7497143745422363281 5.6131615638732910156 5.4400916099548339844 5.2670216560363769531 5.0939517021179199219 4.9210820198059082031 4.753116607666015625 4.5851511955261230469 4.4171857833862304688 4.2492203712463378906 4.1245546340942382812 4.0431237220764160156 3.9616935253143310547 3.8802628517150878906 3.7988324165344238281 3.7907934188842773438 3.7856888771057128906 3.7805845737457275391 3.7754802703857421875 3.772533416748046875 3.772533416748046875 3.772533416748046875 3.772533416748046875 3.772533416748046875 3.6915326118469238281 3.5998930931091308594 3.5082538127899169922 3.416614532470703125 3.2968742847442626953 3.1238045692443847656 2.9507346153259277344 2.7776648998260498047 2.6045949459075927734 2.5710659027099609375 2.5710659027099609375 2.5710659027099609375 2.5710659027099609375 2.5247786045074462891 2.3517088890075683594 2.1786389350891113281 2.0055692195892333984 1.832499384880065918 1.7818137407302856445 1.7767093181610107422 1.7716048955917358398 1.7665004730224609375 1.7633337974548339844 1.7684382200241088867 1.7735426425933837891 1.7786470651626586914 1.7837514877319335938 1.8451889753341674805 1.9368283748626708984 2.0284676551818847656 2.1201069355010986328 2.2208800315856933594 2.3939499855041503906 2.5670197010040283203 2.7400896549224853516 2.9131596088409423828 3.0862293243408203125 3.2592992782592773438 3.432369232177734375 3.6054389476776123047 3.7756972312927246094 3.8673367500305175781 3.9589760303497314453 4.0506153106689453125 4.1422548294067382812 4.1884679794311523438 4.1884679794311523438 4.1884679794311523438 4.1884679794311523438 4.1884679794311523438 4.2712717056274414062 4.3578066825866699219 4.4443416595458984375 4.5308766365051269531 4.6174116134643554688 4.7039465904235839844 4.7904815673828125 4.8770165443420410156 4.9635510444641113281 4.9740009307861328125 4.9740009307861328125 -9999 
8.6819696426391601562 8.6449842453002929688 8.5584497451782226562 8.4719152450561523438 8.385379791259765625 8.2988452911376953125 8.53446197509765625 8.8104763031005859375 9.086490631103515625 9.3625040054321289062 9.4151773452758789062 9.0526275634765625 8.6900787353515625 8.3275308609008789062 7.9649815559387207031 7.8964362144470214844 7.8964362144470214844 7.8964362144470214844 7.8964362144470214844 7.8728885650634765625 7.7863535881042480469 7.6998190879821777344 7.6132845878601074219 7.5267496109008789062 7.4859457015991210938 7.4617762565612792969 7.4376058578491210938 7.4134364128112792969 7.3724374771118164062 7.2617325782775878906 7.151027679443359375 7.0403232574462890625 6.9296183586120605469 6.7780237197875976562 6.604953765869140625 6.4318838119506835938 6.2588138580322265625 6.0958542823791503906 6.009319305419921875 5.9227843284606933594 5.8362493515014648438 5.7497143745422363281 5.6131615638732910156 5.4400916099548339844 5.2670216560363769531 5.0939517021179199219 4.9218292236328125 4.7729291915893554688 4.6240296363830566406 4.4751296043395996094 4.3262295722961425781 4.2206292152404785156 4.15826416015625 4.0958991050720214844 4.0335340499877929688 3.9711692333221435547 3.9455306529998779297 3.9213607311248779297 3.8971910476684570312 3.8730208873748779297 3.8590683937072753906 3.8590683937072753906 3.8590683937072753906 3.8590683937072753906 3.8590683937072753906 3.7612152099609375 3.6505105495452880859 3.5398056507110595703 3.4291007518768310547 3.2968742847442626953 3.1238045692443847656 2.9507346153259277344 2.7776648998260498047 2.6045949459075927734 2.5710659027099609375 2.5710659027099609375 2.5710659027099609375 2.5710659027099609375 2.5247786045074462891 2.3517088890075683594 2.1786389350891113281 2.0055692195892333984 1.832499384880065918 1.7679220438003540039 1.7437521219253540039 1.7195823192596435547 1.6954123973846435547 1.6804176568984985352 1.7045875787734985352 1.7287575006484985352 1.7529274225234985352 1.7770973443984985352 1.8576004505157470703 1.9683052301406860352 2.079010009765625 2.1897149085998535156 2.307415008544921875 2.4804849624633789062 2.6535549163818359375 2.8266246318817138672 2.9996945858001708984 3.1727643013000488281 3.3458342552185058594 3.5189039707183837891 3.6919739246368408203 3.8628904819488525391 3.9735953807830810547 4.0843000411987304688 4.1950049400329589844 4.3057098388671875 4.361537933349609375 4.361537933349609375 4.361537933349609375 4.361537933349609375 4.361537933349609375 4.4443416595458984375 4.5308766365051269531 4.6174116134643554688 4.7039465904235839844 4.7904815673828125 4.8770165443420410156 4.9635510444641113281 5.0500860214233398438 5.1366209983825683594 5.1470708847045898438 5.1470708847045898438 -9999 
8.8550395965576171875 8.81805419921875 8.7315187454223632812 8.6449842453002929688 8.5584497451782226562 8.4719152450561523438 8.9616498947143554688 9.5236463546752929688 10.085642814636230469 10.647639274597167969 10.786246299743652344 10.137714385986328125 9.4891834259033203125 8.8406515121459960938 8.192119598388671875 8.0695066452026367188 8.0695066452026367188 8.0695066452026367188 8.0695066452026367188 8.0459585189819335938 7.9594235420227050781 7.8728885650634765625 7.7863535881042480469 7.6998190879821777344 7.6450352668762207031 7.6017999649047851562 7.5585646629333496094 7.5153288841247558594 7.4552645683288574219 7.3254942893981933594 7.1957240104675292969 7.0659537315368652344 6.9361834526062011719 6.7780237197875976562 6.604953765869140625 6.4318838119506835938 6.2588138580322265625 6.0958542823791503906 6.009319305419921875 5.9227843284606933594 5.8362493515014648438 5.7497143745422363281 5.6131615638732910156 5.4400916099548339844 5.2670216560363769531 5.0939517021179199219 4.9225764274597167969 4.7927422523498535156 4.6629076004028320312 4.5330729484558105469 4.4032387733459472656 4.31670379638671875 4.2734045982360839844 4.2301049232482910156 4.18680572509765625 4.1435060501098632812 4.1002683639526367188 4.0570325851440429688 4.0137972831726074219 3.9705617427825927734 3.9456033706665039062 3.9456033706665039062 3.9456033706665039062 3.9456033706665039062 3.9456033706665039062 3.8308980464935302734 3.7011275291442871094 3.5713574886322021484 3.4415869712829589844 3.2968742847442626953 3.1238045692443847656 2.9507346153259277344 2.7776648998260498047 2.6045949459075927734 2.5710659027099609375 2.5710659027099609375 2.5710659027099609375 2.5710659027099609375 2.5247786045074462891 2.3517088890075683594 2.1786389350891113281 2.0055692195892333984 1.832499384880065918 1.7540304660797119141 1.7107950448989868164 1.6675596237182617188 1.6243240833282470703 1.5975015163421630859 1.6407369375228881836 1.6839723587036132812 1.7272077798843383789 1.7704432010650634766 1.8700116872787475586 1.9997822046279907227 2.1295526027679443359 2.2593228816986083984 2.3939499855041503906 2.5670197010040283203 2.7400896549224853516 2.9131596088409423828 3.0862293243408203125 3.2592992782592773438 3.432369232177734375 3.6054389476776123047 3.7785089015960693359 3.9500837326049804688 4.0798540115356445312 4.2096242904663085938 4.3393945693969726562 4.4691653251647949219 4.5346078872680664062 4.5346078872680664062 4.5346078872680664062 4.5346078872680664062 4.5346078872680664062 4.6174116134643554688 4.7039465904235839844 4.7904815673828125 4.8770165443420410156 4.9635510444641113281 5.0500860214233398438 5.1366209983825683594 5.223155975341796875 5.3096909523010253906 5.320140838623046875 5.320140838623046875 -9999 
9.0281095504760742188 8.9911241531372070312 8.9045886993408203125 8.81805419921875 8.7315187454223632812 8.6449842453002929688 9.3888368606567382812 10.23681640625 11.084795951843261719 11.932774543762207031 12.157315254211425781 11.222802162170410156 10.288288116455078125 9.3537731170654296875 8.4192590713500976562 8.24257659912109375 8.24257659912109375 8.24257659912109375 8.24257659912109375 8.219028472900390625 8.1324930191040039062 8.0459585189819335938 7.9594235420227050781 7.8728885650634765625 7.8041248321533203125 7.7418236732482910156 7.6795229911804199219 7.617221832275390625 7.5380921363830566406 7.3892564773559570312 7.2404203414916992188 7.0915842056274414062 6.9427485466003417969 6.7780237197875976562 6.604953765869140625 6.4318838119506835938 6.2588138580322265625 6.0958542823791503906 6.009319305419921875 5.9227843284606933594 5.8362493515014648438 5.7497143745422363281 5.6131615638732910156 5.4400916099548339844 5.2670216560363769531 5.0939517021179199219 4.9233236312866210938 4.8125548362731933594 4.7017855644226074219 4.5910172462463378906 4.4802479743957519531 4.4127788543701171875 4.3885450363159179688 4.3643107414245605469 4.3400769233703613281 4.3158426284790039062 4.2550058364868164062 4.1927046775817871094 4.1304035186767578125 4.0681028366088867188 4.0321383476257324219 4.0321383476257324219 4.0321383476257324219 4.0321383476257324219 4.0321383476257324219 3.9005808830261230469 3.7517449855804443359 3.602909088134765625 3.4540731906890869141 3.2968742847442626953 3.1238045692443847656 2.9507346153259277344 2.7776648998260498047 2.6045949459075927734 2.5710659027099609375 2.5710659027099609375 2.5710659027099609375 2.5710659027099609375 2.5247786045074462891 2.3517088890075683594 2.1786389350891113281 2.0055692195892333984 1.832499384880065918 1.7401387691497802734 1.6778378486633300781 1.6155369281768798828 1.5532358884811401367 1.5145853757858276367 1.576886296272277832 1.6391872167587280273 1.7014881372451782227 1.7637891769409179688 1.8824231624603271484 2.0312590599060058594 2.1800949573516845703 2.3289308547973632812 2.4804849624633789062 2.6535549163818359375 2.8266246318817138672 2.9996945858001708984 3.1727643013000488281 3.3458342552185058594 3.5189039707183837891 3.6919739246368408203 3.8650438785552978516 4.0372767448425292969 4.1861124038696289062 4.3349485397338867188 4.4837846755981445312 4.6326203346252441406 4.7076778411865234375 4.7076778411865234375 4.7076778411865234375 4.7076778411865234375 4.7076778411865234375 4.7904815673828125 4.8770165443420410156 4.9635510444641113281 5.0500860214233398438 5.1366209983825683594 5.223155975341796875 5.3096909523010253906 5.3962259292602539062 5.4827609062194824219 5.4932107925415039062 5.4932107925415039062 -9999 
9.20117950439453125 9.1641941070556640625 9.0776586532592773438 8.9911241531372070312 8.9045886993408203125 8.81805419921875 9.8160247802734375 10.949986457824707031 12.083948135375976562 13.2179107666015625 13.528385162353515625 12.307888984680175781 11.087391853332519531 9.8668947219848632812 8.6463975906372070312 8.4156465530395507812 8.4156465530395507812 8.4156465530395507812 8.4156465530395507812 8.3920984268188476562 8.3055629730224609375 8.219028472900390625 8.1324930191040039062 8.0459585189819335938 7.9632139205932617188 7.881847381591796875 7.8004808425903320312 7.7191143035888671875 7.6209187507629394531 7.4530181884765625 7.2851166725158691406 7.1172146797180175781 6.9493136405944824219 6.7780237197875976562 6.604953765869140625 6.4318838119506835938 6.2588138580322265625 6.0958542823791503906 6.009319305419921875 5.9227843284606933594 5.8362493515014648438 5.7497143745422363281 5.6131615638732910156 5.4400916099548339844 5.2670216560363769531 5.0939517021179199219 4.9240708351135253906 4.8323674201965332031 4.7406640052795410156 4.6489605903625488281 4.5572571754455566406 4.5088534355163574219 4.50368499755859375 4.4985165596008300781 4.4933481216430664062 4.4881796836853027344 4.4097428321838378906 4.3283762931823730469 4.2470102310180664062 4.1656432151794433594 4.1186733245849609375 4.1186733245849609375 4.1186733245849609375 4.1186733245849609375 4.1186733245849609375 3.9702634811401367188 3.8023619651794433594 3.6344606876373291016 3.4665594100952148438 3.2968742847442626953 3.1238045692443847656 2.9507346153259277344 2.7776648998260498047 2.6045949459075927734 2.5710659027099609375 2.5710659027099609375 2.5710659027099609375 2.5710659027099609375 2.5247786045074462891 2.3517088890075683594 2.1786389350891113281 2.0055692195892333984 1.832499384880065918 1.7262470722198486328 1.6448806524276733398 1.5635142326354980469 1.4821478128433227539 1.4316692352294921875 1.5130356550216674805 1.5944020748138427734 1.6757686138153076172 1.7571350336074829102 1.8948346376419067383 2.0627357959747314453 2.2306373119354248047 2.3985388278961181641 2.5670197010040283203 2.7400896549224853516 2.9131596088409423828 3.0862293243408203125 3.2592992782592773438 3.432369232177734375 3.6054389476776123047 3.7785089015960693359 3.9515786170959472656 4.124469757080078125 4.2923712730407714844 4.4602727890014648438 4.6281743049621582031 4.7960753440856933594 4.8807473182678222656 4.8807473182678222656 4.8807473182678222656 4.8807473182678222656 4.8807473182678222656 4.9635510444641113281 5.0500860214233398438 5.1366209983825683594 5.223155975341796875 5.3096909523010253906 5.3962259292602539062 5.4827609062194824219 5.5692958831787109375 5.6558308601379394531 5.6662802696228027344 5.6662802696228027344 -9999 
10.257314682006835938 10.214390754699707031 10.113958358764648438 10.01352691650390625 9.9130945205688476562 9.8126630783081054688 10.717441558837890625 11.748269081115722656 12.779096603393554688 13.809924125671386719 14.026221275329589844 12.728197097778320312 11.430173873901367188 10.13214874267578125 8.834125518798828125 8.5887155532836914062 8.5887155532836914062 8.5887155532836914062 8.5887155532836914062 8.5651683807373046875 8.4786329269409179688 8.3920984268188476562 8.3055629730224609375 8.219028472900390625 8.122303009033203125 8.0218715667724609375 7.9214391708374023438 7.8210072517395019531 7.7064490318298339844 7.5333790779113769531 7.360309600830078125 7.1872396469116210938 7.0141696929931640625 6.8410997390747070312 6.66802978515625 6.4949603080749511719 6.3218903541564941406 6.1589303016662597656 6.07239532470703125 5.9858608245849609375 5.8993258476257324219 5.8127908706665039062 5.6842703819274902344 5.5250973701477050781 5.365924835205078125 5.2067518234252929688 5.0504260063171386719 4.9638910293579101562 4.8773560523986816406 4.790821075439453125 4.7042860984802246094 4.6540970802307128906 4.6402001380920410156 4.6263027191162109375 4.6124057769775390625 4.5985088348388671875 4.514766693115234375 4.4282317161560058594 4.3416972160339355469 4.2551622390747070312 4.1993336677551269531 4.1854367256164550781 4.171539306640625 4.157642364501953125 4.14374542236328125 3.9891538619995117188 3.8160839080810546875 3.6430141925811767578 3.4699442386627197266 3.2968742847442626953 3.1238045692443847656 2.9507346153259277344 2.7776648998260498047 2.6045949459075927734 2.5710659027099609375 2.5710659027099609375 2.5710659027099609375 2.5710659027099609375 2.5247786045074462891 2.3517088890075683594 2.1786389350891113281 2.0055692195892333984 1.832499384880065918 1.712355494499206543 1.6119234561920166016 1.5114915370941162109 1.4110596179962158203 1.3487530946731567383 1.4491850137710571289 1.5496169328689575195 1.6500489711761474609 1.7504808902740478516 1.8981992006301879883 2.0712690353393554688 2.2443387508392333984 2.4174087047576904297 2.5904784202575683594 2.7635483741760253906 2.9366180896759033203 3.1096880435943603516 3.2827579975128173828 3.4558277130126953125 3.6288976669311523438 3.8019673824310302734 3.9750373363494873047 4.1481070518493652344 4.3211770057678222656 4.4942469596862792969 4.6673169136047363281 4.8403863906860351562 4.9414424896240234375 4.9692368507385253906 4.9970307350158691406 5.0248250961303710938 5.0526189804077148438 5.1366209983825683594 5.223155975341796875 5.3096909523010253906 5.3962259292602539062 5.4827609062194824219 5.5692958831787109375 5.6558308601379394531 5.7423658370971679688 5.8289003372192382812 5.8393502235412597656 5.8393502235412597656 -9999 
11.641873359680175781 11.590801239013671875 11.471302986145019531 11.351805686950683594 11.232308387756347656 11.112810134887695312 11.795229911804199219 12.578206062316894531 13.361182212829589844 14.144158363342285156 14.199291229248046875 12.901267051696777344 11.603242874145507812 10.305218696594238281 9.0071954727172851562 8.7617855072021484375 8.7617855072021484375 8.7617855072021484375 8.7617855072021484375 8.7382383346557617188 8.651702880859375 8.5651683807373046875 8.4786329269409179688 8.3920984268188476562 8.2813920974731445312 8.1618947982788085938 8.04239654541015625 7.9228997230529785156 7.7929840087890625 7.6199140548706054688 7.4468445777893066406 7.2737746238708496094 7.1007046699523925781 6.9276347160339355469 6.7545647621154785156 6.5814952850341796875 6.4084253311157226562 6.2454652786254882812 6.1589303016662597656 6.07239532470703125 5.9858608245849609375 5.8993258476257324219 5.7818255424499511719 5.6417179107666015625 5.5016102790832519531 5.3615031242370605469 5.2234959602355957031 5.1369609832763671875 5.0504260063171386719 4.9638910293579101562 4.8773560523986816406 4.817626953125 4.7846646308898925781 4.7517018318176269531 4.7187395095825195312 4.6857767105102539062 4.6013016700744628906 4.514766693115234375 4.4282317161560058594 4.3416972160339355469 4.2778086662292480469 4.244846343994140625 4.211883544921875 4.1789212226867675781 4.1459584236145019531 3.9891538619995117188 3.8160839080810546875 3.6430141925811767578 3.4699442386627197266 3.2968742847442626953 3.1238045692443847656 2.9507346153259277344 2.7776648998260498047 2.6045949459075927734 2.5710659027099609375 2.5710659027099609375 2.5710659027099609375 2.5710659027099609375 2.5247786045074462891 2.3517088890075683594 2.1786389350891113281 2.0055692195892333984 1.832499384880065918 1.6984637975692749023 1.5789662599563598633 1.459468841552734375 1.3399714231491088867 1.2658369541168212891 1.3853343725204467773 1.5048319101333618164 1.6243293285369873047 1.7438268661499023438 1.8981992006301879883 2.0712690353393554688 2.2443387508392333984 2.4174087047576904297 2.5904784202575683594 2.7635483741760253906 2.9366180896759033203 3.1096880435943603516 3.2827579975128173828 3.4558277130126953125 3.6288976669311523438 3.8019673824310302734 3.9750373363494873047 4.1481070518493652344 4.3211770057678222656 4.4942469596862792969 4.6673169136047363281 4.8403863906860351562 4.9603443145751953125 5.0262694358825683594 5.0921945571899414062 5.1581196784973144531 5.2240447998046875 5.3096909523010253906 5.3962259292602539062 5.4827609062194824219 5.5692958831787109375 5.6558308601379394531 5.7423658370971679688 5.8289003372192382812 5.9154353141784667969 6.0019702911376953125 6.0124201774597167969 6.0124201774597167969 -9999 
13.026432037353515625 12.967211723327636719 12.828648567199707031 12.690085411071777344 12.55152130126953125 12.412959098815917969 12.873019218444824219 13.408143043518066406 13.943266868591308594 14.478391647338867188 14.372361183166503906 13.074337005615234375 11.776312828063964844 10.478288650512695312 9.1802654266357421875 8.9348554611206054688 8.9348554611206054688 8.9348554611206054688 8.9348554611206054688 8.91130828857421875 8.8247728347778320312 8.7382383346557617188 8.651702880859375 8.5651683807373046875 8.4404821395874023438 8.3019189834594726562 8.1633548736572265625 8.024791717529296875 7.8795185089111328125 7.7064490318298339844 7.5333790779113769531 7.360309600830078125 7.1872396469116210938 7.0141696929931640625 6.8410997390747070312 6.66802978515625 6.4949603080749511719 6.3320002555847167969 6.2454652786254882812 6.1589303016662597656 6.07239532470703125 5.9858608245849609375 5.8793802261352539062 5.7583384513854980469 5.6372966766357421875 5.5162549018859863281 5.3965654373168945312 5.3100309371948242188 5.2234959602355957031 5.1369609832763671875 5.0504260063171386719 4.9811573028564453125 4.9291291236877441406 4.8771009445190429688 4.8250727653503417969 4.7730450630187988281 4.6878366470336914062 4.6013016700744628906 4.514766693115234375 4.4282317161560058594 4.3562841415405273438 4.3042559623718261719 4.252227783203125 4.2002000808715820312 4.1481719017028808594 3.9891538619995117188 3.8160839080810546875 3.6430141925811767578 3.4699442386627197266 3.2968742847442626953 3.1238045692443847656 2.9507346153259277344 2.7776648998260498047 2.6045949459075927734 2.5710659027099609375 2.5710659027099609375 2.5710659027099609375 2.5710659027099609375 2.5247786045074462891 2.3517088890075683594 2.1786389350891113281 2.0055692195892333984 1.832499384880065918 1.6845721006393432617 1.5460091829299926758 1.4074461460113525391 1.2688832283020019531 1.1829208135604858398 1.3214837312698364258 1.4600467681884765625 1.5986096858978271484 1.7371727228164672852 1.8981992006301879883 2.0712690353393554688 2.2443387508392333984 2.4174087047576904297 2.5904784202575683594 2.7635483741760253906 2.9366180896759033203 3.1096880435943603516 3.2827579975128173828 3.4558277130126953125 3.6288976669311523438 3.8019673824310302734 3.9750373363494873047 4.1481070518493652344 4.3211770057678222656 4.4942469596862792969 4.6673169136047363281 4.8403863906860351562 4.9792461395263671875 5.0833024978637695312 5.1873583793640136719 5.2914147377014160156 5.3954706192016601562 5.4827609062194824219 5.5692958831787109375 5.6558308601379394531 5.7423658370971679688 5.8289003372192382812 5.9154353141784667969 6.0019702911376953125 6.0885052680969238281 6.1750402450561523438 6.1854901313781738281 6.1854901313781738281 -9999 
14.410990715026855469 14.34362030029296875 14.185992240905761719 14.028363227844238281 13.870736122131347656 13.713108062744140625 13.950807571411132812 14.238080024719238281 14.52535247802734375 14.812625885009765625 14.545431137084960938 13.247406005859375 11.949382781982421875 10.651358604431152344 9.3533353805541992188 9.1079254150390625 9.1079254150390625 9.1079254150390625 9.1079254150390625 9.0843782424926757812 8.9978427886962890625 8.91130828857421875 8.8247728347778320312 8.7382383346557617188 8.5995702743530273438 8.4419422149658203125 8.2843141555786132812 8.1266851425170898438 7.9660534858703613281 7.7929840087890625 7.6199140548706054688 7.4468445777893066406 7.2737746238708496094 7.1007046699523925781 6.9276347160339355469 6.7545647621154785156 6.5814952850341796875 6.4185352325439453125 6.3320002555847167969 6.2454652786254882812 6.1589303016662597656 6.07239532470703125 5.9769349098205566406 5.8749589920043945312 5.7729830741882324219 5.6710066795349121094 5.5696353912353515625 5.4831004142761230469 5.3965654373168945312 5.3100309371948242188 5.2234959602355957031 5.1446871757507324219 5.0735936164855957031 5.0024995803833007812 4.9314064979553222656 4.8603129386901855469 4.7743716239929199219 4.6878366470336914062 4.6013016700744628906 4.514766693115234375 4.4347596168518066406 4.3636655807495117188 4.292572021484375 4.2214789390563964844 4.1503853797912597656 3.9891538619995117188 3.8160839080810546875 3.6430141925811767578 3.4699442386627197266 3.2968742847442626953 3.1238045692443847656 2.9507346153259277344 2.7776648998260498047 2.6045949459075927734 2.5710659027099609375 2.5710659027099609375 2.5710659027099609375 2.5710659027099609375 2.5247786045074462891 2.3517088890075683594 2.1786389350891113281 2.0055692195892333984 1.832499384880065918 1.6706805229187011719 1.5130519866943359375 1.3554235696792602539 1.1977950334548950195 1.1000045537948608398 1.2576330900192260742 1.4152615070343017578 1.5728900432586669922 1.7305185794830322266 1.8981992006301879883 2.0712690353393554688 2.2443387508392333984 2.4174087047576904297 2.5904784202575683594 2.7635483741760253906 2.9366180896759033203 3.1096880435943603516 3.2827579975128173828 3.4558277130126953125 3.6288976669311523438 3.8019673824310302734 3.9750373363494873047 4.1481070518493652344 4.3211770057678222656 4.4942469596862792969 4.6673169136047363281 4.8403863906860351562 4.9981474876403808594 5.1403350830078125 5.2825222015380859375 5.424709320068359375 5.5668964385986328125 5.6558308601379394531 5.7423658370971679688 5.8289003372192382812 5.9154353141784667969 6.0019702911376953125 6.0885052680969238281 6.1750402450561523438 6.2615752220153808594 6.348110198974609375 6.3585600852966308594 6.3585600852966308594 -9999 
15.532360076904296875 15.458390235900878906 15.285321235656738281 15.11225128173828125 14.939181327819824219 14.766111373901367188 14.823720932006835938 14.91025543212890625 14.996790885925292969 15.083325386047363281 14.685601234436035156 13.387578010559082031 12.0895538330078125 10.791530609130859375 9.4935064315795898438 9.248096466064453125 9.248096466064453125 9.248096466064453125 9.248096466064453125 9.22454833984375 9.1380138397216796875 9.051479339599609375 8.9649448394775390625 8.8784093856811523438 8.7284183502197265625 8.5553483963012695312 8.3822793960571289062 8.209209442138671875 8.0361394882202148438 7.8630695343017578125 7.6899995803833007812 7.51692962646484375 7.3438596725463867188 7.1707901954650878906 6.9977202415466308594 6.8246502876281738281 6.6515803337097167969 6.488620758056640625 6.4020857810974121094 6.3155508041381835938 6.2290158271789550781 6.1424808502197265625 6.0559458732604980469 5.9694108963012695312 5.8828759193420410156 5.7963414192199707031 5.7098064422607421875 5.6232714653015136719 5.5367364883422851562 5.4502015113830566406 5.363666534423828125 5.2771315574645996094 5.1905965805053710938 5.1040616035461425781 5.0175271034240722656 4.93099212646484375 4.8444571495056152344 4.7579221725463867188 4.6713871955871582031 4.5848522186279296875 4.4983172416687011719 4.4117822647094726562 4.3252472877502441406 4.238712310791015625 4.1521778106689453125 3.9891538619995117188 3.8160839080810546875 3.6430141925811767578 3.4699442386627197266 3.2968742847442626953 3.1238045692443847656 2.9507346153259277344 2.7776648998260498047 2.6045949459075927734 2.5710659027099609375 2.5710659027099609375 2.5710659027099609375 2.5710659027099609375 2.5247786045074462891 2.3517088890075683594 2.1786389350891113281 2.0055692195892333984 1.832499384880065918 1.6594294309616088867 1.4863595962524414062 1.3132897615432739258 1.1402199268341064453 1.0328499078750610352 1.2059197425842285156 1.3789895772933959961 1.5520594120025634766 1.7251293659210205078 1.8981992006301879883 2.0712690353393554688 2.2443387508392333984 2.4174087047576904297 2.5904784202575683594 2.7635483741760253906 2.9366180896759033203 3.1096880435943603516 3.2827579975128173828 3.4558277130126953125 3.6288976669311523438 3.8019673824310302734 3.9750373363494873047 4.1481070518493652344 4.3211770057678222656 4.4942469596862792969 4.6673169136047363281 4.8403863906860351562 5.0134563446044921875 5.1865262985229492188 5.35959625244140625 5.5326662063598632812 5.7057356834411621094 5.7960019111633300781 5.8825368881225585938 5.9690718650817871094 6.055606842041015625 6.1421418190002441406 6.2286767959594726562 6.3152112960815429688 6.4017462730407714844 6.48828125 6.4987311363220214844 6.4987311363220214844 -9999 
15.532360076904296875 15.458390235900878906 15.285321235656738281 15.11225128173828125 14.939181327819824219 14.766111373901367188 14.823720932006835938 14.91025543212890625 14.996790885925292969 15.083325386047363281 14.685601234436035156 13.387578010559082031 12.0895538330078125 10.791530609130859375 9.4935064315795898438 9.248096466064453125 9.248096466064453125 9.248096466064453125 9.248096466064453125 9.22454833984375 9.1380138397216796875 9.051479339599609375 8.9649448394775390625 8.8784093856811523438 8.7284183502197265625 8.5553483963012695312 8.3822793960571289062 8.209209442138671875 8.0361394882202148438 7.8630695343017578125 7.6899995803833007812 7.51692962646484375 7.3438596725463867188 7.1707901954650878906 6.9977202415466308594 6.8246502876281738281 6.6515803337097167969 6.488620758056640625 6.4020857810974121094 6.3155508041381835938 6.2290158271789550781 6.1424808502197265625 6.0559458732604980469 5.9694108963012695312 5.8828759193420410156 5.7963414192199707031 5.7098064422607421875 5.6232714653015136719 5.5367364883422851562 5.4502015113830566406 5.363666534423828125 5.2771315574645996094 5.1905965805053710938 5.1040616035461425781 5.0175271034240722656 4.93099212646484375 4.8444571495056152344 4.7579221725463867188 4.6713871955871582031 4.5848522186279296875 4.4983172416687011719 4.4117822647094726562 4.3252472877502441406 4.238712310791015625 4.1521778106689453125 3.9891538619995117188 3.8160839080810546875 3.6430141925811767578 3.4699442386627197266 3.2968742847442626953 3.1238045692443847656 2.9507346153259277344 2.7776648998260498047 2.6045949459075927734 2.5710659027099609375 2.5710659027099609375 2.5710659027099609375 2.5710659027099609375 2.5247786045074462891 2.3517088890075683594 2.1786389350891113281 2.0055692195892333984 1.832499384880065918 1.6594294309616088867 1.4863595962524414062 1.3132897615432739258 1.1402199268341064453 1.0328499078750610352 1.2059197425842285156 1.3789895772933959961 1.5520594120025634766 1.7251293659210205078 1.8981992006301879883 2.0712690353393554688 2.2443387508392333984 2.4174087047576904297 2.5904784202575683594 2.7635483741760253906 2.9366180896759033203 3.1096880435943603516 3.2827579975128173828 3.4558277130126953125 3.6288976669311523438 3.8019673824310302734 3.9750373363494873047 4.1481070518493652344 4.3211770057678222656 4.4942469596862792969 4.6673169136047363281 4.8403863906860351562 5.0134563446044921875 5.1865262985229492188 5.35959625244140625 5.5326662063598632812 5.7057356834411621094 5.7960019111633300781 5.8825368881225585938 5.9690718650817871094 6.055606842041015625 6.1421418190002441406 6.2286767959594726562 6.3152112960815429688 6.4017462730407714844 6.48828125 6.4987311363220214844 6.4987311363220214844 -9999 
15.532360076904296875 15.458390235900878906 15.285321235656738281 15.11225128173828125 14.939181327819824219 14.766111373901367188 14.823720932006835938 14.91025543212890625 14.996790885925292969 15.083325386047363281 14.685601234436035156 13.387578010559082031 12.0895538330078125 10.791530609130859375 9.4935064315795898438 9.248096466064453125 9.248096466064453125 9.248096466064453125 9.248096466064453125 9.22454833984375 9.1380138397216796875 9.051479339599609375 8.9649448394775390625 8.8784093856811523438 8.7284183502197265625 8.5553483963012695312 8.3822793960571289062 8.209209442138671875 8.0361394882202148438 7.8630695343017578125 7.6899995803833007812 7.51692962646484375 7.3438596725463867188 7.1707901954650878906 6.9977202415466308594 6.8246502876281738281 6.6515803337097167969 6.488620758056640625 6.4020857810974121094 6.3155508041381835938 6.2290158271789550781 6.1424808502197265625 6.0559458732604980469 5.9694108963012695312 5.8828759193420410156 5.7963414192199707031 5.7098064422607421875 5.6232714653015136719 5.5367364883422851562 5.4502015113830566406 5.363666534423828125 5.2771315574645996094 5.1905965805053710938 5.1040616035461425781 5.0175271034240722656 4.93099212646484375 4.8444571495056152344 4.7579221725463867188 4.6713871955871582031 4.5848522186279296875 4.4983172416687011719 4.4117822647094726562 4.3252472877502441406 4.238712310791015625 4.1521778106689453125 3.9891538619995117188 3.8160839080810546875 3.6430141925811767578 3.4699442386627197266 3.2968742847442626953 3.1238045692443847656 2.9507346153259277344 2.7776648998260498047 2.6045949459075927734 2.5710659027099609375 2.5710659027099609375 2.5710659027099609375 2.5710659027099609375 2.5247786045074462891 2.3517088890075683594 2.1786389350891113281 2.0055692195892333984 1.832499384880065918 1.6594294309616088867 1.4863595962524414062 1.3132897615432739258 1.1402199268341064453 1.0328499078750610352 1.2059197425842285156 1.3789895772933959961 1.5520594120025634766 1.7251293659210205078 1.8981992006301879883 2.0712690353393554688 2.2443387508392333984 2.4174087047576904297 2.5904784202575683594 2.7635483741760253906 2.9366180896759033203 3.1096880435943603516 3.2827579975128173828 3.4558277130126953125 3.6288976669311523438 3.8019673824310302734 3.9750373363494873047 4.1481070518493652344 4.3211770057678222656 4.4942469596862792969 4.6673169136047363281 4.8403863906860351562 5.0134563446044921875 5.1865262985229492188 5.35959625244140625 5.5326662063598632812 5.7057356834411621094 5.7960019111633300781 5.8825368881225585938 5.9690718650817871094 6.055606842041015625 6.1421418190002441406 6.2286767959594726562 6.3152112960815429688 6.4017462730407714844 6.48828125 6.4987311363220214844 6.4987311363220214844 -9999 
15.532360076904296875 15.458390235900878906 15.285321235656738281 15.11225128173828125 14.939181327819824219 14.766111373901367188 14.823720932006835938 14.91025543212890625 14.996790885925292969 15.083325386047363281 14.685601234436035156 13.387578010559082031 12.0895538330078125 10.791530609130859375 9.4935064315795898438 9.248096466064453125 9.248096466064453125 9.248096466064453125 9.248096466064453125 9.22454833984375 9.1380138397216796875 9.051479339599609375 8.9649448394775390625 8.8784093856811523438 8.7284183502197265625 8.5553483963012695312 8.3822793960571289062 8.209209442138671875 8.0361394882202148438 7.8630695343017578125 7.6899995803833007812 7.51692962646484375 7.3438596725463867188 7.1707901954650878906 6.9977202415466308594 6.8246502876281738281 6.6515803337097167969 6.488620758056640625 6.4020857810974121094 6.3155508041381835938 6.2290158271789550781 6.1424808502197265625 6.0559458732604980469 5.9694108963012695312 5.8828759193420410156 5.7963414192199707031 5.7098064422607421875 5.6232714653015136719 5.5367364883422851562 5.4502015113830566406 5.363666534423828125 5.2771315574645996094 5.1905965805053710938 5.1040616035461425781 5.0175271034240722656 4.93099212646484375 4.8444571495056152344 4.7579221725463867188 4.6713871955871582031 4.5848522186279296875 4.4983172416687011719 4.4117822647094726562 4.3252472877502441406 4.238712310791015625 4.1521778106689453125 3.9891538619995117188 3.8160839080810546875 3.6430141925811767578 3.4699442386627197266 3.2968742847442626953 3.1238045692443847656 2.9507346153259277344 2.7776648998260498047 2.6045949459075927734 2.5710659027099609375 2.5710659027099609375 2.5710659027099609375 2.5710659027099609375 2.5247786045074462891 2.3517088890075683594 2.1786389350891113281 2.0055692195892333984 1.832499384880065918 1.6594294309616088867 1.4863595962524414062 1.3132897615432739258 1.1402199268341064453 1.0328499078750610352 1.2059197425842285156 1.3789895772933959961 1.5520594120025634766 1.7251293659210205078 1.8981992006301879883 2.0712690353393554688 2.2443387508392333984 2.4174087047576904297 2.5904784202575683594 2.7635483741760253906 2.9366180896759033203 3.1096880435943603516 3.2827579975128173828 3.4558277130126953125 3.6288976669311523438 3.8019673824310302734 3.9750373363494873047 4.1481070518493652344 4.3211770057678222656 4.4942469596862792969 4.6673169136047363281 4.8403863906860351562 5.0134563446044921875 5.1865262985229492188 5.35959625244140625 5.5326662063598632812 5.7057356834411621094 5.7960019111633300781 5.8825368881225585938 5.9690718650817871094 6.055606842041015625 6.1421418190002441406 6.2286767959594726562 6.3152112960815429688 6.4017462730407714844 6.48828125 6.4987311363220214844 6.4987311363220214844 -9999 
15.532360076904296875 15.458390235900878906 15.285321235656738281 15.11225128173828125 14.939181327819824219 14.766111373901367188 14.823720932006835938 14.91025543212890625 14.996790885925292969 15.083325386047363281 14.685601234436035156 13.387578010559082031 12.0895538330078125 10.791530609130859375 9.4935064315795898438 9.248096466064453125 9.248096466064453125 9.248096466064453125 9.248096466064453125 9.22454833984375 9.1380138397216796875 9.051479339599609375 8.9649448394775390625 8.8784093856811523438 8.7284183502197265625 8.5553483963012695312 8.3822793960571289062 8.209209442138671875 8.0361394882202148438 7.8630695343017578125 7.6899995803833007812 7.51692962646484375 7.3438596725463867188 7.1707901954650878906 6.9977202415466308594 6.8246502876281738281 6.6515803337097167969 6.488620758056640625 6.4020857810974121094 6.3155508041381835938 6.2290158271789550781 6.1424808502197265625 6.0559458732604980469 5.9694108963012695312 5.8828759193420410156 5.7963414192199707031 5.7098064422607421875 5.6232714653015136719 5.5367364883422851562 5.4502015113830566406 5.363666534423828125 5.2771315574645996094 5.1905965805053710938 5.1040616035461425781 5.0175271034240722656 4.93099212646484375 4.8444571495056152344 4.7579221725463867188 4.6713871955871582031 4.5848522186279296875 4.4983172416687011719 4.4117822647094726562 4.3252472877502441406 4.238712310791015625 4.1521778106689453125 3.9891538619995117188 3.8160839080810546875 3.6430141925811767578 3.4699442386627197266 3.2968742847442626953 3.1238045692443847656 2.9507346153259277344 2.7776648998260498047 2.6045949459075927734 2.5710659027099609375 2.5710659027099609375 2.5710659027099609375 2.5710659027099609375 2.5247786045074462891 2.3517088890075683594 2.1786389350891113281 2.0055692195892333984 1.832499384880065918 1.6594294309616088867 1.4863595962524414062 1.3132897615432739258 1.1402199268341064453 1.0328499078750610352 1.2059197425842285156 1.3789895772933959961 1.5520594120025634766 1.7251293659210205078 1.8981992006301879883 2.0712690353393554688 2.2443387508392333984 2.4174087047576904297 2.5904784202575683594 2.7635483741760253906 2.9366180896759033203 3.1096880435943603516 3.2827579975128173828 3.4558277130126953125 3.6288976669311523438 3.8019673824310302734 3.9750373363494873047 4.1481070518493652344 4.3211770057678222656 4.4942469596862792969 4.6673169136047363281 4.8403863906860351562 5.0134563446044921875 5.1865262985229492188 5.35959625244140625 5.5326662063598632812 5.7057356834411621094 5.7960019111633300781 5.8825368881225585938 5.9690718650817871094 6.055606842041015625 6.1421418190002441406 6.2286767959594726562 6.3152112960815429688 6.4017462730407714844 6.48828125 6.4987311363220214844 6.4987311363220214844 -9999 
15.532360076904296875 15.60167694091796875 15.763860702514648438 15.926042556762695312 16.088226318359375 16.250408172607421875 16.124708175659179688 15.962907791137695312 15.801106452941894531 15.639306068420410156 15.114846229553222656 13.916156768798828125 12.717467308044433594 11.518777847290039062 10.320088386535644531 10.093459129333496094 10.093459129333496094 10.093459129333496094 10.093459129333496094 10.022607803344726562 9.7622385025024414062 9.5018682479858398438 9.2414999008178710938 8.9811296463012695312 8.7847766876220703125 8.6117067337036132812 8.43863677978515625 8.2655668258666992188 8.0924968719482421875 7.9194269180297851562 7.746356964111328125 7.5732870101928710938 7.4002175331115722656 7.2271475791931152344 7.0540776252746582031 6.881008148193359375 6.7079381942749023438 6.5449781417846679688 6.4584431648254394531 6.3719086647033691406 6.285373687744140625 6.1988387107849121094 6.1123037338256835938 6.0257687568664550781 5.9392337799072265625 5.8526988029479980469 5.7666506767272949219 5.6925325393676757812 5.6184139251708984375 5.5442962646484375 5.4701781272888183594 5.3898468017578125 5.3033118247985839844 5.2167768478393554688 5.1302418708801269531 5.0437073707580566406 4.9452328681945800781 4.8462810516357421875 4.7473292350769042969 4.6483778953552246094 4.5494260787963867188 4.4504742622375488281 4.3515224456787109375 4.25257110595703125 4.1536192893981933594 3.9891538619995117188 3.8160839080810546875 3.6430141925811767578 3.4699442386627197266 3.2968742847442626953 3.1238045692443847656 2.9507346153259277344 2.7776648998260498047 2.6045949459075927734 2.5710659027099609375 2.5710659027099609375 2.5710659027099609375 2.5710659027099609375 2.5247786045074462891 2.3517088890075683594 2.1786389350891113281 2.0055692195892333984 1.832499384880065918 1.6684767007827758789 1.5078235864639282227 1.3471704721450805664 1.1865174770355224609 1.0868506431579589844 1.2475037574768066406 1.4081567525863647461 1.5688098669052124023 1.7294629812240600586 1.8981992006301879883 2.0712690353393554688 2.2443387508392333984 2.4174087047576904297 2.5904784202575683594 2.7635483741760253906 2.9366180896759033203 3.1096880435943603516 3.2827579975128173828 3.4558277130126953125 3.6288976669311523438 3.8019673824310302734 3.9750373363494873047 4.1481070518493652344 4.3211770057678222656 4.4942469596862792969 4.6673169136047363281 4.8403863906860351562 5.00730133056640625 5.1679544448852539062 5.3286075592041015625 5.4892606735229492188 5.649913787841796875 5.7396440505981445312 5.8261790275573730469 5.9127140045166015625 5.9992489814758300781 6.0857839584350585938 6.1723189353942871094 6.258853912353515625 6.3453888893127441406 6.4319238662719726562 6.4423732757568359375 6.4423732757568359375 -9999 
15.532360076904296875 15.821687698364257812 16.498638153076171875 17.17559051513671875 17.852542877197265625 18.529493331909179688 18.122327804565429688 17.57921600341796875 17.036106109619140625 16.492994308471679688 15.773938179016113281 14.727771759033203125 13.681606292724609375 12.635440826416015625 11.589275360107421875 11.391482353210449219 11.391482353210449219 11.391482353210449219 11.391482353210449219 11.248000144958496094 10.720712661743164062 10.193426132202148438 9.6661386489868164062 9.1388530731201171875 8.871311187744140625 8.6982412338256835938 8.5251712799072265625 8.3521013259887695312 8.1790313720703125 8.0059614181518554688 7.8328919410705566406 7.6598219871520996094 7.4867520332336425781 7.31368255615234375 7.1406126022338867188 6.9675426483154296875 6.7944731712341308594 6.6315131187438964844 6.5449781417846679688 6.4584431648254394531 6.3719086647033691406 6.285373687744140625 6.1988387107849121094 6.1123037338256835938 6.0257687568664550781 5.9392337799072265625 5.8539323806762695312 5.7988801002502441406 5.7438273429870605469 5.6887745857238769531 5.6337223052978515625 5.5629167556762695312 5.4763817787170410156 5.3898468017578125 5.3033118247985839844 5.2167768478393554688 5.0999703407287597656 4.9819531440734863281 4.8639359474182128906 4.74591827392578125 4.6279015541076660156 4.5098843574523925781 4.3918666839599609375 4.2738499641418457031 4.1558327674865722656 3.9891538619995117188 3.8160839080810546875 3.6430141925811767578 3.4699442386627197266 3.2968742847442626953 3.1238045692443847656 2.9507346153259277344 2.7776648998260498047 2.6045949459075927734 2.5710659027099609375 2.5710659027099609375 2.5710659027099609375 2.5710659027099609375 2.5247786045074462891 2.3517088890075683594 2.1786389350891113281 2.0055692195892333984 1.832499384880065918 1.6823682785034179688 1.5407807826995849609 1.3991931676864624023 1.2576056718826293945 1.1697667837142944336 1.3113543987274169922 1.45294189453125 1.5945295095443725586 1.7361170053482055664 1.8981992006301879883 2.0712690353393554688 2.2443387508392333984 2.4174087047576904297 2.5904784202575683594 2.7635483741760253906 2.9366180896759033203 3.1096880435943603516 3.2827579975128173828 3.4558277130126953125 3.6288976669311523438 3.8019673824310302734 3.9750373363494873047 4.1481070518493652344 4.3211770057678222656 4.4942469596862792969 4.6673169136047363281 4.8403863906860351562 4.9978504180908203125 5.1394381523132324219 5.2810258865356445312 5.4226131439208984375 5.5642008781433105469 5.6531095504760742188 5.7396440505981445312 5.8261790275573730469 5.9127140045166015625 5.9992489814758300781 6.0857839584350585938 6.1723189353942871094 6.258853912353515625 6.3453888893127441406 6.3558382987976074219 6.3558382987976074219 -9999 
15.532360076904296875 16.041698455810546875 17.233419418334960938 18.425140380859375 19.61685943603515625 20.808580398559570312 20.119947433471679688 19.195526123046875 18.271104812622070312 17.346683502197265625 16.4330291748046875 15.539387702941894531 14.645745277404785156 13.752103805541992188 12.858462333679199219 12.68950653076171875 12.68950653076171875 12.68950653076171875 12.68950653076171875 12.473391532897949219 11.679187774658203125 10.884983062744140625 10.090779304504394531 9.2965755462646484375 8.9578466415405273438 8.7847766876220703125 8.6117067337036132812 8.43863677978515625 8.2655668258666992188 8.0924968719482421875 7.9194269180297851562 7.746356964111328125 7.5732870101928710938 7.4002175331115722656 7.2271475791931152344 7.0540776252746582031 6.881008148193359375 6.718048095703125 6.6315131187438964844 6.5449781417846679688 6.4584431648254394531 6.3719086647033691406 6.285373687744140625 6.1988387107849121094 6.1123037338256835938 6.0257687568664550781 5.9412150382995605469 5.9052281379699707031 5.8692407608032226562 5.8332533836364746094 5.7972664833068847656 5.7359867095947265625 5.6494517326354980469 5.5629167556762695312 5.4763817787170410156 5.3898468017578125 5.2547078132629394531 5.1176252365112304688 4.9805421829223632812 4.8434596061706542969 4.7063770294189453125 4.569293975830078125 4.4322113990783691406 4.2951288223266601562 4.1580457687377929688 3.9891538619995117188 3.8160839080810546875 3.6430141925811767578 3.4699442386627197266 3.2968742847442626953 3.1238045692443847656 2.9507346153259277344 2.7776648998260498047 2.6045949459075927734 2.5710659027099609375 2.5710659027099609375 2.5710659027099609375 2.5710659027099609375 2.5247786045074462891 2.3517088890075683594 2.1786389350891113281 2.0055692195892333984 1.832499384880065918 1.6962599754333496094 1.5737379789352416992 1.4512158632278442383 1.3286938667297363281 1.2526829242706298828 1.375204920768737793 1.4977270364761352539 1.6202490329742431641 1.742771148681640625 1.8981992006301879883 2.0712690353393554688 2.2443387508392333984 2.4174087047576904297 2.5904784202575683594 2.7635483741760253906 2.9366180896759033203 3.1096880435943603516 3.2827579975128173828 3.4558277130126953125 3.6288976669311523438 3.8019673824310302734 3.9750373363494873047 4.1481070518493652344 4.3211770057678222656 4.4942469596862792969 4.6673169136047363281 4.8403863906860351562 4.9883999824523925781 5.1109218597412109375 5.2334442138671875 5.3559660911560058594 5.4784879684448242188 5.5665745735168457031 5.6531095504760742188 5.7396440505981445312 5.8261790275573730469 5.9127140045166015625 5.9992489814758300781 6.0857839584350585938 6.1723189353942871094 6.258853912353515625 6.2693037986755371094 6.2693037986755371094 -9999 
15.532360076904296875 16.261709213256835938 17.968198776245117188 19.674688339233398438 21.381177902221679688 23.087665557861328125 22.117567062377929688 20.811834335327148438 19.506103515625 18.200372695922851562 17.092119216918945312 16.351001739501953125 15.609884262084960938 14.86876678466796875 14.127649307250976562 13.987530708312988281 13.987530708312988281 13.987530708312988281 13.987530708312988281 13.698782920837402344 12.637661933898925781 11.576540946960449219 10.51541900634765625 9.4542989730834960938 9.0443811416625976562 8.871311187744140625 8.6982412338256835938 8.5251712799072265625 8.3521013259887695312 8.1790313720703125 8.0059614181518554688 7.8328919410705566406 7.6598219871520996094 7.4867520332336425781 7.31368255615234375 7.1406126022338867188 6.9675426483154296875 6.8045830726623535156 6.718048095703125 6.6315131187438964844 6.5449781417846679688 6.4584431648254394531 6.3719086647033691406 6.285373687744140625 6.1988387107849121094 6.1123037338256835938 6.0284972190856933594 6.0115752220153808594 5.9946537017822265625 5.9777321815490722656 5.9608106613159179688 5.9090561866760253906 5.822521209716796875 5.7359867095947265625 5.6494517326354980469 5.5629167556762695312 5.4094448089599609375 5.2532968521118164062 5.097148895263671875 4.9410004615783691406 4.7848520278930664062 4.628704071044921875 4.4725556373596191406 4.3164072036743164062 4.160259246826171875 3.9891538619995117188 3.8160839080810546875 3.6430141925811767578 3.4699442386627197266 3.2968742847442626953 3.1238045692443847656 2.9507346153259277344 2.7776648998260498047 2.6045949459075927734 2.5710659027099609375 2.5710659027099609375 2.5710659027099609375 2.5710659027099609375 2.5247786045074462891 2.3517088890075683594 2.1786389350891113281 2.0055692195892333984 1.832499384880065918 1.71015167236328125 1.6066951751708984375 1.5032385587692260742 1.3997820615768432617 1.335599064826965332 1.4390556812286376953 1.5425121784210205078 1.6459687948226928711 1.7494252920150756836 1.8981992006301879883 2.0712690353393554688 2.2443387508392333984 2.4174087047576904297 2.5904784202575683594 2.7635483741760253906 2.9366180896759033203 3.1096880435943603516 3.2827579975128173828 3.4558277130126953125 3.6288976669311523438 3.8019673824310302734 3.9750373363494873047 4.1481070518493652344 4.3211770057678222656 4.4942469596862792969 4.6673169136047363281 4.8403863906860351562 4.9789490699768066406 5.08240509033203125 5.1858615875244140625 5.2893185615539550781 5.3927750587463378906 5.4800395965576171875 5.5665745735168457031 5.6531095504760742188 5.7396440505981445312 5.8261790275573730469 5.9127140045166015625 5.9992489814758300781 6.0857839584350585938 6.1723189353942871094 6.1827688217163085938 6.1827688217163085938 -9999 
15.5907440185546875 16.518114089965820312 18.687917709350585938 20.857723236083984375 23.027528762817382812 25.197332382202148438 24.0143280029296875 22.410898208618164062 20.807468414306640625 19.204038619995117188 17.933809280395507812 17.28304290771484375 16.632276535034179688 15.981512069702148438 15.330744743347167969 15.207709312438964844 15.207709312438964844 15.207709312438964844 15.207709312438964844 14.859746932983398438 13.581017494201660156 12.302289009094238281 11.0235595703125 9.744831085205078125 9.2753047943115234375 9.1000909805297851562 8.9248762130737304688 8.7496633529663085938 8.5690288543701171875 8.3659448623657226562 8.162860870361328125 7.9597764015197753906 7.7566928863525390625 7.5746932029724121094 7.4037671089172363281 7.2328410148620605469 7.0619149208068847656 6.900848388671875 6.8143134117126464844 6.7277784347534179688 6.6412439346313476562 6.5547089576721191406 6.468173980712890625 6.3816390037536621094 6.2951040267944335938 6.2085690498352050781 6.1254258155822753906 6.1254258155822753906 6.1254258155822753906 6.1254258155822753906 6.1254258155822753906 6.0810537338256835938 5.992374420166015625 5.9036960601806640625 5.8150167465209960938 5.7263383865356445312 5.5565133094787597656 5.3834433555603027344 5.2103734016418457031 5.0373034477233886719 4.8642339706420898438 4.6911640167236328125 4.5180940628051757812 4.34502410888671875 4.1719541549682617188 3.9988844394683837891 3.8258147239685058594 3.6527447700500488281 3.4796748161315917969 3.3066051006317138672 3.1335351467132568359 2.9604654312133789062 2.787395477294921875 2.6143255233764648438 2.5807964801788330078 2.5807964801788330078 2.5807964801788330078 2.5807964801788330078 2.5345094203948974609 2.3614394664764404297 2.1883697509765625 2.0152997970581054688 1.8422300815582275391 1.7322119474411010742 1.6456769704818725586 1.5591421127319335938 1.4726071357727050781 1.4185152053833007812 1.5029063224792480469 1.5872973203659057617 1.6716883182525634766 1.7560794353485107422 1.8981992006301879883 2.0712690353393554688 2.2443387508392333984 2.4174087047576904297 2.5904784202575683594 2.7635483741760253906 2.9366180896759033203 3.1096880435943603516 3.2827579975128173828 3.4545986652374267578 3.6255247592926025391 3.7964506149291992188 3.9673764705657958984 4.1383023262023925781 4.3092284202575683594 4.4801545143127441406 4.6510801315307617188 4.8220062255859375 4.951099395751953125 5.0376343727111816406 5.1241693496704101562 5.2107043266296386719 5.2972393035888671875 5.3837742805480957031 5.4703092575073242188 5.5568437576293945312 5.6433787345886230469 5.7308096885681152344 5.819488525390625 5.9081673622131347656 5.9968461990356445312 6.0855250358581542969 6.0962338447570800781 6.0962338447570800781 -9999 
16.109952926635742188 17.061767578125 19.288770675659179688 21.515771865844726562 23.742771148681640625 25.969774246215820312 25.115024566650390625 23.87384033203125 22.632654190063476562 21.391469955444335938 20.216753005981445312 19.16561126708984375 18.114469528198242188 17.063327789306640625 16.012186050415039062 15.81345367431640625 15.81345367431640625 15.81345367431640625 15.81345367431640625 15.512183189392089844 14.4050445556640625 13.29790496826171875 12.190765380859375 11.08362579345703125 10.645882606506347656 10.451602935791015625 10.25732421875 10.063044548034667969 9.8151445388793945312 9.3451433181762695312 8.8751420974731445312 8.4051408767700195312 7.9351391792297363281 7.6737279891967773438 7.5218677520751953125 7.3700070381164550781 7.2181468009948730469 7.0739183425903320312 6.9873833656311035156 6.900848388671875 6.8143134117126464844 6.7277784347534179688 6.6412439346313476562 6.5547089576721191406 6.468173980712890625 6.3816390037536621094 6.2984957695007324219 6.2984957695007324219 6.2984957695007324219 6.2984957695007324219 6.2984957695007324219 6.2445836067199707031 6.1368393898010253906 6.029094696044921875 5.9213504791259765625 5.81360626220703125 5.6430482864379882812 5.46997833251953125 5.2969083786010742188 5.1238384246826171875 4.9507684707641601562 4.7776989936828613281 4.6046290397644042969 4.4315590858459472656 4.2584891319274902344 4.0854196548461914062 3.9123494625091552734 3.7392797470092773438 3.5662097930908203125 3.3931400775909423828 3.2200701236724853516 3.0470001697540283203 2.8739304542541503906 2.7008605003356933594 2.6673314571380615234 2.6673314571380615234 2.6673314571380615234 2.6673314571380615234 2.6210443973541259766 2.4479744434356689453 2.2749047279357910156 2.1018347740173339844 1.9287649393081665039 1.8187469244003295898 1.7322119474411010742 1.6456769704818725586 1.5591421127319335938 1.5014313459396362305 1.5667569637298583984 1.6320824623107910156 1.6974079608917236328 1.7627335786819458008 1.8981992006301879883 2.0712690353393554688 2.2443387508392333984 2.4174087047576904297 2.5904784202575683594 2.7635483741760253906 2.9366180896759033203 3.1096880435943603516 3.2827579975128173828 3.4436674118041992188 3.5955278873443603516 3.7473883628845214844 3.8992488384246826172 4.05110931396484375 4.2029700279235839844 4.3548302650451660156 4.5066905021667480469 4.6585512161254882812 4.7780294418334960938 4.8645644187927246094 4.951099395751953125 5.0376343727111816406 5.1241693496704101562 5.2107043266296386719 5.2972393035888671875 5.3837742805480957031 5.4703092575073242188 5.5657105445861816406 5.6734547615051269531 5.7811994552612304688 5.8889436721801757812 5.9966878890991210938 6.0096988677978515625 6.0096988677978515625 -9999 
16.629163742065429688 17.6054229736328125 19.889621734619140625 22.17382049560546875 24.458017349243164062 26.742216110229492188 26.21572113037109375 25.336780548095703125 24.4578399658203125 23.578899383544921875 22.499696731567382812 21.04817962646484375 19.596662521362304688 18.145145416259765625 16.69362640380859375 16.419198989868164062 16.419198989868164062 16.419198989868164062 16.419198989868164062 16.16461944580078125 15.229069709777832031 14.293520927429199219 13.35797119140625 12.422421455383300781 12.016460418701171875 11.8031158447265625 11.589771270751953125 11.37642669677734375 11.061260223388671875 10.324341773986816406 9.5874223709106445312 8.8505048751831054688 8.1135854721069335938 7.7727632522583007812 7.6399688720703125 7.5071735382080078125 7.374378204345703125 7.2469882965087890625 7.1604533195495605469 7.0739183425903320312 6.9873833656311035156 6.900848388671875 6.8143134117126464844 6.7277784347534179688 6.6412439346313476562 6.5547089576721191406 6.4715657234191894531 6.4715657234191894531 6.4715657234191894531 6.4715657234191894531 6.4715657234191894531 6.4081134796142578125 6.28130340576171875 6.1544938087463378906 6.0276837348937988281 5.9008741378784179688 5.7295827865600585938 5.5565133094787597656 5.3834433555603027344 5.2103734016418457031 5.0373034477233886719 4.8642339706420898438 4.6911640167236328125 4.5180940628051757812 4.34502410888671875 4.1719541549682617188 3.9988844394683837891 3.8258147239685058594 3.6527447700500488281 3.4796748161315917969 3.3066051006317138672 3.1335351467132568359 2.9604654312133789062 2.787395477294921875 2.7538664340972900391 2.7538664340972900391 2.7538664340972900391 2.7538664340972900391 2.7075791358947753906 2.5345094203948974609 2.3614394664764404297 2.1883697509765625 2.0152997970581054688 1.9052817821502685547 1.8187469244003295898 1.7322119474411010742 1.6456769704818725586 1.5843476057052612305 1.63060760498046875 1.6768676042556762695 1.7231276035308837891 1.7693876028060913086 1.8981992006301879883 2.0712690353393554688 2.2443387508392333984 2.4174087047576904297 2.5904784202575683594 2.7635483741760253906 2.9366180896759033203 3.1096880435943603516 3.2827579975128173828 3.4327363967895507812 3.5655312538146972656 3.69832611083984375 3.8311212062835693359 3.9639160633087158203 4.0967111587524414062 4.2295060157775878906 4.362300872802734375 4.4950962066650390625 4.6049599647521972656 4.6914944648742675781 4.7780294418334960938 4.8645644187927246094 4.951099395751953125 5.0376343727111816406 5.1241693496704101562 5.2107043266296386719 5.2972393035888671875 5.4006114006042480469 5.5274209976196289062 5.6542310714721679688 5.7810411453247070312 5.9078507423400878906 5.9231638908386230469 5.9231638908386230469 -9999 
17.148372650146484375 18.149080276489257812 20.490474700927734375 22.831869125366210938 25.1732635498046875 27.514657974243164062 27.316419601440429688 26.799722671508789062 26.28302764892578125 25.766330718994140625 24.782642364501953125 22.93074798583984375 21.078855514526367188 19.226963043212890625 17.37506866455078125 17.024942398071289062 17.024942398071289062 17.024942398071289062 17.024942398071289062 16.817056655883789062 16.053096771240234375 15.289135932922363281 14.525177001953125 13.761216163635253906 13.3870391845703125 13.154628753662109375 12.92221832275390625 12.689807891845703125 12.307374954223632812 11.303540229797363281 10.299703598022460938 9.2958688735961914062 8.2920331954956054688 7.8717985153198242188 7.7580695152282714844 7.6443400382995605469 7.5306105613708496094 7.4200577735900878906 7.3335232734680175781 7.2469882965087890625 7.1604533195495605469 7.0739183425903320312 6.9873833656311035156 6.900848388671875 6.8143134117126464844 6.7277784347534179688 6.6446356773376464844 6.6446356773376464844 6.6446356773376464844 6.6446356773376464844 6.6446356773376464844 6.5716433525085449219 6.4257683753967285156 6.2798929214477539062 6.1340174674987792969 5.9881424903869628906 5.8161177635192871094 5.6430482864379882812 5.46997833251953125 5.2969083786010742188 5.1238384246826171875 4.9507684707641601562 4.7776989936828613281 4.6046290397644042969 4.4315590858459472656 4.2584891319274902344 4.0854196548461914062 3.9123494625091552734 3.7392797470092773438 3.5662097930908203125 3.3931400775909423828 3.2200701236724853516 3.0470001697540283203 2.8739304542541503906 2.8404014110565185547 2.8404014110565185547 2.8404014110565185547 2.8404014110565185547 2.7941141128540039062 2.6210443973541259766 2.4479744434356689453 2.2749047279357910156 2.1018347740173339844 1.9918167591094970703 1.9052817821502685547 1.8187469244003295898 1.7322119474411010742 1.6672637462615966797 1.6944582462310791016 1.7216527462005615234 1.7488472461700439453 1.7760417461395263672 1.8981992006301879883 2.0712690353393554688 2.2443387508392333984 2.4174087047576904297 2.5904784202575683594 2.7635483741760253906 2.9366180896759033203 3.1096880435943603516 3.2827579975128173828 3.4218053817749023438 3.5355346202850341797 3.6492640972137451172 3.7629935741424560547 3.8767230510711669922 3.9904525279998779297 4.1041817665100097656 4.2179112434387207031 4.3316407203674316406 4.4318900108337402344 4.51842498779296875 4.6049599647521972656 4.6914944648742675781 4.7780294418334960938 4.8645644187927246094 4.951099395751953125 5.0376343727111816406 5.1241693496704101562 5.23551177978515625 5.3813872337341308594 5.5272631645202636719 5.6731381416320800781 5.8190135955810546875 5.8366289138793945312 5.8366289138793945312 -9999 
17.667583465576171875 18.6927337646484375 21.091325759887695312 23.489915847778320312 25.888505935668945312 28.287097930908203125 28.417112350463867188 28.262664794921875 28.108211517333984375 27.953762054443359375 27.065584182739257812 24.81331634521484375 22.561046600341796875 20.308778762817382812 18.056509017944335938 17.630685806274414062 17.630685806274414062 17.630685806274414062 17.630685806274414062 17.469493865966796875 16.877122879028320312 16.28475189208984375 15.692381858825683594 15.100010871887207031 14.757616043090820312 14.50614166259765625 14.254666328430175781 14.0031890869140625 13.553490638732910156 12.282738685607910156 11.011984825134277344 9.7412319183349609375 8.4704799652099609375 7.9708342552185058594 7.8761696815490722656 7.7815060615539550781 7.6868419647216796875 7.5931277275085449219 7.5065927505493164062 7.4200577735900878906 7.3335232734680175781 7.2469882965087890625 7.1604533195495605469 7.0739183425903320312 6.9873833656311035156 6.900848388671875 6.8177051544189453125 6.8177051544189453125 6.8177051544189453125 6.8177051544189453125 6.8177051544189453125 6.7351732254028320312 6.5702328681945800781 6.4052920341491699219 6.2403507232666015625 6.0754103660583496094 5.902652740478515625 5.7295827865600585938 5.5565133094787597656 5.3834433555603027344 5.2103734016418457031 5.0373034477233886719 4.8642339706420898438 4.6911640167236328125 4.5180940628051757812 4.34502410888671875 4.1719541549682617188 3.9988844394683837891 3.8258147239685058594 3.6527447700500488281 3.4796748161315917969 3.3066051006317138672 3.1335351467132568359 2.9604654312133789062 2.9269363880157470703 2.9269363880157470703 2.9269363880157470703 2.9269363880157470703 2.8806490898132324219 2.7075791358947753906 2.5345094203948974609 2.3614394664764404297 2.1883697509765625 2.0783514976501464844 1.9918167591094970703 1.9052817821502685547 1.8187469244003295898 1.7501797676086425781 1.7583088874816894531 1.7664378881454467773 1.7745668888092041016 1.7826958894729614258 1.8981992006301879883 2.0712690353393554688 2.2443387508392333984 2.4174087047576904297 2.5904784202575683594 2.7635483741760253906 2.9366180896759033203 3.1096880435943603516 3.2827579975128173828 3.4108741283416748047 3.5055379867553710938 3.6002020835876464844 3.6948659420013427734 3.7895298004150390625 3.8841936588287353516 3.9788575172424316406 4.0735216140747070312 4.1681857109069824219 4.2588200569152832031 4.3453550338745117188 4.4318900108337402344 4.51842498779296875 4.6049599647521972656 4.6914944648742675781 4.7780294418334960938 4.8645644187927246094 4.951099395751953125 5.0704131126403808594 5.2353534698486328125 5.4002943038940429688 5.5652356147766113281 5.7301759719848632812 5.7500939369201660156 5.7500939369201660156 -9999 
19.328485488891601562 20.2799224853515625 22.506044387817382812 24.732166290283203125 26.958286285400390625 29.184406280517578125 29.451883316040039062 29.473758697509765625 29.495630264282226562 29.5175018310546875 28.753124237060546875 26.527006149291992188 24.300884246826171875 22.074764251708984375 19.848642349243164062 19.427762985229492188 19.427762985229492188 19.427762985229492188 19.427762985229492188 19.283502578735351562 18.75335693359375 18.223209381103515625 17.693063735961914062 17.1629180908203125 16.6386871337890625 16.116603851318359375 15.594524383544921875 15.072443962097167969 14.452818870544433594 13.429165840148925781 12.405510902404785156 11.381856918334960938 10.358202934265136719 9.6836633682250976562 9.192478179931640625 8.7012929916381835938 8.2101068496704101562 7.7661976814270019531 7.6796627044677734375 7.5931277275085449219 7.5065927505493164062 7.4200577735900878906 7.3335232734680175781 7.2469882965087890625 7.1604533195495605469 7.0739183425903320312 6.9903464317321777344 6.9794101715087890625 6.9684734344482421875 6.9575371742248535156 6.9466004371643066406 6.8545370101928710938 6.6814670562744140625 6.5083975791931152344 6.3353276252746582031 6.1622576713562011719 5.9891877174377441406 5.8161177635192871094 5.6430482864379882812 5.46997833251953125 5.2969083786010742188 5.1238384246826171875 4.9507684707641601562 4.7776989936828613281 4.6046290397644042969 4.4315590858459472656 4.2584891319274902344 4.0854196548461914062 3.9123494625091552734 3.7392797470092773438 3.5662097930908203125 3.3931400775909423828 3.2200701236724853516 3.0470001697540283203 3.0134711265563964844 3.0134711265563964844 3.0134711265563964844 3.0134711265563964844 2.9671840667724609375 2.7941141128540039062 2.6210443973541259766 2.4479744434356689453 2.2749047279357910156 2.1728551387786865234 2.0972566604614257812 2.0216584205627441406 1.9460599422454833984 1.8827347755432128906 1.871798396110534668 1.8608617782592773438 1.8499252796173095703 1.8389887809753417969 1.9407184123992919922 2.10285186767578125 2.2649853229522705078 2.4271185398101806641 2.5892517566680908203 2.7513852119445800781 2.9135186672210693359 3.0756518840789794922 3.23778533935546875 3.3565745353698730469 3.4431095123291015625 3.5296442508697509766 3.6161792278289794922 3.7027142047882080078 3.7892491817474365234 3.8757839202880859375 3.9623188972473144531 4.0488538742065429688 4.1353888511657714844 4.221923828125 4.3084588050842285156 4.3949937820434570312 4.4815282821655273438 4.5680632591247558594 4.654598236083984375 4.7411332130432128906 4.8276681900024414062 4.9503803253173828125 5.1234498023986816406 5.2965197563171386719 5.4695897102355957031 5.6426596641540527344 5.6635589599609375 5.6635589599609375 -9999 
21.837999343872070312 22.642763137817382812 24.52570343017578125 26.408647537231445312 28.291585922241210938 30.174530029296875 30.437650680541992188 30.497655868530273438 30.557659149169921875 30.617662429809570312 29.998109817504882812 28.115167617797851562 26.232227325439453125 24.349283218383789062 22.466342926025390625 22.110345840454101562 22.110345840454101562 22.110345840454101562 22.110345840454101562 21.960897445678710938 21.411685943603515625 20.862474441528320312 20.313262939453125 19.764049530029296875 18.899198532104492188 17.919546127319335938 16.939893722534179688 15.960239410400390625 15.094384193420410156 14.699892044067382812 14.305399894714355469 13.910906791687011719 13.516415596008300781 12.596012115478515625 11.399402618408203125 10.202793121337890625 9.006183624267578125 7.9392676353454589844 7.8527326583862304688 7.7661976814270019531 7.6796627044677734375 7.5931277275085449219 7.5065927505493164062 7.4200577735900878906 7.3335232734680175781 7.2469882965087890625 7.1626691818237304688 7.1326670646667480469 7.102664947509765625 7.0726628303527832031 7.0426607131958007812 6.9410719871520996094 6.7680020332336425781 6.5949320793151855469 6.4218626022338867188 6.2487926483154296875 6.0757226943969726562 5.902652740478515625 5.7295827865600585938 5.5565133094787597656 5.3834433555603027344 5.2103734016418457031 5.0373034477233886719 4.8642339706420898438 4.6911640167236328125 4.5180940628051757812 4.34502410888671875 4.1719541549682617188 3.9988844394683837891 3.8258147239685058594 3.6527447700500488281 3.4796748161315917969 3.3066051006317138672 3.1335351467132568359 3.100006103515625 3.100006103515625 3.100006103515625 3.100006103515625 3.0537188053131103516 2.8806490898132324219 2.7075791358947753906 2.5345094203948974609 2.3614394664764404297 2.2732818126678466797 2.2167489528656005859 2.1602158546447753906 2.1036829948425292969 2.0521860122680664062 2.0221838951110839844 1.9921817779541015625 1.9621798992156982422 1.9321779012680053711 2.0148420333862304688 2.1579098701477050781 2.3009777069091796875 2.4440455436706542969 2.5871133804321289062 2.7301812171936035156 2.873249053955078125 3.0163168907165527344 3.1593847274780273438 3.2700395584106445312 3.3565745353698730469 3.4431095123291015625 3.5296442508697509766 3.6161792278289794922 3.7027142047882080078 3.7892491817474365234 3.8757839202880859375 3.9623188972473144531 4.0488538742065429688 4.1353888511657714844 4.221923828125 4.3084588050842285156 4.3949937820434570312 4.4815282821655273438 4.5680632591247558594 4.654598236083984375 4.7411332130432128906 4.8638453483581542969 5.0369153022766113281 5.2099847793579101562 5.3830547332763671875 5.5561246871948242188 5.5770239830017089844 5.5770239830017089844 -9999 
24.34751129150390625 25.005601882934570312 26.545366287231445312 28.085126876831054688 29.624889373779296875 31.16464996337890625 31.4234161376953125 31.521551132202148438 31.619686126708984375 31.717823028564453125 31.243091583251953125 29.70333099365234375 28.16356658935546875 26.623804092407226562 25.084043502807617188 24.792928695678710938 24.792928695678710938 24.792928695678710938 24.792928695678710938 24.6382904052734375 24.070013046264648438 23.501737594604492188 22.933460235595703125 22.365182876586914062 21.159711837768554688 19.722486495971679688 18.285261154174804688 16.848033905029296875 15.735950469970703125 15.97061920166015625 16.205289840698242188 16.439958572387695312 16.674627304077148438 15.508360862731933594 13.606326103210449219 11.704294204711914062 9.8022603988647460938 8.1123380661010742188 8.0258026123046875 7.9392676353454589844 7.8527326583862304688 7.7661976814270019531 7.6796627044677734375 7.5931277275085449219 7.5065927505493164062 7.4200577735900878906 7.334991455078125 7.2859239578247070312 7.2368564605712890625 7.1877894401550292969 7.138721466064453125 7.027606964111328125 6.8545370101928710938 6.6814670562744140625 6.5083975791931152344 6.3353276252746582031 6.1622576713562011719 5.9891877174377441406 5.8161177635192871094 5.6430482864379882812 5.46997833251953125 5.2969083786010742188 5.1238384246826171875 4.9507684707641601562 4.7776989936828613281 4.6046290397644042969 4.4315590858459472656 4.2584891319274902344 4.0854196548461914062 3.9123494625091552734 3.7392797470092773438 3.5662097930908203125 3.3931400775909423828 3.2200701236724853516 3.1865410804748535156 3.1865410804748535156 3.1865410804748535156 3.1865410804748535156 3.1402537822723388672 2.9671840667724609375 2.7941141128540039062 2.6210443973541259766 2.4479744434356689453 2.3737084865570068359 2.3362410068511962891 2.2987735271453857422 2.2613062858581542969 2.2216370105743408203 2.1725695133209228516 2.1235020160675048828 2.0744345188140869141 2.0253667831420898438 2.0889654159545898438 2.2129678726196289062 2.3369703292846679688 2.4609725475311279297 2.5849750041961669922 2.7089772224426269531 2.8329794406890869141 2.956981658935546875 3.0809841156005859375 3.1835045814514160156 3.2700395584106445312 3.3565745353698730469 3.4431095123291015625 3.5296442508697509766 3.6161792278289794922 3.7027142047882080078 3.7892491817474365234 3.8757839202880859375 3.9623188972473144531 4.0488538742065429688 4.1353888511657714844 4.221923828125 4.3084588050842285156 4.3949937820434570312 4.4815282821655273438 4.5680632591247558594 4.654598236083984375 4.7773103713989257812 4.9503803253173828125 5.1234498023986816406 5.2965197563171386719 5.4695897102355957031 5.4904894828796386719 5.4904894828796386719 -9999 
26.857023239135742188 27.368438720703125 28.565023422241210938 29.761608123779296875 30.95819091796875 32.154773712158203125 32.409183502197265625 32.54544830322265625 32.6817169189453125 32.817981719970703125 32.48807525634765625 31.291492462158203125 30.094907760620117188 28.898326873779296875 27.701742172241210938 27.4755096435546875 27.4755096435546875 27.4755096435546875 27.4755096435546875 27.315685272216796875 26.728345870971679688 26.141002655029296875 25.55365753173828125 24.96631622314453125 23.420223236083984375 21.525426864624023438 19.630626678466796875 17.735830307006835938 16.377515792846679688 17.241346359252929688 18.1051788330078125 18.9690093994140625 19.8328399658203125 18.42070770263671875 15.813251495361328125 13.205794334411621094 10.598337173461914062 8.28540802001953125 8.1988725662231445312 8.1123380661010742188 8.0258026123046875 7.9392676353454589844 7.8527326583862304688 7.7661976814270019531 7.6796627044677734375 7.5931277275085449219 7.5073142051696777344 7.4391813278198242188 7.3710484504699707031 7.3029150962829589844 7.2347822189331054688 7.1141419410705566406 6.9410719871520996094 6.7680020332336425781 6.5949320793151855469 6.4218626022338867188 6.2487926483154296875 6.0757226943969726562 5.902652740478515625 5.7295827865600585938 5.5565133094787597656 5.3834433555603027344 5.2103734016418457031 5.0373034477233886719 4.8642339706420898438 4.6911640167236328125 4.5180940628051757812 4.34502410888671875 4.1719541549682617188 3.9988844394683837891 3.8258147239685058594 3.6527447700500488281 3.4796748161315917969 3.3066051006317138672 3.2730760574340820312 3.2730760574340820312 3.2730760574340820312 3.2730760574340820312 3.2267887592315673828 3.0537188053131103516 2.8806490898132324219 2.7075791358947753906 2.5345094203948974609 2.4741349220275878906 2.4557330608367919922 2.4373311996459960938 2.4189293384552001953 2.3910880088806152344 2.3229548931121826172 2.2548220157623291016 2.1866888999938964844 2.1185560226440429688 2.1630890369415283203 2.2680258750915527344 2.3729627132415771484 2.4778995513916015625 2.5828363895416259766 2.6877732276916503906 2.7927098274230957031 2.8976469039916992188 3.0025835037231445312 3.0969698429107666016 3.1835045814514160156 3.2700395584106445312 3.3565745353698730469 3.4431095123291015625 3.5296442508697509766 3.6161792278289794922 3.7027142047882080078 3.7892491817474365234 3.8757839202880859375 3.9623188972473144531 4.0488538742065429688 4.1353888511657714844 4.221923828125 4.3084588050842285156 4.3949937820434570312 4.4815282821655273438 4.5680632591247558594 4.6907753944396972656 4.8638453483581542969 5.0369153022766113281 5.2099847793579101562 5.3830547332763671875 5.4039545059204101562 5.4039545059204101562 -9999 
29.369548797607421875 29.738828659057617188 30.602849960327148438 31.4668731689453125 32.33089447021484375 33.194915771484375 33.44556427001953125 33.619297027587890625 33.793033599853515625 33.966766357421875 33.777538299560546875 32.913516998291015625 32.04949188232421875 31.1854705810546875 30.32144927978515625 30.158094406127929688 30.158094406127929688 30.158094406127929688 30.158094406127929688 29.989650726318359375 29.370634078979492188 28.751617431640625 28.132600784301757812 27.513580322265625 25.633726119995117188 23.295291900634765625 20.956859588623046875 18.618425369262695312 17.017490386962890625 18.471330642700195312 19.925168991088867188 21.379009246826171875 22.832849502563476562 21.186170578002929688 17.9111175537109375 14.636061668395996094 11.3610076904296875 8.4584779739379882812 8.3719425201416015625 8.28540802001953125 8.1988725662231445312 8.1123380661010742188 8.0258026123046875 7.9392676353454589844 7.8527326583862304688 7.7661976814270019531 7.6796364784240722656 7.5924386978149414062 7.5052399635314941406 7.418041229248046875 7.3308424949645996094 7.2006769180297851562 7.027606964111328125 6.8545370101928710938 6.6814670562744140625 6.5083975791931152344 6.3353276252746582031 6.1622576713562011719 5.9891877174377441406 5.8161177635192871094 5.6430482864379882812 5.46997833251953125 5.2969083786010742188 5.1238384246826171875 4.9507684707641601562 4.7776989936828613281 4.6046290397644042969 4.4315590858459472656 4.2584891319274902344 4.0854196548461914062 3.9123494625091552734 3.7392797470092773438 3.5662097930908203125 3.3931400775909423828 3.3596110343933105469 3.3596110343933105469 3.3596110343933105469 3.3596110343933105469 3.3135011196136474609 3.1410949230194091797 2.9686887264251708984 2.7962825298309326172 2.6238763332366943359 2.5770900249481201172 2.5770900249481201172 2.5770900249481201172 2.5770900249481201172 2.560665130615234375 2.4741301536560058594 2.3875951766967773438 2.3010601997375488281 2.2145254611968994141 2.2402245998382568359 2.3260960578918457031 2.4119672775268554688 2.4978384971618652344 2.583709716796875 2.6695811748504638672 2.7554523944854736328 2.8413238525390625 2.9271950721740722656 3.0138273239135742188 3.1010260581970214844 3.1882245540618896484 3.2754230499267578125 3.3625986576080322266 3.4491336345672607422 3.5356683731079101562 3.6222033500671386719 3.7087383270263671875 3.7949442863464355469 3.8808157444000244141 3.9666869640350341797 4.0525584220886230469 4.1384296417236328125 4.2249360084533691406 4.3114709854125976562 4.3980059623718261719 4.4845409393310546875 4.606975555419921875 4.7793817520141601562 4.9517879486083984375 5.1241936683654785156 5.2965998649597167969 5.3174195289611816406 5.3174195289611816406 -9999 
31.965595245361328125 32.31858062744140625 33.14447021484375 33.97035980224609375 34.796253204345703125 35.6221466064453125 35.8854827880859375 36.078281402587890625 36.271083831787109375 36.4638824462890625 36.300384521484375 35.47449493408203125 34.6486053466796875 33.822711944580078125 32.996822357177734375 32.840679168701171875 32.840679168701171875 32.840679168701171875 32.840679168701171875 32.56847381591796875 31.568145751953125 30.56781768798828125 29.567491531372070312 28.567163467407226562 26.543668746948242188 24.148038864135742188 21.752407073974609375 19.356777191162109375 17.613367080688476562 18.571504592895507812 19.529642105102539062 20.4877777099609375 21.445913314819335938 19.878549575805664062 16.984806060791015625 14.091060638427734375 11.197317123413085938 8.6315479278564453125 8.5450124740600585938 8.4584779739379882812 8.3719425201416015625 8.28540802001953125 8.1988725662231445312 8.1123380661010742188 8.0258026123046875 7.9392676353454589844 7.8519597053527832031 7.7456951141357421875 7.6394314765930175781 7.5331673622131347656 7.4269037246704101562 7.2872118949890136719 7.1141419410705566406 6.9410719871520996094 6.7680020332336425781 6.5949320793151855469 6.4218626022338867188 6.2487926483154296875 6.0757226943969726562 5.902652740478515625 5.7295827865600585938 5.5565133094787597656 5.3834433555603027344 5.2103734016418457031 5.0373034477233886719 4.8642339706420898438 4.6911640167236328125 4.5180940628051757812 4.34502410888671875 4.1719541549682617188 3.9988844394683837891 3.8258147239685058594 3.6527447700500488281 3.4796748161315917969 3.4461457729339599609 3.4461457729339599609 3.4461457729339599609 3.4461457729339599609 3.4051351547241210938 3.2517945766448974609 3.0984537601470947266 2.9451131820678710938 2.7917723655700683594 2.7501599788665771484 2.7501599788665771484 2.7501599788665771484 2.7501599788665771484 2.7337350845336914062 2.6472001075744628906 2.560665130615234375 2.4741301536560058594 2.3875951766967773438 2.4008829593658447266 2.4676887989044189453 2.5344946384429931641 2.6013004779815673828 2.6681063175201416016 2.7349121570587158203 2.8017177581787109375 2.8685238361358642578 2.935329437255859375 3.0247585773468017578 3.1310224533081054688 3.2372865676879882812 3.3435506820678710938 3.4491336345672607422 3.5356683731079101562 3.6222033500671386719 3.7087383270263671875 3.7952733039855957031 3.872028350830078125 3.9388341903686523438 4.0056400299072265625 4.0724458694458007812 4.139251708984375 4.2249360084533691406 4.3114709854125976562 4.3980059623718261719 4.4845409393310546875 4.5990042686462402344 4.7523455619812011719 4.9056863784790039062 5.0590267181396484375 5.2123675346374511719 5.230884552001953125 5.230884552001953125 -9999 
34.5616455078125 34.8983306884765625 35.686092376708984375 36.473850250244140625 37.2616119384765625 38.04936981201171875 38.32540130615234375 38.53726959228515625 38.749134063720703125 38.960994720458984375 38.82323455810546875 38.0354766845703125 37.247714996337890625 36.459957122802734375 35.6721954345703125 35.523258209228515625 35.523258209228515625 35.523258209228515625 35.523258209228515625 35.1472930908203125 33.765655517578125 32.384021759033203125 31.002384185791015625 29.620746612548828125 27.453611373901367188 25.000783920288085938 22.547956466674804688 20.09513092041015625 18.209245681762695312 18.671680450439453125 19.134111404418945312 19.596546173095703125 20.058979034423828125 18.570928573608398438 16.05849456787109375 13.546060562133789062 11.033626556396484375 8.8046169281005859375 8.718082427978515625 8.6315479278564453125 8.5450124740600585938 8.4584779739379882812 8.3719425201416015625 8.28540802001953125 8.1988725662231445312 8.1123380661010742188 8.0242824554443359375 7.898952484130859375 7.7736234664916992188 7.6482934951782226562 7.5229640007019042969 7.3737468719482421875 7.2006769180297851562 7.027606964111328125 6.8545370101928710938 6.6814670562744140625 6.5083975791931152344 6.3353276252746582031 6.1622576713562011719 5.9891877174377441406 5.8161177635192871094 5.6430482864379882812 5.46997833251953125 5.2969083786010742188 5.1238384246826171875 4.9507684707641601562 4.7776989936828613281 4.6046290397644042969 4.4315590858459472656 4.2584891319274902344 4.0854196548461914062 3.9123494625091552734 3.7392797470092773438 3.5662097930908203125 3.5326807498931884766 3.5326807498931884766 3.5326807498931884766 3.5326807498931884766 3.4967691898345947266 3.3624939918518066406 3.2282187938690185547 3.0939435958862304688 2.9596683979034423828 2.9232296943664550781 2.9232296943664550781 2.9232296943664550781 2.9232296943664550781 2.9068048000335693359 2.8202698230743408203 2.7337350845336914062 2.6472001075744628906 2.560665130615234375 2.5615415573120117188 2.6092817783355712891 2.6570219993591308594 2.7047624588012695312 2.7525026798248291016 2.8002429008483886719 2.8479833602905273438 2.8957235813140869141 2.9434638023376464844 3.0356895923614501953 3.1610190868377685547 3.2863485813140869141 3.411678314208984375 3.5356683731079101562 3.6222033500671386719 3.7087383270263671875 3.7952733039855957031 3.8818082809448242188 3.9491124153137207031 3.996852874755859375 4.0445928573608398438 4.0923333168029785156 4.1400732994079589844 4.2249360084533691406 4.3114709854125976562 4.3980059623718261719 4.4845409393310546875 4.591033935546875 4.7253093719482421875 4.8595843315124511719 4.9938597679138183594 5.1281347274780273438 5.1443495750427246094 5.1443495750427246094 -9999 
37.15769195556640625 37.47808074951171875 38.227710723876953125 38.9773406982421875 39.72696685791015625 40.476596832275390625 40.76531982421875 40.996250152587890625 41.227184295654296875 41.4581146240234375 41.346088409423828125 40.596454620361328125 39.846828460693359375 39.097198486328125 38.347568511962890625 38.205841064453125 38.205841064453125 38.205841064453125 38.205841064453125 37.726116180419921875 35.963169097900390625 34.200222015380859375 32.437274932861328125 30.674327850341796875 28.363552093505859375 25.853528976440429688 23.343505859375 20.833482742309570312 18.805124282836914062 18.771854400634765625 18.738584518432617188 18.705312728881835938 18.672044754028320312 17.263307571411132812 15.132183074951171875 13.001059532165527344 10.869935035705566406 8.9776868820190429688 8.89115142822265625 8.8046169281005859375 8.718082427978515625 8.6315479278564453125 8.5450124740600585938 8.4584779739379882812 8.3719425201416015625 8.28540802001953125 8.1966047286987304688 8.0522098541259765625 7.9078149795532226562 7.76342010498046875 7.6190242767333984375 7.4602818489074707031 7.2872118949890136719 7.1141419410705566406 6.9410719871520996094 6.7680020332336425781 6.5949320793151855469 6.4218626022338867188 6.2487926483154296875 6.0757226943969726562 5.902652740478515625 5.7295827865600585938 5.5565133094787597656 5.3834433555603027344 5.2103734016418457031 5.0373034477233886719 4.8642339706420898438 4.6911640167236328125 4.5180940628051757812 4.34502410888671875 4.1719541549682617188 3.9988844394683837891 3.8258147239685058594 3.6527447700500488281 3.6192157268524169922 3.6192157268524169922 3.6192157268524169922 3.6192157268524169922 3.5884032249450683594 3.4731934070587158203 3.3579838275909423828 3.2427740097045898438 3.1275644302368164062 3.0962996482849121094 3.0962996482849121094 3.0962996482849121094 3.0962996482849121094 3.0798747539520263672 2.9933397769927978516 2.9068048000335693359 2.8202698230743408203 2.7337350845336914062 2.7222001552581787109 2.7508747577667236328 2.7795495986938476562 2.8082242012023925781 2.8368990421295166016 2.865573883056640625 2.8942487239837646484 2.9229235649108886719 2.9515981674194335938 3.0466208457946777344 3.1910157203674316406 3.33541107177734375 3.4798059463500976562 3.6222033500671386719 3.7087383270263671875 3.7952733039855957031 3.8818082809448242188 3.9683430194854736328 4.0261964797973632812 4.0548710823059082031 4.0835461616516113281 4.11222076416015625 4.140895843505859375 4.2249360084533691406 4.3114709854125976562 4.3980059623718261719 4.4845409393310546875 4.5830636024475097656 4.6982731819152832031 4.8134827613830566406 4.9286923408508300781 5.0439023971557617188 5.0578145980834960938 5.0578145980834960938 -9999 
39.7537384033203125 40.057830810546875 40.769329071044921875 41.48082733154296875 42.192325592041015625 42.9038238525390625 43.205242156982421875 43.45523834228515625 43.705230712890625 43.955226898193359375 43.86893463134765625 43.157436370849609375 42.4459381103515625 41.73444366455078125 41.02294158935546875 40.888423919677734375 40.888423919677734375 40.888423919677734375 40.888423919677734375 40.30493927001953125 38.16068267822265625 36.01642608642578125 33.872165679931640625 31.727910995483398438 29.273494720458984375 26.70627593994140625 24.139055252075195312 21.571836471557617188 19.4010009765625 18.872028350830078125 18.34305572509765625 17.814083099365234375 17.285108566284179688 15.955687522888183594 14.205872535705566406 12.456058502197265625 10.706244468688964844 9.1507568359375 9.0642213821411132812 8.9776868820190429688 8.89115142822265625 8.8046169281005859375 8.718082427978515625 8.6315479278564453125 8.5450124740600585938 8.4584779739379882812 8.368927001953125 8.2054662704467773438 8.0420064926147460938 7.8785462379455566406 7.7150855064392089844 7.5468168258666992188 7.3737468719482421875 7.2006769180297851562 7.027606964111328125 6.8545370101928710938 6.6814670562744140625 6.5083975791931152344 6.3353276252746582031 6.1622576713562011719 5.9891877174377441406 5.8161177635192871094 5.6430482864379882812 5.46997833251953125 5.2969083786010742188 5.1238384246826171875 4.9507684707641601562 4.7776989936828613281 4.6046290397644042969 4.4315590858459472656 4.2584891319274902344 4.0854196548461914062 3.9123494625091552734 3.7392797470092773438 3.7057507038116455078 3.7057507038116455078 3.7057507038116455078 3.7057507038116455078 3.6800372600555419922 3.5838930606842041016 3.4877488613128662109 3.3916044235229492188 3.2954602241516113281 3.2693693637847900391 3.2693693637847900391 3.2693693637847900391 3.2693693637847900391 3.2529444694519042969 3.1664097309112548828 3.0798747539520263672 2.9933397769927978516 2.9068048000335693359 2.8828582763671875 2.8924677371978759766 2.9020771980285644531 2.9116864204406738281 2.9212956428527832031 2.9309048652648925781 2.9405140876770019531 2.9501233100891113281 2.9597325325012207031 3.0575518608093261719 3.2210123538970947266 3.3844730854034423828 3.5479335784912109375 3.7087383270263671875 3.7952733039855957031 3.8818082809448242188 3.9683430194854736328 4.05487823486328125 4.1032805442810058594 4.1128897666931152344 4.1224989891052246094 4.1321082115173339844 4.1417179107666015625 4.2249360084533691406 4.3114709854125976562 4.3980059623718261719 4.4845409393310546875 4.5750927925109863281 4.6712369918823242188 4.7673811912536621094 4.863525390625 4.9596695899963378906 4.9712796211242675781 4.9712796211242675781 -9999 
42.39270782470703125 42.67646026611328125 43.340373992919921875 44.00428009033203125 44.668193817138671875 45.332103729248046875 45.603145599365234375 45.82492828369140625 46.0467071533203125 46.26848602294921875 46.091190338134765625 45.171962738037109375 44.2527313232421875 43.33350372314453125 42.414272308349609375 42.240482330322265625 42.240482330322265625 42.240482330322265625 42.240482330322265625 41.5944061279296875 39.2201385498046875 36.8458709716796875 34.4716033935546875 32.0973358154296875 29.546567916870117188 26.931608200073242188 24.316650390625 21.701688766479492188 19.4272613525390625 18.563341140747070312 17.699420928955078125 16.835498809814453125 15.971578598022460938 14.758226394653320312 13.361352920532226562 11.964480400085449219 10.567608833312988281 9.3227214813232421875 9.2267313003540039062 9.1307392120361328125 9.034748077392578125 8.9387569427490234375 8.84276580810546875 8.7467746734619140625 8.650783538818359375 8.5547924041748046875 8.4557809829711914062 8.282711029052734375 8.1096410751342773438 7.9365706443786621094 7.7635011672973632812 7.59043121337890625 7.4173612594604492188 7.2442913055419921875 7.0712218284606933594 6.8981518745422363281 6.7250819206237792969 6.5520119667053222656 6.3789424896240234375 6.2058725357055664062 6.0367999076843261719 5.8731861114501953125 5.7095727920532226562 5.5459589958190917969 5.3823456764221191406 5.2103734016418457031 5.0373034477233886719 4.8642339706420898438 4.6911640167236328125 4.5213575363159179688 4.3577437400817871094 4.19412994384765625 4.0305166244506835938 3.8669028282165527344 3.8352057933807373047 3.8352057933807373047 3.8352057933807373047 3.8352057933807373047 3.8120622634887695312 3.7255272865295410156 3.6389923095703125 3.5524573326110839844 3.4659225940704345703 3.4424393177032470703 3.4424393177032470703 3.4424393177032470703 3.4424393177032470703 3.4260144233703613281 3.3394794464111328125 3.2529444694519042969 3.1664097309112548828 3.0798747539520263672 3.1296994686126708984 3.2526302337646484375 3.3755614757537841797 3.4984924793243408203 3.5927853584289550781 3.4603981971740722656 3.3280110359191894531 3.1956236362457275391 3.063236236572265625 3.1005597114562988281 3.2641735076904296875 3.4277870655059814453 3.5914006233215332031 3.7575767040252685547 3.9954113960266113281 4.233245849609375 4.471080780029296875 4.70891571044921875 4.8429169654846191406 4.8712859153747558594 4.899654388427734375 4.9280233383178710938 4.9563918113708496094 5.1218557357788085938 5.2934966087341308594 5.465137481689453125 5.6367788314819335938 5.8163266181945800781 6.0068802833557128906 6.1974334716796875 6.3879871368408203125 6.578540802001953125 6.6015515327453613281 6.6015515327453613281 -9999 
45.075290679931640625 45.334598541259765625 45.941310882568359375 46.54802703857421875 47.1547393798828125 47.761455535888671875 47.958362579345703125 48.103878021240234375 48.24939727783203125 48.3949127197265625 48.007991790771484375 46.63118743896484375 45.25438690185546875 43.87758636474609375 42.50078582763671875 42.240482330322265625 42.240482330322265625 42.240482330322265625 42.240482330322265625 41.5736541748046875 39.123126983642578125 36.672595977783203125 34.222064971923828125 31.771533966064453125 29.172468185424804688 26.519376754760742188 23.866285324096679688 21.213193893432617188 18.874681472778320312 17.839170455932617188 16.803661346435546875 15.768151283264160156 14.732641220092773438 13.672708511352539062 12.599948883056640625 11.527190208435058594 10.454431533813476562 9.493564605712890625 9.3785066604614257812 9.26345062255859375 9.1483936309814453125 9.0333375930786132812 8.91828155517578125 8.8032236099243164062 8.688167572021484375 8.5731105804443359375 8.4557809829711914062 8.282711029052734375 8.1096410751342773438 7.9365706443786621094 7.7635011672973632812 7.59043121337890625 7.4173612594604492188 7.2442913055419921875 7.0712218284606933594 6.8981518745422363281 6.7250819206237792969 6.5520119667053222656 6.3789424896240234375 6.2058725357055664062 6.0448594093322753906 5.9003114700317382812 5.7557635307312011719 5.6112151145935058594 5.46666717529296875 5.2969083786010742188 5.1238384246826171875 4.9507684707641601562 4.7776989936828613281 4.614471435546875 4.4699234962463378906 4.3253750801086425781 4.1808271408081054688 4.0362792015075683594 4.0082755088806152344 4.0082755088806152344 4.0082755088806152344 4.0082755088806152344 3.9851319789886474609 3.8985970020294189453 3.8120622634887695312 3.7255272865295410156 3.6389923095703125 3.6155092716217041016 3.6155092716217041016 3.6155092716217041016 3.6155092716217041016 3.5990843772888183594 3.5125494003295898438 3.4260144233703613281 3.3394794464111328125 3.2529444694519042969 3.4641172885894775391 3.83489990234375 4.2056827545166015625 4.576465606689453125 4.860870361328125 4.4615659713745117188 4.0622615814208984375 3.6629569530487060547 3.2636525630950927734 3.1761636734008789062 3.3207116127014160156 3.4652597904205322266 3.6098079681396484375 3.7681086063385009766 4.3109912872314453125 4.85387420654296875 5.3967571258544921875 5.939640045166015625 6.2558283805847167969 6.3413939476013183594 6.4269590377807617188 6.5125241279602050781 6.5980892181396484375 6.9302105903625488281 7.273441314697265625 7.6166720390319824219 7.9599027633666992188 8.3269815444946289062 8.7272548675537109375 9.127529144287109375 9.5278034210205078125 9.92807769775390625 9.976413726806640625 9.976413726806640625 -9999 
47.75787353515625 47.992733001708984375 48.5422515869140625 49.091770172119140625 49.64128875732421875 50.190807342529296875 50.313571929931640625 50.3828277587890625 50.45208740234375 50.52133941650390625 49.924793243408203125 48.09041595458984375 46.25604248046875 44.42166900634765625 42.5872955322265625 42.240482330322265625 42.240482330322265625 42.240482330322265625 42.240482330322265625 41.5529022216796875 39.026111602783203125 36.49932098388671875 33.97252655029296875 31.445735931396484375 28.798366546630859375 26.107145309448242188 23.415922164916992188 20.724700927734375 18.322101593017578125 17.115001678466796875 15.907902717590332031 14.700802803039550781 13.493703842163085938 12.587190628051757812 11.838545799255371094 11.089900016784667969 10.34125518798828125 9.66440582275390625 9.5302839279174804688 9.3961620330810546875 9.2620401382446289062 9.1279172897338867188 8.9937953948974609375 8.8596735000610351562 8.725551605224609375 8.5914297103881835938 8.4557809829711914062 8.282711029052734375 8.1096410751342773438 7.9365706443786621094 7.7635011672973632812 7.59043121337890625 7.4173612594604492188 7.2442913055419921875 7.0712218284606933594 6.8981518745422363281 6.7250819206237792969 6.5520119667053222656 6.3789424896240234375 6.2058725357055664062 6.0529189109802246094 5.92743682861328125 5.8019542694091796875 5.6764712333679199219 5.5509886741638183594 5.3834433555603027344 5.2103734016418457031 5.0373034477233886719 4.8642339706420898438 4.7075853347778320312 4.5821032524108886719 4.4566206932067871094 4.3311381340026855469 4.2056555747985839844 4.1813454627990722656 4.1813454627990722656 4.1813454627990722656 4.1813454627990722656 4.1582016944885253906 4.071666717529296875 3.9851319789886474609 3.8985970020294189453 3.8120622634887695312 3.7885789871215820312 3.7885789871215820312 3.7885789871215820312 3.7885789871215820312 3.7721540927886962891 3.6856191158294677734 3.5990843772888183594 3.5125494003295898438 3.4260144233703613281 3.7985353469848632812 4.4171695709228515625 5.0358042716979980469 5.654438018798828125 6.1289553642272949219 5.4627337455749511719 4.7965116500854492188 4.1302905082702636719 3.4640686511993408203 3.2517673969268798828 3.3772499561309814453 3.5027325153350830078 3.6282153129577636719 3.7786405086517333984 4.6265711784362792969 5.4745025634765625 6.3224334716796875 7.1703648567199707031 7.6687397956848144531 7.8115015029907226562 7.9542632102966308594 8.0970249176025390625 8.2397871017456054688 8.7385654449462890625 9.2533864974975585938 9.7682056427001953125 10.283026695251464844 10.837635040283203125 11.447629928588867188 12.05762481689453125 12.667619705200195312 13.277614593505859375 13.351275444030761719 13.351275444030761719 -9999 
50.440456390380859375 50.65087127685546875 51.143192291259765625 51.635517120361328125 52.127834320068359375 52.620159149169921875 52.668788909912109375 52.66178131103515625 52.654773712158203125 52.647769927978515625 51.84159088134765625 49.54964447021484375 47.25769805908203125 44.96575164794921875 42.67380523681640625 42.240482330322265625 42.240482330322265625 42.240482330322265625 42.240482330322265625 41.532154083251953125 38.929096221923828125 36.32604217529296875 33.722988128662109375 31.119935989379882812 28.424266815185546875 25.694913864135742188 22.9655609130859375 20.2362060546875 17.769521713256835938 16.390832901000976562 15.012144088745117188 13.633454322814941406 12.254765510559082031 11.501673698425292969 11.077141761779785156 10.652609825134277344 10.228077888488769531 9.8352489471435546875 9.6820611953735351562 9.528873443603515625 9.3756856918334960938 9.2224979400634765625 9.0693101882934570312 8.9161224365234375 8.7629346847534179688 8.6097478866577148438 8.4557809829711914062 8.282711029052734375 8.1096410751342773438 7.9365706443786621094 7.7635011672973632812 7.59043121337890625 7.4173612594604492188 7.2442913055419921875 7.0712218284606933594 6.8981518745422363281 6.7250819206237792969 6.5520119667053222656 6.3789424896240234375 6.2058725357055664062 6.0609788894653320312 5.9545617103576660156 5.84814453125 5.7417273521423339844 5.6353101730346679688 5.46997833251953125 5.2969083786010742188 5.1238384246826171875 4.9507684707641601562 4.8006997108459472656 4.6942830085754394531 4.5878658294677734375 4.4814486503601074219 4.3750319480895996094 4.3544154167175292969 4.3544154167175292969 4.3544154167175292969 4.3544154167175292969 4.3312716484069824219 4.2447366714477539062 4.1582016944885253906 4.071666717529296875 3.9851319789886474609 3.9616489410400390625 3.9616489410400390625 3.9616489410400390625 3.9616489410400390625 3.9452240467071533203 3.8586890697479248047 3.7721540927886962891 3.6856191158294677734 3.5990843772888183594 4.1329531669616699219 4.999439239501953125 5.8659253120422363281 6.7324109077453613281 7.3970398902893066406 6.4639010429382324219 5.5307626724243164062 4.5976238250732421875 3.6644849777221679688 3.3273711204528808594 3.433788299560546875 3.5402054786682128906 3.6466224193572998047 3.7891721725463867188 4.9421515464782714844 6.09513092041015625 7.2481098175048828125 8.401088714599609375 9.0816507339477539062 9.2816095352172851562 9.4815683364868164062 9.68152618408203125 9.8814840316772460938 10.546919822692871094 11.233330726623535156 11.919739723205566406 12.606149673461914062 13.34828948974609375 14.168004989624023438 14.987720489501953125 15.807436943054199219 16.6271514892578125 16.726137161254882812 16.726137161254882812 -9999 
53.123035430908203125 53.309009552001953125 53.744136810302734375 54.179256439208984375 54.614383697509765625 55.04950714111328125 55.0240020751953125 54.94073486328125 54.857463836669921875 54.774196624755859375 53.758388519287109375 51.008869171142578125 48.2593536376953125 45.509838104248046875 42.760318756103515625 42.240482330322265625 42.240482330322265625 42.240482330322265625 42.240482330322265625 41.5113983154296875 38.83208465576171875 36.152767181396484375 33.47344970703125 30.794134140014648438 28.050165176391601562 25.282680511474609375 22.515195846557617188 19.747713088989257812 17.216943740844726562 15.666665077209472656 14.11638641357421875 12.566106796264648438 11.015828132629394531 10.416155815124511719 10.315737724304199219 10.215319633483886719 10.114901542663574219 10.006091117858886719 9.8338384628295898438 9.6615848541259765625 9.4893312454223632812 9.3170785903930664062 9.1448259353637695312 8.97257232666015625 8.8003187179565429688 8.6280651092529296875 8.4557809829711914062 8.282711029052734375 8.1096410751342773438 7.9365706443786621094 7.7635011672973632812 7.59043121337890625 7.4173612594604492188 7.2442913055419921875 7.0712218284606933594 6.8981518745422363281 6.7250819206237792969 6.5520119667053222656 6.3789424896240234375 6.2058725357055664062 6.06903839111328125 5.9816865921020507812 5.8943347930908203125 5.8069834709167480469 5.7196321487426757812 5.5565133094787597656 5.3834433555603027344 5.2103734016418457031 5.0373034477233886719 4.8938140869140625 4.8064627647399902344 4.7191109657287597656 4.6317596435546875 4.5444078445434570312 4.5274853706359863281 4.5274853706359863281 4.5274853706359863281 4.5274853706359863281 4.5043416023254394531 4.4178066253662109375 4.3312716484069824219 4.2447366714477539062 4.1582016944885253906 4.1347184181213378906 4.1347184181213378906 4.1347184181213378906 4.1347184181213378906 4.11829376220703125 4.0317587852478027344 3.9452240467071533203 3.8586890697479248047 3.7721540927886962891 4.4673709869384765625 5.5817089080810546875 6.6960463523864746094 7.8103837966918945312 8.6651248931884765625 7.465068817138671875 6.2650132179260253906 5.0649571418762207031 3.8649013042449951172 3.4029750823974609375 3.4903266429901123047 3.5776779651641845703 3.6650297641754150391 3.7997040748596191406 5.2577314376831054688 6.7157588005065917969 8.173786163330078125 9.63181304931640625 10.494562149047851562 10.751717567443847656 11.008872032165527344 11.266027450561523438 11.523181915283203125 12.355275154113769531 13.213274955749511719 14.071274757385253906 14.929273605346679688 15.858944892883300781 16.888380050659179688 17.917816162109375 18.947252273559570312 19.976688385009765625 20.100999832153320312 20.100999832153320312 -9999 
54.48036956787109375 54.7900848388671875 55.514736175537109375 56.239398956298828125 56.964054107666015625 57.688709259033203125 57.27095794677734375 56.709949493408203125 56.148944854736328125 55.58794403076171875 54.235485076904296875 51.411624908447265625 48.587757110595703125 45.76389312744140625 42.940032958984375 42.406139373779296875 42.406139373779296875 42.406139373779296875 42.406139373779296875 41.67120361328125 38.970371246337890625 36.269535064697265625 33.568706512451171875 30.8678741455078125 28.116970062255859375 25.347852706909179688 22.5787353515625 19.809617996215820312 17.279651641845703125 15.740271568298339844 14.200891494750976562 12.661512374877929688 11.122132301330566406 10.523350715637207031 10.418566703796386719 10.313783645629882812 10.2089996337890625 10.0962371826171875 9.9231672286987304688 9.7500972747802734375 9.5770273208618164062 9.403957366943359375 9.2308874130249023438 9.0578174591064453125 8.8847484588623046875 8.7116785049438476562 8.538608551025390625 8.3655385971069335938 8.1924686431884765625 8.0193986892700195312 7.8463292121887207031 7.6732592582702636719 7.5001893043518066406 7.3271203041076660156 7.1540498733520507812 6.98097991943359375 6.8079104423522949219 6.6348404884338378906 6.4617705345153808594 6.2887005805969238281 6.1522116661071777344 6.0656766891479492188 5.9791421890258789062 5.8926072120666503906 5.806072235107421875 5.6591782569885253906 5.5043573379516601562 5.3495364189147949219 5.1947154998779296875 5.0634593963623046875 4.9769244194030761719 4.8903894424438476562 4.8038544654846191406 4.717319488525390625 4.7005548477172851562 4.7005548477172851562 4.7005548477172851562 4.7005548477172851562 4.6774115562438964844 4.5908765792846679688 4.5043416023254394531 4.4178066253662109375 4.3312716484069824219 4.5205349922180175781 4.8125166893005371094 5.1044983863830566406 5.3964800834655761719 5.6062250137329101562 5.4649438858032226562 5.3236622810363769531 5.18238067626953125 5.0410990715026855469 5.6172022819519042969 6.5779166221618652344 7.5386309623718261719 8.4993448257446289062 9.2348337173461914062 8.1875848770141601562 7.1403350830078125 6.0930857658386230469 5.0458369255065917969 4.5021572113037109375 4.3332080841064453125 4.1642589569091796875 3.9953098297119140625 3.8722727298736572266 5.0331358909606933594 6.1939992904663085938 7.354862213134765625 8.5157251358032226562 9.3745670318603515625 9.9261531829833984375 10.477740287780761719 11.029326438903808594 11.580913543701171875 13.078829765319824219 14.619387626647949219 16.159944534301757812 17.70050048828125 18.6801910400390625 18.879161834716796875 19.07813262939453125 19.277103424072265625 19.476076126098632812 19.500102996826171875 19.500102996826171875 -9999 
55.778392791748046875 56.21848297119140625 57.248188018798828125 58.27789306640625 59.307598114013671875 60.33730316162109375 59.51306915283203125 58.456363677978515625 57.399654388427734375 56.3429412841796875 54.64815521240234375 51.767093658447265625 48.886035919189453125 46.004974365234375 43.123912811279296875 42.5792083740234375 42.5792083740234375 42.5792083740234375 42.5792083740234375 41.839080810546875 39.1191864013671875 36.399288177490234375 33.67938995361328125 30.959493637084960938 28.2035064697265625 25.43438720703125 22.665269851684570312 19.896152496337890625 17.369894027709960938 15.849579811096191406 14.329265594482421875 12.808951377868652344 11.288636207580566406 10.683920860290527344 10.560070991516113281 10.436222076416015625 10.312372207641601562 10.182772636413574219 10.009702682495117188 9.8366327285766601562 9.663562774658203125 9.4904928207397460938 9.3174228668212890625 9.1443529129028320312 8.9712839126586914062 8.798213958740234375 8.6251440048217773438 8.4520740509033203125 8.2790040969848632812 8.10593414306640625 7.9328641891479492188 7.7597942352294921875 7.5867242813110351562 7.413654327392578125 7.2405848503112792969 7.0675148963928222656 6.8944454193115234375 6.7213754653930664062 6.548305511474609375 6.3752355575561523438 6.23874664306640625 6.1522116661071777344 6.0656766891479492188 5.9791421890258789062 5.8926072120666503906 5.76256561279296875 5.6268100738525390625 5.491054534912109375 5.3552989959716796875 5.2365288734436035156 5.149993896484375 5.0634593963623046875 4.9769244194030761719 4.8903894424438476562 4.8736248016357421875 4.8736248016357421875 4.8736248016357421875 4.8736248016357421875 4.8504810333251953125 4.7639460563659667969 4.6774115562438964844 4.5908765792846679688 4.5043416023254394531 4.91587066650390625 5.5129008293151855469 6.1099309921264648438 6.7069606781005859375 7.1529974937438964844 6.9545192718505859375 6.7560410499572753906 6.5575633049011230469 6.3590850830078125 6.8035235404968261719 7.5926485061645507812 8.3817729949951171875 9.1708984375 9.7732896804809570312 8.8976306915283203125 8.0219697952270507812 7.1463108062744140625 6.2706508636474609375 5.6471452713012695312 5.2112789154052734375 4.7754130363464355469 4.33954620361328125 3.9476175308227539062 4.7843670845031738281 5.62111663818359375 6.4578657150268554688 7.2946157455444335938 8.1412220001220703125 8.99785614013671875 9.8544912338256835938 10.711126327514648438 11.567761421203613281 13.753838539123535156 15.999819755554199219 18.245800018310546875 20.491781234741210938 21.5153350830078125 20.837291717529296875 20.159250259399414062 19.48120880126953125 18.803167343139648438 18.72129058837890625 18.72129058837890625 -9999 
57.076419830322265625 57.64688873291015625 58.981639862060546875 60.316387176513671875 61.65114593505859375 62.985897064208984375 61.75518035888671875 60.202770233154296875 58.650356292724609375 57.0979461669921875 55.060825347900390625 52.12256622314453125 49.1843109130859375 46.24605560302734375 43.307796478271484375 42.752277374267578125 42.752277374267578125 42.752277374267578125 42.752277374267578125 42.00696563720703125 39.268001556396484375 36.529041290283203125 33.79007720947265625 31.051113128662109375 28.290040969848632812 25.520921707153320312 22.751804351806640625 19.982686996459960938 17.46013641357421875 15.958888053894042969 14.457638740539550781 12.956390380859375 11.455142021179199219 10.844489097595214844 10.701574325561523438 10.558659553527832031 10.415745735168457031 10.269307136535644531 10.0962371826171875 9.9231672286987304688 9.7500972747802734375 9.5770273208618164062 9.403957366943359375 9.2308874130249023438 9.0578174591064453125 8.8847484588623046875 8.7116785049438476562 8.538608551025390625 8.3655385971069335938 8.1924686431884765625 8.0193986892700195312 7.8463292121887207031 7.6732592582702636719 7.5001893043518066406 7.3271203041076660156 7.1540498733520507812 6.98097991943359375 6.8079104423522949219 6.6348404884338378906 6.4617705345153808594 6.3252816200256347656 6.23874664306640625 6.1522116661071777344 6.0656766891479492188 5.9791421890258789062 5.8659524917602539062 5.7492628097534179688 5.6325726509094238281 5.5158829689025878906 5.4095988273620605469 5.3230638504028320312 5.2365288734436035156 5.149993896484375 5.0634593963623046875 5.0466947555541992188 5.0466947555541992188 5.0466947555541992188 5.0466947555541992188 5.0235509872436523438 4.9370160102844238281 4.8504810333251953125 4.7639460563659667969 4.6774115562438964844 5.3112072944641113281 6.2132854461669921875 7.1153631210327148438 8.0174417495727539062 8.6997699737548828125 8.4440946578979492188 8.1884202957153320312 7.9327459335327148438 7.6770715713500976562 7.9898447990417480469 8.607379913330078125 9.22491455078125 9.8424501419067382812 10.311745643615722656 9.6076755523681640625 8.903606414794921875 8.199535369873046875 7.4954657554626464844 6.792133331298828125 6.0893497467041015625 5.3865666389465332031 4.6837830543518066406 4.0229625701904296875 4.5355982780456542969 5.0482339859008789062 5.5608696937561035156 6.073505401611328125 6.9078769683837890625 8.0695600509643554688 9.231243133544921875 10.392925262451171875 11.554608345031738281 14.428847312927246094 17.380252838134765625 20.33165740966796875 23.283061981201171875 24.3504791259765625 22.795423507690429688 21.240367889404296875 19.685314178466796875 18.130258560180664062 17.942474365234375 17.942474365234375 -9999 
58.3744354248046875 59.075286865234375 60.715087890625 62.354888916015625 63.99468994140625 65.634490966796875 63.99729156494140625 61.949176788330078125 59.901065826416015625 57.8529510498046875 55.473491668701171875 52.4780426025390625 49.482585906982421875 46.487133026123046875 43.491680145263671875 42.92534637451171875 42.92534637451171875 42.92534637451171875 42.92534637451171875 42.174846649169921875 39.416820526123046875 36.65879058837890625 33.900760650634765625 31.142734527587890625 28.376575469970703125 25.607456207275390625 22.838338851928710938 20.06922149658203125 17.550378799438476562 16.068197250366210938 14.5860137939453125 13.103829383850097656 11.621645927429199219 11.005059242248535156 10.84307861328125 10.681097984313964844 10.519118309020996094 10.35584259033203125 10.182772636413574219 10.009702682495117188 9.8366327285766601562 9.663562774658203125 9.4904928207397460938 9.3174228668212890625 9.1443529129028320312 8.9712839126586914062 8.798213958740234375 8.6251440048217773438 8.4520740509033203125 8.2790040969848632812 8.10593414306640625 7.9328641891479492188 7.7597942352294921875 7.5867242813110351562 7.413654327392578125 7.2405848503112792969 7.0675148963928222656 6.8944454193115234375 6.7213754653930664062 6.548305511474609375 6.4118165969848632812 6.3252816200256347656 6.23874664306640625 6.1522116661071777344 6.0656766891479492188 5.9693398475646972656 5.871715545654296875 5.7740907669067382812 5.6764664649963378906 5.5826687812805175781 5.4961338043212890625 5.4095988273620605469 5.3230638504028320312 5.2365288734436035156 5.21976470947265625 5.21976470947265625 5.21976470947265625 5.21976470947265625 5.196620941162109375 5.1100859642028808594 5.0235509872436523438 4.9370160102844238281 4.8504810333251953125 5.7065434455871582031 6.9136700630187988281 8.12079620361328125 9.327922821044921875 10.246541976928710938 9.9336709976196289062 9.620800018310546875 9.3079290390014648438 8.9950580596923828125 9.1761655807495117188 9.622112274169921875 10.068057060241699219 10.514002799987792969 10.850202560424804688 10.317721366882324219 9.7852411270141601562 9.2527608871459960938 8.7202806472778320312 7.9371213912963867188 6.9674205780029296875 5.9977202415466308594 5.0280199050903320312 4.0983071327209472656 4.2868294715881347656 4.4753518104553222656 4.6638736724853515625 4.8523960113525390625 5.6745319366455078125 7.1412630081176757812 8.60799407958984375 10.074725151062011719 11.541455268859863281 15.103857040405273438 18.760684967041015625 22.417512893676757812 26.074342727661132812 27.185625076293945312 24.7535552978515625 22.3214874267578125 19.8894195556640625 17.457349777221679688 17.163660049438476562 17.163660049438476562 -9999 
59.1294403076171875 59.906124114990234375 61.723358154296875 63.540592193603515625 65.35782623291015625 67.17505645751953125 65.30142974853515625 62.964984893798828125 60.6285400390625 58.2920989990234375 55.71352386474609375 52.68480682373046875 49.6560821533203125 46.62735748291015625 43.59864044189453125 43.0260162353515625 43.0260162353515625 43.0260162353515625 43.0260162353515625 42.272495269775390625 39.50337982177734375 36.73426055908203125 33.965145111083984375 31.196023941040039062 28.426908493041992188 25.657789230346679688 22.888671875 20.119554519653320312 17.602869033813476562 16.131776809692382812 14.660681724548339844 13.189588546752929688 11.718494415283203125 11.098454475402832031 10.925384521484375 10.752315521240234375 10.579245567321777344 10.406175613403320312 10.233105659484863281 10.06003570556640625 9.8869657516479492188 9.7138957977294921875 9.5408258438110351562 9.367755889892578125 9.1946859359741210938 9.0216169357299804688 8.8485469818115234375 8.6754770278930664062 8.502407073974609375 8.3293371200561523438 8.1562671661376953125 7.9831976890563964844 7.8101277351379394531 7.6370577812194824219 7.4639883041381835938 7.2909183502197265625 7.1178483963012695312 6.9447789192199707031 6.7717089653015136719 6.5986390113830566406 6.4621500968933105469 6.3756151199340820312 6.2890801429748535156 6.202545166015625 6.1160106658935546875 6.0294756889343261719 5.9429407119750976562 5.8564057350158691406 5.769870758056640625 5.6833357810974121094 5.5968008041381835938 5.5102658271789550781 5.4237308502197265625 5.33719635009765625 5.3204312324523925781 5.3204312324523925781 5.3204312324523925781 5.3204312324523925781 5.2972879409790039062 5.2107529640197753906 5.124217987060546875 5.0376830101013183594 4.9511480331420898438 5.936492919921875 7.3210520744323730469 8.7056102752685546875 10.090168952941894531 11.146228790283203125 10.800088882446289062 10.453948974609375 10.107810020446777344 9.7616701126098632812 9.8661956787109375 10.212334632873535156 10.558474540710449219 10.904614448547363281 11.163396835327148438 10.730723381042480469 10.298048019409179688 9.8653736114501953125 9.4326982498168945312 8.6031084060668945312 7.4781546592712402344 6.3532004356384277344 5.2282466888427734375 4.142131805419921875 4.142131805419921875 4.142131805419921875 4.142131805419921875 4.142131805419921875 4.9571514129638671875 6.6013150215148925781 8.2454786300659179688 9.8896417617797851562 11.53380584716796875 15.496478080749511719 19.563619613647460938 23.630762100219726562 27.697902679443359375 28.834699630737304688 25.892511367797851562 22.95032501220703125 20.008136749267578125 17.065950393676757812 16.710659027099609375 16.710659027099609375 -9999 
59.1294403076171875 59.906124114990234375 61.723358154296875 63.540592193603515625 65.35782623291015625 67.17505645751953125 65.30142974853515625 62.964984893798828125 60.6285400390625 58.2920989990234375 55.71352386474609375 52.68480682373046875 49.6560821533203125 46.62735748291015625 43.59864044189453125 43.0260162353515625 43.0260162353515625 43.0260162353515625 43.0260162353515625 42.272495269775390625 39.50337982177734375 36.73426055908203125 33.965145111083984375 31.196023941040039062 28.426908493041992188 25.657789230346679688 22.888671875 20.119554519653320312 17.602869033813476562 16.131776809692382812 14.660681724548339844 13.189588546752929688 11.718494415283203125 11.098454475402832031 10.925384521484375 10.752315521240234375 10.579245567321777344 10.406175613403320312 10.233105659484863281 10.06003570556640625 9.8869657516479492188 9.7138957977294921875 9.5408258438110351562 9.367755889892578125 9.1946859359741210938 9.0216169357299804688 8.8485469818115234375 8.6754770278930664062 8.502407073974609375 8.3293371200561523438 8.1562671661376953125 7.9831976890563964844 7.8101277351379394531 7.6370577812194824219 7.4639883041381835938 7.2909183502197265625 7.1178483963012695312 6.9447789192199707031 6.7717089653015136719 6.5986390113830566406 6.4621500968933105469 6.3756151199340820312 6.2890801429748535156 6.202545166015625 6.1160106658935546875 6.0294756889343261719 5.9429407119750976562 5.8564057350158691406 5.769870758056640625 5.6833357810974121094 5.5968008041381835938 5.5102658271789550781 5.4237308502197265625 5.33719635009765625 5.3204312324523925781 5.3204312324523925781 5.3204312324523925781 5.3204312324523925781 5.2972879409790039062 5.2107529640197753906 5.124217987060546875 5.0376830101013183594 4.9511480331420898438 5.936492919921875 7.3210520744323730469 8.7056102752685546875 10.090168952941894531 11.146228790283203125 10.800088882446289062 10.453948974609375 10.107810020446777344 9.7616701126098632812 9.8661956787109375 10.212334632873535156 10.558474540710449219 10.904614448547363281 11.163396835327148438 10.730723381042480469 10.298048019409179688 9.8653736114501953125 9.4326982498168945312 8.6031084060668945312 7.4781546592712402344 6.3532004356384277344 5.2282466888427734375 4.142131805419921875 4.142131805419921875 4.142131805419921875 4.142131805419921875 4.142131805419921875 4.9571514129638671875 6.6013150215148925781 8.2454786300659179688 9.8896417617797851562 11.53380584716796875 15.496478080749511719 19.563619613647460938 23.630762100219726562 27.697902679443359375 28.834699630737304688 25.892511367797851562 22.95032501220703125 20.008136749267578125 17.065950393676757812 16.710659027099609375 16.710659027099609375 -9999 
-9999 -9999 -9999 -9999 -9999 -9999 -9999 -9999 -9999 -9999 -9999 -9999 -9999 -9999 -9999 -9999 -9999 -9999 -9999 -9999 -9999 -9999 -9999 -9999 -9999 -9999 -9999 -9999 -9999 -9999 -9999 -9999 -9999 -9999 -9999 -9999 -9999 -9999 -9999 -9999 -9999 -9999 -9999 -9999 -9999 -9999 -9999 -9999 -9999 -9999 -9999 -9999 -9999 -9999 -9999 -9999 -9999 -9999 -9999 -9999 -9999 -9999 -9999 -9999 -9999 -9999 -9999 -9999 -9999 -9999 -9999 -9999 -9999 -9999 -9999 -9999 -9999 -9999 -9999 -9999 -9999 -9999 -9999 -9999 -9999 -9999 -9999 -9999 -9999 -9999 -9999 -9999 -9999 -9999 -9999 -9999 -9999 -9999 -9999 -9999 -9999 -9999 -9999 -9999 -9999 -9999 -9999 -9999 -9999 -9999 -9999 -9999 -9999 -9999 -9999 -9999 -9999 -9999 -9999 -9999 -9999 -9999 -9999 -9999 -9999 -9999 -9999 
-9999 -9999 -9999 -9999 -9999 -9999 -9999 -9999 -9999 -9999 -9999 -9999 -9999 -9999 -9999 -9999 -9999 -9999 -9999 -9999 -9999 -9999 -9999 -9999 -9999 -9999 -9999 -9999 -9999 -9999 -9999 -9999 -9999 -9999 -9999 -9999 -9999 -9999 -9999 -9999 -9999 -9999 -9999 -9999 -9999 -9999 -9999 -9999 -9999 -9999 -9999 -9999 -9999 -9999 -9999 -9999 -9999 -9999 -9999 -9999 -9999 -9999 -9999 -9999 -9999 -9999 -9999 -9999 -9999 -9999 -9999 -9999 -9999 -9999 -9999 -9999 -9999 -9999 -9999 -9999 -9999 -9999 -9999 -9999 -9999 -9999 -9999 -9999 -9999 -9999 -9999 -9999 -9999 -9999 -9999 -9999 -9999 -9999 -9999 -9999 -9999 -9999 -9999 -9999 -9999 -9999 -9999 -9999 -9999 -9999 -9999 -9999 -9999 -9999 -9999 -9999 -9999 -9999 -9999 -9999 -9999 -9999 -9999 -9999 -9999 -9999 -9999 
