ncols        127
nrows        131
xllcorner    -71.681135979344
yllcorner    -16.519694133538
cellsize     0.001836012963
NODATA_value nan
4.2583055496215820312 4.1875643730163574219 4.1630830764770507812 4.308261871337890625 4.3621644973754882812 4.3694901466369628906 4.3438005447387695312 4.3640069961547851562 4.3724527359008789062 4.4151835441589355469 4.4343729019165039062 4.4954395294189453125 4.6901345252990722656 4.8001689910888671875 4.8446354866027832031 4.8898591995239257812 4.9179425239562988281 4.9156785011291503906 4.9815983772277832031 5.2734599113464355469 5.6053299903869628906 5.6569185256958007812 5.6886067390441894531 5.8130741119384765625 5.7250518798828125 5.7003626823425292969 5.7947034835815429688 5.7722005844116210938 5.8870301246643066406 5.9643301963806152344 5.9581584930419921875 6.0238537788391113281 6.0815472602844238281 6.3922305107116699219 6.7330045700073242188 7.0891356468200683594 7.287532806396484375 7.5279111862182617188 7.9341883659362792969 8.30449676513671875 8.5528497695922851562 8.6972246170043945312 8.8172693252563476562 8.9415330886840820312 8.9613742828369140625 9.076747894287109375 9.0911169052124023438 9.04116058349609375 9.1002292633056640625 9.0539407730102539062 8.7667379379272460938 8.6928472518920898438 8.8788633346557617188 8.8503265380859375 8.5168304443359375 8.162670135498046875 7.7953763008117675781 7.318115234375 6.9435868263244628906 6.8393411636352539062 6.9231581687927246094 6.9378309249877929688 7.1654124259948730469 7.5117859840393066406 7.4888596534729003906 7.4795336723327636719 7.6057476997375488281 7.3883419036865234375 7.1110401153564453125 7.0312914848327636719 6.8588705062866210938 6.7554249763488769531 6.7617788314819335938 6.7996740341186523438 6.8621683120727539062 6.9254322052001953125 6.965908050537109375 7.0356135368347167969 7.1606984138488769531 7.22408294677734375 7.2196140289306640625 7.2233686447143554688 7.2631011009216308594 7.3010869026184082031 7.4381046295166015625 7.5975251197814941406 7.6828150749206542969 7.66832733154296875 7.6568365097045898438 7.776790618896484375 7.9301853179931640625 7.9581394195556640625 7.9178166389465332031 7.8855504989624023438 7.8289847373962402344 7.7000432014465332031 7.7683324813842773438 7.8091359138488769531 7.803455352783203125 7.7448110580444335938 7.949939727783203125 8.2644329071044921875 8.4234905242919921875 8.4771547317504882812 8.387706756591796875 8.3444681167602539062 8.444644927978515625 8.4169626235961914062 8.3013486862182617188 8.2612705230712890625 8.2128610610961914062 8.188228607177734375 8.2782678604125976562 8.295597076416015625 7.8370370864868164062 7.6659426689147949219 7.6383137702941894531 7.5132107734680175781 7.3692693710327148438 7.0127863883972167969 6.3251805305480957031 6.1079092025756835938 6.6070919036865234375 7.1878213882446289062 7.8238463401794433594 8.5518999099731445312 9.1675872802734375 
4.2026162147521972656 4.1283397674560546875 4.2258877754211425781 4.3125524520874023438 4.33391571044921875 4.3639111518859863281 4.3175349235534667969 4.3173880577087402344 4.3341565132141113281 4.3732209205627441406 4.4104962348937988281 4.5689096450805664062 4.738796234130859375 4.7968769073486328125 4.8480925559997558594 4.8749065399169921875 4.8844470977783203125 4.8818302154541015625 5.0067043304443359375 5.3726878166198730469 5.6181840896606445312 5.5685849189758300781 5.6634793281555175781 5.7089667320251464844 5.6046366691589355469 5.6366443634033203125 5.6443991661071777344 5.6375870704650878906 5.7903928756713867188 5.8135323524475097656 5.7716693878173828125 5.8925805091857910156 6.0064597129821777344 6.3328199386596679688 6.6874346733093261719 6.9716553688049316406 7.1228699684143066406 7.3724989891052246094 7.8512277603149414062 8.2901887893676757812 8.6132526397705078125 8.8317880630493164062 8.9360332489013671875 8.9576282501220703125 9.1214056015014648438 9.183162689208984375 9.1076679229736328125 9.1036100387573242188 9.0903682708740234375 8.9533205032348632812 8.6522121429443359375 8.6157407760620117188 8.782375335693359375 8.7242794036865234375 8.367412567138671875 7.9871153831481933594 7.7002377510070800781 7.2760686874389648438 6.8339829444885253906 6.7285265922546386719 6.7425351142883300781 6.7759943008422851562 7.0896620750427246094 7.4123291969299316406 7.3886709213256835938 7.4464964866638183594 7.5538272857666015625 7.2291235923767089844 6.937244415283203125 6.7418217658996582031 6.6524424552917480469 6.6427359580993652344 6.6600666046142578125 6.7013950347900390625 6.770221710205078125 6.8227319717407226562 6.8708539009094238281 6.975162506103515625 7.1013612747192382812 7.1121187210083007812 7.0914778709411621094 7.0925502777099609375 7.1218991279602050781 7.2504625320434570312 7.3975625038146972656 7.4916281700134277344 7.5200910568237304688 7.483310699462890625 7.5563664436340332031 7.7233099937438964844 7.8014311790466308594 7.8272604942321777344 7.8190016746520996094 7.7664060592651367188 7.6995296478271484375 7.4509530067443847656 7.4745235443115234375 7.6512761116027832031 7.6540989875793457031 7.6062183380126953125 7.9386663436889648438 8.2315073013305664062 8.3263711929321289062 8.349521636962890625 8.2552900314331054688 8.2029590606689453125 8.3151330947875976562 8.3228445053100585938 8.227420806884765625 8.1314105987548828125 8.0878047943115234375 8.030651092529296875 7.9865102767944335938 7.9311947822570800781 7.5626749992370605469 7.5283670425415039062 7.5496172904968261719 7.56204986572265625 7.3483295440673828125 6.7561998367309570312 6.1505899429321289062 6.1879439353942871094 6.7779254913330078125 7.3347101211547851562 7.8429341316223144531 8.4542360305786132812 9.0358304977416992188 
4.084857940673828125 4.175159454345703125 4.2798695564270019531 4.2584223747253417969 4.2804546356201171875 4.3258652687072753906 4.2742452621459960938 4.2624530792236328125 4.2833466529846191406 4.3616986274719238281 4.5480313301086425781 4.6822729110717773438 4.7546944618225097656 4.7972359657287597656 4.8272504806518554688 4.835620880126953125 4.8346390724182128906 4.8379011154174804688 5.0831379890441894531 5.425121307373046875 5.4914479255676269531 5.4140024185180664062 5.5639185905456542969 5.5939798355102539062 5.49954986572265625 5.5931558609008789062 5.5195136070251464844 5.4420981407165527344 5.6457428932189941406 5.582378387451171875 5.61304473876953125 5.8615636825561523438 6.1054482460021972656 6.3867292404174804688 6.6273837089538574219 6.8538327217102050781 7.1686143875122070312 7.5300774574279785156 7.8546280860900878906 8.1808681488037109375 8.5134038925170898438 8.7670259475708007812 8.9828176498413085938 9.0884656906127929688 9.3322877883911132812 9.4450483322143554688 9.4691162109375 9.3555402755737304688 9.1497707366943359375 8.957889556884765625 8.69275665283203125 8.5115728378295898438 8.5938692092895507812 8.5448999404907226562 8.23398590087890625 7.7588143348693847656 7.3242654800415039062 6.9907464981079101562 6.7567057609558105469 6.7113690376281738281 6.7594041824340820312 6.8148312568664550781 7.1069955825805664062 7.334087371826171875 7.3288073539733886719 7.4130296707153320312 7.4138312339782714844 7.0059404373168945312 6.6810302734375 6.5172853469848632812 6.5178279876708984375 6.5302262306213378906 6.5449004173278808594 6.5975337028503417969 6.6616730690002441406 6.7056140899658203125 6.78018951416015625 6.8883528709411621094 6.982097625732421875 6.9776148796081542969 6.9630875587463378906 6.9595189094543457031 7.0571160316467285156 7.1936502456665039062 7.2674269676208496094 7.3426675796508789062 7.3346576690673828125 7.3235144615173339844 7.4714770317077636719 7.5948319435119628906 7.6454272270202636719 7.6805233955383300781 7.6924600601196289062 7.6440997123718261719 7.5666303634643554688 7.2971930503845214844 7.2740960121154785156 7.44358062744140625 7.4428501129150390625 7.5490369796752929688 7.9219603538513183594 8.1349086761474609375 8.2079944610595703125 8.21469879150390625 8.0917301177978515625 8.0778875350952148438 8.18373870849609375 8.2004261016845703125 8.1369428634643554688 8.0472669601440429688 7.9418215751647949219 7.7531361579895019531 7.4108624458312988281 7.3259997367858886719 7.1903252601623535156 7.2636370658874511719 7.415050506591796875 7.600742340087890625 7.2439970970153808594 6.5222516059875488281 5.9709944725036621094 6.1597537994384765625 6.8147821426391601562 7.5038623809814453125 8.0512027740478515625 8.5766620635986328125 9.0688600540161132812 
4.1044955253601074219 4.2371072769165039062 4.2472767829895019531 4.2182478904724121094 4.2712430953979492188 4.2881460189819335938 4.2212719917297363281 4.2052779197692871094 4.2644357681274414062 4.4779477119445800781 4.6449613571166992188 4.7096505165100097656 4.7491168975830078125 4.7728419303894042969 4.786251068115234375 4.7940201759338378906 4.79288482666015625 4.8611464500427246094 5.1300592422485351562 5.2779650688171386719 5.2337045669555664062 5.3394913673400878906 5.4814162254333496094 5.4652128219604492188 5.265666961669921875 5.293514251708984375 5.2626094818115234375 5.2484440803527832031 5.4849987030029296875 5.4424538612365722656 5.4813585281372070312 5.7853527069091796875 6.1300282478332519531 6.3559660911560058594 6.5605196952819824219 6.8849749565124511719 7.2767400741577148438 7.5787215232849121094 7.813297271728515625 8.117969512939453125 8.4007320404052734375 8.5882425308227539062 8.774822235107421875 8.8833837509155273438 9.1957559585571289062 9.35788726806640625 9.3740835189819335938 9.1781110763549804688 9.0111246109008789062 8.9701757431030273438 8.6648664474487304688 8.3474636077880859375 8.3448047637939453125 8.2959718704223632812 8.05370330810546875 7.6683697700500488281 7.1362214088439941406 6.8076386451721191406 6.7319512367248535156 6.7298727035522460938 6.8972120285034179688 6.9781999588012695312 7.1703209877014160156 7.31940460205078125 7.3287644386291503906 7.3606214523315429688 7.2117009162902832031 6.7708621025085449219 6.4597525596618652344 6.3864040374755859375 6.41460418701171875 6.4251155853271484375 6.4482779502868652344 6.5034213066101074219 6.5580625534057617188 6.5983424186706542969 6.6688213348388671875 6.7551836967468261719 6.823314666748046875 6.8306126594543457031 6.8355627059936523438 6.8667240142822265625 6.9863214492797851562 7.0701613426208496094 7.1390743255615234375 7.2083067893981933594 7.1489191055297851562 7.2169156074523925781 7.3701157569885253906 7.4396314620971679688 7.4873213768005371094 7.5288252830505371094 7.5439653396606445312 7.514865875244140625 7.4068822860717773438 7.1252303123474121094 7.219181060791015625 7.2867555618286132812 7.2398419380187988281 7.5716357231140136719 7.8529820442199707031 7.9760189056396484375 8.076904296875 8.0797834396362304688 7.9557232856750488281 7.9792652130126953125 8.0548543930053710938 8.0543699264526367188 8.0104007720947265625 7.9350562095642089844 7.7690129280090332031 7.4745197296142578125 7.0200128555297851562 6.8301758766174316406 6.8974065780639648438 7.0171475410461425781 7.2262506484985351562 7.3986597061157226562 6.9225001335144042969 6.287494659423828125 5.8839011192321777344 6.2135462760925292969 6.7547039985656738281 7.3899064064025878906 7.9859981536865234375 8.7288789749145507812 9.2839441299438476562 
4.1072230339050292969 4.1858587265014648438 4.1946434974670410156 4.2306365966796875 4.2766385078430175781 4.2562589645385742188 4.1854434013366699219 4.2195401191711425781 4.4246249198913574219 4.5753173828125 4.6503682136535644531 4.6942396163940429688 4.7186288833618164062 4.7390198707580566406 4.7513318061828613281 4.7572312355041503906 4.7698621749877929688 4.9492278099060058594 5.1605043411254882812 5.1822605133056640625 5.2088799476623535156 5.3411221504211425781 5.4123487472534179688 5.3617367744445800781 5.1298894882202148438 5.0352802276611328125 5.0216732025146484375 5.0472817420959472656 5.178195953369140625 5.2559719085693359375 5.3755369186401367188 5.66562652587890625 5.9940962791442871094 6.2051835060119628906 6.4803595542907714844 6.8230609893798828125 7.1077237129211425781 7.3342809677124023438 7.5942330360412597656 7.9614491462707519531 8.2922563552856445312 8.55500030517578125 8.5218324661254882812 8.4513750076293945312 8.6209516525268554688 8.6811056137084960938 8.7314167022705078125 8.6816587448120117188 8.5967473983764648438 8.5979700088500976562 8.4089307785034179688 8.0891923904418945312 8.0334959030151367188 7.9775447845458984375 7.8078966140747070312 7.576507568359375 7.2663822174072265625 7.0801792144775390625 6.8752622604370117188 6.7759137153625488281 6.9793009757995605469 7.1077375411987304688 7.2168002128601074219 7.344562530517578125 7.36566162109375 7.3066506385803222656 7.1156105995178222656 6.6657223701477050781 6.3516554832458496094 6.3123121261596679688 6.3240327835083007812 6.3270964622497558594 6.3540887832641601562 6.4032793045043945312 6.4541745185852050781 6.4861001968383789062 6.5474042892456054688 6.6193485260009765625 6.6780819892883300781 6.7048230171203613281 6.728515625 6.820690155029296875 6.9018831253051757812 6.9536876678466796875 7.0294818878173828125 7.0755190849304199219 7.0245318412780761719 7.164279937744140625 7.2473006248474121094 7.3037385940551757812 7.3446316719055175781 7.3797755241394042969 7.3971829414367675781 7.3770294189453125 7.279300689697265625 7.0199036598205566406 7.1554236412048339844 7.2018036842346191406 7.1456394195556640625 7.4997687339782714844 7.6323418617248535156 7.7556271553039550781 7.9463143348693847656 7.9379706382751464844 7.829364776611328125 7.8850760459899902344 7.9319257736206054688 7.9211053848266601562 7.8875823020935058594 7.78412628173828125 7.4648909568786621094 7.0560460090637207031 6.6766819953918457031 6.5921330451965332031 6.6530284881591796875 6.7038464546203613281 6.9605212211608886719 6.9217329025268554688 6.4149017333984375 5.9719948768615722656 5.9049100875854492188 6.3418636322021484375 6.8719778060913085938 7.5226159095764160156 8.2098541259765625 8.9942712783813476562 9.5702228546142578125 
4.0685677528381347656 4.1479458808898925781 4.1914377212524414062 4.2385740280151367188 4.2394213676452636719 4.1862559318542480469 4.1438121795654296875 4.2998075485229492188 4.5111193656921386719 4.5772562026977539062 4.63303375244140625 4.6700577735900878906 4.6865458488464355469 4.6993813514709472656 4.7063441276550292969 4.7115845680236816406 4.7389369010925292969 4.9715628623962402344 5.1223115921020507812 5.1160068511962890625 5.2201018333435058594 5.3115458488464355469 5.3371214866638183594 5.2403197288513183594 5.0146417617797851562 4.9032659530639648438 4.9213342666625976562 4.9298248291015625 4.9808211326599121094 5.1259279251098632812 5.2141976356506347656 5.3934278488159179688 5.6906461715698242188 5.9777688980102539062 6.3439707756042480469 6.5745058059692382812 6.7196779251098632812 6.8766489028930664062 7.2372288703918457031 7.8128161430358886719 8.36733245849609375 8.6902923583984375 8.4047193527221679688 8.1089925765991210938 8.0785541534423828125 8.1020069122314453125 8.1414155960083007812 8.1397418975830078125 8.0769033432006835938 8.0361728668212890625 7.9718990325927734375 7.7309002876281738281 7.6692638397216796875 7.6681799888610839844 7.5609345436096191406 7.4630880355834960938 7.3452992439270019531 7.2214636802673339844 6.9676618576049804688 6.8277974128723144531 7.0316290855407714844 7.15621185302734375 7.224407196044921875 7.3247199058532714844 7.3206930160522460938 7.2268004417419433594 7.08251190185546875 6.7351117134094238281 6.40543365478515625 6.336574554443359375 6.2496685981750488281 6.2368607521057128906 6.2671275138854980469 6.3084273338317871094 6.34642791748046875 6.3819575309753417969 6.4418711662292480469 6.5055723190307617188 6.5600566864013671875 6.5883092880249023438 6.662151336669921875 6.7552666664123535156 6.814365386962890625 6.8507227897644042969 6.922260284423828125 6.9391870498657226562 6.9352140426635742188 7.0597629547119140625 7.0988006591796875 7.1703786849975585938 7.2061281204223632812 7.2359027862548828125 7.258464813232421875 7.2278804779052734375 7.1209912300109863281 6.911708831787109375 7.0781660079956054688 7.06241607666015625 7.029338836669921875 7.3302097320556640625 7.3805403709411621094 7.5752506256103515625 7.8225731849670410156 7.8003749847412109375 7.7099795341491699219 7.7790775299072265625 7.7969517707824707031 7.7815537452697753906 7.7198252677917480469 7.5693240165710449219 7.2335081100463867188 6.6915130615234375 6.1292796134948730469 6.0700755119323730469 6.0331106185913085938 6.0313348770141601562 6.43128204345703125 6.37891387939453125 5.8761324882507324219 5.8276190757751464844 6.159305572509765625 6.6803135871887207031 7.2481107711791992188 7.9181618690490722656 8.6160020828247070312 9.308216094970703125 9.93921661376953125 
4.0616726875305175781 4.1336512565612792969 4.1678032875061035156 4.1691985130310058594 4.1613993644714355469 4.1152806282043457031 4.1964969635009765625 4.4155755043029785156 4.5102186203002929688 4.5391888618469238281 4.589076995849609375 4.6306967735290527344 4.6541905403137207031 4.6628637313842773438 4.654850006103515625 4.6599717140197753906 4.7147259712219238281 4.9101433753967285156 5.0393056869506835938 5.0577669143676757812 5.1670641899108886719 5.2387299537658691406 5.2241754531860351562 5.1325154304504394531 4.9775271415710449219 4.8750772476196289062 4.8956165313720703125 4.8849167823791503906 4.9072751998901367188 4.9788546562194824219 5.0190768241882324219 5.1013693809509277344 5.3923578262329101562 5.7572917938232421875 6.1563320159912109375 6.3514647483825683594 6.4352164268493652344 6.5144786834716796875 6.9215154647827148438 7.6791172027587890625 8.2811126708984375 8.6015138626098632812 8.3096761703491210938 7.8556575775146484375 7.7758550643920898438 7.9182171821594238281 7.9787440299987792969 7.8765535354614257812 7.7010817527770996094 7.6504497528076171875 7.6346983909606933594 7.473751068115234375 7.4758768081665039062 7.5262498855590820312 7.4407467842102050781 7.4890127182006835938 7.4149346351623535156 7.1891121864318847656 6.9375605583190917969 6.8182806968688964844 7.0489349365234375 7.120944976806640625 7.1397624015808105469 7.2367315292358398438 7.1989984512329101562 7.1084294319152832031 7.0295147895812988281 6.8570613861083984375 6.6470141410827636719 6.5278081893920898438 6.2609686851501464844 6.1565732955932617188 6.1764421463012695312 6.2166643142700195312 6.2464451789855957031 6.2827234268188476562 6.337192535400390625 6.4013667106628417969 6.4530973434448242188 6.5103864669799804688 6.6049246788024902344 6.6752066612243652344 6.7153196334838867188 6.7607865333557128906 6.8020272254943847656 6.7781767845153808594 6.8493905067443847656 6.9241023063659667969 6.9480481147766113281 7.0259461402893066406 7.0617203712463378906 7.0980210304260253906 7.1317410469055175781 7.0713200569152832031 6.9682221412658691406 6.7966127395629882812 6.9408507347106933594 6.8577303886413574219 6.9726810455322265625 7.1815228462219238281 7.2698125839233398438 7.4866948127746582031 7.6533493995666503906 7.6125330924987792969 7.6009392738342285156 7.6627254486083984375 7.6510338783264160156 7.5682740211486816406 7.3615846633911132812 7.1145319938659667969 6.863124847412109375 6.4135117530822753906 5.5739655494689941406 5.5548300743103027344 5.603404998779296875 5.61556243896484375 5.7522788047790527344 5.860897064208984375 5.8818116188049316406 6.3022141456604003906 6.7395844459533691406 7.2653975486755371094 7.8275079727172851562 8.4782810211181640625 9.12320709228515625 9.7153768539428710938 10.346714973449707031 
4.083148956298828125 4.1281123161315917969 4.1143436431884765625 4.0863971710205078125 4.0810642242431640625 4.0634922981262207031 4.2236261367797851562 4.4249792098999023438 4.4720335006713867188 4.5026960372924804688 4.5539240837097167969 4.5881929397583007812 4.6052403450012207031 4.6076836585998535156 4.5983591079711914062 4.6163506507873535156 4.7747716903686523438 4.8981652259826660156 4.9512934684753417969 4.9938173294067382812 5.0887293815612792969 5.0433163642883300781 4.9580388069152832031 4.9148545265197753906 4.85834503173828125 4.845066070556640625 4.8615870475769042969 4.8315825462341308594 4.8141837120056152344 4.8381977081298828125 4.8822221755981445312 4.9974889755249023438 5.2371702194213867188 5.6566286087036132812 6.0720505714416503906 6.2642536163330078125 6.3290982246398925781 6.35205078125 6.6626672744750976562 7.277301788330078125 7.7818737030029296875 8.1477680206298828125 8.0006246566772460938 7.7001614570617675781 7.8320107460021972656 8.0123538970947265625 8.018596649169921875 7.8887729644775390625 7.5687398910522460938 7.3947997093200683594 7.3778681755065917969 7.3343977928161621094 7.3762421607971191406 7.3566184043884277344 7.2629728317260742188 7.316986083984375 7.2484130859375 7.0225505828857421875 6.8277182579040527344 6.8613696098327636719 7.0202541351318359375 6.9820208549499511719 7.0583276748657226562 7.178752899169921875 7.1020178794860839844 7.0461072921752929688 6.9534139633178710938 6.8483629226684570312 6.8113179206848144531 6.7083163261413574219 6.3578586578369140625 6.0878520011901855469 6.0853910446166992188 6.1239004135131835938 6.1529669761657714844 6.195720672607421875 6.2468771934509277344 6.3144984245300292969 6.353359222412109375 6.4440889358520507812 6.5248432159423828125 6.5644640922546386719 6.5946993827819824219 6.6635427474975585938 6.6676564216613769531 6.6541047096252441406 6.7581887245178222656 6.7881855964660644531 6.8398218154907226562 6.8837947845458984375 6.9176244735717773438 6.9692392349243164062 7.0025815963745117188 6.9159703254699707031 6.8570199012756347656 6.6664280891418457031 6.6763620376586914062 6.723175048828125 6.9447736740112304688 7.0444560050964355469 7.2585744857788085938 7.3744616508483886719 7.3981523513793945312 7.4247179031372070312 7.4980902671813964844 7.5115909576416015625 7.4328155517578125 7.1650409698486328125 6.7672481536865234375 6.5105485916137695312 6.2601947784423828125 5.7920727729797363281 5.3591327667236328125 5.815036773681640625 6.3259062767028808594 6.4357438087463378906 6.1319780349731445312 6.0916066169738769531 6.6411700248718261719 7.1555504798889160156 7.6070132255554199219 8.0286226272583007812 8.4893283843994140625 9.0156421661376953125 9.6204595565795898438 10.09888458251953125 10.399340629577636719 
4.0917401313781738281 4.1202054023742675781 4.0775499343872070312 4.0234861373901367188 4.0152926445007324219 4.026432037353515625 4.2167749404907226562 4.3890829086303710938 4.43724822998046875 4.4726576805114746094 4.5240879058837890625 4.5523557662963867188 4.5559620857238769531 4.5507512092590332031 4.5093760490417480469 4.5421171188354492188 4.7096495628356933594 4.6612715721130371094 4.7046041488647460938 4.8346099853515625 4.939678192138671875 4.8108510971069335938 4.6483931541442871094 4.72873687744140625 4.7945637702941894531 4.7918252944946289062 4.7583713531494140625 4.7371625900268554688 4.736492156982421875 4.7806682586669921875 4.8519048690795898438 4.9129157066345214844 5.0758676528930664062 5.5309834480285644531 5.9160556793212890625 6.0739531517028808594 6.0679860115051269531 6.0138897895812988281 6.236148834228515625 6.7282605171203613281 7.2085027694702148438 7.5439424514770507812 7.5767726898193359375 7.6491189002990722656 7.9100866317749023438 8.020633697509765625 7.968353271484375 7.8894410133361816406 7.6608166694641113281 7.3439159393310546875 7.2208118438720703125 7.2292904853820800781 7.2259464263916015625 7.1456165313720703125 7.0415778160095214844 7.0580739974975585938 7.0341291427612304688 6.9251799583435058594 6.8118138313293457031 6.8948550224304199219 6.9142942428588867188 6.8827867507934570312 7.0579385757446289062 7.1487531661987304688 7.0922007560729980469 6.9653577804565429688 6.8406395912170410156 6.7827448844909667969 6.8379712104797363281 6.7592382431030273438 6.374874114990234375 6.0116734504699707031 5.9927453994750976562 6.0338826179504394531 6.0631513595581054688 6.1135373115539550781 6.179229736328125 6.219024658203125 6.2653055191040039062 6.3430151939392089844 6.4102406501770019531 6.4400920867919921875 6.4854950904846191406 6.5397057533264160156 6.5340714454650878906 6.55588531494140625 6.6380825042724609375 6.6491322517395019531 6.7251038551330566406 6.7526521682739257812 6.7936816215515136719 6.84032440185546875 6.8795065879821777344 6.7796883583068847656 6.7354307174682617188 6.5441141128540039062 6.5161223411560058594 6.7122530937194824219 6.8571305274963378906 7.0107645988464355469 7.2037949562072753906 7.2209515571594238281 7.2348847389221191406 7.327373504638671875 7.3626832962036132812 7.3081135749816894531 7.1671352386474609375 6.7329654693603515625 6.1613173484802246094 5.8305029869079589844 5.54868316650390625 5.3394498825073242188 5.7475590705871582031 6.4886755943298339844 7.147068023681640625 7.5977163314819335938 7.5647444725036621094 7.2907814979553222656 7.5109081268310546875 7.7212390899658203125 7.9796795845031738281 8.4270458221435546875 8.8934564590454101562 9.2716112136840820312 9.7026281356811523438 10.106884002685546875 10.375409126281738281 
4.062526702880859375 4.0656585693359375 4.0168309211730957031 3.9660322666168212891 3.9535546302795410156 4.0125455856323242188 4.2552895545959472656 4.3698596954345703125 4.4100580215454101562 4.4478864669799804688 4.4906463623046875 4.5181298255920410156 4.5199251174926757812 4.506244659423828125 4.3958897590637207031 4.3864521980285644531 4.4575543403625488281 4.3675618171691894531 4.4056162834167480469 4.5990195274353027344 4.6942272186279296875 4.5212626457214355469 4.5087332725524902344 4.6923809051513671875 4.7691550254821777344 4.7057790756225585938 4.6505494117736816406 4.6694173812866210938 4.7020425796508789062 4.7641649246215820312 4.8233504295349121094 4.8561487197875976562 4.992767333984375 5.3934879302978515625 5.7134418487548828125 5.8023180961608886719 5.7415089607238769531 5.6245393753051757812 5.8731412887573242188 6.3634438514709472656 6.7922992706298828125 7.0679712295532226562 7.323955535888671875 7.6309275627136230469 7.8368377685546875 7.9014377593994140625 7.849704742431640625 7.7972784042358398438 7.6664423942565917969 7.3656053543090820312 7.1393442153930664062 7.0732364654541015625 7.0480546951293945312 6.9617114067077636719 6.8390445709228515625 6.7416701316833496094 6.6825160980224609375 6.6372709274291992188 6.6561226844787597656 6.8018574714660644531 6.7679653167724609375 6.7927536964416503906 6.8028306961059570312 6.6780896186828613281 6.8118128776550292969 6.8499040603637695312 6.8320984840393066406 6.8284668922424316406 6.8870382308959960938 6.7654776573181152344 6.3800663948059082031 6.0030570030212402344 5.9086256027221679688 5.94776153564453125 5.9807634353637695312 6.0421276092529296875 6.0936899185180664062 6.1198520660400390625 6.1910595893859863281 6.2553315162658691406 6.3091754913330078125 6.3209137916564941406 6.3771581649780273438 6.4207282066345214844 6.4154958724975585938 6.4718561172485351562 6.522678375244140625 6.5183691978454589844 6.5856046676635742188 6.6277856826782226562 6.6855297088623046875 6.723392486572265625 6.744609832763671875 6.5916733741760253906 6.5712771415710449219 6.4167752265930175781 6.4581804275512695312 6.6705870628356933594 6.790828704833984375 6.9791049957275390625 7.0852155685424804688 7.0839624404907226562 7.165386199951171875 7.2183623313903808594 7.1812467575073242188 7.1395907402038574219 6.8353328704833984375 6.3116993904113769531 5.6292443275451660156 5.2537255287170410156 5.2899994850158691406 5.8060374259948730469 6.6201586723327636719 7.215045928955078125 7.7838201522827148438 8.1114406585693359375 8.208972930908203125 8.1413011550903320312 8.2502498626708984375 8.345981597900390625 8.2889757156372070312 8.4317340850830078125 8.780780792236328125 9.2287349700927734375 9.7731714248657226562 10.177907943725585938 10.460679054260253906 
3.9360704421997070312 3.9253053665161132812 3.9055697917938232422 3.8792870044708251953 3.8862009048461914062 4.002605438232421875 4.2193217277526855469 4.3323974609375 4.3834524154663085938 4.4200959205627441406 4.4609408378601074219 4.4897990226745605469 4.497501373291015625 4.4414725303649902344 4.2786765098571777344 4.2502655982971191406 4.2579288482666015625 4.2526311874389648438 4.290271759033203125 4.3791842460632324219 4.3908457756042480469 4.3814229965209960938 4.5262274742126464844 4.6998271942138671875 4.7360162734985351562 4.6487360000610351562 4.5949034690856933594 4.6243982315063476562 4.6773695945739746094 4.7315874099731445312 4.7707910537719726562 4.8055109977722167969 4.8869457244873046875 5.1756005287170410156 5.4533681869506835938 5.4585289955139160156 5.3766870498657226562 5.4772095680236816406 5.9058833122253417969 6.4656777381896972656 6.8729357719421386719 7.0673975944519042969 7.2305650711059570312 7.5085186958312988281 7.7276782989501953125 7.8276662826538085938 7.7338776588439941406 7.5901079177856445312 7.4386358261108398438 7.1654915809631347656 6.9057331085205078125 6.7989583015441894531 6.8715457916259765625 6.83941650390625 6.6377897262573242188 6.3743405342102050781 6.1666550636291503906 6.1878376007080078125 6.4007163047790527344 6.5968194007873535156 6.5974283218383789062 6.6239795684814453125 6.4186925888061523438 6.139423370361328125 6.2723259925842285156 6.5281443595886230469 6.7410497665405273438 6.78620147705078125 6.8096380233764648438 6.6833071708679199219 6.3877477645874023438 6.0228929519653320312 5.8347272872924804688 5.8666958808898925781 5.91257476806640625 5.9769639968872070312 5.994922637939453125 6.0386881828308105469 6.1086111068725585938 6.1610698699951171875 6.1765952110290527344 6.1952710151672363281 6.2703700065612792969 6.3161673545837402344 6.2936463356018066406 6.3633847236633300781 6.4042787551879882812 6.3877100944519042969 6.4415297508239746094 6.5079417228698730469 6.5686039924621582031 6.6134405136108398438 6.5629420280456542969 6.3941063880920410156 6.3871321678161621094 6.2900400161743164062 6.4408116340637207031 6.5341429710388183594 6.7198786735534667969 6.9007439613342285156 6.9359421730041503906 6.9994912147521972656 7.0758256912231445312 7.0141386985778808594 6.937221527099609375 6.8903455734252929688 6.4677095413208007812 5.8102211952209472656 5.178180694580078125 5.2627964019775390625 5.78559112548828125 6.5703406333923339844 7.1219782829284667969 7.4611940383911132812 7.8243398666381835938 8.1841249465942382812 8.4545354843139648438 8.612438201904296875 8.7736606597900390625 8.9381456375122070312 9.0263509750366210938 9.081058502197265625 9.2981739044189453125 9.6863460540771484375 10.022522926330566406 10.305871963500976562 10.568596839904785156 
3.8213434219360351562 3.8361830711364746094 3.8325417041778564453 3.8064522743225097656 3.8800857067108154297 4.0057783126831054688 4.1243290901184082031 4.2908453941345214844 4.3520026206970214844 4.3897418975830078125 4.4252529144287109375 4.4519448280334472656 4.4551634788513183594 4.3359661102294921875 4.1675286293029785156 4.188121795654296875 4.1829857826232910156 4.207530975341796875 4.2534036636352539062 4.2723093032836914062 4.3013958930969238281 4.4011287689208984375 4.5907998085021972656 4.6735873222351074219 4.6463766098022460938 4.5546350479125976562 4.546138763427734375 4.5875048637390136719 4.6333737373352050781 4.6807985305786132812 4.71266937255859375 4.74895477294921875 4.7784609794616699219 4.8865303993225097656 5.065471649169921875 5.0828003883361816406 5.1719088554382324219 5.6060457229614257812 6.1560511589050292969 6.6635036468505859375 6.9856886863708496094 7.1368670463562011719 7.2089872360229492188 7.3824324607849121094 7.6680922508239746094 7.7300639152526855469 7.4872536659240722656 7.1814789772033691406 7.030330657958984375 6.7838850021362304688 6.5429840087890625 6.4159588813781738281 6.5094022750854492188 6.5668697357177734375 6.3242802619934082031 6.0958371162414550781 6.0244150161743164062 6.1522889137268066406 6.3454222679138183594 6.4711713790893554688 6.4757938385009765625 6.4216961860656738281 6.1257023811340332031 5.7998042106628417969 5.7957921028137207031 6.0337209701538085938 6.42234039306640625 6.6257953643798828125 6.7026457786560058594 6.5850133895874023438 6.3659086227416992188 6.0324640274047851562 5.7621097564697265625 5.7858157157897949219 5.8469953536987304688 5.8815054893493652344 5.8901872634887695312 5.9540724754333496094 6.0066480636596679688 6.0262241363525390625 6.03723907470703125 6.1070275306701660156 6.1868176460266113281 6.2165861129760742188 6.1861310005187988281 6.2550892829895019531 6.2967329025268554688 6.2698712348937988281 6.3300600051879882812 6.4022068977355957031 6.4477343559265136719 6.5040440559387207031 6.3798856735229492188 6.2136669158935546875 6.1884927749633789062 6.2517428398132324219 6.3677644729614257812 6.4305939674377441406 6.7226614952087402344 6.8175220489501953125 6.8021802902221679688 6.8682994842529296875 6.7634563446044921875 6.5217218399047851562 6.3567709922790527344 6.2636556625366210938 5.9215869903564453125 5.2923340797424316406 5.1478762626647949219 5.8341193199157714844 6.5333342552185058594 6.9246420860290527344 7.1592946052551269531 7.4942526817321777344 7.8383746147155761719 8.1467533111572265625 8.4403638839721679688 8.6596555709838867188 8.8643360137939453125 9.0738363265991210938 9.3014583587646484375 9.506221771240234375 9.7073688507080078125 9.9126939773559570312 10.108609199523925781 10.339205741882324219 10.553419113159179688 
3.7657856941223144531 3.7957110404968261719 3.7850553989410400391 3.7760281562805175781 3.8754484653472900391 3.9753382205963134766 4.1428456306457519531 4.2845067977905273438 4.3342270851135253906 4.3695306777954101562 4.3923764228820800781 4.410335540771484375 4.3948087692260742188 4.2202396392822265625 4.0789132118225097656 4.1180682182312011719 4.1496539115905761719 4.1871585845947265625 4.2059459686279296875 4.2382097244262695312 4.2715382575988769531 4.4079408645629882812 4.5882344245910644531 4.6097707748413085938 4.5226411819458007812 4.4700608253479003906 4.5110502243041992188 4.552776336669921875 4.5964202880859375 4.6269688606262207031 4.6551513671875 4.6836781501770019531 4.6988892555236816406 4.7642488479614257812 4.8298158645629882812 4.8894648551940917969 5.0781340599060058594 5.5900421142578125 6.1457996368408203125 6.5238475799560546875 6.6325888633728027344 6.7117719650268554688 6.9703278541564941406 7.2316837310791015625 7.3360199928283691406 7.3263211250305175781 7.1378588676452636719 6.8341135978698730469 6.7185578346252441406 6.5582795143127441406 6.3507323265075683594 6.10390472412109375 6.0582933425903320312 6.1896805763244628906 6.0329132080078125 5.9861879348754882812 6.0724711418151855469 6.1181268692016601562 6.3252282142639160156 6.4943790435791015625 6.4795885086059570312 6.3360247611999511719 6.0699462890625 5.8001570701599121094 5.7093143463134765625 5.8043107986450195312 6.1990256309509277344 6.5024266242980957031 6.6103353500366210938 6.5089173316955566406 6.2470140457153320312 5.9298982620239257812 5.6842999458312988281 5.7140231132507324219 5.7580199241638183594 5.7629823684692382812 5.7880334854125976562 5.8578166961669921875 5.9063391685485839844 5.9005618095397949219 5.9390635490417480469 6.0322451591491699219 6.0827741622924804688 6.1071066856384277344 6.0790610313415527344 6.1481089591979980469 6.1923289299011230469 6.1558637619018554688 6.2474284172058105469 6.3028998374938964844 6.3405737876892089844 6.3968262672424316406 6.2993206977844238281 6.0690507888793945312 6.0763788223266601562 6.2186431884765625 6.2322635650634765625 6.4627861976623535156 6.6815881729125976562 6.686786651611328125 6.6927537918090820312 6.6320447921752929688 6.1489500999450683594 5.7182073593139648438 5.4955124855041503906 5.4073281288146972656 5.2849078178405761719 5.0335030555725097656 5.5040464401245117188 6.4535832405090332031 6.9039597511291503906 7.0810704231262207031 7.3228778839111328125 7.6940860748291015625 7.9599246978759765625 8.2578592300415039062 8.5495405197143554688 8.7673826217651367188 8.9853734970092773438 9.2219476699829101562 9.4421968460083007812 9.6381826400756835938 9.845897674560546875 10.060350418090820312 10.272608757019042969 10.499077796936035156 10.691517829895019531 
3.7558128833770751953 3.7672660350799560547 3.7471060752868652344 3.7994318008422851562 3.9484364986419677734 4.096927642822265625 4.1928043365478515625 4.2547745704650878906 4.306163787841796875 4.3476300239562988281 4.3633775711059570312 4.3711075782775878906 4.3257784843444824219 4.1234412193298339844 4.0386676788330078125 4.1025805473327636719 4.1244268417358398438 4.14507293701171875 4.18169403076171875 4.2182307243347167969 4.2814817428588867188 4.4404931068420410156 4.5551495552062988281 4.5287165641784667969 4.4259772300720214844 4.4293589591979980469 4.4841623306274414062 4.5129208564758300781 4.546966552734375 4.5718064308166503906 4.6014056205749511719 4.6102995872497558594 4.6431784629821777344 4.7154669761657714844 4.7684202194213867188 4.833232879638671875 4.9689836502075195312 5.3041434288024902344 5.7512392997741699219 5.9406881332397460938 5.9619092941284179688 6.1878423690795898438 6.61598968505859375 6.8539209365844726562 6.9516720771789550781 7.0017137527465820312 6.8760194778442382812 6.6597690582275390625 6.5715575218200683594 6.4978785514831542969 6.2919211387634277344 5.9679780006408691406 5.6436257362365722656 5.6531138420104980469 5.6883358955383300781 5.908359527587890625 5.9764828681945800781 5.8804340362548828125 6.12384033203125 6.4319162368774414062 6.4877529144287109375 6.3528270721435546875 6.1506314277648925781 6.0563282966613769531 5.920719146728515625 5.7844181060791015625 5.9460387229919433594 6.2960638999938964844 6.4365587234497070312 6.2762966156005859375 5.9067645072937011719 5.6469907760620117188 5.5958971977233886719 5.6362109184265136719 5.6651973724365234375 5.6635937690734863281 5.7088484764099121094 5.7845549583435058594 5.7944273948669433594 5.7962541580200195312 5.8720288276672363281 5.9458227157592773438 5.983264923095703125 5.9838299751281738281 5.9964346885681152344 6.05977630615234375 6.091339111328125 6.071147918701171875 6.1545000076293945312 6.1872196197509765625 6.2188754081726074219 6.2871899604797363281 6.2541875839233398438 5.9853792190551757812 6.0116925239562988281 6.0883154869079589844 6.2219481468200683594 6.4414520263671875 6.5537552833557128906 6.5275907516479492188 6.5993127822875976562 6.5056462287902832031 5.7619252204895019531 5.0895657539367675781 4.933650970458984375 4.9903001785278320312 5.0741848945617675781 5.3353638648986816406 5.8917703628540039062 6.3797540664672851562 6.8245840072631835938 7.1195273399353027344 7.3288526535034179688 7.6612877845764160156 7.9563550949096679688 8.2149257659912109375 8.4736471176147460938 8.7668399810791015625 9.0277309417724609375 9.2644596099853515625 9.46085357666015625 9.6573686599731445312 9.8719778060913085938 10.117635726928710938 10.418078422546386719 10.77519989013671875 11 
3.7392053604125976562 3.7355813980102539062 3.732940673828125 3.8475809097290039062 4.0194654464721679688 4.1215500831604003906 4.1755824089050292969 4.2190027236938476562 4.2761616706848144531 4.3137569427490234375 4.3216447830200195312 4.30975341796875 4.1993975639343261719 4.0206923484802246094 4.04392242431640625 4.0764660835266113281 4.1067042350769042969 4.1318216323852539062 4.1552491188049316406 4.2423195838928222656 4.4241204261779785156 4.51386260986328125 4.480892181396484375 4.4012441635131835938 4.3587393760681152344 4.4045228958129882812 4.4405331611633300781 4.473358154296875 4.4914126396179199219 4.5173826217651367188 4.5399470329284667969 4.5402612686157226562 4.5803513526916503906 4.6678185462951660156 4.7232108116149902344 4.7682394981384277344 4.82003021240234375 4.940082550048828125 5.1790900230407714844 5.321376800537109375 5.4436693191528320312 5.7973604202270507812 6.1408810615539550781 6.3146114349365234375 6.5836129188537597656 6.73885345458984375 6.6600189208984375 6.5295281410217285156 6.4649133682250976562 6.360004425048828125 6.1921582221984863281 6.0084538459777832031 5.5568604469299316406 5.2752842903137207031 5.3760504722595214844 5.6621799468994140625 5.7190837860107421875 5.7450199127197265625 5.9573550224304199219 6.2384128570556640625 6.3283071517944335938 6.3047113418579101562 6.1741719245910644531 6.0814156532287597656 5.96173095703125 5.8390793800354003906 5.7458739280700683594 5.8887805938720703125 5.9759931564331054688 5.7734169960021972656 5.5289626121520996094 5.483730316162109375 5.5214138031005859375 5.5578236579895019531 5.5757284164428710938 5.5798745155334472656 5.6378507614135742188 5.7063245773315429688 5.6885128021240234375 5.7188687324523925781 5.7890615463256835938 5.8483905792236328125 5.8938975334167480469 5.8939466476440429688 5.9447565078735351562 5.9928622245788574219 6.0000457763671875 5.9808778762817382812 6.0555357933044433594 6.0706930160522460938 6.0993189811706542969 6.171077728271484375 6.1325807571411132812 5.8733310699462890625 5.876972198486328125 6.009716033935546875 6.2474122047424316406 6.3364577293395996094 6.4026174545288085938 6.3264451026916503906 6.4305939674377441406 6.3067145347595214844 5.5374150276184082031 4.8513131141662597656 5.1176581382751464844 5.6442131996154785156 5.9203901290893554688 6.1533060073852539062 6.4223217964172363281 6.6059970855712890625 6.9433040618896484375 7.1609258651733398438 7.3503599166870117188 7.7151842117309570312 8.1098785400390625 8.3167371749877929688 8.4896306991577148438 8.7079477310180664062 8.9381856918334960938 9.14876556396484375 9.3307619094848632812 9.537853240966796875 9.7835512161254882812 10.059108734130859375 10.395040512084960938 10.765918731689453125 10.977137565612792969 
3.6801578998565673828 3.663257598876953125 3.7039456367492675781 3.8694198131561279297 4.0498380661010742188 4.1090798377990722656 4.1591615676879882812 4.2081990242004394531 4.2484383583068847656 4.27768707275390625 4.2677283287048339844 4.2078461647033691406 4.0532784461975097656 4.0037517547607421875 4.0359287261962890625 4.0526447296142578125 4.07921600341796875 4.0990171432495117188 4.1472015380859375 4.2724370956420898438 4.447418212890625 4.4455647468566894531 4.3493819236755371094 4.3180789947509765625 4.3176493644714355469 4.3618016242980957031 4.3908872604370117188 4.4249677658081054688 4.4360189437866210938 4.4639253616333007812 4.4726953506469726562 4.4809598922729492188 4.5422310829162597656 4.6241474151611328125 4.67285919189453125 4.698085784912109375 4.7167387008666992188 4.7454376220703125 4.8445425033569335938 4.9917325973510742188 5.1243257522583007812 5.3238077163696289062 5.5500707626342773438 5.8294305801391601562 6.2202615737915039062 6.4599394798278808594 6.4400143623352050781 6.2929606437683105469 6.1597089767456054688 6.1370086669921875 5.9800968170166015625 5.9188027381896972656 5.5861654281616210938 5.18140411376953125 5.181018829345703125 5.3619341850280761719 5.4599742889404296875 5.6889786720275878906 5.8277659416198730469 5.9956760406494140625 6.1056027412414550781 6.1805896759033203125 6.1275267601013183594 5.9231314659118652344 5.736835479736328125 5.6736040115356445312 5.4650950431823730469 5.4184083938598632812 5.4649252891540527344 5.401611328125 5.3773059844970703125 5.4102315902709960938 5.4531207084655761719 5.4859995841979980469 5.4839854240417480469 5.4990510940551757812 5.578155517578125 5.6228318214416503906 5.6021251678466796875 5.6575236320495605469 5.7092242240905761719 5.7656908035278320312 5.81585693359375 5.8160815238952636719 5.8752508163452148438 5.9090590476989746094 5.8994655609130859375 5.8850126266479492188 5.9580507278442382812 5.929378509521484375 5.9645075798034667969 6.0411934852600097656 5.9734516143798828125 5.7445654869079589844 5.7445111274719238281 5.9160718917846679688 6.00568389892578125 5.9888463020324707031 6.011932373046875 5.8344936370849609375 5.8828210830688476562 5.7172765731811523438 5.1195011138916015625 4.8691015243530273438 5.5483531951904296875 6.2317476272583007812 6.5128626823425292969 6.6728758811950683594 6.8309330940246582031 6.9560070037841796875 7.1110033988952636719 7.2494530677795410156 7.4683566093444824219 7.8030419349670410156 8.1779756546020507812 8.3778209686279296875 8.5238466262817382812 8.6792278289794921875 8.8502597808837890625 9.0274782180786132812 9.2217912673950195312 9.4156980514526367188 9.6211757659912109375 9.8904333114624023438 10.249184608459472656 10.590061187744140625 10.764635086059570312 
3.5778372287750244141 3.6430184841156005859 3.7548737525939941406 3.9184556007385253906 4.0201272964477539062 4.0089087486267089844 4.0459351539611816406 4.15755462646484375 4.2133507728576660156 4.2229189872741699219 4.1859292984008789062 4.0296678543090820312 3.9602787494659423828 3.9942111968994140625 3.9979255199432373047 4.0188426971435546875 4.0604786872863769531 4.1862545013427734375 4.2837972640991210938 4.34877777099609375 4.3632798194885253906 4.3191637992858886719 4.2742052078247070312 4.2598214149475097656 4.2887387275695800781 4.3205699920654296875 4.3455257415771484375 4.3758831024169921875 4.3796138763427734375 4.4050779342651367188 4.416351318359375 4.4661540985107421875 4.5152668952941894531 4.5744118690490722656 4.6213469505310058594 4.634029388427734375 4.6501765251159667969 4.6675963401794433594 4.7355704307556152344 4.8345236778259277344 4.9033350944519042969 4.9777369499206542969 5.1010766029357910156 5.3861837387084960938 5.803676605224609375 6.1286482810974121094 6.1343464851379394531 5.8723301887512207031 5.7015767097473144531 5.7712035179138183594 5.5692439079284667969 5.4814662933349609375 5.2520375251770019531 4.985225677490234375 4.9658331871032714844 5.0479912757873535156 5.2529001235961914062 5.6108789443969726562 5.7371954917907714844 5.7812399864196777344 5.8124713897705078125 5.8879079818725585938 5.9800100326538085938 5.850536346435546875 5.5667729377746582031 5.3272733688354492188 5.1905694007873535156 5.1919932365417480469 5.2382102012634277344 5.2856173515319824219 5.3086652755737304688 5.3367209434509277344 5.3808922767639160156 5.4079751968383789062 5.4037547111511230469 5.4430904388427734375 5.5010638236999511719 5.5057363510131835938 5.5340056419372558594 5.5856995582580566406 5.6295080184936523438 5.687870025634765625 5.7197895050048828125 5.7451968193054199219 5.8030147552490234375 5.8240261077880859375 5.7797017097473144531 5.8046422004699707031 5.8282604217529296875 5.7814207077026367188 5.8316898345947265625 5.9312982559204101562 5.8216505050659179688 5.6214227676391601562 5.6423387527465820312 5.6039109230041503906 5.3326401710510253906 5.1885528564453125 5.2142400741577148438 5.1220388412475585938 5.0977115631103515625 5.0328626632690429688 4.8161540031433105469 5.1639237403869628906 5.8775987625122070312 6.2294020652770996094 6.4370431900024414062 6.715427398681640625 6.9468026161193847656 7.0994877815246582031 7.22078704833984375 7.3487863540649414062 7.5523295402526855469 7.8899884223937988281 8.1653690338134765625 8.345111846923828125 8.53176116943359375 8.6961870193481445312 8.860675811767578125 9.0201063156127929688 9.1859102249145507812 9.3381872177124023438 9.5221881866455078125 9.8305873870849609375 10.114368438720703125 10.313733100891113281 10.456038475036621094 
3.7008655071258544922 3.8223404884338378906 3.9014134407043457031 3.9415867328643798828 3.8881735801696777344 3.8123464584350585938 3.9154181480407714844 4.1124539375305175781 4.155124664306640625 4.1189246177673339844 4.0178117752075195312 3.8981249332427978516 3.9423298835754394531 3.9394845962524414062 3.9555623531341552734 3.9821867942810058594 4.0795311927795410156 4.2548012733459472656 4.2441415786743164062 4.2399272918701171875 4.2208423614501953125 4.2295842170715332031 4.233654022216796875 4.2352499961853027344 4.2935805320739746094 4.2808127403259277344 4.3030986785888671875 4.3189954757690429688 4.321826934814453125 4.3393411636352539062 4.3810739517211914062 4.4327745437622070312 4.4546909332275390625 4.49629974365234375 4.554386138916015625 4.5774631500244140625 4.591518402099609375 4.5990324020385742188 4.6377463340759277344 4.69173431396484375 4.7296061515808105469 4.7688207626342773438 4.8156657218933105469 4.9329175949096679688 5.2800846099853515625 5.61737060546875 5.6104631423950195312 5.3579850196838378906 5.1950821876525878906 5.1653051376342773438 5.0275149345397949219 4.9323554039001464844 4.8398313522338867188 4.7969408035278320312 4.8198418617248535156 4.8844280242919921875 5.15185546875 5.5227875709533691406 5.6333932876586914062 5.5720238685607910156 5.426631927490234375 5.5696058273315429688 5.801177978515625 5.8420515060424804688 5.6798949241638183594 5.37636566162109375 5.1308689117431640625 5.1321148872375488281 5.1824741363525390625 5.2158374786376953125 5.2357816696166992188 5.2671661376953125 5.3082361221313476562 5.3202152252197265625 5.3299126625061035156 5.3767986297607421875 5.3917727470397949219 5.4058642387390136719 5.4652543067932128906 5.5049200057983398438 5.5575737953186035156 5.6026225090026855469 5.6108422279357910156 5.6827216148376464844 5.7183766365051269531 5.721248626708984375 5.644001007080078125 5.7118520736694335938 5.6650290489196777344 5.5993504524230957031 5.7138185501098632812 5.8232464790344238281 5.7083988189697265625 5.5187325477600097656 5.4300222396850585938 5.078853607177734375 4.6661224365234375 4.6351017951965332031 4.6974806785583496094 4.7388138771057128906 4.7791090011596679688 4.8379001617431640625 4.9901065826416015625 5.5871677398681640625 6.0549454689025878906 6.2286963462829589844 6.410778045654296875 6.7922530174255371094 7.1175832748413085938 7.3285245895385742188 7.4925107955932617188 7.5888347625732421875 7.6738381385803222656 7.8967289924621582031 8.1071176528930664062 8.3093004226684570312 8.5086832046508789062 8.664691925048828125 8.80977630615234375 8.95224761962890625 9.0932064056396484375 9.2474346160888671875 9.4644613265991210938 9.7403125762939453125 9.9038715362548828125 10.053958892822265625 10.251540184020996094 
3.80884552001953125 3.8287508487701416016 3.7995145320892333984 3.7523963451385498047 3.7013287544250488281 3.7295038700103759766 3.8874502182006835938 4.0468621253967285156 4.0258307456970214844 3.968822479248046875 3.8579754829406738281 3.8579478263854980469 3.8810224533081054688 3.8814306259155273438 3.9167253971099853516 3.9814860820770263672 4.1181321144104003906 4.1901307106018066406 4.0930476188659667969 4.0872149467468261719 4.1224455833435058594 4.1748642921447753906 4.1930651664733886719 4.2419753074645996094 4.2704153060913085938 4.2416329383850097656 4.2674055099487304688 4.2793674468994140625 4.2688469886779785156 4.3012213706970214844 4.35892486572265625 4.3817958831787109375 4.3903346061706542969 4.4058899879455566406 4.4571270942687988281 4.5065922737121582031 4.5264296531677246094 4.5302920341491699219 4.5472564697265625 4.5762615203857421875 4.5994129180908203125 4.6120438575744628906 4.643383026123046875 4.6547822952270507812 4.7695946693420410156 4.9837918281555175781 5.0201010704040527344 4.9172115325927734375 4.8241038322448730469 4.7535166740417480469 4.7142477035522460938 4.6757121086120605469 4.6615023612976074219 4.6960992813110351562 4.7448287010192871094 4.9784226417541503906 5.3230075836181640625 5.5078997611999511719 5.5422945022583007812 5.4144306182861328125 5.1509723663330078125 5.2557659149169921875 5.5944910049438476562 5.8035535812377929688 5.7988810539245605469 5.4734830856323242188 5.1123967170715332031 5.0795993804931640625 5.1241059303283691406 5.147632598876953125 5.1683225631713867188 5.2004313468933105469 5.23197174072265625 5.24584197998046875 5.2572450637817382812 5.2984066009521484375 5.3013486862182617188 5.3312439918518066406 5.3794646263122558594 5.433559417724609375 5.4905285835266113281 5.5047168731689453125 5.5401434898376464844 5.6206817626953125 5.634464263916015625 5.5647974014282226562 5.3603568077087402344 5.5487437248229980469 5.5030994415283203125 5.4303612709045410156 5.523265838623046875 5.6133475303649902344 5.4816160202026367188 5.2764182090759277344 5.1263685226440429688 4.6799874305725097656 4.71448516845703125 5.0342693328857421875 5.2308354377746582031 5.3515257835388183594 5.4689550399780273438 5.6159429550170898438 5.7854213714599609375 6.0406184196472167969 6.3214044570922851562 6.4856657981872558594 6.6463799476623535156 7.0421504974365234375 7.3258676528930664062 7.4916396141052246094 7.6523261070251464844 7.7650904655456542969 7.8514122962951660156 7.9916057586669921875 8.1854238510131835938 8.3509893417358398438 8.4785146713256835938 8.5884962081909179688 8.7238225936889648438 8.8770122528076171875 9.0195255279541015625 9.1677265167236328125 9.3424615859985351562 9.5149946212768554688 9.6878147125244140625 9.89618682861328125 10.14029693603515625 
3.7226741313934326172 3.6212487220764160156 3.5605072975158691406 3.5606617927551269531 3.6205141544342041016 3.6793780326843261719 3.7391273975372314453 3.8246307373046875 3.8210809230804443359 3.8519382476806640625 3.7580292224884033203 3.7910714149475097656 3.8097383975982666016 3.85118865966796875 3.9137530326843261719 3.99163818359375 4.1234889030456542969 4.0850625038146972656 4.0202417373657226562 4.0353312492370605469 4.0759425163269042969 4.1226801872253417969 4.1391019821166992188 4.1987109184265136719 4.219970703125 4.20550537109375 4.2331380844116210938 4.25335693359375 4.23253631591796875 4.2559285163879394531 4.3144903182983398438 4.3233504295349121094 4.3228678703308105469 4.3373260498046875 4.360637664794921875 4.3954653739929199219 4.4223194122314453125 4.4411835670471191406 4.4678959846496582031 4.4890017509460449219 4.5062422752380371094 4.5107698440551757812 4.5314359664916992188 4.53501129150390625 4.5295763015747070312 4.5800323486328125 4.6109523773193359375 4.6415095329284667969 4.6482477188110351562 4.6277585029602050781 4.6025156974792480469 4.5675158500671386719 4.5844449996948242188 4.6405839920043945312 4.6833162307739257812 4.9689621925354003906 5.386020660400390625 5.5008716583251953125 5.4959468841552734375 5.3518018722534179688 4.9979233741760253906 4.9474773406982421875 5.3175554275512695312 5.6450357437133789062 5.7099332809448242188 5.3688817024230957031 5.0346798896789550781 5.0244045257568359375 5.0634036064147949219 5.0845417976379394531 5.108020782470703125 5.1356229782104492188 5.1765007972717285156 5.1742753982543945312 5.1693081855773925781 5.20957183837890625 5.2177248001098632812 5.2586665153503417969 5.3122868537902832031 5.3770284652709960938 5.4130568504333496094 5.4313521385192871094 5.5131411552429199219 5.5569472312927246094 5.5495395660400390625 5.3603906631469726562 5.1236286163330078125 5.3250861167907714844 5.2779574394226074219 5.2528977394104003906 5.2661919593811035156 5.2568621635437011719 5.0246806144714355469 4.75347900390625 4.7159337997436523438 4.6926422119140625 5.1963467597961425781 5.4854836463928222656 5.6161150932312011719 5.7903490066528320312 5.99542236328125 6.1987051963806152344 6.3394589424133300781 6.4516482353210449219 6.5949521064758300781 6.7089028358459472656 6.85469818115234375 7.2590451240539550781 7.5433564186096191406 7.6719222068786621094 7.7579464912414550781 7.8328833580017089844 7.9335503578186035156 8.0465612411499023438 8.1825313568115234375 8.2981653213500976562 8.3688573837280273438 8.4854993820190429688 8.6523466110229492188 8.7996454238891601562 8.9235057830810546875 9.0730686187744140625 9.2299594879150390625 9.3672094345092773438 9.5988101959228515625 9.90961456298828125 10.188991546630859375 
3.6183192729949951172 3.4812610149383544922 3.4716162681579589844 3.5157938003540039062 3.5681219100952148438 3.5972049236297607422 3.62384033203125 3.6687574386596679688 3.7107412815093994141 3.7432649135589599609 3.6657526493072509766 3.736957550048828125 3.7937648296356201172 3.8341476917266845703 3.8942461013793945312 3.9560997486114501953 4.0724291801452636719 4.0098633766174316406 3.968914031982421875 4.0137243270874023438 4.0570216178894042969 4.0756597518920898438 4.0994539260864257812 4.1457648277282714844 4.1756978034973144531 4.1733508110046386719 4.1953821182250976562 4.2210106849670410156 4.2077264785766601562 4.2059011459350585938 4.2577919960021972656 4.2671771049499511719 4.2664122581481933594 4.276592254638671875 4.2837548255920410156 4.3019809722900390625 4.3056879043579101562 4.3436183929443359375 4.3790965080261230469 4.4136843681335449219 4.4350156784057617188 4.4393291473388671875 4.4552011489868164062 4.4609193801879882812 4.451732635498046875 4.4687914848327636719 4.4810013771057128906 4.5108442306518554688 4.5405473709106445312 4.559722900390625 4.5486764907836914062 4.511566162109375 4.5357694625854492188 4.5834941864013671875 4.6139035224914550781 4.7616596221923828125 5.1021680831909179688 5.3396830558776855469 5.4095811843872070312 5.2982182502746582031 4.9260263442993164062 4.7921090126037597656 5.0002727508544921875 5.3331928253173828125 5.4189095497131347656 5.1488041877746582031 4.953582763671875 4.9692621231079101562 5.0020318031311035156 5.0194735527038574219 5.0520787239074707031 5.090328216552734375 5.1344852447509765625 5.1015033721923828125 5.0886392593383789062 5.1268105506896972656 5.1308779716491699219 5.2024254798889160156 5.2729611396789550781 5.3143148422241210938 5.3303737640380859375 5.3920969963073730469 5.4661197662353515625 5.4626364707946777344 5.3892025947570800781 5.1279783248901367188 4.8776388168334960938 4.9252328872680664062 4.9379053115844726562 4.836544036865234375 4.7649483680725097656 4.6965551376342773438 4.5311789512634277344 4.5007786750793457031 4.6187601089477539062 5.0008001327514648438 5.4189634323120117188 5.617259979248046875 5.8567042350769042969 6.0770983695983886719 6.2221751213073730469 6.3153147697448730469 6.4069194793701171875 6.5363717079162597656 6.6449809074401855469 6.7222447395324707031 6.8848848342895507812 7.34725189208984375 7.6922655105590820312 7.8107266426086425781 7.8290524482727050781 7.8576645851135253906 7.9412403106689453125 8.0425128936767578125 8.1227998733520507812 8.1688747406005859375 8.189144134521484375 8.3258390426635742188 8.5071468353271484375 8.64638519287109375 8.753688812255859375 8.9032564163208007812 9.0913677215576171875 9.3179225921630859375 9.627254486083984375 9.9712724685668945312 10.208581924438476562 
3.4752802848815917969 3.4256682395935058594 3.4497132301330566406 3.4865827560424804688 3.5118031501770019531 3.5332112312316894531 3.5697844028472900391 3.6325235366821289062 3.6557424068450927734 3.6175997257232666016 3.6653144359588623047 3.7397339344024658203 3.7791876792907714844 3.8066532611846923828 3.8465137481689453125 3.911006927490234375 4.0054430961608886719 3.9239957332611083984 3.9362010955810546875 3.9936361312866210938 4.0112142562866210938 4.0222406387329101562 4.0765514373779296875 4.09278106689453125 4.1199202537536621094 4.1317777633666992188 4.1590852737426757812 4.1846461296081542969 4.1722521781921386719 4.1534056663513183594 4.2002000808715820312 4.2055330276489257812 4.1990761756896972656 4.2053599357604980469 4.1962709426879882812 4.20371246337890625 4.2213759422302246094 4.2684855461120605469 4.3112816810607910156 4.3415074348449707031 4.3591985702514648438 4.3700518608093261719 4.3961272239685058594 4.3988895416259765625 4.3925986289978027344 4.4038434028625488281 4.4040203094482421875 4.4353623390197753906 4.4786081314086914062 4.494770050048828125 4.5015635490417480469 4.4716100692749023438 4.4799356460571289062 4.5191679000854492188 4.55530548095703125 4.5836462974548339844 4.7160143852233886719 5.0079288482666015625 5.2001352310180664062 5.1761403083801269531 4.904193878173828125 4.7105975151062011719 4.7618632316589355469 4.8953738212585449219 4.9524211883544921875 4.8988046646118164062 4.88066864013671875 4.9060297012329101562 4.9398164749145507812 4.9543423652648925781 4.9966235160827636719 5.0540475845336914062 5.0642423629760742188 5.0130681991577148438 5.016605377197265625 5.0493803024291992188 5.0778479576110839844 5.1668267250061035156 5.207134246826171875 5.2323246002197265625 5.2706770896911621094 5.3496146202087402344 5.356250762939453125 5.2260174751281738281 5.0050759315490722656 4.7806544303894042969 4.6269211769104003906 4.7309970855712890625 4.6009230613708496094 4.3662743568420410156 4.4780759811401367188 4.5815305709838867188 4.7528862953186035156 5.0132818222045898438 5.1911883354187011719 5.3816232681274414062 5.5938944816589355469 5.8517680168151855469 6.0663332939147949219 6.174114227294921875 6.24898529052734375 6.3239674568176269531 6.4202809333801269531 6.5488018989562988281 6.6360354423522949219 6.7024703025817871094 6.8240933418273925781 7.195453643798828125 7.6218857765197753906 7.7947106361389160156 7.8503589630126953125 7.8873414993286132812 7.9183516502380371094 7.9257025718688964844 7.9585347175598144531 7.98923492431640625 7.9894785881042480469 8.10184478759765625 8.3069200515747070312 8.4436931610107421875 8.5792064666748046875 8.7381448745727539062 8.995635986328125 9.180515289306640625 9.4213609695434570312 9.6853723526000976562 9.8808012008666992188 
3.3517296314239501953 3.3778102397918701172 3.4143693447113037109 3.4449679851531982422 3.4622750282287597656 3.4726884365081787109 3.5435457229614257812 3.6051709651947021484 3.5204749107360839844 3.5780668258666992188 3.6849584579467773438 3.7358865737915039062 3.7441439628601074219 3.7661197185516357422 3.7850830554962158203 3.8465149402618408203 3.8885414600372314453 3.8578789234161376953 3.9025158882141113281 3.9337575435638427734 3.9517841339111328125 3.9683163166046142578 4.0241003036499023438 4.0492215156555175781 4.0778951644897460938 4.0988497734069824219 4.1152138710021972656 4.1227140426635742188 4.1175661087036132812 4.1041979789733886719 4.1356601715087890625 4.1390280723571777344 4.1259779930114746094 4.1214022636413574219 4.1018872261047363281 4.1457409858703613281 4.1880326271057128906 4.2098226547241210938 4.2368674278259277344 4.2657518386840820312 4.2939958572387695312 4.3113493919372558594 4.3349490165710449219 4.3320698738098144531 4.3395509719848632812 4.3373990058898925781 4.3380594253540039062 4.3943705558776855469 4.4177126884460449219 4.4344396591186523438 4.4479541778564453125 4.4263277053833007812 4.4143924713134765625 4.4544525146484375 4.4803938865661621094 4.4806585311889648438 4.5069303512573242188 4.6639199256896972656 4.8435053825378417969 4.8337874412536621094 4.7272324562072753906 4.6384243965148925781 4.6759843826293945312 4.7260785102844238281 4.772571563720703125 4.8004593849182128906 4.8192067146301269531 4.8472685813903808594 4.8714432716369628906 4.8907771110534667969 4.9432606697082519531 4.9790024757385253906 4.9545154571533203125 4.93053436279296875 4.980197906494140625 4.9882221221923828125 5.0339174270629882812 5.1033906936645507812 5.1336317062377929688 5.1639251708984375 5.2351903915405273438 5.2809748649597167969 5.0809869766235351562 4.8252139091491699219 4.6447629928588867188 4.5182161331176757812 4.47899627685546875 4.4766445159912109375 4.3178768157958984375 4.5746707916259765625 4.9673361778259277344 5.1122269630432128906 5.2145452499389648438 5.3333783149719238281 5.4609460830688476562 5.5924439430236816406 5.7792963981628417969 5.9673643112182617188 6.0871415138244628906 6.1655740737915039062 6.2396945953369140625 6.3285622596740722656 6.4322791099548339844 6.5265798568725585938 6.606227874755859375 6.7010045051574707031 6.8813638687133789062 7.2135100364685058594 7.5840883255004882812 7.7337660789489746094 7.7957062721252441406 7.826053619384765625 7.7275729179382324219 7.6447176933288574219 7.7204103469848632812 7.8032956123352050781 7.8903737068176269531 8.0431451797485351562 8.1845712661743164062 8.3437204360961914062 8.4836101531982421875 8.6222982406616210938 8.7860288619995117188 8.9037237167358398438 9.0676050186157226562 9.322906494140625 9.6246232986450195312 
3.2846231460571289062 3.3262593746185302734 3.3736011981964111328 3.4071116447448730469 3.4224109649658203125 3.4290144443511962891 3.503086090087890625 3.4631655216217041016 3.5016710758209228516 3.5774905681610107422 3.6183831691741943359 3.6785957813262939453 3.6827874183654785156 3.6906328201293945312 3.7154703140258789062 3.7826945781707763672 3.8058331012725830078 3.83107757568359375 3.8744714260101318359 3.8819253444671630859 3.8873560428619384766 3.9419896602630615234 3.9981226921081542969 4.0179324150085449219 4.0534958839416503906 4.0655355453491210938 4.0835757255554199219 4.0623059272766113281 4.0405836105346679688 4.0523858070373535156 4.0696024894714355469 4.0657901763916015625 4.0547604560852050781 4.0458459854125976562 4.062007904052734375 4.1200346946716308594 4.1415772438049316406 4.1505074501037597656 4.1700534820556640625 4.2180156707763671875 4.2486281394958496094 4.2577710151672363281 4.2661461830139160156 4.2611584663391113281 4.275371551513671875 4.2687592506408691406 4.2909483909606933594 4.3417534828186035156 4.3456058502197265625 4.3715786933898925781 4.396854400634765625 4.3688111305236816406 4.3577661514282226562 4.3983964920043945312 4.4069147109985351562 4.4158353805541992188 4.4517793655395507812 4.5334730148315429688 4.576717376708984375 4.5593900680541992188 4.5596551895141601562 4.5885109901428222656 4.6384358406066894531 4.6858944892883300781 4.7234983444213867188 4.7458395957946777344 4.7683010101318359375 4.7938518524169921875 4.8098216056823730469 4.8211841583251953125 4.8398714065551757812 4.8567366600036621094 4.8429980278015136719 4.8791117668151855469 4.9303636550903320312 4.9271016120910644531 4.997913360595703125 5.0476636886596679688 5.0605268478393554688 5.1127595901489257812 5.1711916923522949219 5.0950679779052734375 4.7069973945617675781 4.4509782791137695312 4.3896050453186035156 4.3383455276489257812 4.2821259498596191406 4.2483668327331542969 4.497585296630859375 4.9455285072326660156 5.1825604438781738281 5.2985935211181640625 5.4295001029968261719 5.5632014274597167969 5.732990264892578125 5.8233847618103027344 5.9188909530639648438 6.0429449081420898438 6.1549611091613769531 6.2108640670776367188 6.2669229507446289062 6.3417491912841796875 6.4262995719909667969 6.5092892646789550781 6.591670989990234375 6.7450928688049316406 7.0993318557739257812 7.3990392684936523438 7.5375185012817382812 7.5509934425354003906 7.5615525245666503906 7.5541691780090332031 7.456451416015625 7.5007219314575195312 7.6031293869018554688 7.7209024429321289062 7.8452734947204589844 7.9613184928894042969 8.061878204345703125 8.2364206314086914062 8.3470487594604492188 8.4914417266845703125 8.5966024398803710938 8.66359710693359375 8.7923803329467773438 9.1149320602416992188 9.5393323898315429688 
3.2463600635528564453 3.3020246028900146484 3.3415787220001220703 3.3755323886871337891 3.3834784030914306641 3.3891777992248535156 3.3997783660888671875 3.4040226936340332031 3.5493857860565185547 3.5240597724914550781 3.5495779514312744141 3.6118385791778564453 3.6281299591064453125 3.626251220703125 3.6434843540191650391 3.6990785598754882812 3.7182002067565917969 3.7721192836761474609 3.8016982078552246094 3.8267090320587158203 3.822734832763671875 3.8919305801391601562 3.9391481876373291016 3.9775230884552001953 3.9980673789978027344 4.0007443428039550781 3.9996695518493652344 3.9572939872741699219 3.9677865505218505859 3.9871428012847900391 3.9911737442016601562 3.9872860908508300781 3.9865639209747314453 3.9885756969451904297 4.0400786399841308594 4.0671916007995605469 4.0833773612976074219 4.112201690673828125 4.1458101272583007812 4.1822791099548339844 4.2036294937133789062 4.2041506767272949219 4.2070584297180175781 4.2005629539489746094 4.2214159965515136719 4.2144408226013183594 4.2608599662780761719 4.2934336662292480469 4.2847681045532226562 4.3173317909240722656 4.3418741226196289062 4.31259918212890625 4.321025848388671875 4.3513722419738769531 4.3582320213317871094 4.371097564697265625 4.4157700538635253906 4.4674463272094726562 4.4767131805419921875 4.4845728874206542969 4.51227569580078125 4.5626311302185058594 4.6071023941040039062 4.6359143257141113281 4.6697525978088378906 4.6926560401916503906 4.7171406745910644531 4.7420964241027832031 4.7531991004943847656 4.7517914772033691406 4.7424039840698242188 4.7469067573547363281 4.7676596641540527344 4.8283329010009765625 4.8555827140808105469 4.8928289413452148438 4.9593048095703125 4.9955763816833496094 4.9987821578979492188 5.0516767501831054688 5.0605030059814453125 4.7603240013122558594 4.353527069091796875 4.1547441482543945312 4.1355385780334472656 4.1815280914306640625 4.2462110519409179688 4.4951152801513671875 4.9132070541381835938 5.2163133621215820312 5.3412766456604003906 5.3581972122192382812 5.47129058837890625 5.5786266326904296875 5.7448315620422363281 5.8777532577514648438 5.9814167022705078125 6.0829448699951171875 6.1489787101745605469 6.1828083992004394531 6.2151913642883300781 6.3267765045166015625 6.4272365570068359375 6.4954967498779296875 6.5559930801391601562 6.6775746345520019531 6.9593267440795898438 7.1965360641479492188 7.2514581680297851562 7.1885118484497070312 7.2213768959045410156 7.266231536865234375 7.3389229774475097656 7.4404630661010742188 7.5479974746704101562 7.6509079933166503906 7.7555208206176757812 7.8359398841857910156 7.901363372802734375 8.008083343505859375 8.1066579818725585938 8.2706384658813476562 8.3749904632568359375 8.4458856582641601562 8.6154279708862304688 9.087032318115234375 9.5705013275146484375 
3.2057185173034667969 3.2583267688751220703 3.3096327781677246094 3.3380112648010253906 3.3298254013061523438 3.3330047130584716797 3.2969541549682617188 3.3756089210510253906 3.4543216228485107422 3.4543178081512451172 3.501888275146484375 3.5354678630828857422 3.5419709682464599609 3.5844745635986328125 3.57276153564453125 3.6037054061889648438 3.6525278091430664062 3.6969652175903320312 3.7280321121215820312 3.7269873619079589844 3.7436616420745849609 3.7705483436584472656 3.8128299713134765625 3.8989272117614746094 3.9126894474029541016 3.9053413867950439453 3.9026904106140136719 3.8787899017333984375 3.9305641651153564453 3.9084842205047607422 3.8939359188079833984 3.9016809463500976562 3.9125351905822753906 3.9554305076599121094 4.0100040435791015625 4.0136966705322265625 4.0537018775939941406 4.0927333831787109375 4.1233859062194824219 4.1425867080688476562 4.1558833122253417969 4.1503391265869140625 4.1387972831726074219 4.1513867378234863281 4.1682906150817871094 4.1824083328247070312 4.2350053787231445312 4.2555031776428222656 4.2413654327392578125 4.2662138938903808594 4.2863688468933105469 4.2696795463562011719 4.2944607734680175781 4.3022747039794921875 4.3189492225646972656 4.3328948020935058594 4.3670392036437988281 4.405498504638671875 4.4085974693298339844 4.4353499412536621094 4.47576141357421875 4.51999664306640625 4.5570912361145019531 4.5869989395141601562 4.6216297149658203125 4.6407599449157714844 4.6652393341064453125 4.6859183311462402344 4.6936230659484863281 4.6831984519958496094 4.6588354110717773438 4.6807107925415039062 4.72855377197265625 4.7577319145202636719 4.7997922897338867188 4.8544297218322753906 4.8992090225219726562 4.9236736297607421875 4.9411611557006835938 4.9699540138244628906 4.770877838134765625 4.3270597457885742188 4.0442152023315429688 4.0429282188415527344 4.3038420677185058594 4.5419712066650390625 4.675067901611328125 4.8263964653015136719 5.0148825645446777344 5.1801662445068359375 5.2399053573608398438 5.3164420127868652344 5.4839978218078613281 5.595867156982421875 5.7249703407287597656 5.8413949012756347656 5.912265777587890625 5.9641447067260742188 6.0178027153015136719 6.0768408775329589844 6.1793742179870605469 6.3261585235595703125 6.3975558280944824219 6.4456033706665039062 6.5007619857788085938 6.5863580703735351562 6.7103710174560546875 6.8524188995361328125 6.9409775733947753906 6.9985985755920410156 7.0646147727966308594 7.1544589996337890625 7.2645926475524902344 7.3632922172546386719 7.469142913818359375 7.5563235282897949219 7.6329507827758789062 7.6857962608337402344 7.7413010597229003906 7.8142981529235839844 7.9416785240173339844 8.0870771408081054688 8.2177734375 8.330806732177734375 8.521938323974609375 8.9736566543579101562 9.39963531494140625 
3.1565632820129394531 3.2014026641845703125 3.2720940113067626953 3.2782745361328125 3.2704176902770996094 3.3094255924224853516 3.2888424396514892578 3.2839024066925048828 3.3807785511016845703 3.4090189933776855469 3.4829461574554443359 3.4641485214233398438 3.50078582763671875 3.5565118789672851562 3.5027596950531005859 3.5339031219482421875 3.6063876152038574219 3.6386902332305908203 3.6545796394348144531 3.6606960296630859375 3.6921031475067138672 3.6894814968109130859 3.730319976806640625 3.8171255588531494141 3.8347051143646240234 3.8360350131988525391 3.8288362026214599609 3.8167688846588134766 3.855510711669921875 3.8379950523376464844 3.8338186740875244141 3.8439934253692626953 3.8528134822845458984 3.9250957965850830078 3.9500324726104736328 3.9885845184326171875 4.0297846794128417969 4.0566549301147460938 4.079730987548828125 4.087459564208984375 4.1038928031921386719 4.0968632698059082031 4.0885987281799316406 4.1145634651184082031 4.1095018386840820312 4.1490068435668945312 4.1986780166625976562 4.2104387283325195312 4.1957726478576660156 4.22039031982421875 4.2325000762939453125 4.2227296829223632812 4.2442946434020996094 4.2614598274230957031 4.2826447486877441406 4.2930440902709960938 4.3272752761840820312 4.3537378311157226562 4.3642024993896484375 4.4036021232604980469 4.4383559226989746094 4.4743099212646484375 4.5097227096557617188 4.5377511978149414062 4.5689182281494140625 4.5885396003723144531 4.6132969856262207031 4.6228013038635253906 4.6274156570434570312 4.6219348907470703125 4.609180450439453125 4.6486382484436035156 4.6698517799377441406 4.7107944488525390625 4.7685985565185546875 4.7986750602722167969 4.8368000984191894531 4.8536448478698730469 4.8778772354125976562 4.7616071701049804688 4.3355855941772460938 4.0185451507568359375 4.0062494277954101562 4.2692136764526367188 4.6065526008605957031 4.7513933181762695312 4.7932476997375488281 4.8014888763427734375 4.9200205802917480469 5.0957913398742675781 5.2122626304626464844 5.3255314826965332031 5.4625535011291503906 5.563690185546875 5.6497635841369628906 5.7558264732360839844 5.8260946273803710938 5.9021134376525878906 5.9727950096130371094 6.0397281646728515625 6.1342725753784179688 6.2425050735473632812 6.3312730789184570312 6.4131927490234375 6.49260711669921875 6.5795121192932128906 6.6708784103393554688 6.7619156837463378906 6.8509311676025390625 6.9215369224548339844 6.9945588111877441406 7.0949683189392089844 7.195354461669921875 7.2955303192138671875 7.362659454345703125 7.4190421104431152344 7.5047993659973144531 7.6157050132751464844 7.723003387451171875 7.8172917366027832031 7.9453177452087402344 8.0936431884765625 8.2169408798217773438 8.328227996826171875 8.455394744873046875 8.7142915725708007812 8.9690809249877929688 
3.1051542758941650391 3.1626684665679931641 3.2186243534088134766 3.2274518013000488281 3.2376091480255126953 3.3402087688446044922 3.2597532272338867188 3.2661044597625732422 3.3396899700164794922 3.3973360061645507812 3.4335651397705078125 3.4105422496795654297 3.4405732154846191406 3.4701960086822509766 3.4712758064270019531 3.5455422401428222656 3.5863206386566162109 3.5833005905151367188 3.5886359214782714844 3.6143047809600830078 3.6344008445739746094 3.6468708515167236328 3.7088139057159423828 3.7555241584777832031 3.7559385299682617188 3.7448470592498779297 3.7400805950164794922 3.7665979862213134766 3.776668548583984375 3.7841587066650390625 3.781597137451171875 3.7903957366943359375 3.8311579227447509766 3.8758490085601806641 3.9186677932739257812 3.9731633663177490234 3.9910216331481933594 4.0148158073425292969 4.0311484336853027344 4.0416159629821777344 4.0377321243286132812 4.0356020927429199219 4.0487294197082519531 4.0476016998291015625 4.0697870254516601562 4.11783599853515625 4.1421747207641601562 4.1507010459899902344 4.1490936279296875 4.1729893684387207031 4.1728487014770507812 4.1760458946228027344 4.1963477134704589844 4.2185268402099609375 4.2312884330749511719 4.2553863525390625 4.2803630828857421875 4.2996931076049804688 4.3349452018737792969 4.3742895126342773438 4.4039301872253417969 4.4297156333923339844 4.4625544548034667969 4.4924597740173339844 4.5187096595764160156 4.5374746322631835938 4.557708740234375 4.5644230842590332031 4.567779541015625 4.5587902069091796875 4.5613341331481933594 4.5850262641906738281 4.6094470024108886719 4.6731982231140136719 4.7063670158386230469 4.7358565330505371094 4.7647790908813476562 4.7864584922790527344 4.7718095779418945312 4.4564580917358398438 4.0361433029174804688 3.9428160190582275391 4.178546905517578125 4.5335822105407714844 4.6876773834228515625 4.7375783920288085938 4.7217793464660644531 4.6840257644653320312 4.9283871650695800781 5.1359581947326660156 5.2365212440490722656 5.3279891014099121094 5.4247837066650390625 5.4632153511047363281 5.540470123291015625 5.6699309349060058594 5.7534718513488769531 5.8366270065307617188 5.9139485359191894531 6.0082807540893554688 6.1098604202270507812 6.2098670005798339844 6.3057312965393066406 6.3979010581970214844 6.4782400131225585938 6.5567541122436523438 6.6348729133605957031 6.7096476554870605469 6.7792100906372070312 6.8473134040832519531 6.9416894912719726562 7.0370888710021972656 7.12496185302734375 7.1860837936401367188 7.2491941452026367188 7.3629255294799804688 7.4791254997253417969 7.5830245018005371094 7.6977567672729492188 7.799610137939453125 7.9129824638366699219 8.0287036895751953125 8.16110992431640625 8.30142974853515625 8.3988399505615234375 8.4445772171020507812 8.5265092849731445312 
3.0549018383026123047 3.1249754428863525391 3.1565546989440917969 3.1543357372283935547 3.2559835910797119141 3.2780020236968994141 3.1646525859832763672 3.2579286098480224609 3.3060214519500732422 3.3808162212371826172 3.3632769584655761719 3.3637828826904296875 3.3661611080169677734 3.3856306076049804688 3.4494042396545410156 3.5007317066192626953 3.5476729869842529297 3.5331134796142578125 3.5598959922790527344 3.5984315872192382812 3.5917851924896240234 3.6372623443603515625 3.6771757602691650391 3.6860470771789550781 3.6798150539398193359 3.6716279983520507812 3.6891548633575439453 3.7055592536926269531 3.7233057022094726562 3.7335748672485351562 3.7170398235321044922 3.73384857177734375 3.7953004837036132812 3.8294801712036132812 3.8826096057891845703 3.9433546066284179688 3.9477481842041015625 3.9465088844299316406 3.9575953483581542969 3.9881021976470947266 3.9837877750396728516 3.9826500415802001953 3.9998793601989746094 3.9883847236633300781 4.0433058738708496094 4.0860104560852050781 4.1023092269897460938 4.0987873077392578125 4.1039528846740722656 4.1295328140258789062 4.123470306396484375 4.1420331001281738281 4.1567635536193847656 4.1739149093627929688 4.1925139427185058594 4.2190318107604980469 4.2341551780700683594 4.2701959609985351562 4.3074545860290527344 4.3341717720031738281 4.3591299057006835938 4.3924164772033691406 4.4177775382995605469 4.4448103904724121094 4.4735088348388671875 4.487640380859375 4.5032763481140136719 4.5098748207092285156 4.5128207206726074219 4.5010309219360351562 4.4988584518432617188 4.5363559722900390625 4.5927071571350097656 4.626178741455078125 4.6385488510131835938 4.6682643890380859375 4.7043166160583496094 4.7179102897644042969 4.5943446159362792969 4.1560001373291015625 3.900653839111328125 3.9940166473388671875 4.3542037010192871094 4.6089434623718261719 4.6673226356506347656 4.6938161849975585938 4.6139068603515625 4.6216683387756347656 4.9221301078796386719 5.0902905464172363281 5.1931223869323730469 5.2940239906311035156 5.3702716827392578125 5.3849458694458007812 5.4552216529846191406 5.6015100479125976562 5.7606382369995117188 5.8503894805908203125 5.9321184158325195312 6.0302224159240722656 6.1241855621337890625 6.2056879997253417969 6.2826666831970214844 6.3601965904235839844 6.4348545074462890625 6.5088372230529785156 6.5787496566772460938 6.636890411376953125 6.7072920799255371094 6.8064823150634765625 6.893787384033203125 6.96045684814453125 7.0137395858764648438 7.1022791862487792969 7.2280058860778808594 7.3269338607788085938 7.4299478530883789062 7.5448694229125976562 7.661891937255859375 7.753887176513671875 7.8559856414794921875 7.9710526466369628906 8.0929822921752929688 8.1883525848388671875 8.1898097991943359375 8.267238616943359375 8.464412689208984375 
3.0282938480377197266 3.0791339874267578125 3.0919985771179199219 3.1486713886260986328 3.2551622390747070312 3.1788041591644287109 3.1259222030639648438 3.2305433750152587891 3.3072519302368164062 3.3267953395843505859 3.3029437065124511719 3.3140490055084228516 3.3085968494415283203 3.3583395481109619141 3.4359633922576904297 3.4285123348236083984 3.4707045555114746094 3.4804449081420898438 3.5294845104217529297 3.5556051731109619141 3.5617241859436035156 3.6240174770355224609 3.6279313564300537109 3.628681182861328125 3.6346368789672851562 3.6257905960083007812 3.6419990062713623047 3.6563766002655029297 3.6826856136322021484 3.6705193519592285156 3.6668465137481689453 3.7012069225311279297 3.7580053806304931641 3.8089685440063476562 3.8723707199096679688 3.9147450923919677734 3.8754949569702148438 3.8604454994201660156 3.8761591911315917969 3.9201080799102783203 3.9310803413391113281 3.9483673572540283203 3.9688763618469238281 3.9554920196533203125 4.0101933479309082031 4.046123504638671875 4.0649466514587402344 4.0567793846130371094 4.0648999214172363281 4.0914325714111328125 4.0806736946105957031 4.0972990989685058594 4.1097140312194824219 4.1301493644714355469 4.1626110076904296875 4.1813559532165527344 4.2198238372802734375 4.2511258125305175781 4.2732710838317871094 4.2965779304504394531 4.3183550834655761719 4.34786224365234375 4.3796010017395019531 4.401256561279296875 4.4228734970092773438 4.4369821548461914062 4.45064544677734375 4.4567494392395019531 4.4603729248046875 4.4475727081298828125 4.4754085540771484375 4.5179624557495117188 4.5510878562927246094 4.5660982131958007812 4.5813684463500976562 4.6153726577758789062 4.6544795036315917969 4.622470855712890625 4.364360809326171875 3.9703769683837890625 3.8649420738220214844 4.1282143592834472656 4.5085287094116210938 4.6072907447814941406 4.6368722915649414062 4.6328015327453613281 4.5250558853149414062 4.6059598922729492188 4.878856658935546875 5.0076513290405273438 5.1262216567993164062 5.2307438850402832031 5.3366823196411132812 5.4449248313903808594 5.6039776802062988281 5.7496194839477539062 5.8569302558898925781 5.9157857894897460938 5.9699430465698242188 6.045810699462890625 6.1181645393371582031 6.1809473037719726562 6.2490897178649902344 6.3204264640808105469 6.387142181396484375 6.4472131729125976562 6.5092248916625976562 6.5798296928405761719 6.6674165725708007812 6.7436404228210449219 6.8018035888671875 6.855815887451171875 6.9685397148132324219 7.0905508995056152344 7.1875200271606445312 7.2844529151916503906 7.3988204002380371094 7.5082912445068359375 7.609004974365234375 7.7043213844299316406 7.8055925369262695312 7.9103803634643554688 7.9686293601989746094 7.9668335914611816406 8.0195159912109375 8.224803924560546875 8.3937854766845703125 
2.9760849475860595703 3.0011157989501953125 3.0594713687896728516 3.13498687744140625 3.1380519866943359375 3.0614502429962158203 3.0795459747314453125 3.2047252655029296875 3.2817087173461914062 3.25916290283203125 3.2550241947174072266 3.2649993896484375 3.2636971473693847656 3.3393647670745849609 3.3879246711730957031 3.3651139736175537109 3.4150538444519042969 3.4301483631134033203 3.4930608272552490234 3.5121283531188964844 3.5395374298095703125 3.5705780982971191406 3.5831134319305419922 3.5851314067840576172 3.5919070243835449219 3.567844390869140625 3.5910594463348388672 3.6433951854705810547 3.6515572071075439453 3.6195609569549560547 3.6667873859405517578 3.7123990058898925781 3.7413499355316162109 3.7897491455078125 3.8376057147979736328 3.8405239582061767578 3.7964682579040527344 3.7959296703338623047 3.8218784332275390625 3.8563091754913330078 3.8859221935272216797 3.9111738204956054688 3.9134693145751953125 3.9168734550476074219 3.9725718498229980469 3.9951341152191162109 4.0105800628662109375 4.0109167098999023438 4.0240397453308105469 4.0540232658386230469 4.0382456779479980469 4.0542955398559570312 4.0661592483520507812 4.0977311134338378906 4.1266117095947265625 4.1587901115417480469 4.2006683349609375 4.2190241813659667969 4.2349324226379394531 4.2519216537475585938 4.2788901329040527344 4.3085832595825195312 4.3368000984191894531 4.3567914962768554688 4.3724050521850585938 4.3889675140380859375 4.3981599807739257812 4.4051380157470703125 4.4065279960632324219 4.40959930419921875 4.447734832763671875 4.4710278511047363281 4.4902873039245605469 4.5013685226440429688 4.5337476730346679688 4.5727872848510742188 4.5991239547729492188 4.4858407974243164062 4.1228990554809570312 3.8702762126922607422 3.9002821445465087891 4.2592234611511230469 4.5683431625366210938 4.58115386962890625 4.5961141586303710938 4.5786900520324707031 4.4477109909057617188 4.5709161758422851562 4.9261007308959960938 5.1374011039733886719 5.2779712677001953125 5.3531994819641113281 5.4430665969848632812 5.5165691375732421875 5.6211314201354980469 5.7546019554138183594 5.8586630821228027344 5.8937883377075195312 5.9468812942504882812 6.013706207275390625 6.0804610252380371094 6.1474370956420898438 6.2247858047485351562 6.2921962738037109375 6.3209662437438964844 6.390468597412109375 6.4697451591491699219 6.5345759391784667969 6.580905914306640625 6.6572790145874023438 6.7514657974243164062 6.8660383224487304688 6.9999871253967285156 7.090770721435546875 7.162078857421875 7.26030731201171875 7.3724260330200195312 7.4617366790771484375 7.5484189987182617188 7.6449084281921386719 7.7357258796691894531 7.7559814453125 7.7587652206420898438 7.8865704536437988281 8.0727367401123046875 8.201019287109375 8.3705682754516601562 
2.9205887317657470703 2.9580671787261962891 3.0291275978088378906 3.055164337158203125 3.0441167354583740234 2.9850142002105712891 3.0857076644897460938 3.1837451457977294922 3.2223751544952392578 3.2071626186370849609 3.2149565219879150391 3.2192285060882568359 3.2273337841033935547 3.3015046119689941406 3.3443121910095214844 3.3198854923248291016 3.3514909744262695312 3.384151458740234375 3.4426450729370117188 3.4891643524169921875 3.4994485378265380859 3.5054066181182861328 3.55809783935546875 3.5484943389892578125 3.5363831520080566406 3.5138297080993652344 3.5442614555358886719 3.5860681533813476562 3.5926480293273925781 3.58172607421875 3.6481215953826904297 3.6745450496673583984 3.7109022140502929688 3.7476384639739990234 3.7689876556396484375 3.7564482688903808594 3.7402989864349365234 3.7652003765106201172 3.787845611572265625 3.799907684326171875 3.8400180339813232422 3.8514285087585449219 3.8548891544342041016 3.8718168735504150391 3.9136776924133300781 3.9413480758666992188 3.954433441162109375 3.9561250209808349609 3.9835479259490966797 4.0236105918884277344 4.0032620429992675781 3.9946844577789306641 4.0252518653869628906 4.0683846473693847656 4.0979156494140625 4.1352071762084960938 4.1639838218688964844 4.1807384490966796875 4.2028961181640625 4.2194986343383789062 4.2450995445251464844 4.2741236686706542969 4.2931485176086425781 4.3110709190368652344 4.3284168243408203125 4.34095001220703125 4.3524479866027832031 4.3551640510559082031 4.3495249748229980469 4.3694424629211425781 4.3952946662902832031 4.4116449356079101562 4.4257073402404785156 4.450649261474609375 4.4885344505310058594 4.5272197723388671875 4.5646538734436035156 4.4420599937438964844 4.0277757644653320312 3.8222651481628417969 3.9513733386993408203 4.3547840118408203125 4.5403566360473632812 4.5345625877380371094 4.537700653076171875 4.4969816207885742188 4.3840527534484863281 4.4931554794311523438 4.9124388694763183594 5.1743421554565429688 5.2921972274780273438 5.337268829345703125 5.4302811622619628906 5.5673317909240722656 5.6141324043273925781 5.7161593437194824219 5.8035283088684082031 5.848018646240234375 5.9291825294494628906 5.9950480461120605469 6.0628600120544433594 6.1251688003540039062 6.1787724494934082031 6.2152981758117675781 6.256633758544921875 6.3583230972290039062 6.4070124626159667969 6.4730548858642578125 6.5798273086547851562 6.6895480155944824219 6.8037838935852050781 6.902942657470703125 7.0021772384643554688 7.0997514724731445312 7.1865253448486328125 7.2790999412536621094 7.3731470108032226562 7.4482278823852539062 7.5099802017211914062 7.5202693939208984375 7.5226874351501464844 7.5671315193176269531 7.7486066818237304688 7.9400925636291503906 8.0591993331909179688 8.1956396102905273438 8.4328126907348632812 
2.8985300064086914062 2.9411630630493164062 2.9591634273529052734 3.0159316062927246094 2.9584765434265136719 3.0450911521911621094 3.1107246875762939453 3.1398351192474365234 3.1783118247985839844 3.1757779121398925781 3.1978516578674316406 3.1656708717346191406 3.1895401477813720703 3.2437167167663574219 3.2536807060241699219 3.2441375255584716797 3.3105733394622802734 3.3742692470550537109 3.4004764556884765625 3.4479677677154541016 3.4396088123321533203 3.4757637977600097656 3.533664703369140625 3.5046658515930175781 3.4859647750854492188 3.4748270511627197266 3.5002558231353759766 3.5280327796936035156 3.5132834911346435547 3.5490517616271972656 3.6077437400817871094 3.6518197059631347656 3.6959116458892822266 3.7043135166168212891 3.7045621871948242188 3.7049188613891601562 3.6980226039886474609 3.745700836181640625 3.7546477317810058594 3.7432537078857421875 3.7673990726470947266 3.7841739654541015625 3.8023712635040283203 3.8313436508178710938 3.8545386791229248047 3.8954377174377441406 3.9076731204986572266 3.8998389244079589844 3.9471731185913085938 3.98590850830078125 3.9646811485290527344 3.9495439529418945312 3.9944899082183837891 4.039093017578125 4.0684309005737304688 4.0967631340026855469 4.1250810623168945312 4.1493387222290039062 4.1614232063293457031 4.1763443946838378906 4.2073035240173339844 4.2326169013977050781 4.2515878677368164062 4.2689867019653320312 4.2815394401550292969 4.2913994789123535156 4.2941403388977050781 4.2958621978759765625 4.2969331741333007812 4.3256392478942871094 4.3320255279541015625 4.3439922332763671875 4.3708629608154296875 4.402088165283203125 4.4451804161071777344 4.4856953620910644531 4.5192761421203613281 4.3845410346984863281 3.9713551998138427734 3.7849812507629394531 3.9934878349304199219 4.3879175186157226562 4.4911637306213378906 4.4910268783569335938 4.4905462265014648438 4.4008374214172363281 4.2943577766418457031 4.4578981399536132812 4.882396697998046875 5.0969176292419433594 5.1988606452941894531 5.2720685005187988281 5.4037008285522460938 5.6033182144165039062 5.6476802825927734375 5.6706166267395019531 5.753604888916015625 5.8466200828552246094 5.9225573539733886719 5.9797563552856445312 6.0404510498046875 6.0662407875061035156 6.0623378753662109375 6.1214666366577148438 6.1986865997314453125 6.2781300544738769531 6.3582201004028320312 6.4707007408142089844 6.5735688209533691406 6.6746239662170410156 6.7866187095642089844 6.8852062225341796875 6.9660449028015136719 7.05406951904296875 7.15301513671875 7.2636699676513671875 7.3381371498107910156 7.4021506309509277344 7.3873171806335449219 7.3101062774658203125 7.5002474784851074219 7.6656827926635742188 7.7172136306762695312 7.8026413917541503906 7.9617795944213867188 8.142894744873046875 8.3357486724853515625 
2.8627731800079345703 2.8611118793487548828 2.9019629955291748047 2.8861012458801269531 2.9370532035827636719 3.0713827610015869141 3.0560219287872314453 3.0753719806671142578 3.1142518520355224609 3.1551609039306640625 3.1749856472015380859 3.1223623752593994141 3.1496758460998535156 3.1964163780212402344 3.1845576763153076172 3.2243478298187255859 3.3349688053131103516 3.3296382427215576172 3.3591179847717285156 3.3776795864105224609 3.393901824951171875 3.4713864326477050781 3.4692103862762451172 3.4231617450714111328 3.4263236522674560547 3.4358592033386230469 3.4613370895385742188 3.4645440578460693359 3.4850709438323974609 3.5352530479431152344 3.5708830356597900391 3.6333069801330566406 3.64788055419921875 3.6300408840179443359 3.6381640434265136719 3.6468834877014160156 3.6417942047119140625 3.6851303577423095703 3.705902099609375 3.6877434253692626953 3.7006757259368896484 3.7312366962432861328 3.7734704017639160156 3.7913765907287597656 3.8182997703552246094 3.8553173542022705078 3.8513693809509277344 3.8712167739868164062 3.9223659038543701172 3.9412927627563476562 3.9328873157501220703 3.9626557826995849609 4.0034394264221191406 4.0254850387573242188 4.0379958152770996094 4.0591487884521484375 4.0931162834167480469 4.1211595535278320312 4.1292276382446289062 4.1485877037048339844 4.1743693351745605469 4.188426971435546875 4.2080893516540527344 4.2263169288635253906 4.2321786880493164062 4.24059295654296875 4.240482330322265625 4.2403631210327148438 4.249736785888671875 4.2623839378356933594 4.2725477218627929688 4.2806243896484375 4.3089776039123535156 4.3432488441467285156 4.4024972915649414062 4.4461736679077148438 4.4629635810852050781 4.2877640724182128906 3.8920547962188720703 3.7554261684417724609 4.0590219497680664062 4.3885641098022460938 4.423702239990234375 4.3815875053405761719 4.3763012886047363281 4.3487954139709472656 4.2289137840270996094 4.4383974075317382812 4.8203892707824707031 4.971355438232421875 5.1025218963623046875 5.200893402099609375 5.3139882087707519531 5.5221066474914550781 5.5891175270080566406 5.627140045166015625 5.7836508750915527344 5.86222076416015625 5.9138970375061035156 5.9566216468811035156 5.9821295738220214844 5.9756217002868652344 6.0537705421447753906 6.1511511802673339844 6.2183957099914550781 6.2799944877624511719 6.36663055419921875 6.4826521873474121094 6.5768713951110839844 6.6444387435913085938 6.7354722023010253906 6.8261361122131347656 6.9151892662048339844 6.9958834648132324219 7.0924634933471679688 7.1914854049682617188 7.2621970176696777344 7.2504487037658691406 7.1151185035705566406 7.2487688064575195312 7.4615936279296875 7.4993357658386230469 7.6364965438842773438 7.8691892623901367188 8.049652099609375 8.2104043960571289062 8.294281005859375 
2.7870929241180419922 2.8089644908905029297 2.8239083290100097656 2.8258559703826904297 2.9693834781646728516 3.0169236660003662109 2.9861178398132324219 2.9965651035308837891 3.0389018058776855469 3.1198608875274658203 3.1315677165985107422 3.0716953277587890625 3.0994999408721923828 3.1317183971405029297 3.1541600227355957031 3.2570083141326904297 3.29094696044921875 3.2798793315887451172 3.3106813430786132812 3.3012535572052001953 3.3762869834899902344 3.4398486614227294922 3.3852400779724121094 3.3607051372528076172 3.36443328857421875 3.3920710086822509766 3.4222049713134765625 3.4199371337890625 3.4731166362762451172 3.5001554489135742188 3.5451378822326660156 3.5957458019256591797 3.5884840488433837891 3.5725769996643066406 3.5804264545440673828 3.5943255424499511719 3.599925994873046875 3.6304552555084228516 3.6536214351654052734 3.6394009590148925781 3.6631760597229003906 3.7310521602630615234 3.7576839923858642578 3.7448294162750244141 3.7773454189300537109 3.8038756847381591797 3.8180634975433349609 3.8733563423156738281 3.8953020572662353516 3.8924894332885742188 3.9301474094390869141 3.9686617851257324219 3.9926440715789794922 4.0011677742004394531 4.0022587776184082031 4.0213980674743652344 4.0448956489562988281 4.0678057670593261719 4.0844736099243164062 4.11260986328125 4.1392970085144042969 4.1490106582641601562 4.1627440452575683594 4.1784191131591796875 4.1849575042724609375 4.1935825347900390625 4.2011432647705078125 4.1943097114562988281 4.1942243576049804688 4.1973624229431152344 4.2278819084167480469 4.2316737174987792969 4.2479600906372070312 4.3105034828186035156 4.3677501678466796875 4.3935494422912597656 4.3990883827209472656 4.1851582527160644531 3.8202874660491943359 3.7540776729583740234 4.1246905326843261719 4.3682622909545898438 4.3697466850280761719 4.238170623779296875 4.2183485031127929688 4.2430677413940429688 4.1843481063842773438 4.3860931396484375 4.7051024436950683594 4.8940138816833496094 5.0259852409362792969 5.1250100135803222656 5.1853709220886230469 5.3942351341247558594 5.4396319389343261719 5.4574513435363769531 5.6494946479797363281 5.7788920402526855469 5.8799066543579101562 5.9030203819274902344 5.9085903167724609375 5.9260406494140625 6.0630273818969726562 6.1241517066955566406 6.17931365966796875 6.2534132003784179688 6.3472580909729003906 6.4642877578735351562 6.5277352333068847656 6.5953612327575683594 6.6937518119812011719 6.7845792770385742188 6.871463775634765625 6.9458146095275878906 7.0373716354370117188 7.1080651283264160156 7.0937213897705078125 6.9332361221313476562 6.995975494384765625 7.1674489974975585938 7.2794713973999023438 7.4862942695617675781 7.735973358154296875 7.9122438430786132812 8.0430498123168945312 8.16497802734375 8.2754106521606445312 
2.7184698581695556641 2.7427835464477539062 2.7556166648864746094 2.8337843418121337891 2.9194121360778808594 2.9408881664276123047 2.9146380424499511719 2.9386126995086669922 3.0044484138488769531 3.0641927719116210938 3.0689265727996826172 3.0196108818054199219 3.0532593727111816406 3.0778996944427490234 3.1743915081024169922 3.2456328868865966797 3.2291195392608642578 3.2516188621520996094 3.2394385337829589844 3.2845516204833984375 3.3756718635559082031 3.3637013435363769531 3.3176426887512207031 3.3232796192169189453 3.3235621452331542969 3.3500056266784667969 3.3670928478240966797 3.3832912445068359375 3.4341728687286376953 3.474536895751953125 3.5208077430725097656 3.5374932289123535156 3.5336031913757324219 3.5200717449188232422 3.5316529273986816406 3.5396292209625244141 3.5623569488525390625 3.5969309806823730469 3.6155416965484619141 3.5958812236785888672 3.6419763565063476562 3.7035036087036132812 3.6912820339202880859 3.6891586780548095703 3.7348129749298095703 3.7734115123748779297 3.8194122314453125 3.8506033420562744141 3.8401045799255371094 3.8720240592956542969 3.9130737781524658203 3.9305617809295654297 3.9537541866302490234 3.9572324752807617188 3.9689831733703613281 3.9898073673248291016 4.0049085617065429688 4.0266680717468261719 4.0502123832702636719 4.071075439453125 4.0894412994384765625 4.1121439933776855469 4.1251478195190429688 4.1311187744140625 4.1382923126220703125 4.1471576690673828125 4.1579775810241699219 4.154727935791015625 4.1483602523803710938 4.1503496170043945312 4.1756315231323242188 4.1933240890502929688 4.2251658439636230469 4.2930393218994140625 4.3116283416748046875 4.3368926048278808594 4.3199071884155273438 4.061725616455078125 3.7596743106842041016 3.7927401065826416016 4.1847500801086425781 4.3272957801818847656 4.3213510513305664062 4.1927852630615234375 4.135334014892578125 4.1399860382080078125 4.1400666236877441406 4.2849564552307128906 4.5107297897338867188 4.7212166786193847656 4.8889613151550292969 4.9955925941467285156 5.1149697303771972656 5.2711153030395507812 5.2727751731872558594 5.17789459228515625 5.3307828903198242188 5.6318197250366210938 5.8135099411010742188 5.845821380615234375 5.846904754638671875 5.8774242401123046875 5.9935703277587890625 6.0419292449951171875 6.1135964393615722656 6.189693450927734375 6.2748613357543945312 6.3769812583923339844 6.468379974365234375 6.5855317115783691406 6.6797156333923339844 6.7226591110229492188 6.7895441055297851562 6.8926877975463867188 6.97040557861328125 6.9434924125671386719 6.7636508941650390625 6.7062788009643554688 6.9024896621704101562 7.1170172691345214844 7.4033823013305664062 7.6046223640441894531 7.7391123771667480469 7.8635587692260742188 7.9763231277465820312 8.0756673812866210938 8.2115468978881835938 
2.6461548805236816406 2.6860568523406982422 2.7889778614044189453 2.8323540687561035156 2.8886427879333496094 2.8748590946197509766 2.8682153224945068359 2.9191684722900390625 2.966770172119140625 3.0027041435241699219 2.9935553073883056641 3.0291802883148193359 3.0531136989593505859 3.0654432773590087891 3.1727266311645507812 3.1871116161346435547 3.2047703266143798828 3.2108101844787597656 3.2007195949554443359 3.2860434055328369141 3.3218555450439453125 3.2901935577392578125 3.2696819305419921875 3.2903339862823486328 3.2826743125915527344 3.3021438121795654297 3.3060402870178222656 3.3538830280303955078 3.3963365554809570312 3.4444882869720458984 3.4738588333129882812 3.4738838672637939453 3.4750957489013671875 3.4663937091827392578 3.4811129570007324219 3.4901614189147949219 3.5170731544494628906 3.5635485649108886719 3.5604307651519775391 3.5630176067352294922 3.6196527481079101562 3.62857818603515625 3.6243929862976074219 3.6772322654724121094 3.7435700893402099609 3.7877914905548095703 3.8090765476226806641 3.8016154766082763672 3.8019945621490478516 3.8494582176208496094 3.8718307018280029297 3.8957879543304443359 3.9087316989898681641 3.9024820327758789062 3.9217467308044433594 3.939266204833984375 3.9725706577301025391 4.0012507438659667969 4.0152363777160644531 4.0364322662353515625 4.051784515380859375 4.0738582611083984375 4.0834789276123046875 4.0916600227355957031 4.10276031494140625 4.1092395782470703125 4.1169028282165527344 4.1082963943481445312 4.0897526741027832031 4.0916309356689453125 4.1200509071350097656 4.1536946296691894531 4.2096753120422363281 4.2338962554931640625 4.2095136642456054688 4.2652130126953125 4.2540426254272460938 3.9656255245208740234 3.6919662952423095703 3.8225100040435791016 4.1962485313415527344 4.2412195205688476562 4.1744999885559082031 4.1182627677917480469 4.0463147163391113281 4.0588088035583496094 4.1332831382751464844 4.2395243644714355469 4.4319844245910644531 4.6596279144287109375 4.8099122047424316406 4.8986887931823730469 5.0499577522277832031 5.1546854972839355469 5.1140456199645996094 5.0632266998291015625 5.2878122329711914062 5.5959887504577636719 5.7438607215881347656 5.7793126106262207031 5.7509555816650390625 5.8197269439697265625 5.8846068382263183594 5.9558043479919433594 6.0411067008972167969 6.1506943702697753906 6.2488121986389160156 6.3552727699279785156 6.4822831153869628906 6.5859313011169433594 6.5944924354553222656 6.6038899421691894531 6.7358350753784179688 6.8411569595336914062 6.7607035636901855469 6.5890855789184570312 6.5991373062133789062 6.8545398712158203125 7.0934529304504394531 7.2979526519775390625 7.4525814056396484375 7.5723261833190917969 7.68914031982421875 7.7985129356384277344 7.8942499160766601562 7.9739837646484375 8.09183502197265625 
2.6084527969360351562 2.7299692630767822266 2.7864148616790771484 2.8044817447662353516 2.8560817241668701172 2.8136143684387207031 2.8529386520385742188 2.8782782554626464844 2.9053471088409423828 2.908756256103515625 2.9636347293853759766 3.0488681793212890625 3.0051164627075195312 3.0595843791961669922 3.1178090572357177734 3.0974607467651367188 3.1461124420166015625 3.1632888317108154297 3.175609588623046875 3.2582376003265380859 3.2533504962921142578 3.2190814018249511719 3.2239534854888916016 3.2448494434356689453 3.2470166683197021484 3.2723188400268554688 3.2681386470794677734 3.3206300735473632812 3.3753552436828613281 3.4106426239013671875 3.4070363044738769531 3.4139702320098876953 3.4051063060760498047 3.4032390117645263672 3.4265985488891601562 3.4385890960693359375 3.4801359176635742188 3.5036625862121582031 3.5214569568634033203 3.5588386058807373047 3.5717923641204833984 3.5664241313934326172 3.6163389682769775391 3.6910722255706787109 3.7399361133575439453 3.7544329166412353516 3.7654716968536376953 3.7528622150421142578 3.7804496288299560547 3.8102834224700927734 3.8327047824859619141 3.8545725345611572266 3.859424591064453125 3.8619360923767089844 3.8822491168975830078 3.9110081195831298828 3.9448764324188232422 3.9666399955749511719 3.9741742610931396484 3.9969975948333740234 4.0165233612060546875 4.0342187881469726562 4.0403261184692382812 4.0460104942321777344 4.0595521926879882812 4.0684561729431152344 4.0732026100158691406 4.0612673759460449219 4.0479583740234375 4.0426745414733886719 4.0691189765930175781 4.1276240348815917969 4.1753787994384765625 4.1530742645263671875 4.0853753089904785156 4.1896071434020996094 4.2002477645874023438 3.8944418430328369141 3.6513600349426269531 3.8326697349548339844 4.1797399520874023438 4.1973295211791992188 4.0517277717590332031 4.0453777313232421875 3.9870812892913818359 4.0170660018920898438 4.0933852195739746094 4.1893873214721679688 4.3600993156433105469 4.5521750450134277344 4.7258076667785644531 4.798923492431640625 4.8774504661560058594 4.9293379783630371094 4.9780130386352539062 5.15606689453125 5.4227957725524902344 5.6030974388122558594 5.7504544258117675781 5.7194166183471679688 5.6923666000366210938 5.7709951400756835938 5.8487296104431152344 5.9232177734375 6.0450496673583984375 6.2242884635925292969 6.3966679573059082031 6.4969696998596191406 6.5352215766906738281 6.4789628982543945312 6.4408717155456542969 6.5876779556274414062 6.7288193702697753906 6.653209686279296875 6.4114236831665039062 6.4061493873596191406 6.7469239234924316406 7.0396819114685058594 7.1887254714965820312 7.303318023681640625 7.4141249656677246094 7.5214056968688964844 7.6230883598327636719 7.7152910232543945312 7.7968931198120117188 7.8592944145202636719 7.9112997055053710938 
2.6247465610504150391 2.7117693424224853516 2.7186067104339599609 2.7688579559326171875 2.7797346115112304688 2.7810580730438232422 2.8230369091033935547 2.8173840045928955078 2.8204252719879150391 2.8452575206756591797 2.9420006275177001953 2.983570098876953125 2.9658386707305908203 3.0548214912414550781 3.0569198131561279297 2.9944794178009033203 3.0523779392242431641 3.1229789257049560547 3.1635825634002685547 3.2218439579010009766 3.1707098484039306641 3.1458499431610107422 3.1937429904937744141 3.2137937545776367188 3.2049224376678466797 3.230007171630859375 3.2302858829498291016 3.3036355972290039062 3.3531019687652587891 3.3575181961059570312 3.3449602127075195312 3.3487887382507324219 3.3345091342926025391 3.3503620624542236328 3.3762681484222412109 3.3912711143493652344 3.4291024208068847656 3.4882175922393798828 3.5288453102111816406 3.5058398246765136719 3.5189089775085449219 3.5673570632934570312 3.6256422996520996094 3.6857683658599853516 3.7016878128051757812 3.7099163532257080078 3.7048585414886474609 3.7184312343597412109 3.7570033073425292969 3.7774384021759033203 3.7867505550384521484 3.7993488311767578125 3.8122234344482421875 3.8256716728210449219 3.8570299148559570312 3.8884761333465576172 3.9093205928802490234 3.9231569766998291016 3.9379363059997558594 3.9598343372344970703 3.9811871051788330078 3.9985494613647460938 4.0037908554077148438 4.0124850273132324219 4.0189042091369628906 4.0261015892028808594 4.0275921821594238281 4.018192291259765625 4.0063524246215820312 3.998485565185546875 4.0326476097106933594 4.092376708984375 4.1158571243286132812 4.0902223587036132812 4.0476055145263671875 4.1677417755126953125 4.13592529296875 3.8277976512908935547 3.6326515674591064453 3.8094482421875 4.1363520622253417969 4.1969051361083984375 4.0749955177307128906 3.9705891609191894531 3.9291918277740478516 3.9746351242065429688 4.0524835586547851562 4.1553006172180175781 4.2893576622009277344 4.4901442527770996094 4.6409244537353515625 4.692852020263671875 4.7871766090393066406 4.8805379867553710938 5.0453882217407226562 5.2473955154418945312 5.3668260574340820312 5.5173201560974121094 5.7115659713745117188 5.6592917442321777344 5.6253113746643066406 5.7336335182189941406 5.7920827865600585938 5.8840417861938476562 6.0339026451110839844 6.186168670654296875 6.3795795440673828125 6.5066561698913574219 6.4440250396728515625 6.2733621597290039062 6.4007515907287597656 6.54219818115234375 6.5122237205505371094 6.3016839027404785156 6.256427764892578125 6.6135349273681640625 6.8779044151306152344 7.031558990478515625 7.1506605148315429688 7.2499237060546875 7.3582091331481933594 7.4454979896545410156 7.5089931488037109375 7.6244797706604003906 7.7377038002014160156 7.7194399833679199219 7.6768140792846679688 
2.6139917373657226562 2.6599485874176025391 2.6651685237884521484 2.7221200466156005859 2.7143824100494384766 2.7510623931884765625 2.7840604782104492188 2.7458977699279785156 2.7672555446624755859 2.8279204368591308594 2.8740291595458984375 2.9063379764556884766 2.9427855014801025391 3.0190305709838867188 2.9482827186584472656 2.9219145774841308594 2.980052947998046875 3.0755603313446044922 3.1314094066619873047 3.1518406867980957031 3.0963683128356933594 3.111164093017578125 3.1655893325805664062 3.1823351383209228516 3.1603732109069824219 3.1878664493560791016 3.2071335315704345703 3.2738721370697021484 3.2885258197784423828 3.2933290004730224609 3.2828614711761474609 3.2768807411193847656 3.2766671180725097656 3.2954785823822021484 3.3080568313598632812 3.3472015857696533203 3.4178490638732910156 3.4772365093231201172 3.4548113346099853516 3.4651970863342285156 3.5308744907379150391 3.5733957290649414062 3.6248123645782470703 3.6458878517150878906 3.6561679840087890625 3.6615397930145263672 3.6504383087158203125 3.6914403438568115234 3.7268292903900146484 3.7302219867706298828 3.7412142753601074219 3.7543299198150634766 3.7635831832885742188 3.7945270538330078125 3.821014404296875 3.8476750850677490234 3.8684253692626953125 3.8831570148468017578 3.9031927585601806641 3.9251646995544433594 3.9418389797210693359 3.9531490802764892578 3.9625024795532226562 3.9729888439178466797 3.9772179126739501953 3.9826238155364990234 3.9862990379333496094 3.9763352870941162109 3.9572186470031738281 3.9561626911163330078 3.9956400394439697266 4.0394220352172851562 4.0129723548889160156 3.9974546432495117188 4.0427231788635253906 4.1416535377502441406 4.0603857040405273438 3.7719321250915527344 3.6037960052490234375 3.7339301109313964844 4.0514202117919921875 4.12688446044921875 4.10506439208984375 3.9540970325469970703 3.8780438899993896484 3.9507620334625244141 4.0149703025817871094 4.1169934272766113281 4.2461643218994140625 4.4479918479919433594 4.5123910903930664062 4.6134686470031738281 4.782955169677734375 4.9174313545227050781 5.0305371284484863281 5.1442394256591796875 5.1827726364135742188 5.3344445228576660156 5.5493311882019042969 5.5340633392333984375 5.5562853813171386719 5.6048479080200195312 5.6354689598083496094 5.7988362312316894531 5.95600128173828125 6.0309357643127441406 6.1239995956420898438 6.2567052841186523438 6.2098054885864257812 6.1863079071044921875 6.3862042427062988281 6.3473172187805175781 6.122119903564453125 6.0635771751403808594 6.3177995681762695312 6.6469159126281738281 6.8486657142639160156 6.986011505126953125 7.03124237060546875 7.0949835777282714844 7.1532425880432128906 7.2329797744750976562 7.2838902473449707031 7.4418792724609375 7.5426969528198242188 7.4711017608642578125 7.4306235313415527344 
2.6242079734802246094 2.6241753101348876953 2.6352541446685791016 2.677707672119140625 2.6648569107055664062 2.7310717105865478516 2.7211833000183105469 2.6902444362640380859 2.7499661445617675781 2.7900187969207763672 2.8116867542266845703 2.8312754631042480469 2.9119534492492675781 2.9406006336212158203 2.8692224025726318359 2.8815255165100097656 2.9663069248199462891 3.0578274726867675781 3.09085845947265625 3.0804362297058105469 3.0637304782867431641 3.1176548004150390625 3.1319520473480224609 3.144550323486328125 3.1352758407592773438 3.136592864990234375 3.1912014484405517578 3.2294809818267822266 3.2126359939575195312 3.2254891395568847656 3.22075653076171875 3.2082035541534423828 3.2247898578643798828 3.2446987628936767578 3.2842302322387695312 3.35678863525390625 3.4118530750274658203 3.4124407768249511719 3.4056410789489746094 3.4842319488525390625 3.5236730575561523438 3.5264947414398193359 3.5601255893707275391 3.5939273834228515625 3.6124324798583984375 3.6075026988983154297 3.6216619014739990234 3.6629462242126464844 3.6778738498687744141 3.6854643821716308594 3.7006595134735107422 3.7080278396606445312 3.7245726585388183594 3.7586672306060791016 3.7832207679748535156 3.8079905509948730469 3.8260571956634521484 3.8416604995727539062 3.8603451251983642578 3.8806369304656982422 3.9012477397918701172 3.9135611057281494141 3.9260952472686767578 3.9339029788970947266 3.9356184005737304688 3.9405305385589599609 3.9439208507537841797 3.9315826892852783203 3.9030797481536865234 3.9130299091339111328 3.9593896865844726562 3.9793350696563720703 3.8996329307556152344 3.9399292469024658203 4.0501985549926757812 4.1033539772033691406 3.9814772605895996094 3.7229542732238769531 3.5672354698181152344 3.7151439189910888672 3.9967677593231201172 3.99456787109375 4.0698976516723632812 3.9708817005157470703 3.8353304862976074219 3.9004178047180175781 3.9848048686981201172 4.0877523422241210938 4.1824574470520019531 4.2849588394165039062 4.4097738265991210938 4.5867919921875 4.7656879425048828125 4.8882355690002441406 4.9609785079956054688 5.0273075103759765625 5.0863361358642578125 5.2063846588134765625 5.3908925056457519531 5.4095158576965332031 5.4739837646484375 5.4913134574890136719 5.5533847808837890625 5.7072162628173828125 5.860408782958984375 5.9327073097229003906 5.9913854598999023438 6.025791168212890625 5.9765267372131347656 6.1118984222412109375 6.183147430419921875 6.0011987686157226562 5.9115877151489257812 6.1883034706115722656 6.4456496238708496094 6.5602712631225585938 6.7182703018188476562 6.8131861686706542969 6.8054561614990234375 6.8419818878173828125 6.9085092544555664062 7.0027031898498535156 7.072589874267578125 7.1488738059997558594 7.234142303466796875 7.2671079635620117188 7.3282184600830078125 
2.6175138950347900391 2.5791904926300048828 2.5959625244140625 2.5992939472198486328 2.6438770294189453125 2.6795358657836914062 2.6407992839813232422 2.6844267845153808594 2.7354390621185302734 2.7582135200500488281 2.7678308486938476562 2.8236722946166992188 2.8773076534271240234 2.846019744873046875 2.8297436237335205078 2.8860008716583251953 2.9761025905609130859 3.016357421875 3.0423247814178466797 3.0244488716125488281 3.0455543994903564453 3.0855355262756347656 3.0907151699066162109 3.0930433273315429688 3.0856750011444091797 3.0932643413543701172 3.1606304645538330078 3.1644339561462402344 3.1535649299621582031 3.1536626815795898438 3.1432745456695556641 3.1451065540313720703 3.1777744293212890625 3.2231109142303466797 3.2971990108489990234 3.3387532234191894531 3.3671796321868896484 3.3506307601928710938 3.3845946788787841797 3.4796965122222900391 3.482891082763671875 3.4828734397888183594 3.5100691318511962891 3.5387301445007324219 3.5451416969299316406 3.5594801902770996094 3.5827744007110595703 3.6034531593322753906 3.632099151611328125 3.65924072265625 3.6560022830963134766 3.6609559059143066406 3.6903679370880126953 3.7160768508911132812 3.7412810325622558594 3.7697825431823730469 3.7849750518798828125 3.7981460094451904297 3.8178839683532714844 3.8389406204223632812 3.8605296611785888672 3.8724775314331054688 3.8858730792999267578 3.8919456005096435547 3.891300201416015625 3.8903834819793701172 3.8934586048126220703 3.8928635120391845703 3.8557882308959960938 3.8577306270599365234 3.9175741672515869141 3.8890223503112792969 3.8408064842224121094 3.9538533687591552734 4.0309548377990722656 4.0579571723937988281 3.9325129985809326172 3.6857972145080566406 3.5356585979461669922 3.6772511005401611328 3.9225428104400634766 3.9228832721710205078 4.0274052619934082031 3.9049947261810302734 3.7876584529876708984 3.8597836494445800781 3.9747831821441650391 4.0859513282775878906 4.161167144775390625 4.3091006278991699219 4.4677615165710449219 4.5888223648071289062 4.7293386459350585938 4.8176684379577636719 4.8545465469360351562 5.0060009956359863281 5.1017484664916992188 5.2132983207702636719 5.3192782402038574219 5.39727020263671875 5.4491000175476074219 5.4470105171203613281 5.5992684364318847656 5.7600102424621582031 5.8479847908020019531 5.8839464187622070312 5.9299497604370117188 5.8814878463745117188 5.7992854118347167969 5.8865780830383300781 5.8125205039978027344 5.783176422119140625 6.0573000907897949219 6.3589320182800292969 6.4399614334106445312 6.4855074882507324219 6.5651769638061523438 6.6358346939086914062 6.6823916435241699219 6.7507171630859375 6.8327360153198242188 6.9172649383544921875 6.9625225067138671875 7.0064601898193359375 7.08232879638671875 7.1791987419128417969 7.2568616867065429688 
2.5297853946685791016 2.5050358772277832031 2.5319402217864990234 2.5797905921936035156 2.6490178108215332031 2.6035959720611572266 2.6059389114379882812 2.6864798069000244141 2.6873600482940673828 2.6804111003875732422 2.7127501964569091797 2.7960348129272460938 2.8012344837188720703 2.7790653705596923828 2.8273589611053466797 2.8879270553588867188 2.9556498527526855469 2.9806494712829589844 3.0142564773559570312 2.9975533485412597656 3.0172300338745117188 3.0298786163330078125 3.0478160381317138672 3.0213272571563720703 3.0179069042205810547 3.0560634136199951172 3.0961861610412597656 3.0950436592102050781 3.0941722393035888672 3.0797581672668457031 3.1156721115112304688 3.1656043529510498047 3.2017693519592285156 3.2504146099090576172 3.2816271781921386719 3.306934356689453125 3.3257193565368652344 3.2998044490814208984 3.3502943515777587891 3.4293134212493896484 3.4428434371948242188 3.4437413215637207031 3.4537427425384521484 3.4843049049377441406 3.5068557262420654297 3.5216464996337890625 3.530841827392578125 3.563625335693359375 3.6033539772033691406 3.6139719486236572266 3.6074023246765136719 3.6277017593383789062 3.6532735824584960938 3.6787137985229492188 3.6997327804565429688 3.7264676094055175781 3.7404596805572509766 3.7605884075164794922 3.777378082275390625 3.8006422519683837891 3.8188169002532958984 3.8318195343017578125 3.8434071540832519531 3.8478899002075195312 3.8458268642425537109 3.8451273441314697266 3.8472895622253417969 3.8457992076873779297 3.8163471221923828125 3.8190732002258300781 3.8490099906921386719 3.7919893264770507812 3.819820404052734375 3.9291238784790039062 3.9903850555419921875 4.0103883743286132812 3.9095289707183837891 3.6632914543151855469 3.5119576454162597656 3.6082587242126464844 3.8248770236968994141 3.8639388084411621094 3.9662721157073974609 3.842525482177734375 3.7768344879150390625 3.8825931549072265625 4.0929331779479980469 4.2352852821350097656 4.2972698211669921875 4.3712773323059082031 4.4406275749206542969 4.4774065017700195312 4.58313751220703125 4.6818561553955078125 4.8671336174011230469 5.0424361228942871094 5.0923218727111816406 5.2604908943176269531 5.3250946998596191406 5.3316745758056640625 5.3789396286010742188 5.4229416847229003906 5.6123929023742675781 5.7371768951416015625 5.738948822021484375 5.7504291534423828125 5.6881837844848632812 5.5741925239562988281 5.5481734275817871094 5.615863800048828125 5.7418894767761230469 6.0046906471252441406 6.2285318374633789062 6.3294110298156738281 6.3715529441833496094 6.433917999267578125 6.5072989463806152344 6.5639743804931640625 6.6381850242614746094 6.7153635025024414062 6.7829279899597167969 6.84180450439453125 6.8672924041748046875 6.9215006828308105469 7.0197439193725585938 7.1057486534118652344 7.1667523384094238281 
2.4339928627014160156 2.4643731117248535156 2.5387070178985595703 2.6218774318695068359 2.618587493896484375 2.5519168376922607422 2.5948965549468994141 2.6187746524810791016 2.6133952140808105469 2.6572775840759277344 2.7047941684722900391 2.7592380046844482422 2.7427723407745361328 2.7666454315185546875 2.8209588527679443359 2.8733208179473876953 2.9305036067962646484 2.9558484554290771484 2.9715907573699951172 2.9573514461517333984 2.9832937717437744141 2.9935817718505859375 3.0156929492950439453 2.9799649715423583984 2.9713070392608642578 3.0333065986633300781 3.0305440425872802734 3.0308754444122314453 3.0291752815246582031 3.0438530445098876953 3.1032483577728271484 3.1512467861175537109 3.1990971565246582031 3.2274870872497558594 3.2514028549194335938 3.2701113224029541016 3.2722232341766357422 3.2462682723999023438 3.2853150367736816406 3.3459734916687011719 3.3734455108642578125 3.3883917331695556641 3.4324462413787841797 3.4765007495880126953 3.4806306362152099609 3.4726722240447998047 3.4962728023529052734 3.5327253341674804688 3.5486350059509277344 3.5512554645538330078 3.5667293071746826172 3.5953226089477539062 3.6201398372650146484 3.6440846920013427734 3.6623988151550292969 3.6841497421264648438 3.7028431892395019531 3.7277684211730957031 3.7484860420227050781 3.7715945243835449219 3.7829244136810302734 3.794677734375 3.8011734485626220703 3.8083195686340332031 3.8054125308990478516 3.8051173686981201172 3.8088281154632568359 3.8033809661865234375 3.7878179550170898438 3.7970585823059082031 3.8001360893249511719 3.7369136810302734375 3.7912759780883789062 3.8827791213989257812 3.9446177482604980469 3.9619615077972412109 3.8879852294921875 3.6458775997161865234 3.4775354862213134766 3.5626709461212158203 3.7533907890319824219 3.7914469242095947266 3.8463754653930664062 3.7894213199615478516 3.8428432941436767578 3.9539048671722412109 4.137725830078125 4.2456469535827636719 4.2507805824279785156 4.2772488594055175781 4.3422784805297851562 4.458797454833984375 4.5766887664794921875 4.675945281982421875 4.8159017562866210938 4.8655428886413574219 4.8951630592346191406 5.1218657493591308594 5.2201333045959472656 5.1639928817749023438 5.2426767349243164062 5.3906402587890625 5.5746407508850097656 5.6210031509399414062 5.50304412841796875 5.4628887176513671875 5.3697733879089355469 5.3841657638549804688 5.5657596588134765625 5.7722420692443847656 5.9663081169128417969 6.1345963478088378906 6.2105650901794433594 6.2543964385986328125 6.3087973594665527344 6.3761048316955566406 6.4464120864868164062 6.5169801712036132812 6.6033034324645996094 6.6824307441711425781 6.7344951629638671875 6.7679867744445800781 6.7860822677612304688 6.8676505088806152344 6.9444179534912109375 7.0156040191650390625 7.08504486083984375 
2.493213653564453125 2.5496754646301269531 2.5937449932098388672 2.5933368206024169922 2.5525534152984619141 2.5162014961242675781 2.5633573532104492188 2.5557417869567871094 2.6170983314514160156 2.6745510101318359375 2.6869421005249023438 2.7293426990509033203 2.7137734889984130859 2.7608478069305419922 2.7939114570617675781 2.8490736484527587891 2.8971400260925292969 2.9052202701568603516 2.9052078723907470703 2.9207468032836914062 2.9481434822082519531 2.9621770381927490234 2.98467254638671875 2.9534199237823486328 2.9440963268280029297 2.9800567626953125 2.9750893115997314453 2.9595777988433837891 2.9783577919006347656 3.0395283699035644531 3.0837550163269042969 3.1520843505859375 3.1771743297576904297 3.1988298892974853516 3.2409541606903076172 3.2556760311126708984 3.239459991455078125 3.1927797794342041016 3.2539720535278320312 3.3106184005737304688 3.3283827304840087891 3.3654065132141113281 3.4187242984771728516 3.4413352012634277344 3.4194400310516357422 3.4271762371063232422 3.4626293182373046875 3.4882099628448486328 3.4850859642028808594 3.5016131401062011719 3.5375936031341552734 3.5580763816833496094 3.5811748504638671875 3.6058940887451171875 3.6290099620819091797 3.6512558460235595703 3.6715552806854248047 3.6988074779510498047 3.7155482769012451172 3.7336764335632324219 3.7484459877014160156 3.7551097869873046875 3.7584474086761474609 3.7701065540313720703 3.7667009830474853516 3.7654993534088134766 3.7681815624237060547 3.7634913921356201172 3.7525608539581298828 3.7700135707855224609 3.7744371891021728516 3.7009820938110351562 3.7452828884124755859 3.8411908149719238281 3.9007415771484375 3.9105925559997558594 3.8615806102752685547 3.6391634941101074219 3.4560368061065673828 3.5227715969085693359 3.6911489963531494141 3.7034997940063476562 3.7224280834197998047 3.8004488945007324219 3.8997747898101806641 3.9673733711242675781 4.0422549247741699219 4.0917024612426757812 4.12577056884765625 4.2290067672729492188 4.3390150070190429688 4.4607386589050292969 4.5279326438903808594 4.5784201622009277344 4.6307644844055175781 4.6999716758728027344 4.8504080772399902344 5.0390949249267578125 5.0934619903564453125 5.1061849594116210938 5.2193570137023925781 5.3507723808288574219 5.3550744056701660156 5.3767609596252441406 5.2454791069030761719 5.2055735588073730469 5.3177614212036132812 5.5474615097045898438 5.7438383102416992188 5.8638505935668945312 5.9650826454162597656 6.0636048316955566406 6.1275143623352050781 6.1878976821899414062 6.2538075447082519531 6.3214221000671386719 6.39410400390625 6.4747300148010253906 6.5720119476318359375 6.6368880271911621094 6.6685705184936523438 6.6792459487915039062 6.7137513160705566406 6.7845163345336914062 6.8480868339538574219 6.9333090782165527344 6.9981298446655273438 
2.5126175880432128906 2.5432677268981933594 2.5566959381103515625 2.5268948078155517578 2.4939332008361816406 2.4748992919921875 2.4961230754852294922 2.5376498699188232422 2.6470551490783691406 2.6296300888061523438 2.6477358341217041016 2.6753797531127929688 2.7051129341125488281 2.7407984733581542969 2.7839524745941162109 2.8353703022003173828 2.8577089309692382812 2.852855682373046875 2.88695526123046875 2.9111244678497314453 2.9075169563293457031 2.9172372817993164062 2.9508845806121826172 2.894092559814453125 2.8937282562255859375 2.9324562549591064453 2.9477591514587402344 2.9172673225402832031 2.9750189781188964844 3.0260775089263916016 3.0706393718719482422 3.1220560073852539062 3.1469359397888183594 3.1885344982147216797 3.2254452705383300781 3.2223901748657226562 3.1619815826416015625 3.1790890693664550781 3.2464892864227294922 3.2848379611968994141 3.3111269474029541016 3.3516089916229248047 3.3985767364501953125 3.3991506099700927734 3.3734278678894042969 3.3921387195587158203 3.4295506477355957031 3.4362647533416748047 3.4394857883453369141 3.4703543186187744141 3.5006728172302246094 3.5235764980316162109 3.5440027713775634766 3.5687170028686523438 3.5969235897064208984 3.6200997829437255859 3.6474511623382568359 3.6774871349334716797 3.6811349391937255859 3.6901493072509765625 3.7066278457641601562 3.7189147472381591797 3.7301027774810791016 3.7327222824096679688 3.7234990596771240234 3.7228989601135253906 3.7224066257476806641 3.7224946022033691406 3.7123901844024658203 3.7156298160552978516 3.7346408367156982422 3.6696565151214599609 3.7159349918365478516 3.8188219070434570312 3.8552067279815673828 3.8569760322570800781 3.82212066650390625 3.6326553821563720703 3.4346437454223632812 3.4669790267944335938 3.6133503913879394531 3.6315817832946777344 3.7118990421295166016 3.8230223655700683594 3.8451173305511474609 3.8765897750854492188 3.9838278293609619141 4.0595269203186035156 4.1303324699401855469 4.2179417610168457031 4.3133912086486816406 4.3948788642883300781 4.4262061119079589844 4.4273848533630371094 4.4793314933776855469 4.6594533920288085938 4.8575792312622070312 4.9556002616882324219 4.9699025154113769531 5.0616745948791503906 5.2100062370300292969 5.2516775131225585938 5.1376748085021972656 5.1020536422729492188 5.0707807540893554688 5.2052559852600097656 5.3921647071838378906 5.617961883544921875 5.7477507591247558594 5.8027815818786621094 5.8865156173706054688 5.9802751541137695312 6.0710663795471191406 6.1521959304809570312 6.2219028472900390625 6.2886223793029785156 6.3568072319030761719 6.4366602897644042969 6.5116963386535644531 6.5455923080444335938 6.5726776123046875 6.59116363525390625 6.6360960006713867188 6.6895265579223632812 6.7551422119140625 6.847137451171875 6.9128437042236328125 
2.4780561923980712891 2.4994630813598632812 2.4918260574340820312 2.4616205692291259766 2.4468901157379150391 2.4293506145477294922 2.4713459014892578125 2.5741777420043945312 2.6028425693511962891 2.5826611518859863281 2.5873210430145263672 2.6168885231018066406 2.6998555660247802734 2.7376465797424316406 2.7870841026306152344 2.8099639415740966797 2.8112900257110595703 2.8452401161193847656 2.8969240188598632812 2.8847200870513916016 2.8841724395751953125 2.9094119071960449219 2.9285986423492431641 2.8406794071197509766 2.8519642353057861328 2.9103674888610839844 2.9096291065216064453 2.9042785167694091797 2.9652433395385742188 3.0143268108367919922 3.0670769214630126953 3.0950298309326171875 3.1168172359466552734 3.1160349845886230469 3.1111025810241699219 3.1020691394805908203 3.1215536594390869141 3.1775522232055664062 3.2182815074920654297 3.2519214153289794922 3.2776517868041992188 3.3192009925842285156 3.3556258678436279297 3.3403191566467285156 3.3318898677825927734 3.3592548370361328125 3.3791310787200927734 3.3828957080841064453 3.4085192680358886719 3.4366590976715087891 3.4602169990539550781 3.4862699508666992188 3.5102937221527099609 3.5383019447326660156 3.5704185962677001953 3.6061880588531494141 3.643863677978515625 3.6541237831115722656 3.6484706401824951172 3.6544766426086425781 3.6676952838897705078 3.6849019527435302734 3.691715240478515625 3.6889264583587646484 3.6825399398803710938 3.6851592063903808594 3.6822712421417236328 3.6801743507385253906 3.6738657951354980469 3.6561002731323242188 3.6677379608154296875 3.6584584712982177734 3.7365093231201171875 3.7935326099395751953 3.8085694313049316406 3.8008821010589599609 3.7683207988739013672 3.6341645717620849609 3.4211966991424560547 3.4249410629272460938 3.5510547161102294922 3.6631321907043457031 3.7467796802520751953 3.7364654541015625 3.7626414299011230469 3.8780100345611572266 3.9705476760864257812 4.0304551124572753906 4.1041955947875976562 4.1943221092224121094 4.2734055519104003906 4.318134307861328125 4.3386383056640625 4.3390364646911621094 4.356113433837890625 4.49517822265625 4.6800189018249511719 4.7987413406372070312 4.9150857925415039062 5.0176653861999511719 5.0912218093872070312 5.0132904052734375 4.9712777137756347656 4.9811496734619140625 5.1479678153991699219 5.3763794898986816406 5.495616912841796875 5.6041054725646972656 5.6770796775817871094 5.7486853599548339844 5.8643198013305664062 5.9776444435119628906 6.0645818710327148438 6.1123557090759277344 6.1799840927124023438 6.2577891349792480469 6.3225336074829101562 6.3943915367126464844 6.4260997772216796875 6.4417219161987304688 6.4649987220764160156 6.5002770423889160156 6.5522184371948242188 6.6155538558959960938 6.7067332267761230469 6.7873921394348144531 6.8207621574401855469 
2.4590828418731689453 2.4596767425537109375 2.4621918201446533203 2.4145059585571289062 2.3981733322143554688 2.3953466415405273438 2.480228424072265625 2.5599493980407714844 2.5361115932464599609 2.586414337158203125 2.5605459213256835938 2.5731894969940185547 2.6916170120239257812 2.7451028823852539062 2.7795462608337402344 2.7617056369781494141 2.7878651618957519531 2.8489167690277099609 2.8699643611907958984 2.8484256267547607422 2.8596942424774169922 2.8972983360290527344 2.8713142871856689453 2.8037357330322265625 2.8554952144622802734 2.8796696662902832031 2.8862984180450439453 2.9562728404998779297 3.0022220611572265625 3.0280289649963378906 3.0536398887634277344 3.0817370414733886719 3.0610346794128417969 3.0326900482177734375 3.0230803489685058594 3.0780377388000488281 3.1269996166229248047 3.1556780338287353516 3.1884288787841796875 3.2232127189636230469 3.2606534957885742188 3.2951183319091796875 3.3075644969940185547 3.2889566421508789062 3.2960813045501708984 3.3184199333190917969 3.3320767879486083984 3.3500041961669921875 3.379627227783203125 3.4019029140472412109 3.4227938652038574219 3.4545426368713378906 3.4959826469421386719 3.5362036228179931641 3.5747971534729003906 3.5935218334197998047 3.6124250888824462891 3.6108653545379638672 3.6080927848815917969 3.619029998779296875 3.6319158077239990234 3.6437730789184570312 3.6427524089813232422 3.644866943359375 3.6371130943298339844 3.6406025886535644531 3.6441800594329833984 3.6443946361541748047 3.6442804336547851562 3.6173083782196044922 3.6122241020202636719 3.6484394073486328125 3.7236523628234863281 3.7536594867706298828 3.7588832378387451172 3.7399799823760986328 3.7155117988586425781 3.6571161746978759766 3.4531476497650146484 3.3825666904449462891 3.4999279975891113281 3.6219167709350585938 3.6502099037170410156 3.6781675815582275391 3.7969079017639160156 3.8721761703491210938 3.9255955219268798828 4.0098257064819335938 4.080410003662109375 4.1499009132385253906 4.191516876220703125 4.23125457763671875 4.2422628402709960938 4.2591910362243652344 4.3034386634826660156 4.4202728271484375 4.6056585311889648438 4.7469496726989746094 4.8068280220031738281 4.8677654266357421875 4.8442335128784179688 4.8132233619689941406 4.8896317481994628906 5.1043186187744140625 5.3600993156433105469 5.4811072349548339844 5.4991216659545898438 5.5187039375305175781 5.6166009902954101562 5.7897386550903320312 5.914493560791015625 5.9800090789794921875 6.0127582550048828125 6.0639061927795410156 6.1483273506164550781 6.2121133804321289062 6.2752356529235839844 6.3263773918151855469 6.3269748687744140625 6.3344464302062988281 6.3648276329040527344 6.4158182144165039062 6.4837436676025390625 6.5787525177001953125 6.6586241722106933594 6.7148547172546386719 6.7186322212219238281 
2.4148600101470947266 2.42484283447265625 2.4238896369934082031 2.3624176979064941406 2.339771270751953125 2.3940157890319824219 2.4894979000091552734 2.5031650066375732422 2.5265758037567138672 2.5642955303192138672 2.5128312110900878906 2.5453710556030273438 2.6718688011169433594 2.7329678535461425781 2.7524523735046386719 2.7342524528503417969 2.7917451858520507812 2.8124024868011474609 2.8218529224395751953 2.8153119087219238281 2.8255534172058105469 2.8430726528167724609 2.7919473648071289062 2.7441523075103759766 2.7774229049682617188 2.8144819736480712891 2.8992934226989746094 2.9619925022125244141 2.9848999977111816406 2.9982829093933105469 3.0057630538940429688 3.027515411376953125 3.0071732997894287109 2.9871022701263427734 3.0156290531158447266 3.0758955478668212891 3.1095066070556640625 3.1351339817047119141 3.1727378368377685547 3.2120220661163330078 3.2513325214385986328 3.2664182186126708984 3.2582061290740966797 3.2419199943542480469 3.2569415569305419922 3.2773025035858154297 3.2957046031951904297 3.3202056884765625 3.3416664600372314453 3.3654153347015380859 3.3906257152557373047 3.4326310157775878906 3.4662241935729980469 3.4914610385894775391 3.5277264118194580078 3.5324378013610839844 3.5576846599578857422 3.5660135746002197266 3.5719592571258544922 3.5835442543029785156 3.5932419300079345703 3.5967702865600585938 3.6082234382629394531 3.6129322052001953125 3.6021270751953125 3.6070041656494140625 3.6121549606323242188 3.6067881584167480469 3.6044752597808837891 3.5876667499542236328 3.5819759368896484375 3.6392199993133544922 3.6886878013610839844 3.7102956771850585938 3.7093663215637207031 3.6903929710388183594 3.6694004535675048828 3.6540610790252685547 3.4970715045928955078 3.3606500625610351562 3.4578764438629150391 3.5319919586181640625 3.6097893714904785156 3.7202985286712646484 3.7822101116180419922 3.8187756538391113281 3.88234710693359375 3.9574434757232666016 4.0143952369689941406 4.0420651435852050781 4.0787286758422851562 4.1434106826782226562 4.1715779304504394531 4.2446804046630859375 4.3251118659973144531 4.4069437980651855469 4.491973876953125 4.6129250526428222656 4.6591696739196777344 4.6868424415588378906 4.7070212364196777344 4.8434953689575195312 5.0596165657043457031 5.2388215065002441406 5.35814666748046875 5.4032950401306152344 5.417499542236328125 5.48101806640625 5.6118831634521484375 5.797061920166015625 5.8967881202697753906 5.9244923591613769531 5.9558858871459960938 6.0263738632202148438 6.0910854339599609375 6.1573896408081054688 6.2189760208129882812 6.2334637641906738281 6.2219319343566894531 6.2436361312866210938 6.2876029014587402344 6.3404345512390136719 6.4318799972534179688 6.5278153419494628906 6.6011691093444824219 6.6249203681945800781 6.6480045318603515625 
2.3707025051116943359 2.389850616455078125 2.3721115589141845703 2.3127603530883789062 2.3375437259674072266 2.4005539417266845703 2.4346108436584472656 2.4578659534454345703 2.5112614631652832031 2.4904084205627441406 2.4485464096069335938 2.5315194129943847656 2.6505937576293945312 2.7175669670104980469 2.7231709957122802734 2.7013647556304931641 2.7399532794952392578 2.7612798213958740234 2.7870378494262695312 2.7767133712768554688 2.7666354179382324219 2.7523558139801025391 2.7230041027069091797 2.7339410781860351562 2.7848200798034667969 2.8607552051544189453 2.920032501220703125 2.9497041702270507812 2.9746081829071044922 2.9789252281188964844 2.9593091011047363281 2.9591896533966064453 2.9710533618927001953 3.0057957172393798828 3.0496630668640136719 3.0883142948150634766 3.1330707073211669922 3.1611340045928955078 3.1813268661499023438 3.2138051986694335938 3.2362518310546875 3.2283446788787841797 3.2045719623565673828 3.1927862167358398438 3.2143626213073730469 3.2413361072540283203 3.2606923580169677734 3.2848567962646484375 3.303009033203125 3.3305060863494873047 3.3707456588745117188 3.4073615074157714844 3.4203679561614990234 3.4537727832794189453 3.4756519794464111328 3.4776284694671630859 3.5118596553802490234 3.5246336460113525391 3.5350434780120849609 3.5507533550262451172 3.5608451366424560547 3.5748598575592041016 3.598514556884765625 3.5849807262420654297 3.5659670829772949219 3.5661015510559082031 3.5653054714202880859 3.5679812431335449219 3.5670144557952880859 3.5608239173889160156 3.5641412734985351562 3.6252393722534179688 3.6521964073181152344 3.6683380603790283203 3.6649415493011474609 3.6451179981231689453 3.6212399005889892578 3.6089191436767578125 3.5273561477661132812 3.3701806068420410156 3.4095225334167480469 3.5087969303131103516 3.6174578666687011719 3.6798050403594970703 3.71382904052734375 3.7541089057922363281 3.7974979877471923828 3.8810689449310302734 3.9429240226745605469 4.0018634796142578125 4.0749807357788085938 4.1438012123107910156 4.1992745399475097656 4.26815032958984375 4.3338150978088378906 4.3928360939025878906 4.4404993057250976562 4.4972109794616699219 4.5423302650451660156 4.5986065864562988281 4.7221746444702148438 4.9310917854309082031 5.1298832893371582031 5.2100954055786132812 5.2722730636596679688 5.2966861724853515625 5.3693699836730957031 5.5332875251770019531 5.6755504608154296875 5.7901015281677246094 5.8434491157531738281 5.8662862777709960938 5.9243001937866210938 6.0027518272399902344 6.0260372161865234375 6.0885367393493652344 6.1268248558044433594 6.1181101799011230469 6.1280603408813476562 6.1734862327575683594 6.2204422950744628906 6.2923254966735839844 6.3847789764404296875 6.4846010208129882812 6.5310902595520019531 6.5350131988525390625 6.5715031623840332031 
2.3292171955108642578 2.3444902896881103516 2.3164632320404052734 2.2674250602722167969 2.3146727085113525391 2.3515446186065673828 2.3867125511169433594 2.4431984424591064453 2.4484233856201171875 2.4020106792449951172 2.4379620552062988281 2.5545237064361572266 2.6431009769439697266 2.6936309337615966797 2.6935343742370605469 2.6575953960418701172 2.6999936103820800781 2.7326741218566894531 2.7678923606872558594 2.7496697902679443359 2.6899292469024658203 2.7151660919189453125 2.7822308540344238281 2.8221216201782226562 2.8557715415954589844 2.9158785343170166016 2.9544343948364257812 2.9819917678833007812 3.0032341480255126953 2.9922745227813720703 2.9468677043914794922 2.9740557670593261719 3.0079379081726074219 3.0456323623657226562 3.0805277824401855469 3.1115520000457763672 3.1512806415557861328 3.1959228515625 3.2124552726745605469 3.2047214508056640625 3.1980249881744384766 3.1818766593933105469 3.1535937786102294922 3.1573631763458251953 3.1810617446899414062 3.1928012371063232422 3.2142734527587890625 3.2503769397735595703 3.2766785621643066406 3.3122131824493408203 3.3643217086791992188 3.3839366436004638672 3.3780086040496826172 3.4142224788665771484 3.4233853816986083984 3.4343738555908203125 3.4776434898376464844 3.4891116619110107422 3.4992311000823974609 3.5154886245727539062 3.5321326255798339844 3.551158905029296875 3.5517351627349853516 3.5415427684783935547 3.5306546688079833984 3.5305769443511962891 3.5338366031646728516 3.5391092300415039062 3.5356197357177734375 3.5248458385467529297 3.5425372123718261719 3.5945591926574707031 3.6080954074859619141 3.6236569881439208984 3.6223523616790771484 3.6034066677093505859 3.5727064609527587891 3.5715863704681396484 3.5256206989288330078 3.3554904460906982422 3.3786866664886474609 3.4839408397674560547 3.5679109096527099609 3.6118047237396240234 3.6428263187408447266 3.6810081005096435547 3.7647836208343505859 3.868770599365234375 3.9622740745544433594 4.053890228271484375 4.1249871253967285156 4.1824545860290527344 4.230960845947265625 4.2839064598083496094 4.3271160125732421875 4.3560132980346679688 4.3902153968811035156 4.4467940330505371094 4.5191063880920410156 4.6115803718566894531 4.752384185791015625 4.9434428215026855469 5.1051049232482910156 5.1487565040588378906 5.1642813682556152344 5.2351460456848144531 5.3136844635009765625 5.4893574714660644531 5.6486887931823730469 5.7548165321350097656 5.7928013801574707031 5.8356375694274902344 5.91075897216796875 5.9550309181213378906 5.9563808441162109375 6.0088419914245605469 6.0158295631408691406 6.0156202316284179688 6.0655989646911621094 6.1068973541259765625 6.1720786094665527344 6.2601976394653320312 6.35355377197265625 6.4275388717651367188 6.4382886886596679688 6.4594912528991699219 6.496337890625 
2.2740449905395507812 2.2955322265625 2.2636919021606445312 2.2279725074768066406 2.2670733928680419922 2.3142898082733154297 2.3786461353302001953 2.3940808773040771484 2.3487935066223144531 2.3755860328674316406 2.4826307296752929688 2.5699510574340820312 2.6228568553924560547 2.657497406005859375 2.6535143852233886719 2.6349139213562011719 2.6817724704742431641 2.6940579414367675781 2.6886761188507080078 2.6509931087493896484 2.6381523609161376953 2.7338669300079345703 2.7920503616333007812 2.8041326999664306641 2.8336424827575683594 2.8553206920623779297 2.9088768959045410156 2.9712619781494140625 2.9890549182891845703 2.9186410903930664062 2.9206929206848144531 2.9855289459228515625 3.0214982032775878906 3.0485668182373046875 3.0824427604675292969 3.1205239295959472656 3.1567392349243164062 3.1995568275451660156 3.2041075229644775391 3.1636931896209716797 3.1565520763397216797 3.1419899463653564453 3.1260137557983398438 3.1329264640808105469 3.1447749137878417969 3.1477119922637939453 3.1823740005493164062 3.2215714454650878906 3.2345502376556396484 3.2706813812255859375 3.323513031005859375 3.3247864246368408203 3.3324410915374755859 3.3698542118072509766 3.3763322830200195312 3.4089410305023193359 3.4388930797576904297 3.4488179683685302734 3.4627170562744140625 3.4821338653564453125 3.4962816238403320312 3.5018618106842041016 3.4943201541900634766 3.5027108192443847656 3.5003287792205810547 3.4967813491821289062 3.5005309581756591797 3.5012805461883544922 3.4956762790679931641 3.4827539920806884766 3.5111815929412841797 3.5518507957458496094 3.5616438388824462891 3.5797345638275146484 3.5806548595428466797 3.5505585670471191406 3.52280426025390625 3.5481464862823486328 3.5446455478668212891 3.3755185604095458984 3.317790985107421875 3.4284508228302001953 3.4923462867736816406 3.5368955135345458984 3.6347825527191162109 3.7527642250061035156 3.8617339134216308594 3.9300518035888671875 3.9952936172485351562 4.0563988685607910156 4.1162762641906738281 4.1681752204895019531 4.2128887176513671875 4.2510881423950195312 4.2617173194885253906 4.30123138427734375 4.3609719276428222656 4.4175205230712890625 4.4796643257141113281 4.5978031158447265625 4.7423572540283203125 4.9055461883544921875 5.0097646713256835938 5.0161418914794921875 5.0862293243408203125 5.1844429969787597656 5.2450885772705078125 5.3539566993713378906 5.5650134086608886719 5.713481903076171875 5.7617869377136230469 5.8038802146911621094 5.8598461151123046875 5.87786865234375 5.8778614997863769531 5.9136309623718261719 5.901515960693359375 5.9337658882141113281 5.9915523529052734375 6.0446729660034179688 6.1104168891906738281 6.2114491462707519531 6.2993798255920410156 6.3334403038024902344 6.36100006103515625 6.4098224639892578125 6.4224219322204589844 
2.2137281894683837891 2.2408897876739501953 2.2018430233001708984 2.1995263099670410156 2.2559819221496582031 2.3148672580718994141 2.3459179401397705078 2.2902395725250244141 2.3210966587066650391 2.4429812431335449219 2.5279834270477294922 2.5602245330810546875 2.5930619239807128906 2.6190307140350341797 2.6139891147613525391 2.6007492542266845703 2.6322104930877685547 2.6104042530059814453 2.5720705986022949219 2.5592501163482666016 2.6102635860443115234 2.7112457752227783203 2.7393605709075927734 2.7462918758392333984 2.7604975700378417969 2.7601408958435058594 2.8105154037475585938 2.8703513145446777344 2.836780548095703125 2.8048231601715087891 2.9144296646118164062 3.0148065090179443359 3.0849328041076660156 3.0924618244171142578 3.1048340797424316406 3.1350672245025634766 3.1576809883117675781 3.1766366958618164062 3.1584367752075195312 3.1265399456024169922 3.1040029525756835938 3.0780730247497558594 3.0852606296539306641 3.0892059803009033203 3.1093394756317138672 3.1380708217620849609 3.1794772148132324219 3.1802532672882080078 3.1699702739715576172 3.2190086841583251953 3.2605528831481933594 3.2583868503570556641 3.2812981605529785156 3.3209917545318603516 3.3524265289306640625 3.3665101528167724609 3.4008331298828125 3.4146897792816162109 3.4291450977325439453 3.4543542861938476562 3.4605145454406738281 3.4494760036468505859 3.4428145885467529297 3.4605648517608642578 3.4573905467987060547 3.4570288658142089844 3.4628112316131591797 3.4625928401947021484 3.4504842758178710938 3.4469244480133056641 3.4824125766754150391 3.5094084739685058594 3.5202550888061523438 3.5328910350799560547 3.5377492904663085938 3.4996795654296875 3.4769177436828613281 3.5109305381774902344 3.5119976997375488281 3.3587777614593505859 3.2729477882385253906 3.3775389194488525391 3.4428458213806152344 3.5602474212646484375 3.7081508636474609375 3.8087289333343505859 3.8590128421783447266 3.9102885723114013672 3.9724061489105224609 4.0301489830017089844 4.0874142646789550781 4.131587982177734375 4.1532964706420898438 4.1730394363403320312 4.2139010429382324219 4.2687554359436035156 4.3123002052307128906 4.3544898033142089844 4.4514865875244140625 4.5835833549499511719 4.6962199211120605469 4.7773423194885253906 4.8481273651123046875 4.9426217079162597656 5.0583634376525878906 5.2077760696411132812 5.3694629669189453125 5.4416413307189941406 5.5585293769836425781 5.6867647171020507812 5.7505159378051757812 5.7525415420532226562 5.7773828506469726562 5.7833986282348632812 5.8008060455322265625 5.8095483779907226562 5.8057436943054199219 5.8711333274841308594 5.93048095703125 5.9885249137878417969 6.0727186203002929688 6.1757640838623046875 6.2201638221740722656 6.2460484504699707031 6.3095574378967285156 6.3406796455383300781 6.3633923530578613281 
2.1711804866790771484 2.1682031154632568359 2.1357438564300537109 2.19519805908203125 2.2524635791778564453 2.2823047637939453125 2.2639303207397460938 2.2319166660308837891 2.3423416614532470703 2.4487509727478027344 2.5032126903533935547 2.5342130661010742188 2.564899444580078125 2.5766062736511230469 2.5629518032073974609 2.5420734882354736328 2.54026031494140625 2.5551187992095947266 2.4881606101989746094 2.5308377742767333984 2.6190810203552246094 2.6683878898620605469 2.6786682605743408203 2.6792294979095458984 2.6898138523101806641 2.7151710987091064453 2.7753837108612060547 2.7838056087493896484 2.7155942916870117188 2.7428312301635742188 2.8300662040710449219 2.95581817626953125 3.0862135887145996094 3.1134619712829589844 3.1085233688354492188 3.1364033222198486328 3.1510937213897705078 3.1397109031677246094 3.1171889305114746094 3.1040053367614746094 3.056972503662109375 3.0075538158416748047 3.0248959064483642578 3.0578339099884033203 3.1019587516784667969 3.1435079574584960938 3.1454167366027832031 3.1290073394775390625 3.149974822998046875 3.1874129772186279297 3.2048935890197753906 3.2212712764739990234 3.2646515369415283203 3.3019869327545166016 3.3097646236419677734 3.3346309661865234375 3.3727271556854248047 3.3835222721099853516 3.3961493968963623047 3.4155509471893310547 3.4227550029754638672 3.408283233642578125 3.3977341651916503906 3.4232132434844970703 3.4202611446380615234 3.4219675064086914062 3.4272401332855224609 3.4287369251251220703 3.4283440113067626953 3.4157707691192626953 3.4410088062286376953 3.4676079750061035156 3.4809296131134033203 3.4877817630767822266 3.4913830757141113281 3.4426085948944091797 3.4369103908538818359 3.4696948528289794922 3.4564223289489746094 3.3009295463562011719 3.2487545013427734375 3.3735496997833251953 3.4730565547943115234 3.5946381092071533203 3.7079813480377197266 3.7697949409484863281 3.8110153675079345703 3.8597359657287597656 3.9168899059295654297 3.9776799678802490234 4.035694122314453125 4.0739622116088867188 4.0880422592163085938 4.135219573974609375 4.1884946823120117188 4.2058658599853515625 4.2273645401000976562 4.2879748344421386719 4.400783538818359375 4.500812530517578125 4.575527191162109375 4.670440673828125 4.8287248611450195312 4.9836850166320800781 5.0615062713623046875 5.2723031044006347656 5.4719233512878417969 5.4674968719482421875 5.5455327033996582031 5.6865386962890625 5.7365927696228027344 5.7053589820861816406 5.6892123222351074219 5.7043695449829101562 5.7174739837646484375 5.6939172744750976562 5.7379302978515625 5.8197731971740722656 5.8839411735534667969 5.9547419548034667969 6.0473351478576660156 6.10845184326171875 6.1392698287963867188 6.1998758316040039062 6.26319122314453125 6.2759528160095214844 6.3358149528503417969 
2.1169223785400390625 2.0985276699066162109 2.0763812065124511719 2.1433267593383789062 2.1790108680725097656 2.1656365394592285156 2.1502430438995361328 2.1968617439270019531 2.3313078880310058594 2.4257404804229736328 2.4766535758972167969 2.5055632591247558594 2.5166232585906982422 2.5176856517791748047 2.4753289222717285156 2.5007853507995605469 2.4714136123657226562 2.5250301361083984375 2.4649167060852050781 2.5459411144256591797 2.5908758640289306641 2.5837624073028564453 2.5873122215270996094 2.5975811481475830078 2.6292245388031005859 2.7062656879425048828 2.76175689697265625 2.733913421630859375 2.6585371494293212891 2.7105853557586669922 2.7820827960968017578 2.8556158542633056641 2.9795682430267333984 3.0599372386932373047 3.0934526920318603516 3.12563323974609375 3.11871337890625 3.10582733154296875 3.0824892520904541016 3.0407578945159912109 2.9809696674346923828 2.9564900398254394531 2.9982328414916992188 3.0303130149841308594 3.0847632884979248047 3.1028690338134765625 3.0776925086975097656 3.0858395099639892578 3.1121861934661865234 3.1494224071502685547 3.1732766628265380859 3.2139117717742919922 3.2537872791290283203 3.2539908885955810547 3.2766358852386474609 3.3206450939178466797 3.3418285846710205078 3.3592863082885742188 3.3616695404052734375 3.3696067333221435547 3.3833539485931396484 3.3719499111175537109 3.3636536598205566406 3.3736062049865722656 3.3805212974548339844 3.3838613033294677734 3.3884482383728027344 3.3905918598175048828 3.4043705463409423828 3.3873157501220703125 3.3870155811309814453 3.4312784671783447266 3.4418275356292724609 3.4499430656433105469 3.4513256549835205078 3.3928697109222412109 3.3873081207275390625 3.4073688983917236328 3.3651340007781982422 3.2406942844390869141 3.2343242168426513672 3.3670051097869873047 3.4804184436798095703 3.5936663150787353516 3.6895892620086669922 3.7200610637664794922 3.7632629871368408203 3.8046641349792480469 3.87480926513671875 3.9300532341003417969 3.9692645072937011719 4.0114293098449707031 4.054294586181640625 4.0889539718627929688 4.1050090789794921875 4.1162638664245605469 4.2257695198059082031 4.3898854255676269531 4.4668812751770019531 4.4993886947631835938 4.5815730094909667969 4.666217803955078125 4.8027443885803222656 4.9289898872375488281 5.0441527366638183594 5.2094411849975585938 5.319652557373046875 5.3853235244750976562 5.476390838623046875 5.6050310134887695312 5.6697125434875488281 5.6485834121704101562 5.6152825355529785156 5.6483368873596191406 5.6210207939147949219 5.6146154403686523438 5.6981401443481445312 5.7793917655944824219 5.8465180397033691406 5.9164724349975585938 5.9851121902465820312 6.0331945419311523438 6.0956397056579589844 6.1681318283081054688 6.1993246078491210938 6.2302579879760742188 6.2983679771423339844 
2.04669189453125 2.0211460590362548828 2.0248868465423583984 2.0667262077331542969 2.0715906620025634766 2.1084716320037841797 2.1848361492156982422 2.2673332691192626953 2.3562068939208984375 2.4114358425140380859 2.4473032951354980469 2.4585642814636230469 2.4786889553070068359 2.4875166416168212891 2.4094831943511962891 2.4247686862945556641 2.4483981132507324219 2.503658294677734375 2.4471738338470458984 2.4878907203674316406 2.5225539207458496094 2.5234932899475097656 2.5186474323272705078 2.5402088165283203125 2.6130034923553466797 2.7186505794525146484 2.728084564208984375 2.6662545204162597656 2.6214365959167480469 2.7009241580963134766 2.7515885829925537109 2.7878274917602539062 2.8895444869995117188 3.0223054885864257812 3.0776913166046142578 3.0435178279876708984 2.9781355857849121094 2.9653866291046142578 2.9716486930847167969 2.9116621017456054688 2.9238975048065185547 2.9656414985656738281 3.0025787353515625 3.0298936367034912109 3.0506651401519775391 3.0367045402526855469 3.0332236289978027344 3.0547008514404296875 3.088733673095703125 3.1477837562561035156 3.179943084716796875 3.1971697807312011719 3.2161030769348144531 3.2245926856994628906 3.2738468647003173828 3.3013377189636230469 3.3124806880950927734 3.3314502239227294922 3.3204302787780761719 3.3323304653167724609 3.3316638469696044922 3.3270981311798095703 3.3443586826324462891 3.3220815658569335938 3.3342378139495849609 3.3442244529724121094 3.3541316986083984375 3.3542196750640869141 3.3610806465148925781 3.3566794395446777344 3.3472919464111328125 3.3939144611358642578 3.4037225246429443359 3.4183526039123535156 3.4079015254974365234 3.3625321388244628906 3.3523008823394775391 3.3409571647644042969 3.2769510746002197266 3.1889336109161376953 3.2214522361755371094 3.3878505229949951172 3.5096659660339355469 3.5809350013732910156 3.6313407421112060547 3.6705632209777832031 3.7175786495208740234 3.7768971920013427734 3.8460075855255126953 3.8817079067230224609 3.9088158607482910156 3.9470489025115966797 3.9915742874145507812 4.0004367828369140625 4.0056452751159667969 4.0689382553100585938 4.1838998794555664062 4.3149347305297851562 4.4105248451232910156 4.5120344161987304688 4.6618943214416503906 4.812900543212890625 4.9238028526306152344 4.9270763397216796875 5.0286059379577636719 5.1367731094360351562 5.1993680000305175781 5.2751913070678710938 5.3666653633117675781 5.522243499755859375 5.6057958602905273438 5.5872745513916015625 5.5651879310607910156 5.59163665771484375 5.5055894851684570312 5.5482716560363769531 5.6593546867370605469 5.7406749725341796875 5.8174567222595214844 5.8768253326416015625 5.9265909194946289062 5.9857182502746582031 6.0533456802368164062 6.1154470443725585938 6.1260352134704589844 6.1959567070007324219 6.2437605857849121094 
1.9705809354782104492 1.9938726425170898438 2.0384557247161865234 2.0865862369537353516 2.13043975830078125 2.2102434635162353516 2.2848150730133056641 2.3312804698944091797 2.3576371669769287109 2.3968157768249511719 2.4132928848266601562 2.4251341819763183594 2.4543161392211914062 2.4615137577056884766 2.3768880367279052734 2.3489980697631835938 2.4220840930938720703 2.4280309677124023438 2.3841044902801513672 2.4579889774322509766 2.4734416007995605469 2.4693417549133300781 2.4931783676147460938 2.5588257312774658203 2.6288325786590576172 2.6882505416870117188 2.6646761894226074219 2.6037364006042480469 2.5875556468963623047 2.6594488620758056641 2.6887264251708984375 2.7271227836608886719 2.8203020095825195312 2.9138293266296386719 2.9679720401763916016 2.9207644462585449219 2.8416612148284912109 2.8317916393280029297 2.8393144607543945312 2.8745603561401367188 2.9523375034332275391 3.0007541179656982422 3.0192906856536865234 3.0073690414428710938 3.0046544075012207031 2.9929010868072509766 2.9997396469116210938 3.0350155830383300781 3.0924229621887207031 3.1505060195922851562 3.1543133258819580078 3.1541185379028320312 3.18004608154296875 3.2119290828704833984 3.2475705146789550781 3.2688593864440917969 3.2834153175354003906 3.2701389789581298828 3.2687098979949951172 3.3009610176086425781 3.2765955924987792969 3.2820577621459960938 3.2984621524810791016 3.2893545627593994141 3.2996637821197509766 3.3090577125549316406 3.3150975704193115234 3.3194119930267333984 3.3264904022216796875 3.3162012100219726562 3.3051035404205322266 3.3223452568054199219 3.3390936851501464844 3.373981475830078125 3.3592386245727539062 3.3256375789642333984 3.3152432441711425781 3.2949450016021728516 3.2253775596618652344 3.1595921516418457031 3.2337906360626220703 3.4085907936096191406 3.4888529777526855469 3.5270433425903320312 3.5825245380401611328 3.6419060230255126953 3.6930124759674072266 3.75726318359375 3.8096957206726074219 3.8223705291748046875 3.8522181510925292969 3.8964109420776367188 3.9368350505828857422 3.9592881202697753906 4.0093674659729003906 4.0686182975769042969 4.1203336715698242188 4.2191395759582519531 4.2864618301391601562 4.4732537269592285156 4.7422471046447753906 4.9631962776184082031 5.0685291290283203125 5.0507526397705078125 5.0633420944213867188 5.1662793159484863281 5.1944417953491210938 5.2194876670837402344 5.2974748611450195312 5.4196467399597167969 5.5415349006652832031 5.5236172676086425781 5.5106840133666992188 5.4929785728454589844 5.396881103515625 5.4921827316284179688 5.6102247238159179688 5.6887750625610351562 5.7670683860778808594 5.8187952041625976562 5.8665037155151367188 5.9384093284606933594 6.0045523643493652344 6.0278201103210449219 6.0655889511108398438 6.1421833038330078125 6.1765275001525878906 
1.9654916524887084961 2.050201416015625 2.0867896080017089844 2.129825592041015625 2.1926877498626708984 2.2394483089447021484 2.2707765102386474609 2.3028101921081542969 2.3447525501251220703 2.3790440559387207031 2.372554779052734375 2.3909015655517578125 2.4128422737121582031 2.4284403324127197266 2.3422024250030517578 2.2953741550445556641 2.4043662548065185547 2.3452372550964355469 2.4006357192993164062 2.4536545276641845703 2.4276354312896728516 2.4532878398895263672 2.5136346817016601562 2.5581312179565429688 2.5953936576843261719 2.6154808998107910156 2.5995488166809082031 2.5574457645416259766 2.5616610050201416016 2.61516571044921875 2.6354439258575439453 2.6886961460113525391 2.74798583984375 2.8077414035797119141 2.8351330757141113281 2.7861273288726806641 2.7672832012176513672 2.8254392147064208984 2.8619821071624755859 2.9105343818664550781 2.9469180107116699219 2.9552304744720458984 2.9714865684509277344 2.9587137699127197266 2.962963104248046875 2.9550082683563232422 2.9788687229156494141 3.0199434757232666016 3.1001391410827636719 3.1378121376037597656 3.1158540248870849609 3.1276023387908935547 3.1650857925415039062 3.2070496082305908203 3.2346317768096923828 3.2555854320526123047 3.2569341659545898438 3.2183229923248291016 3.23563385009765625 3.266407012939453125 3.2450366020202636719 3.2481493949890136719 3.2487370967864990234 3.2478115558624267578 3.2682316303253173828 3.2738883495330810547 3.2746706008911132812 3.2830286026000976562 3.2985651493072509766 3.2807269096374511719 3.2671842575073242188 3.2674579620361328125 3.2737100124359130859 3.3201642036437988281 3.3115890026092529297 3.2878427505493164062 3.2693879604339599609 3.2380800247192382812 3.1724314689636230469 3.1453061103820800781 3.2584547996520996094 3.38083648681640625 3.4332211017608642578 3.4954817295074462891 3.5651221275329589844 3.6229312419891357422 3.6725950241088867188 3.7160968780517578125 3.7490472793579101562 3.7731101512908935547 3.8174281120300292969 3.8549556732177734375 3.8838815689086914062 3.9399704933166503906 3.9509704113006591797 3.9512641429901123047 4.0239267349243164062 4.1223273277282714844 4.2377352714538574219 4.4616236686706542969 4.685527801513671875 4.7935290336608886719 4.9066901206970214844 5.0488138198852539062 5.0935473442077636719 5.1838603019714355469 5.2129921913146972656 5.2275204658508300781 5.2634282112121582031 5.3305959701538085938 5.43335723876953125 5.4293179512023925781 5.4387154579162597656 5.3179697990417480469 5.3097639083862304688 5.4805197715759277344 5.5869565010070800781 5.641819000244140625 5.6847567558288574219 5.7387228012084960938 5.8219265937805175781 5.875965118408203125 5.9161710739135742188 5.9363451004028320312 6.0213799476623535156 6.0692391395568847656 6.1021142005920410156 
2.0025293827056884766 2.0503735542297363281 2.0952064990997314453 2.1425733566284179688 2.1772365570068359375 2.2089803218841552734 2.2499043941497802734 2.2949144840240478516 2.3266267776489257812 2.3426694869995117188 2.3334589004516601562 2.3486101627349853516 2.3813734054565429688 2.3997228145599365234 2.3345301151275634766 2.2859010696411132812 2.3530113697052001953 2.321376800537109375 2.4163203239440917969 2.3966438770294189453 2.4211308956146240234 2.4609940052032470703 2.4974677562713623047 2.5203828811645507812 2.5271184444427490234 2.5356218814849853516 2.5251646041870117188 2.5034737586975097656 2.5526463985443115234 2.6077108383178710938 2.6427783966064453125 2.6877355575561523438 2.7273135185241699219 2.7412140369415283203 2.7141690254211425781 2.7100641727447509766 2.7824909687042236328 2.8582024574279785156 2.8949713706970214844 2.8965623378753662109 2.888050079345703125 2.9017848968505859375 2.9152519702911376953 2.9158422946929931641 2.9264214038848876953 2.9377839565277099609 2.9670391082763671875 2.9973549842834472656 3.0455331802368164062 3.0840764045715332031 3.1041409969329833984 3.1422033309936523438 3.1897523403167724609 3.2255306243896484375 3.2206308841705322266 3.2149302959442138672 3.2155303955078125 3.1868994235992431641 3.2020380496978759766 3.2404332160949707031 3.2216556072235107422 3.2111556529998779297 3.2138729095458984375 3.2116215229034423828 3.2345552444458007812 3.2440948486328125 3.2438135147094726562 3.2422337532043457031 3.2555968761444091797 3.2579236030578613281 3.2385873794555664062 3.2295374870300292969 3.2289097309112548828 3.2636206150054931641 3.2635190486907958984 3.2495558261871337891 3.2273049354553222656 3.1928627490997314453 3.1235752105712890625 3.1291103363037109375 3.2689874172210693359 3.3418824672698974609 3.3804998397827148438 3.4658989906311035156 3.5306346416473388672 3.5812299251556396484 3.6348767280578613281 3.6572492122650146484 3.6994075775146484375 3.7457749843597412109 3.7783751487731933594 3.8058457374572753906 3.8170578479766845703 3.8192639350891113281 3.8237392902374267578 3.8410940170288085938 3.9582319259643554688 4.1552453041076660156 4.2419238090515136719 4.3673834800720214844 4.5184826850891113281 4.6615853309631347656 4.80938720703125 4.92864990234375 5.0240240097045898438 5.1169195175170898438 5.1646032333374023438 5.17193603515625 5.1259555816650390625 5.2027635574340820312 5.29502105712890625 5.3074574470520019531 5.2891216278076171875 5.1405529975891113281 5.2764606475830078125 5.4733409881591796875 5.5753617286682128906 5.6016054153442382812 5.6027455329895019531 5.6922821998596191406 5.7554535865783691406 5.7855820655822753906 5.805896759033203125 5.8829379081726074219 5.9501385688781738281 6.0121479034423828125 6.0365309715270996094 
2.0467381477355957031 2.0837094783782958984 2.1078701019287109375 2.1300668716430664062 2.1680850982666015625 2.2102611064910888672 2.2415263652801513672 2.2729990482330322266 2.2964239120483398438 2.3082761764526367188 2.293117523193359375 2.3133015632629394531 2.3469877243041992188 2.3602075576782226562 2.3016650676727294922 2.2670295238494873047 2.2835643291473388672 2.3071711063385009766 2.3466663360595703125 2.3475062847137451172 2.4105141162872314453 2.4367742538452148438 2.4755775928497314453 2.4841740131378173828 2.4745590686798095703 2.4552881717681884766 2.4538855552673339844 2.5072433948516845703 2.5795507431030273438 2.6336169242858886719 2.6904077529907226562 2.6932330131530761719 2.6768550872802734375 2.6638312339782714844 2.6933736801147460938 2.7614419460296630859 2.8193163871765136719 2.8665790557861328125 2.8763723373413085938 2.8525681495666503906 2.8464064598083496094 2.8624768257141113281 2.864818572998046875 2.8732933998107910156 2.8880162239074707031 2.9168667793273925781 2.9507238864898681641 2.9928746223449707031 3.0573565959930419922 3.1063535213470458984 3.1440026760101318359 3.1679825782775878906 3.1789057254791259766 3.1778459548950195312 3.1534078121185302734 3.1683592796325683594 3.1827633380889892578 3.1559731960296630859 3.1687836647033691406 3.2058992385864257812 3.1939237117767333984 3.1716980934143066406 3.1788442134857177734 3.1760303974151611328 3.1991724967956542969 3.2286837100982666016 3.2161707878112792969 3.2068648338317871094 3.2054057121276855469 3.2161281108856201172 3.2148461341857910156 3.2025277614593505859 3.2008011341094970703 3.2184762954711914062 3.2181484699249267578 3.2138955593109130859 3.1898529529571533203 3.144138336181640625 3.0868051052093505859 3.1352896690368652344 3.2726652622222900391 3.3118426799774169922 3.3451182842254638672 3.4186601638793945312 3.4776973724365234375 3.5369255542755126953 3.5808746814727783203 3.6179738044738769531 3.6670637130737304688 3.7083606719970703125 3.7301204204559326172 3.7568264007568359375 3.7608282566070556641 3.7616093158721923828 3.7959835529327392578 3.8532617092132568359 3.9869420528411865234 4.1169605255126953125 4.1285119056701660156 4.2115240097045898438 4.3811054229736328125 4.6062865257263183594 4.7536749839782714844 4.7836894989013671875 4.8739957809448242188 4.9588136672973632812 4.9724779129028320312 4.9833898544311523438 5.0108571052551269531 5.1542296409606933594 5.2452945709228515625 5.2163271903991699219 5.0916891098022460938 5.0217938423156738281 5.2255702018737792969 5.4216065406799316406 5.5219349861145019531 5.521251678466796875 5.5350866317749023438 5.6141386032104492188 5.6720986366271972656 5.6940617561340332031 5.7185740470886230469 5.806583404541015625 5.876190185546875 5.9299421310424804688 5.9245853424072265625 
2.0346360206604003906 2.0642638206481933594 2.0876533985137939453 2.1246309280395507812 2.1693572998046875 2.1991357803344726562 2.2169086933135986328 2.239837646484375 2.257938385009765625 2.2575590610504150391 2.2599964141845703125 2.2942764759063720703 2.3151409626007080078 2.3214333057403564453 2.2690348625183105469 2.2385404109954833984 2.2439475059509277344 2.2642292976379394531 2.2956666946411132812 2.3485624790191650391 2.3850562572479248047 2.4154453277587890625 2.4241018295288085938 2.4053521156311035156 2.3914589881896972656 2.4276957511901855469 2.4962334632873535156 2.5537350177764892578 2.5995388031005859375 2.6374428272247314453 2.6821038722991943359 2.6520037651062011719 2.6086475849151611328 2.6630828380584716797 2.7286746501922607422 2.7797710895538330078 2.8179779052734375 2.8345592021942138672 2.8322813510894775391 2.8137285709381103516 2.8144016265869140625 2.8198752403259277344 2.8203661441802978516 2.8374898433685302734 2.8710355758666992188 2.9228816032409667969 2.9677560329437255859 3.0018992424011230469 3.0663638114929199219 3.1128907203674316406 3.1293878555297851562 3.1308820247650146484 3.1184470653533935547 3.1170682907104492188 3.1063020229339599609 3.1455385684967041016 3.1617267131805419922 3.1221098899841308594 3.1397774219512939453 3.1595294475555419922 3.16072845458984375 3.1355130672454833984 3.141925811767578125 3.1364386081695556641 3.1529834270477294922 3.1967427730560302734 3.1837627887725830078 3.1683292388916015625 3.1707527637481689453 3.1656758785247802734 3.1695973873138427734 3.1730091571807861328 3.1687662601470947266 3.1703608036041259766 3.1754012107849121094 3.1726071834564208984 3.1525013446807861328 3.1018919944763183594 3.0750467777252197266 3.1422510147094726562 3.2488386631011962891 3.2905411720275878906 3.3206989765167236328 3.3842656612396240234 3.4492185115814208984 3.5069460868835449219 3.5539364814758300781 3.5874857902526855469 3.6238667964935302734 3.6559846401214599609 3.6835269927978515625 3.70650482177734375 3.714733123779296875 3.7975180149078369141 3.8897280693054199219 3.9321477413177490234 3.8856294155120849609 3.8833365440368652344 4.0063271522521972656 4.1601777076721191406 4.3631615638732910156 4.6130056381225585938 4.7230739593505859375 4.7075471878051757812 4.7613358497619628906 4.803745269775390625 4.7938179969787597656 4.8039097785949707031 4.9468798637390136719 5.1552042961120605469 5.24587249755859375 5.1405429840087890625 4.9197721481323242188 4.9036035537719726562 5.1248030662536621094 5.2976164817810058594 5.4148097038269042969 5.422824859619140625 5.4684400558471679688 5.5341563224792480469 5.595256805419921875 5.62158203125 5.6345005035400390625 5.7055888175964355469 5.7401113510131835938 5.7658467292785644531 5.7708654403686523438 
2.0066857337951660156 2.0363111495971679688 2.0701467990875244141 2.1090755462646484375 2.1412260532379150391 2.1662492752075195312 2.1881284713745117188 2.2026617527008056641 2.2230541706085205078 2.2172353267669677734 2.2257463932037353516 2.2604334354400634766 2.2766630649566650391 2.2732489109039306641 2.2351500988006591797 2.1985268592834472656 2.2049622535705566406 2.22263336181640625 2.2939438819885253906 2.3413434028625488281 2.3526294231414794922 2.373661041259765625 2.343292236328125 2.3611242771148681641 2.4156134128570556641 2.4680821895599365234 2.5083043575286865234 2.5427680015563964844 2.5778067111968994141 2.610645294189453125 2.6291968822479248047 2.5693833827972412109 2.6019673347473144531 2.6854300498962402344 2.7397449016571044922 2.7755494117736816406 2.7856264114379882812 2.79314422607421875 2.7885684967041015625 2.7773928642272949219 2.7781789302825927734 2.7877471446990966797 2.8203310966491699219 2.8675975799560546875 2.9105482101440429688 2.9469065666198730469 2.9681742191314697266 2.9901561737060546875 3.0279436111450195312 3.0579493045806884766 3.0775167942047119141 3.0732700824737548828 3.0722806453704833984 3.0694074630737304688 3.0742368698120117188 3.11246490478515625 3.1160750389099121094 3.0846476554870605469 3.1068031787872314453 3.1096069812774658203 3.1194541454315185547 3.0988106727600097656 3.0989286899566650391 3.1056680679321289062 3.1241905689239501953 3.1552286148071289062 3.1436650753021240234 3.1316318511962890625 3.1309926509857177734 3.1251285076141357422 3.1258630752563476562 3.1407318115234375 3.1352455615997314453 3.1324191093444824219 3.1388156414031982422 3.1392235755920410156 3.1124198436737060547 3.0623354911804199219 3.0765359401702880859 3.1424796581268310547 3.2134735584259033203 3.2636232376098632812 3.3057777881622314453 3.3682506084442138672 3.4305527210235595703 3.4793562889099121094 3.514057159423828125 3.5392963886260986328 3.5720057487487792969 3.6074876785278320312 3.634410858154296875 3.6477322578430175781 3.6442439556121826172 3.6566503047943115234 3.7684967517852783203 3.8569471836090087891 3.7620763778686523438 3.7671694755554199219 3.993560791015625 4.2145853042602539062 4.4008798599243164062 4.6132831573486328125 4.6576991081237792969 4.6790895462036132812 4.7295985221862792969 4.7485380172729492188 4.7140393257141113281 4.7206845283508300781 4.8741741180419921875 5.1011519432067871094 5.2229285240173339844 5.1200137138366699219 4.8853082656860351562 4.8153543472290039062 5.0409922599792480469 5.2008271217346191406 5.3237576484680175781 5.3473529815673828125 5.393070220947265625 5.4720916748046875 5.5378642082214355469 5.5783638954162597656 5.5269198417663574219 5.5395593643188476562 5.5560541152954101562 5.5843710899353027344 5.6105923652648925781 
1.9779794216156005859 2.0067145824432373047 2.0521287918090820312 2.0852262973785400391 2.108524322509765625 2.1380329132080078125 2.1514260768890380859 2.1574747562408447266 2.1741375923156738281 2.1706604957580566406 2.19549560546875 2.2251372337341308594 2.2364912033081054688 2.2262046337127685547 2.1801724433898925781 2.1273066997528076172 2.1573929786682128906 2.2534365653991699219 2.2744393348693847656 2.2996346950531005859 2.3157751560211181641 2.2854402065277099609 2.325103759765625 2.3921270370483398438 2.4259579181671142578 2.4487032890319824219 2.4867994785308837891 2.5173077583312988281 2.5455141067504882812 2.5526340007781982422 2.51342010498046875 2.5514020919799804688 2.6414661407470703125 2.6878108978271484375 2.7338130474090576172 2.7514944076538085938 2.7551445960998535156 2.7706084251403808594 2.7550377845764160156 2.7402069568634033203 2.7557861804962158203 2.8069806098937988281 2.8508002758026123047 2.8809504508972167969 2.9044795036315917969 2.9115149974822998047 2.9347753524780273438 2.962554931640625 2.9900181293487548828 3.0136098861694335938 3.0242216587066650391 3.0203766822814941406 3.0132319927215576172 3.0287282466888427734 3.0317556858062744141 3.0733439922332763672 3.0791354179382324219 3.05133056640625 3.0617039203643798828 3.0617842674255371094 3.0702991485595703125 3.0618996620178222656 3.0606741905212402344 3.0696399211883544922 3.0805668830871582031 3.1148219108581542969 3.1091210842132568359 3.0976479053497314453 3.0935895442962646484 3.0974972248077392578 3.0870034694671630859 3.092266082763671875 3.097385406494140625 3.1014451980590820312 3.1086263656616210938 3.1059505939483642578 3.0538470745086669922 3.0329298973083496094 3.0935468673706054688 3.1513836383819580078 3.2083842754364013672 3.2597844600677490234 3.3040223121643066406 3.3548877239227294922 3.4003221988677978516 3.4344365596771240234 3.4646570682525634766 3.4951000213623046875 3.5281898975372314453 3.5601820945739746094 3.5790665149688720703 3.5885896682739257812 3.5872673988342285156 3.5672855377197265625 3.6068987846374511719 3.6722207069396972656 3.6930263042449951172 3.7808136940002441406 4.0105152130126953125 4.204509735107421875 4.3210687637329101562 4.4761672019958496094 4.5191493034362792969 4.5552086830139160156 4.6570010185241699219 4.6989898681640625 4.6613130569458007812 4.6693329811096191406 4.83965301513671875 5.0141277313232421875 5.1281919479370117188 5.0294485092163085938 4.7949666976928710938 4.7696018218994140625 4.9875273704528808594 5.1317958831787109375 5.2307586669921875 5.256610870361328125 5.3346490859985351562 5.4070119857788085938 5.5029864311218261719 5.5338673591613769531 5.4212789535522460938 5.3934240341186523438 5.4680395126342773438 5.5817656517028808594 5.6539525985717773438 
1.9704227447509765625 2.0006005764007568359 2.0332484245300292969 2.0511558055877685547 2.0991883277893066406 2.1333265304565429688 2.1150977611541748047 2.1243910789489746094 2.1321964263916015625 2.1268560886383056641 2.1575186252593994141 2.1812748908996582031 2.1951754093170166016 2.1818349361419677734 2.1329133510589599609 2.0982539653778076172 2.2102234363555908203 2.2617819309234619141 2.2463407516479492188 2.281856536865234375 2.2659156322479248047 2.2474496364593505859 2.3330872058868408203 2.36983489990234375 2.3705809116363525391 2.3864099979400634766 2.4356329441070556641 2.4686422348022460938 2.4715692996978759766 2.4333889484405517578 2.4840972423553466797 2.5909147262573242188 2.6418728828430175781 2.6788830757141113281 2.7050325870513916016 2.70868682861328125 2.7316405773162841797 2.7572290897369384766 2.7326314449310302734 2.7238428592681884766 2.7674753665924072266 2.8006229400634765625 2.8174366950988769531 2.8356177806854248047 2.8526599407196044922 2.8836438655853271484 2.9059398174285888672 2.9268960952758789062 2.9489080905914306641 2.9620778560638427734 2.9734983444213867188 2.9811127185821533203 2.97211456298828125 2.9879775047302246094 3.0046305656433105469 3.0229258537292480469 3.0383744239807128906 3.0221798419952392578 3.0212922096252441406 3.0179607868194580078 3.0322945117950439453 3.0483560562133789062 3.0307989120483398438 3.0253379344940185547 3.0261240005493164062 3.0678441524505615234 3.0727238655090332031 3.0647766590118408203 3.0612919330596923828 3.0661551952362060547 3.0550260543823242188 3.0522534847259521484 3.0645077228546142578 3.0702223777770996094 3.0758354663848876953 3.0579833984375 3.0010304450988769531 3.026309967041015625 3.102321624755859375 3.1573431491851806641 3.2029962539672851562 3.2484066486358642578 3.2883036136627197266 3.3259968757629394531 3.36333465576171875 3.3924126625061035156 3.4227297306060791016 3.4517285823822021484 3.482776641845703125 3.5109932422637939453 3.5291781425476074219 3.5384111404418945312 3.531940460205078125 3.5214581489562988281 3.5379464626312255859 3.5848124027252197266 3.7207152843475341797 3.8893275260925292969 4.0211005210876464844 4.0564479827880859375 4.1403965950012207031 4.3113722801208496094 4.2780499458312988281 4.3682837486267089844 4.5323953628540039062 4.5654549598693847656 4.5654549598693847656 4.6234364509582519531 4.8061952590942382812 4.8876652717590332031 4.9503655433654785156 4.8292393684387207031 4.6511030197143554688 4.7845482826232910156 4.956066131591796875 5.0582942962646484375 5.0922617912292480469 5.1494269371032714844 5.2608690261840820312 5.338344573974609375 5.4394927024841308594 5.3757328987121582031 5.3039402961730957031 5.3881478309631347656 5.5986032485961914062 5.7594752311706542969 5.7913908958435058594 
1.9905211925506591797 2.0091316699981689453 2.0160617828369140625 2.0213608741760253906 2.0841550827026367188 2.1060605049133300781 2.0701506137847900391 2.0874865055084228516 2.0909798145294189453 2.0964896678924560547 2.1179683208465576172 2.1391379833221435547 2.1458470821380615234 2.1346449851989746094 2.0939784049987792969 2.1251533031463623047 2.2289607524871826172 2.2262549400329589844 2.2098667621612548828 2.2165334224700927734 2.1323382854461669922 2.1547183990478515625 2.2292697429656982422 2.2445199489593505859 2.2780644893646240234 2.3367149829864501953 2.3758685588836669922 2.3777182102203369141 2.3858249187469482422 2.4499890804290771484 2.5536661148071289062 2.6086826324462890625 2.6353170871734619141 2.6667342185974121094 2.6704158782958984375 2.6780931949615478516 2.70104217529296875 2.7043621540069580078 2.6865289211273193359 2.7035899162292480469 2.7465405464172363281 2.7599363327026367188 2.7761082649230957031 2.8007447719573974609 2.8314249515533447266 2.8596239089965820312 2.8782770633697509766 2.8965346813201904297 2.9021501541137695312 2.912189483642578125 2.9477391242980957031 2.9485478401184082031 2.940944671630859375 2.9475772380828857422 2.956024169921875 2.9782886505126953125 2.9978623390197753906 2.9974303245544433594 2.9859936237335205078 2.9836466312408447266 3.0067701339721679688 3.0334596633911132812 3.0048816204071044922 2.9876084327697753906 2.9750666618347167969 3.0146243572235107422 3.0370059013366699219 3.0387587547302246094 3.0334634780883789062 3.0305740833282470703 3.0262796878814697266 3.0247843265533447266 3.0327088832855224609 3.0439598560333251953 3.0457980632781982422 3.0094246864318847656 2.9863879680633544922 3.0475535392761230469 3.1076996326446533203 3.1527462005615234375 3.1891534328460693359 3.2240126132965087891 3.2645800113677978516 3.2948496341705322266 3.3270893096923828125 3.3559513092041015625 3.3835046291351318359 3.4089751243591308594 3.4379851818084716797 3.4618418216705322266 3.4775931835174560547 3.4843902587890625 3.4826900959014892578 3.5013458728790283203 3.5374002456665039062 3.5892865657806396484 3.6897828578948974609 3.8355541229248046875 3.8611550331115722656 3.8628790378570556641 4.0127615928649902344 4.0636105537414550781 4.027538299560546875 4.229236602783203125 4.3709354400634765625 4.3525032997131347656 4.4587459564208984375 4.6191358566284179688 4.7315244674682617188 4.7555322647094726562 4.8101253509521484375 4.6756992340087890625 4.6281442642211914062 4.7954115867614746094 4.86981201171875 4.9160413742065429688 4.9542918205261230469 5.0742578506469726562 5.1294550895690917969 5.2052445411682128906 5.2479643821716308594 5.2037076950073242188 5.3364233970642089844 5.6048502922058105469 5.7755117416381835938 5.8623623847961425781 5.9330172538757324219 
1.9759640693664550781 1.9827975034713745117 1.9796494245529174805 1.9975529909133911133 2.0479738712310791016 2.0653927326202392578 2.0369212627410888672 2.0488152503967285156 2.0476410388946533203 2.0627131462097167969 2.0813286304473876953 2.0982689857482910156 2.1018817424774169922 2.0753188133239746094 2.0796461105346679688 2.1694703102111816406 2.2055685520172119141 2.1561625003814697266 2.1623365879058837891 2.1085381507873535156 2.0763838291168212891 2.1263675689697265625 2.1941456794738769531 2.2910230159759521484 2.3710806369781494141 2.4329380989074707031 2.4650185108184814453 2.4725813865661621094 2.4968562126159667969 2.5282120704650878906 2.5626492500305175781 2.5959274768829345703 2.6169073581695556641 2.6397910118103027344 2.6308016777038574219 2.6299865245819091797 2.6464524269104003906 2.6418352127075195312 2.6431071758270263672 2.6843640804290771484 2.7067329883575439453 2.7273249626159667969 2.7482283115386962891 2.7921936511993408203 2.8184299468994140625 2.8250360488891601562 2.8470644950866699219 2.8487811088562011719 2.8572254180908203125 2.8953545093536376953 2.9401698112487792969 2.928375244140625 2.9182002544403076172 2.9187252521514892578 2.9224572181701660156 2.9594709873199462891 2.9647612571716308594 2.9808328151702880859 2.9586687088012695312 2.9473900794982910156 2.98538970947265625 3.0063757896423339844 2.9785022735595703125 2.9527215957641601562 2.9420647621154785156 2.9714765548706054688 3.0022559165954589844 3.0025384426116943359 2.9974529743194580078 2.9972910881042480469 2.9972646236419677734 3.0006110668182373047 3.0104806423187255859 3.0227563381195068359 3.0125224590301513672 2.9635808467864990234 2.9806506633758544922 3.0469861030578613281 3.0982129573822021484 3.1403186321258544922 3.1690661907196044922 3.198139190673828125 3.2284326553344726562 3.2577064037322998047 3.2914152145385742188 3.3188807964324951172 3.3473987579345703125 3.368167877197265625 3.393100738525390625 3.4152760505676269531 3.4306356906890869141 3.4488079547882080078 3.4618809223175048828 3.4922909736633300781 3.5387952327728271484 3.5843138694763183594 3.6336309909820556641 3.7273125648498535156 3.7412345409393310547 3.7689538002014160156 3.868682861328125 3.9006814956665039062 3.9371051788330078125 4.1250147819519042969 4.2196445465087890625 4.2356495857238769531 4.4453034400939941406 4.5086779594421386719 4.5403037071228027344 4.6064095497131347656 4.6890673637390136719 4.5532283782958984375 4.5680255889892578125 4.6661686897277832031 4.698383331298828125 4.769878387451171875 4.8966684341430664062 4.9799256324768066406 4.9935059547424316406 5.0329031944274902344 5.0661997795104980469 5.1924266815185546875 5.4827399253845214844 5.7361636161804199219 5.8659601211547851562 5.9480390548706054688 6.0419468879699707031 
1.8753070831298828125 1.9086806774139404297 1.9605932235717773438 1.9951760768890380859 2.0199105739593505859 2.04135894775390625 2.0221304893493652344 2.0142309665679931641 2.0077693462371826172 2.0219509601593017578 2.0417256355285644531 2.0483982563018798828 2.0335774421691894531 2.0321483612060546875 2.1235573291778564453 2.1638710498809814453 2.1556677818298339844 2.0399124622344970703 2.0452339649200439453 2.0911204814910888672 2.2060546875 2.2665421962738037109 2.281253814697265625 2.3183970451354980469 2.3726074695587158203 2.4290142059326171875 2.4571805000305175781 2.4751882553100585938 2.5061647891998291016 2.5180611610412597656 2.5369791984558105469 2.5569183826446533203 2.5856432914733886719 2.5969142913818359375 2.5925068855285644531 2.5998098850250244141 2.6063759326934814453 2.5992486476898193359 2.6378824710845947266 2.6656732559204101562 2.6779437065124511719 2.7017564773559570312 2.7366948127746582031 2.7708029747009277344 2.7851667404174804688 2.8096663951873779297 2.8190464973449707031 2.8087158203125 2.8396546840667724609 2.8992710113525390625 2.9368033409118652344 2.9150800704956054688 2.8816876411437988281 2.8827548027038574219 2.9204342365264892578 2.9446351528167724609 2.9338350296020507812 2.9470434188842773438 2.9346849918365478516 2.9119055271148681641 2.9420571327209472656 2.9543125629425048828 2.9460000991821289062 2.9255611896514892578 2.9185130596160888672 2.92847442626953125 2.9568867683410644531 2.96527862548828125 2.9600510597229003906 2.9597485065460205078 2.9608898162841796875 2.9710321426391601562 2.9845457077026367188 2.993930816650390625 2.9646317958831787109 2.9330813884735107422 2.9753103256225585938 3.0351412296295166016 3.0795571804046630859 3.1148257255554199219 3.1421067714691162109 3.1700143814086914062 3.1957294940948486328 3.2225019931793212891 3.2515797615051269531 3.2775437831878662109 3.3051650524139404297 3.3265027999877929688 3.3491015434265136719 3.372478485107421875 3.3970761299133300781 3.4235887527465820312 3.4571595191955566406 3.4958848953247070312 3.5434703826904296875 3.5864474773406982422 3.6329352855682373047 3.6847448348999023438 3.7281401157379150391 3.7771685123443603516 3.8281893730163574219 3.8708438873291015625 3.9233891963958740234 4.0705218315124511719 4.1481442451477050781 4.1775197982788085938 4.3513693809509277344 4.317317962646484375 4.2966604232788085938 4.4164290428161621094 4.5083627700805664062 4.4333772659301757812 4.4808306694030761719 4.5546011924743652344 4.6490588188171386719 4.7607998847961425781 4.8338065147399902344 4.8629121780395507812 4.9127411842346191406 5.0073823928833007812 5.114345550537109375 5.3208241462707519531 5.5690493583679199219 5.7330694198608398438 5.8952627182006835938 6.024169921875 6.067508697509765625 
1.7814960479736328125 1.8430986404418945312 1.9333900213241577148 2.0036695003509521484 2.0128874778747558594 2.0133948326110839844 1.9991590976715087891 1.9857056140899658203 1.9688379764556884766 1.9756752252578735352 1.9562271833419799805 1.9358499050140380859 1.9958930015563964844 2.0799698829650878906 2.1299412250518798828 2.1275165081024169922 2.0397303104400634766 1.8978992700576782227 1.9860119819641113281 2.1488330364227294922 2.2376778125762939453 2.2807943820953369141 2.31423187255859375 2.3458325862884521484 2.3770198822021484375 2.4034936428070068359 2.4277646541595458984 2.4514255523681640625 2.465450286865234375 2.4746420383453369141 2.4985678195953369141 2.5235245227813720703 2.5486233234405517578 2.5491557121276855469 2.55644989013671875 2.5742843151092529297 2.5675513744354248047 2.5817029476165771484 2.6154596805572509766 2.6432666778564453125 2.6646373271942138672 2.6949846744537353516 2.7323150634765625 2.7500565052032470703 2.7643675804138183594 2.7794671058654785156 2.7760694026947021484 2.7763419151306152344 2.8141705989837646484 2.8687653541564941406 2.9041819572448730469 2.8863837718963623047 2.8496775627136230469 2.8582727909088134766 2.8883917331695556641 2.9028558731079101562 2.8931543827056884766 2.8978407382965087891 2.8947918415069580078 2.8775286674499511719 2.9073412418365478516 2.9098474979400634766 2.9012899398803710938 2.8939619064331054688 2.8976712226867675781 2.9021651744842529297 2.9232280254364013672 2.9337005615234375 2.9318974018096923828 2.9261476993560791016 2.9290091991424560547 2.9413037300109863281 2.9544205665588378906 2.9532113075256347656 2.9095134735107421875 2.9068980216979980469 2.9599745273590087891 3.0180072784423828125 3.0558309555053710938 3.0887815952301025391 3.1125164031982421875 3.1370463371276855469 3.1601018905639648438 3.1860218048095703125 3.2210516929626464844 3.2494878768920898438 3.2672533988952636719 3.2888109683990478516 3.3093852996826171875 3.3405878543853759766 3.3793094158172607422 3.4155373573303222656 3.4549055099487304688 3.5013117790222167969 3.5446555614471435547 3.5891294479370117188 3.6378753185272216797 3.6886475086212158203 3.73928070068359375 3.7958781719207763672 3.8435840606689453125 3.8883984088897705078 3.9362061023712158203 4.0124363899230957031 4.0866875648498535156 4.1289801597595214844 4.2282795906066894531 4.2348794937133789062 4.2398495674133300781 4.3063998222351074219 4.3625240325927734375 4.4093885421752929688 4.4812440872192382812 4.5562310218811035156 4.6255774497985839844 4.6944756507873535156 4.7533612251281738281 4.8201169967651367188 4.9270162582397460938 4.9706926345825195312 5.0683684349060058594 5.2950525283813476562 5.53903961181640625 5.6720995903015136719 5.8173823356628417969 5.9593262672424316406 6.0069408416748046875 
1.7758617401123046875 1.8317046165466308594 1.8969061374664306641 1.950054168701171875 1.9662525653839111328 1.9713155031204223633 1.9802597761154174805 1.9556206464767456055 1.930937647819519043 1.9200195074081420898 1.8688402175903320312 1.9279516935348510742 2.015720367431640625 2.0798029899597167969 2.0985429286956787109 2.0213532447814941406 1.8611893653869628906 1.9442529678344726562 2.1328444480895996094 2.2089138031005859375 2.2478952407836914062 2.2768387794494628906 2.3070342540740966797 2.3553807735443115234 2.3967254161834716797 2.4149215221405029297 2.4192273616790771484 2.4262278079986572266 2.4235129356384277344 2.442234039306640625 2.4672448635101318359 2.4861176013946533203 2.4902927875518798828 2.4920220375061035156 2.5140252113342285156 2.5248479843139648438 2.5357046127319335938 2.5790007114410400391 2.6206028461456298828 2.6598682403564453125 2.6939902305603027344 2.7264459133148193359 2.7519776821136474609 2.7383799552917480469 2.7238228321075439453 2.7324469089508056641 2.7393355369567871094 2.7470440864562988281 2.78278350830078125 2.8380448818206787109 2.87709808349609375 2.8581824302673339844 2.8236472606658935547 2.8310570716857910156 2.8461830615997314453 2.8552641868591308594 2.8519077301025390625 2.8607463836669921875 2.8516767024993896484 2.8576838970184326172 2.8852298259735107422 2.877704620361328125 2.8654377460479736328 2.8634524345397949219 2.87467193603515625 2.8836727142333984375 2.8974940776824951172 2.9088757038116455078 2.9087212085723876953 2.8971500396728515625 2.8980755805969238281 2.9133861064910888672 2.9249987602233886719 2.9006321430206298828 2.8729379177093505859 2.9018011093139648438 2.9593229293823242188 3.0078775882720947266 3.0366315841674804688 3.0593330860137939453 3.0779235363006591797 3.1026630401611328125 3.1315639019012451172 3.1586165428161621094 3.1857142448425292969 3.2120420932769775391 3.2330622673034667969 3.25885772705078125 3.2891814708709716797 3.3232369422912597656 3.3638231754302978516 3.4048964977264404297 3.4395308494567871094 3.4784169197082519531 3.5496644973754882812 3.5951831340789794922 3.6385469436645507812 3.6969954967498779297 3.7481293678283691406 3.7960050106048583984 3.8430140018463134766 3.8916354179382324219 3.9417850971221923828 4.00502777099609375 4.0592679977416992188 4.1014628410339355469 4.1608858108520507812 4.2200388908386230469 4.2786526679992675781 4.3349890708923339844 4.3852267265319824219 4.4479393959045410156 4.5130076408386230469 4.5711445808410644531 4.6309804916381835938 4.6937022209167480469 4.7392635345458984375 4.7565379142761230469 4.77478790283203125 4.818248748779296875 4.9453954696655273438 5.1677484512329101562 5.4201817512512207031 5.5119886398315429688 5.5957579612731933594 5.7963232994079589844 5.9239301681518554688 
1.7539199590682983398 1.7941118478775024414 1.8472299575805664062 1.8813581466674804688 1.9056720733642578125 1.9439465999603271484 1.9713141918182373047 1.9371972084045410156 1.892365574836730957 1.850438237190246582 1.860188603401184082 1.9302872419357299805 1.974573969841003418 2.0201716423034667969 2.0252082347869873047 1.8595268726348876953 1.8525301218032836914 2.0800352096557617188 2.1681380271911621094 2.2036135196685791016 2.2383270263671875 2.2637131214141845703 2.3022389411926269531 2.3726427555084228516 2.4083631038665771484 2.4032399654388427734 2.3970229625701904297 2.3914101123809814453 2.3881855010986328125 2.4091002941131591797 2.4295113086700439453 2.4244697093963623047 2.4234163761138916016 2.4417543411254882812 2.4543564319610595703 2.4779784679412841797 2.5263736248016357422 2.5879538059234619141 2.626537322998046875 2.6596772670745849609 2.6936397552490234375 2.7182135581970214844 2.7437994480133056641 2.7240865230560302734 2.6919634342193603516 2.697727203369140625 2.7111754417419433594 2.7366406917572021484 2.7876040935516357422 2.8300499916076660156 2.8467681407928466797 2.8375954627990722656 2.8032109737396240234 2.7976369857788085938 2.8108129501342773438 2.8244395256042480469 2.8182301521301269531 2.8221216201782226562 2.8181247711181640625 2.8392214775085449219 2.8599276542663574219 2.8543374538421630859 2.8386890888214111328 2.8376231193542480469 2.8482987880706787109 2.8623661994934082031 2.87105560302734375 2.8811287879943847656 2.8793644905090332031 2.8724482059478759766 2.8726754188537597656 2.8879709243774414062 2.883335113525390625 2.8413598537445068359 2.8520472049713134766 2.8995912075042724609 2.9575574398040771484 2.9906332492828369141 3.0100877285003662109 3.0292294025421142578 3.0513708591461181641 3.0764493942260742188 3.1052899360656738281 3.1321454048156738281 3.1575653553009033203 3.1844408512115478516 3.2132275104522705078 3.2441864013671875 3.2755281925201416016 3.30321502685546875 3.3454449176788330078 3.3878858089447021484 3.4235222339630126953 3.4600336551666259766 3.5177814960479736328 3.5643460750579833984 3.6217572689056396484 3.6952223777770996094 3.7407774925231933594 3.779689788818359375 3.8310649394989013672 3.8914973735809326172 3.9567539691925048828 4.0239233970642089844 4.0786285400390625 4.1308345794677734375 4.1913075447082519531 4.2529478073120117188 4.3152813911437988281 4.3655614852905273438 4.4154386520385742188 4.4738602638244628906 4.5263705253601074219 4.5795464515686035156 4.6348981857299804688 4.6713633537292480469 4.6971025466918945312 4.7690358161926269531 4.78704833984375 4.792697906494140625 4.8876852989196777344 5.045162200927734375 5.1778669357299804688 5.2411770820617675781 5.3950290679931640625 5.6950197219848632812 5.8487381935119628906 
1.7309219837188720703 1.7583938837051391602 1.7847281694412231445 1.8135523796081542969 1.8576030731201171875 1.9144932031631469727 1.9544491767883300781 1.9319245815277099609 1.8462290763854980469 1.7605385780334472656 1.8483537435531616211 1.894739985466003418 1.933352351188659668 1.9628924131393432617 1.8844258785247802734 1.7671573162078857422 1.9610942602157592773 2.1212871074676513672 2.1604418754577636719 2.1932766437530517578 2.22556304931640625 2.2559819221496582031 2.3007082939147949219 2.3602101802825927734 2.3867037296295166016 2.3776528835296630859 2.3713731765747070312 2.3614041805267333984 2.3578658103942871094 2.3709046840667724609 2.3724768161773681641 2.3561229705810546875 2.3683619499206542969 2.3887844085693359375 2.4220399856567382812 2.4695413112640380859 2.5131237506866455078 2.5602107048034667969 2.589435577392578125 2.6244428157806396484 2.6431136131286621094 2.657192230224609375 2.6888418197631835938 2.6891908645629882812 2.6626596450805664062 2.6783442497253417969 2.7176561355590820312 2.7518999576568603516 2.7929885387420654297 2.8048081398010253906 2.8032801151275634766 2.8073058128356933594 2.7808384895324707031 2.7636845111846923828 2.7821593284606933594 2.7883474826812744141 2.7835016250610351562 2.7878425121307373047 2.7955977916717529297 2.8085362911224365234 2.8261208534240722656 2.824604034423828125 2.816558837890625 2.8073849678039550781 2.8179678916931152344 2.8348970413208007812 2.8417215347290039062 2.8475844860076904297 2.846225738525390625 2.8434984683990478516 2.8468787670135498047 2.8528130054473876953 2.8220348358154296875 2.8047804832458496094 2.8463776111602783203 2.9063503742218017578 2.9442431926727294922 2.9670767784118652344 2.9854171276092529297 3.01102447509765625 3.0319731235504150391 3.0547838211059570312 3.0828633308410644531 3.1106328964233398438 3.1396567821502685547 3.1675920486450195312 3.1966524124145507812 3.2325975894927978516 3.2643451690673828125 3.3012320995330810547 3.3434960842132568359 3.3819627761840820312 3.4198629856109619141 3.4690947532653808594 3.5108802318572998047 3.5661780834197998047 3.6260089874267578125 3.6757993698120117188 3.7355926036834716797 3.7955479621887207031 3.8533773422241210938 3.9124472141265869141 3.9701220989227294922 4.0336246490478515625 4.0942754745483398438 4.1606612205505371094 4.2111821174621582031 4.253582000732421875 4.304447174072265625 4.3466019630432128906 4.4007959365844726562 4.452060699462890625 4.49688720703125 4.5467405319213867188 4.5849032402038574219 4.6053924560546875 4.6459560394287109375 4.7427845001220703125 4.8173494338989257812 4.8884363174438476562 4.9295287132263183594 4.9812693595886230469 5.06246185302734375 5.1988668441772460938 5.3847222328186035156 5.6552758216857910156 5.8116011619567871094 
1.7211917638778686523 1.733668208122253418 1.7484639883041381836 1.7846968173980712891 1.8302718400955200195 1.8855898380279541016 1.9238393306732177734 1.916894078254699707 1.8389009237289428711 1.6646996736526489258 1.7712156772613525391 1.8829352855682373047 1.873538970947265625 1.8006289005279541016 1.7292054891586303711 1.8849292993545532227 2.0453846454620361328 2.1006901264190673828 2.1406409740447998047 2.1959652900695800781 2.2257425785064697266 2.2463181018829345703 2.2677037715911865234 2.2882657051086425781 2.3194921016693115234 2.3509142398834228516 2.3553166389465332031 2.3341057300567626953 2.3289272785186767578 2.3322510719299316406 2.3118097782135009766 2.3068032264709472656 2.3170621395111083984 2.3427536487579345703 2.4054071903228759766 2.4543476104736328125 2.501361846923828125 2.5484700202941894531 2.5759820938110351562 2.5884585380554199219 2.5895597934722900391 2.6098203659057617188 2.6433708667755126953 2.6402645111083984375 2.6148455142974853516 2.6561086177825927734 2.7201108932495117188 2.7611491680145263672 2.7720875740051269531 2.7705254554748535156 2.7707049846649169922 2.7766029834747314453 2.75312042236328125 2.7347586154937744141 2.7495706081390380859 2.7514805793762207031 2.7459943294525146484 2.7607712745666503906 2.7723474502563476562 2.7738981246948242188 2.7910873889923095703 2.7940394878387451172 2.7849507331848144531 2.7771003246307373047 2.7826466560363769531 2.7939765453338623047 2.8070156574249267578 2.8160378932952880859 2.8215804100036621094 2.8166141510009765625 2.807415008544921875 2.7896809577941894531 2.7740890979766845703 2.7986817359924316406 2.8548033237457275391 2.8956344127655029297 2.9185669422149658203 2.9417257308959960938 2.9632217884063720703 2.9997432231903076172 3.0229885578155517578 3.0424392223358154297 3.0682008266448974609 3.0942211151123046875 3.1223697662353515625 3.1532459259033203125 3.1841456890106201172 3.2166378498077392578 3.2538552284240722656 3.3025720119476318359 3.3426623344421386719 3.3785498142242431641 3.4259920120239257812 3.4707899093627929688 3.5134279727935791016 3.5610938072204589844 3.6183655261993408203 3.6803727149963378906 3.747219085693359375 3.8019242286682128906 3.8516004085540771484 3.9095351696014404297 3.9643659591674804688 4.0178370475769042969 4.0745234489440917969 4.1259012222290039062 4.169292449951171875 4.2163228988647460938 4.2694826126098632812 4.3087215423583984375 4.33963775634765625 4.3909740447998046875 4.4555149078369140625 4.5011692047119140625 4.5905413627624511719 4.7000384330749511719 4.7939786911010742188 4.8388805389404296875 4.8312258720397949219 4.90860748291015625 4.9951319694519042969 5.0669145584106445312 5.1598491668701171875 5.2823848724365234375 5.4261722564697265625 5.6316266059875488281 5.77492523193359375 
1.6859785318374633789 1.6867482662200927734 1.7195568084716796875 1.7606679201126098633 1.7918981313705444336 1.840279698371887207 1.8610348701477050781 1.8589040040969848633 1.8137645721435546875 1.6134048700332641602 1.617053985595703125 1.7481889724731445312 1.6513793468475341797 1.6552996635437011719 1.8386912345886230469 1.9878466129302978516 2.0324323177337646484 2.0642564296722412109 2.1119761466979980469 2.168243408203125 2.2151281833648681641 2.2256245613098144531 2.2313151359558105469 2.2357754707336425781 2.2635650634765625 2.3069589138031005859 2.3263230323791503906 2.2992177009582519531 2.2777693271636962891 2.2230000495910644531 2.2040116786956787109 2.2455220222473144531 2.2808897495269775391 2.341587066650390625 2.3865530490875244141 2.4429409503936767578 2.5034914016723632812 2.5467522144317626953 2.5617852210998535156 2.5467960834503173828 2.5544884204864501953 2.5822505950927734375 2.5962274074554443359 2.5903408527374267578 2.5978009700775146484 2.6839094161987304688 2.7605566978454589844 2.7532095909118652344 2.7413909435272216797 2.7364776134490966797 2.7384114265441894531 2.7502310276031494141 2.7294933795928955078 2.7121121883392333984 2.714412689208984375 2.7154874801635742188 2.7152502536773681641 2.7304515838623046875 2.7437567710876464844 2.7456667423248291016 2.7561955451965332031 2.76227569580078125 2.7526156902313232422 2.7518746852874755859 2.7534770965576171875 2.7637724876403808594 2.7760267257690429688 2.7797734737396240234 2.7830345630645751953 2.7719607353210449219 2.7468483448028564453 2.7351615428924560547 2.7583854198455810547 2.8126800060272216797 2.8577039241790771484 2.8828904628753662109 2.9025897979736328125 2.9308226108551025391 2.9573199748992919922 2.9782586097717285156 3.0074658393859863281 3.0320520401000976562 3.0589263439178466797 3.0867886543273925781 3.1124901771545410156 3.1308066844940185547 3.1668612957000732422 3.2079572677612304688 3.2465872764587402344 3.2889678478240966797 3.3346498012542724609 3.3787920475006103516 3.4256253242492675781 3.4688525199890136719 3.5149185657501220703 3.5668184757232666016 3.6191253662109375 3.6696629524230957031 3.7263534069061279297 3.7774899005889892578 3.8324801921844482422 3.88958740234375 3.9460141658782958984 4.0007672309875488281 4.0501847267150878906 4.0867977142333984375 4.1259741783142089844 4.1717500686645507812 4.22271728515625 4.3012051582336425781 4.42119598388671875 4.5324845314025878906 4.7003321647644042969 4.7816538810729980469 4.8492827415466308594 4.9273676872253417969 4.9704174995422363281 4.9935860633850097656 5.0046048164367675781 4.9975128173828125 4.9842691421508789062 5.0172433853149414062 5.1122646331787109375 5.2949419021606445312 5.4529523849487304688 5.6158084869384765625 5.7495012283325195312 
1.6146492958068847656 1.6596568822860717773 1.6968954801559448242 1.7275944948196411133 1.7632194757461547852 1.7924242019653320312 1.7874077558517456055 1.7722277641296386719 1.6785423755645751953 1.5159813165664672852 1.4870710372924804688 1.5578615665435791016 1.6319099664688110352 1.8289622068405151367 1.9692198038101196289 2.0013339519500732422 2.0206363201141357422 2.0530858039855957031 2.0882875919342041016 2.1330301761627197266 2.1762721538543701172 2.2000875473022460938 2.2093420028686523438 2.20151519775390625 2.2140345573425292969 2.2249262332916259766 2.1817722320556640625 2.0614447593688964844 2.0023233890533447266 2.0055341720581054688 2.1599783897399902344 2.2520692348480224609 2.3009517192840576172 2.3581306934356689453 2.4031684398651123047 2.4436678886413574219 2.4802887439727783203 2.4998033046722412109 2.531208038330078125 2.5226619243621826172 2.5433557033538818359 2.5512878894805908203 2.5368473529815673828 2.5385727882385253906 2.6057555675506591797 2.6605637073516845703 2.7264559268951416016 2.7634735107421875 2.7120318412780761719 2.7030375003814697266 2.7073116302490234375 2.7196300029754638672 2.7149274349212646484 2.7019674777984619141 2.6873776912689208984 2.6889574527740478516 2.6908824443817138672 2.6951038837432861328 2.7107748985290527344 2.7181720733642578125 2.72205352783203125 2.7230229377746582031 2.7231497764587402344 2.7269155979156494141 2.7318892478942871094 2.7406325340270996094 2.7452447414398193359 2.7438371181488037109 2.7363042831420898438 2.7178997993469238281 2.7108855247497558594 2.7211756706237792969 2.7626197338104248047 2.8160552978515625 2.8389992713928222656 2.8622634410858154297 2.8940196037292480469 2.9208939075469970703 2.9534475803375244141 2.9766476154327392578 3.0000121593475341797 3.0201206207275390625 3.0466029644012451172 3.0750932693481445312 3.1023743152618408203 3.1310203075408935547 3.1662058830261230469 3.2072718143463134766 3.2487056255340576172 3.2884681224822998047 3.3299045562744140625 3.3760347366333007812 3.4252524375915527344 3.4691035747528076172 3.5180475711822509766 3.5690762996673583984 3.6181898117065429688 3.6659021377563476562 3.7150571346282958984 3.7658295631408691406 3.8272640705108642578 3.8835813999176025391 3.9395549297332763672 3.9776473045349121094 4.0210490226745605469 4.079227447509765625 4.1334543228149414062 4.1992092132568359375 4.2692728042602539062 4.3965916633605957031 4.5514655113220214844 4.6834168434143066406 4.8604459762573242188 4.9479308128356933594 4.9360933303833007812 4.9440984725952148438 4.9961338043212890625 5.0667071342468261719 5.1611623764038085938 5.2111401557922363281 5.1847543716430664062 5.1982049942016601562 5.17578887939453125 5.3037734031677246094 5.5078134536743164062 5.6887187957763671875 5.8404793739318847656 
1.5001457929611206055 1.593603968620300293 1.6637942790985107422 1.698490142822265625 1.7266904115676879883 1.7391341924667358398 1.7000660896301269531 1.6386015415191650391 1.4793950319290161133 1.4048619270324707031 1.4946609735488891602 1.6548513174057006836 1.8392274379730224609 1.9369561672210693359 1.9684801101684570312 1.9853842258453369141 2.0037951469421386719 2.0345304012298583984 2.0651628971099853516 2.0966279506683349609 2.1330854892730712891 2.1648128032684326172 2.1397769451141357422 2.066986083984375 2.0633673667907714844 1.9833148717880249023 1.8538008928298950195 1.8122150897979736328 1.9404833316802978516 2.1623027324676513672 2.305389404296875 2.3220636844635009766 2.3280344009399414062 2.3531117439270019531 2.3947865962982177734 2.4262766838073730469 2.4437408447265625 2.4540336132049560547 2.4774107933044433594 2.4909169673919677734 2.5315058231353759766 2.5190894603729248047 2.4939293861389160156 2.5229294300079345703 2.5825154781341552734 2.6176156997680664062 2.6682448387145996094 2.7686431407928466797 2.6735966205596923828 2.6680803298950195312 2.6675391197204589844 2.6805505752563476562 2.6852469444274902344 2.6827166080474853516 2.6645820140838623047 2.6613535881042480469 2.6640572547912597656 2.6684081554412841797 2.6804940700531005859 2.6891243457794189453 2.6888859272003173828 2.6881663799285888672 2.6940906047821044922 2.70104217529296875 2.7084820270538330078 2.7152237892150878906 2.7137796878814697266 2.7090635299682617188 2.691986083984375 2.6806197166442871094 2.6941282749176025391 2.7320160865783691406 2.7795286178588867188 2.8129262924194335938 2.8282783031463623047 2.8520283699035644531 2.8870079517364501953 2.9151754379272460938 2.9424979686737060547 2.9693093299865722656 2.9978308677673339844 3.0106151103973388672 3.0365211963653564453 3.0659506320953369141 3.0913105010986328125 3.1269593238830566406 3.1635913848876953125 3.1999673843383789062 3.2403202056884765625 3.2835509777069091797 3.3210921287536621094 3.3654415607452392578 3.4157445430755615234 3.4637041091918945312 3.5078351497650146484 3.5540618896484375 3.6020755767822265625 3.6554999351501464844 3.7100908756256103516 3.75646209716796875 3.8065187931060791016 3.850780487060546875 3.8896350860595703125 3.9296135902404785156 4.00783538818359375 4.0754375457763671875 4.1552023887634277344 4.2613697052001953125 4.3319125175476074219 4.4093432426452636719 4.4993205070495605469 4.59983062744140625 4.6729216575622558594 4.7471880912780761719 4.8387913703918457031 4.8939676284790039062 4.9412178993225097656 5.1000056266784667969 5.287380218505859375 5.3783621788024902344 5.39768218994140625 5.4367451667785644531 5.3635110855102539062 5.3263192176818847656 5.434795379638671875 5.6343297958374023438 5.8398089408874511719 
1.2355012893676757812 1.3831241130828857422 1.5702219009399414062 1.6688873767852783203 1.6886581182479858398 1.639757990837097168 1.4926857948303222656 1.3993544578552246094 1.4121512174606323242 1.5714813470840454102 1.7720947265625 1.8573318719863891602 1.8875863552093505859 1.9278110265731811523 1.9611155986785888672 1.9747133255004882812 1.9849447011947631836 2.0132541656494140625 2.0436983108520507812 2.0576589107513427734 2.0552179813385009766 1.9870617389678955078 1.8758896589279174805 1.8196210861206054688 1.7763879299163818359 1.7029603719711303711 1.7652059793472290039 1.9975819587707519531 2.2100965976715087891 2.29141998291015625 2.3147819042205810547 2.3453428745269775391 2.3677542209625244141 2.3757693767547607422 2.3829858303070068359 2.3947162628173828125 2.4054963588714599609 2.4067182540893554688 2.4240279197692871094 2.45912933349609375 2.4994919300079345703 2.4796533584594726562 2.4767289161682128906 2.5125184059143066406 2.5499830245971679688 2.5606024265289306641 2.5992977619171142578 2.674701690673828125 2.643215179443359375 2.6169035434722900391 2.6253392696380615234 2.6491358280181884766 2.6476113796234130859 2.6481137275695800781 2.642627716064453125 2.6354475021362304688 2.6389057636260986328 2.6510684490203857422 2.6583991050720214844 2.6634242534637451172 2.6640331745147705078 2.6643497943878173828 2.6679120063781738281 2.6734659671783447266 2.6831862926483154297 2.6839346885681152344 2.6792874336242675781 2.6631028652191162109 2.6489274501800537109 2.6546609401702880859 2.6918089389801025391 2.7456929683685302734 2.7859013080596923828 2.8085312843322753906 2.8293807506561279297 2.8543035984039306641 2.8788459300994873047 2.9036481380462646484 2.9316737651824951172 2.9569647312164306641 2.9850995540618896484 3.0057041645050048828 3.0342118740081787109 3.0610258579254150391 3.0816416740417480469 3.1145682334899902344 3.1516649723052978516 3.1911613941192626953 3.2387981414794921875 3.276653289794921875 3.3100559711456298828 3.3510189056396484375 3.3986959457397460938 3.4488103389739990234 3.5010118484497070312 3.5472624301910400391 3.5960206985473632812 3.6433775424957275391 3.6903753280639648438 3.7340795993804931641 3.7736752033233642578 3.8067047595977783203 3.8415198326110839844 3.8852288722991943359 3.9544260501861572266 4.0648107528686523438 4.2331180572509765625 4.3388104438781738281 4.32232666015625 4.3142914772033691406 4.3705110549926757812 4.4500021934509277344 4.5495519638061523438 4.6440095901489257812 4.7431950569152832031 4.8253846168518066406 4.9208831787109375 5.0819334983825683594 5.296123504638671875 5.3839020729064941406 5.4835972785949707031 5.5348367691040039062 5.5142526626586914062 5.5690770149230957031 5.6450557708740234375 5.7812891006469726562 5.8836150169372558594 
1 1.1186999082565307617 1.3692167997360229492 1.5706412792205810547 1.5974137783050537109 1.4419404268264770508 1.3071947097778320312 1.4291073083877563477 1.6121065616607666016 1.7844493389129638672 1.8604334592819213867 1.8558865785598754883 1.8747231960296630859 1.92120361328125 1.9463022947311401367 1.9471987485885620117 1.9682629108428955078 1.9901783466339111328 1.9918974637985229492 1.9319297075271606445 1.7903636693954467773 1.662779688835144043 1.6285898685455322266 1.7095477581024169922 1.5819776058197021484 1.6047142744064331055 1.8400675058364868164 2.1546392440795898438 2.2705190181732177734 2.2662508487701416016 2.2890291213989257812 2.3369987010955810547 2.364704132080078125 2.3718678951263427734 2.3583467006683349609 2.3648774623870849609 2.3688416481018066406 2.3650908470153808594 2.3887505531311035156 2.4200837612152099609 2.4540812969207763672 2.4474351406097412109 2.4593400955200195312 2.5022368431091308594 2.5151855945587158203 2.5276081562042236328 2.5701532363891601562 2.6042263507843017578 2.6065077781677246094 2.5660948753356933594 2.5971164703369140625 2.6251358985900878906 2.6110584735870361328 2.6150841712951660156 2.6227023601531982422 2.6162180900573730469 2.6178917884826660156 2.6258704662322998047 2.6288425922393798828 2.6345622539520263672 2.6478800773620605469 2.6491708755493164062 2.6415426731109619141 2.6498215198516845703 2.65648651123046875 2.6515479087829589844 2.6388354301452636719 2.6227223873138427734 2.6235802173614501953 2.649749755859375 2.7025201320648193359 2.7490797042846679688 2.7797772884368896484 2.7998180389404296875 2.8269345760345458984 2.8497002124786376953 2.8709940910339355469 2.8929321765899658203 2.9170877933502197266 2.9414556026458740234 2.9673454761505126953 2.9953973293304443359 3.0275139808654785156 3.0542149543762207031 3.0869042873382568359 3.1128718852996826172 3.1452999114990234375 3.1867725849151611328 3.2314159870147705078 3.2714397907257080078 3.3072092533111572266 3.3471312522888183594 3.3923811912536621094 3.4371979236602783203 3.4874515533447265625 3.530338287353515625 3.5751411914825439453 3.6155290603637695312 3.6587936878204345703 3.6964166164398193359 3.7367930412292480469 3.7721531391143798828 3.8193957805633544922 3.9356296062469482422 4.0480585098266601562 4.1822414398193359375 4.3183875083923339844 4.3071293830871582031 4.243511199951171875 4.284244537353515625 4.3748483657836914062 4.4780144691467285156 4.598224639892578125 4.7591962814331054688 4.9098834991455078125 5.0223126411437988281 5.1151165962219238281 5.1417531967163085938 5.2004580497741699219 5.2985720634460449219 5.4484934806823730469 5.5320076942443847656 5.6212873458862304688 5.7461285591125488281 5.8056998252868652344 5.7834124565124511719 5.7303333282470703125 
1.0055124759674072266 1.006604313850402832 1.1336658000946044922 1.4024158716201782227 1.3776625394821166992 1.2620666027069091797 1.383063197135925293 1.6198327541351318359 1.7406209707260131836 1.7840476036071777344 1.8023040294647216797 1.8299906253814697266 1.8716090917587280273 1.8966486454010009766 1.9033025503158569336 1.9336562156677246094 1.9568877220153808594 1.9561028480529785156 1.8379176855087280273 1.6324900388717651367 1.493666529655456543 1.445468902587890625 1.4656966924667358398 1.5702570676803588867 1.539829254150390625 1.5441933870315551758 1.7359812259674072266 1.9656335115432739258 2.0924501419067382812 2.1833217144012451172 2.2672302722930908203 2.3074424266815185547 2.3257968425750732422 2.3493447303771972656 2.3393406867980957031 2.3286044597625732422 2.3250772953033447266 2.3319520950317382812 2.3532435894012451172 2.3685879707336425781 2.3933136463165283203 2.4032022953033447266 2.4477038383483886719 2.4775288105010986328 2.4799973964691162109 2.5129604339599609375 2.5454790592193603516 2.5598340034484863281 2.5543189048767089844 2.5382826328277587891 2.5793788433074951172 2.5971906185150146484 2.5858807563781738281 2.58983612060546875 2.6005432605743408203 2.5968954563140869141 2.6019182205200195312 2.6031324863433837891 2.6035380363464355469 2.6139152050018310547 2.6384475231170654297 2.6302466392517089844 2.6151859760284423828 2.6300091743469238281 2.6329185962677001953 2.6103036403656005859 2.5914835929870605469 2.5928823947906494141 2.6233315467834472656 2.6601357460021972656 2.7001519203186035156 2.7378487586975097656 2.7685501575469970703 2.7896356582641601562 2.8135766983032226562 2.8320026397705078125 2.8507411479949951172 2.8782908916473388672 2.9099481105804443359 2.9357020854949951172 2.9563004970550537109 2.9878256320953369141 3.0244853496551513672 3.0544674396514892578 3.0854778289794921875 3.1139943599700927734 3.1430385112762451172 3.1834149360656738281 3.2285292148590087891 3.2661759853363037109 3.3071100711822509766 3.3462674617767333984 3.3902151584625244141 3.4313249588012695312 3.4633989334106445312 3.5024394989013671875 3.543514251708984375 3.5814471244812011719 3.6176838874816894531 3.6587510108947753906 3.7136986255645751953 3.7627129554748535156 3.8390874862670898438 3.9978010654449462891 4.1641469001770019531 4.2428960800170898438 4.2166004180908203125 4.1606245040893554688 4.2354159355163574219 4.37442779541015625 4.4805469512939453125 4.5755171775817871094 4.708232879638671875 4.8755316734313964844 5.0297060012817382812 5.1298065185546875 5.2144637107849121094 5.2616639137268066406 5.2877116203308105469 5.3592882156372070312 5.4564418792724609375 5.5328531265258789062 5.5593137741088867188 5.6128048896789550781 5.5984249114990234375 5.4660768508911132812 5.4183053970336914062 
1.1317955255508422852 1.0701024532318115234 1.0460598468780517578 1.1839045286178588867 1.2124959230422973633 1.3225636482238769531 1.4985605478286743164 1.6011017560958862305 1.6469229459762573242 1.6268620491027832031 1.6740118265151977539 1.7521833181381225586 1.8401993513107299805 1.8560347557067871094 1.8734461069107055664 1.9172871112823486328 1.9355875253677368164 1.9079436063766479492 1.6649118661880493164 1.4319890737533569336 1.3660141229629516602 1.4259040355682373047 1.5715203285217285156 1.6856896877288818359 1.7247779369354248047 1.5809868574142456055 1.6560190916061401367 1.7458609342575073242 1.8059982061386108398 1.9594894647598266602 2.1602246761322021484 2.2672340869903564453 2.3082246780395507812 2.3302972316741943359 2.3340239524841308594 2.3112974166870117188 2.3035132884979248047 2.3070971965789794922 2.3127038478851318359 2.3301992416381835938 2.3419976234436035156 2.3777947425842285156 2.4154965877532958984 2.4353754520416259766 2.4636070728302001953 2.4876658916473388672 2.5122785568237304688 2.5223894119262695312 2.5062286853790283203 2.5000584125518798828 2.5424540042877197266 2.5771021842956542969 2.5757346153259277344 2.5741512775421142578 2.5780377388000488281 2.5783402919769287109 2.5847580432891845703 2.5849363803863525391 2.5827338695526123047 2.5883820056915283203 2.5956022739410400391 2.6010606288909912109 2.6129419803619384766 2.6102836132049560547 2.5886092185974121094 2.5606250762939453125 2.5633523464202880859 2.5877704620361328125 2.6264193058013916016 2.6584982872009277344 2.6890528202056884766 2.7239935398101806641 2.7548067569732666016 2.776241302490234375 2.8075380325317382812 2.8460412025451660156 2.8661572933197021484 2.8946826457977294922 2.9289176464080810547 2.9465110301971435547 2.9634239673614501953 2.9976174831390380859 3.0260148048400878906 3.0523529052734375 3.0792193412780761719 3.1087670326232910156 3.1323511600494384766 3.1752002239227294922 3.2226438522338867188 3.2551686763763427734 3.2953090667724609375 3.3327033519744873047 3.372894287109375 3.411701202392578125 3.4427292346954345703 3.4777388572692871094 3.5175504684448242188 3.5520453453063964844 3.5829677581787109375 3.6100780963897705078 3.6712186336517333984 3.7826092243194580078 3.8966381549835205078 4.0258617401123046875 4.089080810546875 4.0408048629760742188 4.0307364463806152344 4.1205921173095703125 4.3039536476135253906 4.4448113441467285156 4.5720524787902832031 4.66179656982421875 4.7955417633056640625 4.9288554191589355469 5.0629177093505859375 5.1377592086791992188 5.2264156341552734375 5.2979793548583984375 5.3583264350891113281 5.4213871955871582031 5.4097933769226074219 5.4060926437377929688 5.2962565422058105469 5.18782806396484375 5.1892747879028320312 5.1799464225769042969 5.2240357398986816406 
1.3016614913940429688 1.2280312776565551758 1.1193497180938720703 1.0938894748687744141 1.1434476375579833984 1.2187762260437011719 1.2800887823104858398 1.3153685331344604492 1.350815892219543457 1.3656154870986938477 1.4227635860443115234 1.4985430240631103516 1.6139423847198486328 1.7060556411743164062 1.7994033098220825195 1.8751814365386962891 1.9134409427642822266 1.8758783340454101562 1.6142362356185913086 1.371756434440612793 1.3594512939453125 1.5375721454620361328 1.8357114791870117188 1.9821231365203857422 1.890046238899230957 1.6762670278549194336 1.5792980194091796875 1.6429725885391235352 1.7020601034164428711 1.7695230245590209961 1.9389138221740722656 2.1360690593719482422 2.2760100364685058594 2.3032360076904296875 2.3298490047454833984 2.3157513141632080078 2.2888607978820800781 2.2729952335357666016 2.2784311771392822266 2.29241180419921875 2.3178908824920654297 2.3538286685943603516 2.373046875 2.4118778705596923828 2.4351317882537841797 2.4588568210601806641 2.4886655807495117188 2.4937107563018798828 2.4623301029205322266 2.4624655246734619141 2.5077970027923583984 2.5537264347076416016 2.6059215068817138672 2.5740609169006347656 2.5623052120208740234 2.5639891624450683594 2.5681655406951904297 2.568408966064453125 2.5596280097961425781 2.5564160346984863281 2.5568242073059082031 2.6056413650512695312 2.6259169578552246094 2.575054168701171875 2.5384244918823242188 2.5308251380920410156 2.5587201118469238281 2.5969896316528320312 2.6337676048278808594 2.6614327430725097656 2.6809587478637695312 2.7124335765838623047 2.743072509765625 2.7720284461975097656 2.8483867645263671875 2.9188394546508789062 2.9212880134582519531 2.9249696731567382812 2.9418776035308837891 2.9582467079162597656 2.9822504520416259766 3.003387451171875 3.0219514369964599609 3.0452756881713867188 3.0741903781890869141 3.1090545654296875 3.1378474235534667969 3.1731383800506591797 3.210601806640625 3.2447276115417480469 3.2785155773162841797 3.3184363842010498047 3.3535654544830322266 3.3878505229949951172 3.4235837459564208984 3.4547498226165771484 3.4888730049133300781 3.5224552154541015625 3.5547726154327392578 3.5776247978210449219 3.6205353736877441406 3.7320954799652099609 3.8456811904907226562 3.906375885009765625 3.8722980022430419922 3.9691576957702636719 4.1609735488891601562 4.2133646011352539062 4.3322052955627441406 4.4736871719360351562 4.5620923042297363281 4.6952114105224609375 4.8118772506713867188 4.9133276939392089844 5.0494627952575683594 5.1285886764526367188 5.1345844268798828125 5.2389583587646484375 5.3702869415283203125 5.3223500251770019531 5.1155948638916015625 5.0196895599365234375 4.9906239509582519531 4.9450902938842773438 4.9786210060119628906 4.9168200492858886719 4.897777557373046875 
1.4225558042526245117 1.4034279584884643555 1.3016759157180786133 1.1420857906341552734 1.0855253934860229492 1.0930488109588623047 1.1132119894027709961 1.1557370424270629883 1.1865723133087158203 1.2174816131591796875 1.2598955631256103516 1.3015711307525634766 1.3730798959732055664 1.4698417186737060547 1.5525443553924560547 1.6933745145797729492 1.7415262460708618164 1.7620943784713745117 1.6385738849639892578 1.3843597173690795898 1.4351133108139038086 1.6507754325866699219 1.9625332355499267578 2.2260701656341552734 2.0950784683227539062 1.8326652050018310547 1.6088480949401855469 1.5519623756408691406 1.6460765600204467773 1.7263010740280151367 1.8357717990875244141 2.0509598255157470703 2.2160537242889404297 2.2945766448974609375 2.32036590576171875 2.3019926548004150391 2.2758104801177978516 2.2430093288421630859 2.2514677047729492188 2.2796528339385986328 2.3063185214996337891 2.3192257881164550781 2.349231719970703125 2.3737375736236572266 2.3976306915283203125 2.4240114688873291016 2.4604327678680419922 2.4655182361602783203 2.4383740425109863281 2.4366185665130615234 2.4682881832122802734 2.5190794467926025391 2.6229434013366699219 2.6370499134063720703 2.5561473369598388672 2.5535957813262939453 2.5502932071685791016 2.5402214527130126953 2.5249724388122558594 2.5262658596038818359 2.5368008613586425781 2.585201263427734375 2.5861732959747314453 2.5285587310791015625 2.5084412097930908203 2.5262594223022460938 2.5680060386657714844 2.5988907814025878906 2.6277616024017333984 2.6516509056091308594 2.6789884567260742188 2.7093861103057861328 2.7593548297882080078 2.8316283226013183594 2.9076588153839111328 2.939327239990234375 2.9251618385314941406 2.9185507297515869141 2.9257495403289794922 2.9453759193420410156 2.9724862575531005859 2.9931247234344482422 3.0175099372863769531 3.0456335544586181641 3.0757048130035400391 3.1070592403411865234 3.1355495452880859375 3.1675820350646972656 3.2031028270721435547 3.2306878566741943359 3.2654502391815185547 3.2991628646850585938 3.3281378746032714844 3.3595449924468994141 3.3936266899108886719 3.4279973506927490234 3.4633474349975585938 3.4891531467437744141 3.5215773582458496094 3.5615911483764648438 3.6315038204193115234 3.7190339565277099609 3.7810132503509521484 3.7523171901702880859 3.8082177639007568359 4.0110311508178710938 4.2487311363220214844 4.3628454208374023438 4.4166803359985351562 4.567474365234375 4.6635670661926269531 4.7258315086364746094 4.7398462295532226562 4.7899527549743652344 4.8737788200378417969 4.95556640625 4.9453501701354980469 5.057216644287109375 5.2011861801147460938 5.12570953369140625 4.8923540115356445312 4.7310891151428222656 4.7711024284362792969 4.8497548103332519531 4.7156553268432617188 4.5589556694030761719 4.578128814697265625 
1.5321582555770874023 1.5049369335174560547 1.5202662944793701172 1.3762574195861816406 1.2127025127410888672 1.1948673725128173828 1.151218414306640625 1.1293494701385498047 1.1347137689590454102 1.1477602720260620117 1.1827832460403442383 1.2409101724624633789 1.3384743928909301758 1.3419282436370849609 1.3381574153900146484 1.4027837514877319336 1.427735447883605957 1.4511188268661499023 1.4664865732192993164 1.4825750589370727539 1.643291473388671875 1.7595717906951904297 2.018035888671875 2.3503968715667724609 2.2178292274475097656 1.916188359260559082 1.7119561433792114258 1.582644343376159668 1.5811878442764282227 1.6790409088134765625 1.7754498720169067383 1.980823516845703125 2.2158942222595214844 2.303180694580078125 2.3013234138488769531 2.2691702842712402344 2.2400195598602294922 2.2191565036773681641 2.2430596351623535156 2.2698171138763427734 2.2726235389709472656 2.2834613323211669922 2.3023419380187988281 2.3329579830169677734 2.3653383255004882812 2.4005715847015380859 2.4210293292999267578 2.4258787631988525391 2.4115915298461914062 2.4013903141021728516 2.4306328296661376953 2.5072019100189208984 2.6606631278991699219 2.7296040058135986328 2.5667955875396728516 2.5375945568084716797 2.5229079723358154297 2.5019404888153076172 2.4954712390899658203 2.5041506290435791016 2.5173265933990478516 2.5288021564483642578 2.5200700759887695312 2.4848794937133789062 2.4913728237152099609 2.5283050537109375 2.5662543773651123047 2.5993816852569580078 2.6198909282684326172 2.6463758945465087891 2.7106130123138427734 2.7634546756744384766 2.8201274871826171875 2.8705055713653564453 2.9109325408935546875 2.9101576805114746094 2.8990776538848876953 2.8970735073089599609 2.9172146320343017578 2.9424288272857666016 2.9700489044189453125 2.9947695732116699219 3.0208098888397216797 3.0519886016845703125 3.0799100399017333984 3.1062707901000976562 3.1340277194976806641 3.1658215522766113281 3.1935784816741943359 3.2193615436553955078 3.2520356178283691406 3.2786285877227783203 3.3087248802185058594 3.3431909084320068359 3.3780951499938964844 3.4313387870788574219 3.4706983566284179688 3.4723632335662841797 3.5245647430419921875 3.5578641891479492188 3.5951242446899414062 3.6411237716674804688 3.6699843406677246094 3.6764447689056396484 3.8002955913543701172 4.0128140449523925781 4.2199521064758300781 4.4437718391418457031 4.5172019004821777344 4.6108684539794921875 4.7080068588256835938 4.7038493156433105469 4.6985831260681152344 4.7513403892517089844 4.8079843521118164062 4.8135647773742675781 4.7782049179077148438 4.8532948493957519531 4.9879984855651855469 5.0005240440368652344 4.7554063796997070312 4.5736346244812011719 4.5757555961608886719 4.5023169517517089844 4.4875712394714355469 4.5745072364807128906 4.6166558265686035156 
1.6311125755310058594 1.5896561145782470703 1.5905438661575317383 1.5160001516342163086 1.3523749113082885742 1.3129445314407348633 1.286774754524230957 1.2582398653030395508 1.2456371784210205078 1.2513279914855957031 1.2259656190872192383 1.2834647893905639648 1.4231704473495483398 1.3637827634811401367 1.2562665939331054688 1.2648397684097290039 1.2758597135543823242 1.2817325592041015625 1.3417806625366210938 1.5563660860061645508 1.7941331863403320312 1.9318430423736572266 2.1369831562042236328 2.3672997951507568359 2.2741906642913818359 1.9997655153274536133 1.8636555671691894531 1.7762384414672851562 1.5852411985397338867 1.6061470508575439453 1.7280213832855224609 1.9478605985641479492 2.1835992336273193359 2.26617431640625 2.2588222026824951172 2.2249162197113037109 2.1966407299041748047 2.1924228668212890625 2.2222855091094970703 2.2408697605133056641 2.2441923618316650391 2.2552523612976074219 2.2710464000701904297 2.3009858131408691406 2.3383398056030273438 2.3851418495178222656 2.3914642333984375 2.3949837684631347656 2.3767061233520507812 2.3799884319305419922 2.4178938865661621094 2.4696719646453857422 2.5639727115631103516 2.687469482421875 2.5769188404083251953 2.5135042667388916016 2.4843585491180419922 2.4701628684997558594 2.4768130779266357422 2.4835937023162841797 2.4905025959014892578 2.4865899085998535156 2.4689939022064208984 2.4612689018249511719 2.4904146194458007812 2.5419869422912597656 2.5717842578887939453 2.5990390777587890625 2.6261806488037109375 2.6681568622589111328 2.7410295009613037109 2.7647492885589599609 2.8071110248565673828 2.8516013622283935547 2.890270233154296875 2.8776881694793701172 2.8736286163330078125 2.8913223743438720703 2.9396700859069824219 2.9602608680725097656 2.9727084636688232422 3.003070831298828125 3.0307738780975341797 3.0531613826751708984 3.0790398120880126953 3.1046936511993408203 3.1314208507537841797 3.1619565486907958984 3.1843969821929931641 3.2115361690521240234 3.23462677001953125 3.2636609077453613281 3.2971663475036621094 3.3231489658355712891 3.3502831459045410156 3.4063017368316650391 3.4717466831207275391 3.5228731632232666016 3.5393214225769042969 3.5755417346954345703 3.6386311054229736328 3.6757743358612060547 3.6864364147186279297 3.7186207771301269531 3.7569167613983154297 3.9363102912902832031 4.1862683296203613281 4.4697670936584472656 4.5341935157775878906 4.6149992942810058594 4.6462850570678710938 4.6043701171875 4.6689047813415527344 4.7527418136596679688 4.8520379066467285156 4.7542524337768554688 4.7176833152770996094 4.8576645851135253906 4.9241290092468261719 4.900970458984375 4.6452288627624511719 4.4105825424194335938 4.3816180229187011719 4.4544100761413574219 4.6157941818237304688 4.7366099357604980469 4.7816452980041503906 
1.7656003236770629883 1.6980670690536499023 1.6214325428009033203 1.6606853008270263672 1.5905514955520629883 1.4562175273895263672 1.4294745922088623047 1.409485936164855957 1.4332240819931030273 1.4573791027069091797 1.4330626726150512695 1.4522571563720703125 1.6359018087387084961 1.6660972833633422852 1.4459466934204101562 1.3741189241409301758 1.3856405019760131836 1.3967640399932861328 1.4146989583969116211 1.4837195873260498047 1.6576967239379882812 1.8310152292251586914 1.9588377475738525391 2.1286454200744628906 2.2200882434844970703 2.0385460853576660156 1.9896836280822753906 1.9504158496856689453 1.6867846250534057617 1.5883426666259765625 1.6716260910034179688 1.9369398355484008789 2.1583685874938964844 2.2190420627593994141 2.2031426429748535156 2.1763350963592529297 2.1567337512969970703 2.1698782444000244141 2.2011046409606933594 2.2091071605682373047 2.2089338302612304688 2.2216866016387939453 2.2435820102691650391 2.2747168540954589844 2.3256072998046875 2.3560349941253662109 2.3559396266937255859 2.3555703163146972656 2.3423254489898681641 2.3679187297821044922 2.4197182655334472656 2.4494240283966064453 2.4737467765808105469 2.6093118190765380859 2.5777399539947509766 2.4855062961578369141 2.4576587677001953125 2.4516892433166503906 2.4548122882843017578 2.4557137489318847656 2.4475555419921875 2.4389805793762207031 2.4296910762786865234 2.4698803424835205078 2.5067987442016601562 2.5415990352630615234 2.5741951465606689453 2.5987703800201416016 2.6252892017364501953 2.6729612350463867188 2.7269694805145263672 2.7372548580169677734 2.7757315635681152344 2.8393232822418212891 2.8777987957000732422 2.8481695652008056641 2.8606359958648681641 2.9270868301391601562 3.0019960403442382812 2.9856219291687011719 2.9840397834777832031 3.0054831504821777344 3.0315964221954345703 3.0484299659729003906 3.0762498378753662109 3.1029343605041503906 3.1269555091857910156 3.1508197784423828125 3.1770021915435791016 3.2020795345306396484 3.2271304130554199219 3.2535400390625 3.2859792709350585938 3.3344111442565917969 3.3834257125854492188 3.424468994140625 3.4866919517517089844 3.580516815185546875 3.6500754356384277344 3.6984934806823730469 3.7336125373840332031 3.7400755882263183594 3.8013241291046142578 3.85158538818359375 3.8446452617645263672 3.9413592815399169922 4.141040802001953125 4.3141045570373535156 4.3673119544982910156 4.4879631996154785156 4.5176248550415039062 4.5568037033081054688 4.6871209144592285156 4.7591309547424316406 4.7673139572143554688 4.6337127685546875 4.72052001953125 4.9257102012634277344 4.9392037391662597656 4.7848386764526367188 4.5071811676025390625 4.3402342796325683594 4.4769945144653320312 4.5953516960144042969 4.72963714599609375 4.88700103759765625 4.9932808876037597656 
2.0168428421020507812 1.8610486984252929688 1.6733890771865844727 1.7261755466461181641 1.8368780612945556641 1.6808465719223022461 1.5596879720687866211 1.5345402956008911133 1.5506633520126342773 1.5578746795654296875 1.5359096527099609375 1.4823527336120605469 1.5767037868499755859 1.8164982795715332031 1.7227675914764404297 1.5781804323196411133 1.5521363019943237305 1.5671033859252929688 1.5192580223083496094 1.4854323863983154297 1.5912684202194213867 1.7183915376663208008 1.8081290721893310547 1.9677217006683349609 2.1845760345458984375 2.1508936882019042969 2.1124784946441650391 2.0719146728515625 1.8687071800231933594 1.6719136238098144531 1.6311252117156982422 1.8057708740234375 2.0293595790863037109 2.1502757072448730469 2.1648154258728027344 2.1372041702270507812 2.1297366619110107422 2.154865264892578125 2.1764857769012451172 2.1788213253021240234 2.1786441802978515625 2.1965603828430175781 2.2207636833190917969 2.2649035453796386719 2.3166680335998535156 2.3331136703491210938 2.3287878036499023438 2.3208920955657958984 2.3202817440032958984 2.3654940128326416016 2.4162337779998779297 2.4263520240783691406 2.4311513900756835938 2.5491268634796142578 2.6174008846282958984 2.4882235527038574219 2.4409744739532470703 2.4340016841888427734 2.4283399581909179688 2.4218404293060302734 2.4070696830749511719 2.3969213962554931641 2.4146678447723388672 2.5213911533355712891 2.5752913951873779297 2.5633661746978759766 2.5806269645690917969 2.6041383743286132812 2.6298296451568603516 2.6618785858154296875 2.7105526924133300781 2.7165699005126953125 2.7409527301788330078 2.8170034885406494141 2.8687138557434082031 2.8313860893249511719 2.8579587936401367188 2.9646921157836914062 3.0344831943511962891 2.9919354915618896484 2.9890699386596679688 3.0057530403137207031 3.0242254734039306641 3.0471279621124267578 3.0767595767974853516 3.1033349037170410156 3.1248724460601806641 3.1417086124420166016 3.170688629150390625 3.1997263431549072266 3.2177267074584960938 3.2391498088836669922 3.2631270885467529297 3.31447601318359375 3.3607051372528076172 3.3854207992553710938 3.4306757450103759766 3.5102598667144775391 3.6156432628631591797 3.6575217247009277344 3.6583993434906005859 3.6829581260681152344 3.8124921321868896484 3.9279210567474365234 4.0027270317077636719 4.0611281394958496094 4.09601593017578125 4.1558165550231933594 4.1931657791137695312 4.2865824699401855469 4.321529388427734375 4.4189906120300292969 4.5446219444274902344 4.5702204704284667969 4.5014452934265136719 4.5276236534118652344 4.6920309066772460938 4.8134670257568359375 4.7151732444763183594 4.4622292518615722656 4.3659982681274414062 4.5374822616577148438 4.7145428657531738281 4.8144450187683105469 4.8862252235412597656 4.990467071533203125 5.1185293197631835938 
2.1872193813323974609 2.1195905208587646484 1.8799053430557250977 1.7314958572387695312 1.8220345973968505859 1.8883787393569946289 1.7363502979278564453 1.6161636114120483398 1.5720815658569335938 1.5922805070877075195 1.6016943454742431641 1.5568513870239257812 1.5424317121505737305 1.7842949628829956055 1.9581145048141479492 1.8433171510696411133 1.723042607307434082 1.6885740756988525391 1.6115942001342773438 1.5682203769683837891 1.5931230783462524414 1.6876648664474487305 1.7928072214126586914 1.9376530647277832031 2.1233201026916503906 2.1990981101989746094 2.2444798946380615234 2.2272517681121826172 2.0518350601196289062 1.8193700313568115234 1.6745731830596923828 1.648739933967590332 1.7441393136978149414 1.9046423435211181641 2.055438995361328125 2.0988969802856445312 2.1042335033416748047 2.1290998458862304688 2.1450722217559814453 2.1514410972595214844 2.1573779582977294922 2.1789946556091308594 2.2060923576354980469 2.2447850704193115234 2.2998631000518798828 2.3240437507629394531 2.3067567348480224609 2.2937178611755371094 2.3075616359710693359 2.3936929702758789062 2.4157202243804931641 2.4010374546051025391 2.3980338573455810547 2.4561872482299804688 2.5728063583374023438 2.4830789566040039062 2.4283738136291503906 2.4147357940673828125 2.4041113853454589844 2.3882420063018798828 2.3754315376281738281 2.3754830360412597656 2.3989429473876953125 2.5530834197998046875 2.6727917194366455078 2.6008610725402832031 2.6049532890319824219 2.6147124767303466797 2.6338152885437011719 2.6531050205230712891 2.6830179691314697266 2.7074837684631347656 2.7342612743377685547 2.7731561660766601562 2.8060011863708496094 2.8218014240264892578 2.8685405254364013672 2.9573879241943359375 2.9777812957763671875 2.9656176567077636719 2.9829497337341308594 3.0141761302947998047 3.0301623344421386719 3.0511147975921630859 3.0817308425903320312 3.105236053466796875 3.1225430965423583984 3.1442086696624755859 3.1727116107940673828 3.1906740665435791016 3.2141766548156738281 3.2324833869934082031 3.2535889148712158203 3.2847940921783447266 3.3146114349365234375 3.3365156650543212891 3.3707594871520996094 3.4181139469146728516 3.5021092891693115234 3.5389623641967773438 3.5514049530029296875 3.5939350128173828125 3.7224657535552978516 3.9189076423645019531 4.00130462646484375 4.0011715888977050781 3.9611728191375732422 3.9660134315490722656 3.9574146270751953125 4.0265903472900390625 4.0561366081237792969 4.1627554893493652344 4.2621655464172363281 4.2463464736938476562 4.2718219757080078125 4.3695607185363769531 4.3597159385681152344 4.4460773468017578125 4.4276638031005859375 4.2723054885864257812 4.488323211669921875 4.8219189643859863281 5.0091352462768554688 5.1680459976196289062 5.2505459785461425781 5.2445726394653320312 5.3309664726257324219 
2.3047540187835693359 2.2985899448394775391 2.1843564510345458984 1.9283359050750732422 1.7981953620910644531 1.840449213981628418 1.8945064544677734375 1.7590957880020141602 1.6125622987747192383 1.6184641122817993164 1.6560292243957519531 1.6281679868698120117 1.5775525569915771484 1.7391655445098876953 2.0194697380065917969 2.031291961669921875 1.9742751121520996094 1.8788982629776000977 1.7352730035781860352 1.7503989934921264648 1.7319843769073486328 1.7144913673400878906 1.7461659908294677734 1.8601822853088378906 1.9609284400939941406 2.0536220073699951172 2.2423853874206542969 2.3207514286041259766 2.1243510246276855469 1.9959483146667480469 1.8116927146911621094 1.6672210693359375 1.6497231721878051758 1.7035279273986816406 1.823887944221496582 1.9452474117279052734 2.0207331180572509766 2.0881357192993164062 2.1110293865203857422 2.1291439533233642578 2.1522736549377441406 2.178607940673828125 2.2051568031311035156 2.2517778873443603516 2.3112006187438964844 2.3505413532257080078 2.3406000137329101562 2.2934541702270507812 2.2998530864715576172 2.4573185443878173828 2.4641067981719970703 2.3821644783020019531 2.3798704147338867188 2.4334580898284912109 2.5953936576843261719 2.5079967975616455078 2.4217486381530761719 2.4011993408203125 2.3774218559265136719 2.356357574462890625 2.3495016098022460938 2.3576560020446777344 2.3940634727478027344 2.6320321559906005859 2.798473358154296875 2.6601419448852539062 2.6647653579711914062 2.6849567890167236328 2.6860141754150390625 2.6809372901916503906 2.6892185211181640625 2.7128078937530517578 2.7319784164428710938 2.7624890804290771484 2.804500579833984375 2.8622846603393554688 2.89368438720703125 2.9176177978515625 2.9251983165740966797 2.9497783184051513672 2.9887270927429199219 3.0236113071441650391 3.0420687198638916016 3.0590143203735351562 3.0786731243133544922 3.0972750186920166016 3.1153743267059326172 3.1530122756958007812 3.1870112419128417969 3.2019464969635009766 3.2333509922027587891 3.2582035064697265625 3.280384063720703125 3.3128936290740966797 3.3323104381561279297 3.3545925617218017578 3.3871965408325195312 3.4236714839935302734 3.4634492397308349609 3.4932088851928710938 3.5419948101043701172 3.591472625732421875 3.6664545536041259766 3.7310898303985595703 3.7069742679595947266 3.7333273887634277344 3.7590312957763671875 3.7702245712280273438 3.8061671257019042969 3.8172600269317626953 3.8613007068634033203 3.9131102561950683594 3.9839949607849121094 4.0114569664001464844 4.0833497047424316406 4.1117405891418457031 4.1194720268249511719 4.1486229896545410156 4.1972594261169433594 4.3656053543090820312 4.6301302909851074219 4.8804063796997070312 5.1520853042602539062 5.3663730621337890625 5.549823760986328125 5.5924429893493652344 5.6622176170349121094 
2.5183298587799072266 2.4210655689239501953 2.3719382286071777344 2.1664202213287353516 2.0019843578338623047 1.8799078464508056641 1.8995769023895263672 1.924803614616394043 1.7721863985061645508 1.6993290185928344727 1.7498112916946411133 1.7102873325347900391 1.6408441066741943359 1.6694147586822509766 1.8088309764862060547 1.9804844856262207031 2.187854766845703125 2.0985629558563232422 1.8746503591537475586 1.97730255126953125 2.0377914905548095703 1.9113364219665527344 1.7663310766220092773 1.8010947704315185547 1.9135564565658569336 2.0407209396362304688 2.1812725067138671875 2.3325686454772949219 2.3409090042114257812 2.1994006633758544922 1.9089732170104980469 1.7417410612106323242 1.6769489049911499023 1.6704231500625610352 1.713688969612121582 1.7840161323547363281 1.9331036806106567383 2.0662565231323242188 2.1019332408905029297 2.1194210052490234375 2.1536009311676025391 2.2193799018859863281 2.2534918785095214844 2.3022427558898925781 2.4071538448333740234 2.5133585929870605469 2.5407462120056152344 2.3959116935729980469 2.3171150684356689453 2.5136384963989257812 2.5143830776214599609 2.3960938453674316406 2.3738455772399902344 2.4080240726470947266 2.5356018543243408203 2.5613622665405273438 2.4349687099456787109 2.3796343803405761719 2.3503003120422363281 2.3285832405090332031 2.3243854045867919922 2.3387930393218994141 2.4073963165283203125 2.7262148857116699219 2.9121041297912597656 2.7393393516540527344 2.6960129737854003906 2.7210664749145507812 2.7423579692840576172 2.7435169219970703125 2.7459216117858886719 2.7451632022857666016 2.7703912258148193359 2.8055427074432373047 2.8300235271453857422 2.8818721771240234375 2.8924939632415771484 2.8877148628234863281 2.9002854824066162109 2.9424827098846435547 2.9934461116790771484 3.0279686450958251953 3.0450434684753417969 3.06299591064453125 3.0862412452697753906 3.1061136722564697266 3.1223008632659912109 3.1694266796112060547 3.2150533199310302734 3.2414414882659912109 3.27727508544921875 3.3121302127838134766 3.3306190967559814453 3.3532114028930664062 3.3597609996795654297 3.3735647201538085938 3.4039409160614013672 3.4413628578186035156 3.4759759902954101562 3.5023691654205322266 3.5317485332489013672 3.54441070556640625 3.576190948486328125 3.6208946704864501953 3.6860520839691162109 3.7790017127990722656 3.9027118682861328125 3.9538359642028808594 3.9279711246490478516 3.8752312660217285156 3.9558963775634765625 4.013671875 4.0246024131774902344 4.0526156425476074219 4.1132488250732421875 4.1978507041931152344 4.2856531143188476562 4.3017373085021972656 4.2716536521911621094 4.3682031631469726562 4.5584697723388671875 4.8569550514221191406 5.1473975181579589844 5.4261598587036132812 5.6857314109802246094 5.867427825927734375 5.958843231201171875 
2.5275263786315917969 2.4873948097229003906 2.4738709926605224609 2.4151678085327148438 2.2496621608734130859 2.0632278919219970703 2.0393421649932861328 2.1174609661102294922 1.9326366186141967773 1.8434226512908935547 1.9586507081985473633 1.837130427360534668 1.7430657148361206055 1.6707307100296020508 1.7716966867446899414 1.9816623926162719727 2.2490718364715576172 2.2668600082397460938 2.0822665691375732422 2.0759706497192382812 2.2690548896789550781 2.1894192695617675781 1.9138929843902587891 1.8091399669647216797 1.8861172199249267578 1.9957259893417358398 2.1253201961517333984 2.3175268173217773438 2.4617838859558105469 2.2352957725524902344 1.9136846065521240234 1.8057483434677124023 1.7438455820083618164 1.6935025453567504883 1.6986559629440307617 1.7401174306869506836 1.8400121927261352539 1.9928303956985473633 2.0702998638153076172 2.0972657203674316406 2.1169424057006835938 2.1817810535430908203 2.2691302299499511719 2.2987706661224365234 2.4123814105987548828 2.4765644073486328125 2.5339128971099853516 2.4320163726806640625 2.2697806358337402344 2.3741080760955810547 2.3861486911773681641 2.3445153236389160156 2.350528717041015625 2.4432134628295898438 2.5002026557922363281 2.6051893234252929688 2.4777321815490722656 2.3557786941528320312 2.3208444118499755859 2.2997274398803710938 2.3041212558746337891 2.3264033794403076172 2.4048848152160644531 2.711894989013671875 2.9619321823120117188 2.8347399234771728516 2.7422008514404296875 2.7400236129760742188 2.7616376876831054688 2.7762162685394287109 2.7808296680450439453 2.7703447341918945312 2.7901329994201660156 2.8141806125640869141 2.8242211341857910156 2.8506054878234863281 2.8584699630737304688 2.8664298057556152344 2.8796243667602539062 2.9253866672515869141 3.001560211181640625 3.0399641990661621094 3.0465252399444580078 3.0577635765075683594 3.0842897891998291016 3.1076569557189941406 3.1293928623199462891 3.1794884204864501953 3.2297987937927246094 3.2647407054901123047 3.3017382621765136719 3.3240945339202880859 3.3446989059448242188 3.3715996742248535156 3.3893399238586425781 3.4027066230773925781 3.4220805168151855469 3.4504780769348144531 3.4752500057220458984 3.4869391918182373047 3.4795658588409423828 3.5305104255676269531 3.6302018165588378906 3.6856541633605957031 3.7377562522888183594 3.8311591148376464844 4.0339875221252441406 4.0925087928771972656 3.9702839851379394531 3.9172589778900146484 3.9581804275512695312 4.0585145950317382812 4.139129638671875 4.1697344779968261719 4.2214765548706054688 4.3068904876708984375 4.44068145751953125 4.5375237464904785156 4.5158743858337402344 4.4805808067321777344 4.6232318878173828125 4.8360013961791992188 5.1336264610290527344 5.4587950706481933594 5.6752223968505859375 5.8366999626159667969 6.0136928558349609375 
2.3786473274230957031 2.4239764213562011719 2.4163014888763427734 2.4885222911834716797 2.4700574874877929688 2.2694830894470214844 2.3142218589782714844 2.2803297042846679688 2.0436730384826660156 2.0648350715637207031 2.1899969577789306641 2.1316828727722167969 1.9792200326919555664 1.7496567964553833008 1.7844004631042480469 1.9657891988754272461 2.2610523700714111328 2.398284912109375 2.2975525856018066406 2.1992211341857910156 2.3590097427368164062 2.3957109451293945312 2.0551187992095947266 1.9878391027450561523 1.9538263082504272461 1.9620310068130493164 2.1332097053527832031 2.3697006702423095703 2.4955341815948486328 2.2016985416412353516 1.9328927993774414062 1.8554195165634155273 1.8279877901077270508 1.7845811843872070312 1.7287307977676391602 1.7225993871688842773 1.7543041706085205078 1.8487015962600708008 1.9612851142883300781 2.056243896484375 2.09223175048828125 2.1209504604339599609 2.1523063182830810547 2.1645793914794921875 2.2253129482269287109 2.2315011024475097656 2.2580349445343017578 2.2378296852111816406 2.1760764122009277344 2.2019398212432861328 2.2233002185821533203 2.2370424270629882812 2.2599964141845703125 2.372959136962890625 2.4936656951904296875 2.6084830760955810547 2.5007815361022949219 2.3309037685394287109 2.2898201942443847656 2.2759912014007568359 2.2934768199920654297 2.32740020751953125 2.4125156402587890625 2.6448438167572021484 2.9154868125915527344 2.9440033435821533203 2.8366560935974121094 2.78942108154296875 2.80217742919921875 2.805912017822265625 2.8129336833953857422 2.8120057582855224609 2.8254392147064208984 2.8178272247314453125 2.8180644512176513672 2.8281865119934082031 2.8355975151062011719 2.8421885967254638672 2.8614220619201660156 2.9060177803039550781 2.9863452911376953125 3.0230777263641357422 3.0122449398040771484 3.0188059806823730469 3.0501666069030761719 3.0908396244049072266 3.1370348930358886719 3.2017920017242431641 3.2655832767486572266 3.33145904541015625 3.3879096508026123047 3.4194536209106445312 3.4324100017547607422 3.4428284168243408203 3.4456198215484619141 3.4310424327850341797 3.4330728054046630859 3.4498438835144042969 3.4326798915863037109 3.4279472827911376953 3.4922835826873779297 3.6320199966430664062 3.7023973464965820312 3.7488715648651123047 3.7935738563537597656 3.8896553516387939453 4.0746288299560546875 4.1042757034301757812 4.03697967529296875 4.0211567878723144531 4.0045766830444335938 4.0408425331115722656 4.1091942787170410156 4.1535615921020507812 4.2083873748779296875 4.3300290107727050781 4.4762387275695800781 4.6295866966247558594 4.7335009574890136719 4.6102881431579589844 4.7005858421325683594 4.8408670425415039062 5.0353040695190429688 5.3391118049621582031 5.5575671195983886719 5.6880769729614257812 5.934001922607421875 
2.0447177886962890625 2.1233589649200439453 2.1393487453460693359 2.2486248016357421875 2.4138817787170410156 2.3794560432434082031 2.4835524559020996094 2.4666695594787597656 2.2903676033020019531 2.3834290504455566406 2.5124018192291259766 2.5113770961761474609 2.1809546947479248047 1.8184784650802612305 1.797229766845703125 1.9403703212738037109 2.1840763092041015625 2.4321382045745849609 2.4321143627166748047 2.4322538375854492188 2.5592324733734130859 2.5024139881134033203 2.2169275283813476562 2.2709975242614746094 2.1463053226470947266 1.9829506874084472656 2.0503270626068115234 2.2557044029235839844 2.4967157840728759766 2.3622393608093261719 2.0948348045349121094 1.9525266885757446289 1.8761533498764038086 1.8539980649948120117 1.813031315803527832 1.753692626953125 1.7454754114151000977 1.766678929328918457 1.838070988655090332 1.9687827825546264648 2.0461657047271728516 2.0680170059204101562 2.0833981037139892578 2.09515380859375 2.1120314598083496094 2.1298923492431640625 2.1523225307464599609 2.1656064987182617188 2.1773822307586669922 2.1963217258453369141 2.2140810489654541016 2.2254962921142578125 2.2356321811676025391 2.259044647216796875 2.2973115444183349609 2.3532359600067138672 2.3446898460388183594 2.2882091999053955078 2.2556328773498535156 2.2561790943145751953 2.2911787033081054688 2.3363168239593505859 2.3948280811309814453 2.4935288429260253906 2.7258520126342773438 3.0018291473388671875 2.9981548786163330078 2.8714549541473388672 2.8559560775756835938 2.843105316162109375 2.8291194438934326172 2.8340907096862792969 2.8373317718505859375 2.8181924819946289062 2.8127830028533935547 2.8131647109985351562 2.8171303272247314453 2.8220877647399902344 2.8357105255126953125 2.8771131038665771484 2.9617350101470947266 2.9840159416198730469 2.9607179164886474609 3.0064914226531982422 3.0726296901702880859 3.1342434883117675781 3.1919310092926025391 3.2446296215057373047 3.3049263954162597656 3.3839581012725830078 3.4182155132293701172 3.435131072998046875 3.4297466278076171875 3.4092538356781005859 3.4136750698089599609 3.4158737659454345703 3.4178452491760253906 3.4213597774505615234 3.3850541114807128906 3.4273531436920166016 3.5913257598876953125 3.6884894371032714844 3.7134549617767333984 3.7813560962677001953 3.8405992984771728516 3.9621310234069824219 4.1051306724548339844 4.0690889358520507812 4.0581431388854980469 4.1208333969116210938 4.1069355010986328125 4.0754642486572265625 4.1036176681518554688 4.1654176712036132812 4.2330527305603027344 4.3367056846618652344 4.441585540771484375 4.6019215583801269531 4.7857789993286132812 4.7500009536743164062 4.749843597412109375 4.9878830909729003906 5.15003204345703125 5.3773627281188964844 5.5639586448669433594 5.6856160163879394531 5.896480560302734375 
1.8080173730850219727 1.8741906881332397461 1.9209399223327636719 1.9944502115249633789 2.1581375598907470703 2.3528342247009277344 2.5097384452819824219 2.6453211307525634766 2.6318199634552001953 2.6262171268463134766 2.7383584976196289062 2.5465312004089355469 2.1617953777313232422 1.9174829721450805664 1.8685715198516845703 1.9105855226516723633 2.0964169502258300781 2.3733320236206054688 2.5347228050231933594 2.6074571609497070312 2.7617368698120117188 2.664142608642578125 2.4729454517364501953 2.4687302112579345703 2.3401579856872558594 2.1324086189270019531 2.0469076633453369141 2.1147687435150146484 2.3655831813812255859 2.4145359992980957031 2.2576181888580322266 2.0499866008758544922 1.9436790943145751953 1.9109923839569091797 1.8913571834564208984 1.8545002937316894531 1.8306410312652587891 1.7902168035507202148 1.7929553985595703125 1.8590873479843139648 1.9613503217697143555 2.0214638710021972656 2.0620877742767333984 2.0929362773895263672 2.1219174861907958984 2.1458570957183837891 2.1636099815368652344 2.1810288429260253906 2.1983420848846435547 2.21559906005859375 2.2308869361877441406 2.2384424209594726562 2.2438571453094482422 2.2339270114898681641 2.2233090400695800781 2.2383446693420410156 2.2450952529907226562 2.2317974567413330078 2.2261857986450195312 2.2471582889556884766 2.2948679924011230469 2.3503291606903076172 2.4088277816772460938 2.4827964305877685547 2.5636336803436279297 2.7577073574066162109 2.9030630588531494141 2.8859770298004150391 2.8649141788482666016 2.8551373481750488281 2.8350262641906738281 2.8299193382263183594 2.8338899612426757812 2.8161282539367675781 2.8003580570220947266 2.7926468849182128906 2.7986791133880615234 2.8126637935638427734 2.8255333900451660156 2.8454585075378417969 2.8802435398101806641 2.9080393314361572266 2.96848297119140625 3.0496983528137207031 3.1101896762847900391 3.1503865718841552734 3.1578290462493896484 3.1414475440979003906 3.1717183589935302734 3.2772459983825683594 3.3398671150207519531 3.3467168807983398438 3.3339514732360839844 3.3354258537292480469 3.3539094924926757812 3.3765256404876708984 3.3960640430450439453 3.4002692699432373047 3.3683259487152099609 3.4432075023651123047 3.5353171825408935547 3.5567364692687988281 3.6252417564392089844 3.7379407882690429688 3.8067386150360107422 3.9296777248382568359 4.0304427146911621094 3.9885995388031005859 3.9545464515686035156 4.0673122406005859375 4.1903543472290039062 4.1405110359191894531 4.1252279281616210938 4.1726002693176269531 4.2626476287841796875 4.370098114013671875 4.4489302635192871094 4.5483918190002441406 4.7465362548828125 4.8118672370910644531 4.8296151161193847656 5.0330610275268554688 5.235515594482421875 5.4851770401000976562 5.6863455772399902344 5.7781095504760742188 5.9314851760864257812 
1.800936579704284668 1.8066197633743286133 1.8618209362030029297 1.9389703273773193359 2.0149655342102050781 2.1539814472198486328 2.3652818202972412109 2.638591766357421875 2.8403215408325195312 2.8588151931762695312 2.8275198936462402344 2.5170137882232666016 2.1773922443389892578 2.1252071857452392578 2.0464997291564941406 1.8926694393157958984 1.9993964433670043945 2.3078029155731201172 2.5918264389038085938 2.6705791950225830078 2.8186571598052978516 2.7590134143829345703 2.6606655120849609375 2.6067075729370117188 2.5519030094146728516 2.430877685546875 2.2101042270660400391 2.1093504428863525391 2.305393218994140625 2.4937672615051269531 2.4098348617553710938 2.1604130268096923828 2.0005202293395996094 1.9749608039855957031 1.9536969661712646484 1.9395002126693725586 1.9399999380111694336 1.897492527961730957 1.842174530029296875 1.8229423761367797852 1.8623094558715820312 1.9306099414825439453 2.0235168933868408203 2.0989696979522705078 2.1366064548492431641 2.1491243839263916016 2.1624257564544677734 2.17729949951171875 2.1987867355346679688 2.2188048362731933594 2.2323286533355712891 2.2350094318389892578 2.2164392471313476562 2.2019383907318115234 2.2109217643737792969 2.2178792953491210938 2.2050864696502685547 2.1982805728912353516 2.2100400924682617188 2.2605299949645996094 2.3194091320037841797 2.3659410476684570312 2.473911285400390625 2.6921443939208984375 2.715419769287109375 2.6615796089172363281 2.7204272747039794922 2.8176665306091308594 2.8302810192108154297 2.8401558399200439453 2.8463764190673828125 2.8153057098388671875 2.8112511634826660156 2.8052113056182861328 2.7862203121185302734 2.7736208438873291016 2.7815942764282226562 2.7964377403259277344 2.81385040283203125 2.8351128101348876953 2.8446071147918701172 2.8537836074829101562 2.9516844749450683594 3.0115869045257568359 3.0233149528503417969 3.0260374546051025391 3.0378746986389160156 3.0237219333648681641 3.0335149765014648438 3.1797182559967041016 3.3186082839965820312 3.3276693820953369141 3.2955553531646728516 3.2993021011352539062 3.3150811195373535156 3.3278815746307373047 3.3418071269989013672 3.3362758159637451172 3.3452792167663574219 3.4038808345794677734 3.4203753471374511719 3.4771611690521240234 3.6471760272979736328 3.7544856071472167969 3.7466340065002441406 3.8268005847930908203 3.9397959709167480469 3.9437162876129150391 3.8893563747406005859 3.9828648567199707031 4.1995759010314941406 4.2328429222106933594 4.2000546455383300781 4.242008209228515625 4.3680777549743652344 4.4882693290710449219 4.5579438209533691406 4.6524438858032226562 4.8018641471862792969 4.9003691673278808594 4.9659962654113769531 5.1209053993225097656 5.3038120269775390625 5.4877424240112304688 5.7033824920654296875 5.8274717330932617188 5.9546313285827636719 
2.0862395763397216797 1.929860234260559082 1.8522927761077880859 1.9155429601669311523 1.994181513786315918 2.0705485343933105469 2.1796250343322753906 2.4022667407989501953 2.7147002220153808594 2.9666459560394287109 2.9293243885040283203 2.5874614715576171875 2.3689284324645996094 2.3937356472015380859 2.1795182228088378906 1.9208770990371704102 1.9530929327011108398 2.1720230579376220703 2.3660264015197753906 2.4997720718383789062 2.7334148883819580078 2.8233382701873779297 2.7642695903778076172 2.7169616222381591797 2.8277759552001953125 2.7881314754486083984 2.4673752784729003906 2.2018845081329345703 2.2511537075042724609 2.5028321743011474609 2.5017659664154052734 2.2371327877044677734 2.0792505741119384766 2.0228173732757568359 2.0189812183380126953 2.0123300552368164062 1.9887895584106445312 1.9681649208068847656 1.9410371780395507812 1.8690952062606811523 1.8382353782653808594 1.8570204973220825195 1.9044501781463623047 1.9828401803970336914 2.0621266365051269531 2.1173641681671142578 2.1449995040893554688 2.1642742156982421875 2.1859033107757568359 2.2046117782592773438 2.2067615985870361328 2.1910467147827148438 2.1699309349060058594 2.1818337440490722656 2.1963431835174560547 2.1767721176147460938 2.1682860851287841797 2.1820509433746337891 2.2257287502288818359 2.2914097309112548828 2.3411262035369873047 2.3807644844055175781 2.4519643783569335938 2.6321439743041992188 2.7528529167175292969 2.7997879981994628906 2.7609057426452636719 2.7719657421112060547 2.7861073017120361328 2.8283007144927978516 2.8409054279327392578 2.7990145683288574219 2.7674264907836914062 2.7736093997955322266 2.7642695903778076172 2.7556331157684326172 2.7671740055084228516 2.7812225818634033203 2.7944715023040771484 2.8117759227752685547 2.8141844272613525391 2.8231675624847412109 2.9027190208435058594 2.9182770252227783203 2.9153161048889160156 2.9312458038330078125 2.9598000049591064453 2.9563517570495605469 2.9858417510986328125 3.1154887676239013672 3.269817352294921875 3.3220527172088623047 3.2818293571472167969 3.2510235309600830078 3.2534232139587402344 3.2536907196044921875 3.2625508308410644531 3.2830386161804199219 3.3465197086334228516 3.3819513320922851562 3.3893711566925048828 3.4572184085845947266 3.6515269279479980469 3.8033068180084228516 3.7493801116943359375 3.7401909828186035156 3.85248565673828125 3.8573565483093261719 3.8391251564025878906 3.9468767642974853516 4.1631383895874023438 4.3166823387145996094 4.3670344352722167969 4.4521698951721191406 4.5940146446228027344 4.7225375175476074219 4.8246512413024902344 4.9371519088745117188 5.0754532814025878906 5.1755137443542480469 5.2280454635620117188 5.2308745384216308594 5.3537621498107910156 5.5147423744201660156 5.6956739425659179688 5.8327245712280273438 5.9464883804321289062 
2.4453618526458740234 2.1636376380920410156 1.9073332548141479492 1.8929594755172729492 2.0919504165649414062 2.2224099636077880859 2.1029953956604003906 2.1472258567810058594 2.4519643783569335938 2.8878052234649658203 2.9915273189544677734 2.7021143436431884766 2.585910797119140625 2.6033873558044433594 2.2539539337158203125 2.0119156837463378906 1.9794548749923706055 2.0258436203002929688 2.094234466552734375 2.2068545818328857422 2.5011305809020996094 2.8027789592742919922 2.8472540378570556641 2.7696564197540283203 2.9040701389312744141 3.00991058349609375 2.7808485031127929688 2.4268894195556640625 2.2356336116790771484 2.3925025463104248047 2.5692315101623535156 2.4464468955993652344 2.3103153705596923828 2.1760060787200927734 2.077960968017578125 2.0726833343505859375 2.0537424087524414062 2.0299572944641113281 1.9821496009826660156 1.9146865606307983398 1.886516571044921875 1.8663690090179443359 1.8700858354568481445 1.8959567546844482422 1.9489215612411499023 2.0240857601165771484 2.0773932933807373047 2.1204671859741210938 2.156070709228515625 2.1607720851898193359 2.1383128166198730469 2.1372694969177246094 2.1568970680236816406 2.1768460273742675781 2.1613597869873046875 2.1411042213439941406 2.1527645587921142578 2.1879036426544189453 2.2680504322052001953 2.3259398937225341797 2.3721566200256347656 2.3942115306854248047 2.4106497764587402344 2.4609713554382324219 2.6228418350219726562 2.8615827560424804688 2.9120976924896240234 2.8681561946868896484 2.8058705329895019531 2.8240263462066650391 2.8250172138214111328 2.7790515422821044922 2.7386813163757324219 2.7575178146362304688 2.7503628730773925781 2.7418932914733886719 2.7561228275299072266 2.7621850967407226562 2.7738542556762695312 2.7788870334625244141 2.7861576080322265625 2.7989830970764160156 2.8395755290985107422 2.8531908988952636719 2.8684802055358886719 2.8874773979187011719 2.9118177890777587891 2.9410550594329833984 3.0200653076171875 3.1562368869781494141 3.2718052864074707031 3.3216233253479003906 3.2687075138092041016 3.1967215538024902344 3.1979985237121582031 3.2255570888519287109 3.2532887458801269531 3.2991478443145751953 3.3385424613952636719 3.3568251132965087891 3.3720464706420898438 3.4248983860015869141 3.5523064136505126953 3.7339389324188232422 3.7378931045532226562 3.6700496673583984375 3.7260921001434326172 3.7776091098785400391 3.8594307899475097656 4.0242018699645996094 4.280818939208984375 4.5079035758972167969 4.6379461288452148438 4.723415374755859375 4.7840023040771484375 4.8691654205322265625 5.0569820404052734375 5.2272491455078125 5.3629322052001953125 5.4521350860595703125 5.4982562065124511719 5.5009722709655761719 5.5668482780456542969 5.6738829612731933594 5.7886838912963867188 5.8661646842956542969 5.9444680213928222656 
2.6244792938232421875 2.3018746376037597656 1.9717411994934082031 1.9174064397811889648 2.0891540050506591797 2.2759635448455810547 2.2275545597076416016 2.0985741615295410156 2.2929303646087646484 2.6878938674926757812 2.9349110126495361328 2.8323793411254882812 2.7149062156677246094 2.7494187355041503906 2.4650912284851074219 2.2870450019836425781 2.2015969753265380859 2.1447885036468505859 2.1954429149627685547 2.1364381313323974609 2.3399584293365478516 2.7210214138031005859 2.8651287555694580078 2.8324332237243652344 2.8719911575317382812 2.9999291896820068359 2.9684617519378662109 2.6615934371948242188 2.31684112548828125 2.3762187957763671875 2.6910920143127441406 2.7347874641418457031 2.5436382293701171875 2.3106884956359863281 2.1596357822418212891 2.2185726165771484375 2.2128026485443115234 2.1449553966522216797 2.0340645313262939453 1.9602378606796264648 1.989561915397644043 1.9627014398574829102 1.9321380853652954102 1.9350951910018920898 1.9410810470581054688 1.9516652822494506836 1.9859366416931152344 2.0347852706909179688 2.0920433998107910156 2.1041080951690673828 2.0976815223693847656 2.1229746341705322266 2.1463053226470947266 2.1347606182098388672 2.1139223575592041016 2.1245417594909667969 2.1504378318786621094 2.2142968177795410156 2.2876353263854980469 2.3111040592193603516 2.3474597930908203125 2.3845026493072509766 2.3980638980865478516 2.434581756591796875 2.5776345729827880859 2.7325446605682373047 2.8763020038604736328 2.9206953048706054688 2.8560678958892822266 2.8510501384735107422 2.8169920444488525391 2.7577726840972900391 2.7069690227508544922 2.7311270236968994141 2.7492818832397460938 2.7385106086730957031 2.7404291629791259766 2.7413909435272216797 2.7533903121948242188 2.7608742713928222656 2.7705845832824707031 2.7882883548736572266 2.8090674877166748047 2.8224217891693115234 2.8426609039306640625 2.8645236492156982422 2.9081196784973144531 2.9695754051208496094 3.0862538814544677734 3.2460134029388427734 3.2796106338500976562 3.2359516620635986328 3.1736056804656982422 3.1680190563201904297 3.2035448551177978516 3.2262425422668457031 3.2451508045196533203 3.2701201438903808594 3.3089447021484375 3.3387758731842041016 3.3625786304473876953 3.3951249122619628906 3.4656064510345458984 3.5442349910736083984 3.5793802738189697266 3.6328310966491699219 3.7555568218231201172 3.8980181217193603516 4.0615663528442382812 4.2393689155578613281 4.47187042236328125 4.6339216232299804688 4.7080659866333007812 4.7342381477355957031 4.7648015022277832031 4.8502697944641113281 5.0605630874633789062 5.2236266136169433594 5.3203706741333007812 5.3903374671936035156 5.4681148529052734375 5.5486521720886230469 5.6351237297058105469 5.7288465499877929688 5.8186292648315429688 5.8682589530944824219 5.9208898544311523438 
2.7039465904235839844 2.5039646625518798828 2.1687734127044677734 1.9960486888885498047 1.9827560186386108398 2.1089198589324951172 2.2452683448791503906 2.145915985107421875 2.1655876636505126953 2.4388511180877685547 2.70948028564453125 2.8167862892150878906 2.8909432888031005859 2.9024779796600341797 2.726268768310546875 2.6504039764404296875 2.5001511573791503906 2.4714601039886474609 2.4251153469085693359 2.1711301803588867188 2.2298209667205810547 2.514720916748046875 2.8326153755187988281 2.9627194404602050781 2.966888427734375 2.9711451530456542969 2.8786275386810302734 2.6181819438934326172 2.3400311470031738281 2.3773188591003417969 2.6614127159118652344 2.6877470016479492188 2.4830112457275390625 2.3526685237884521484 2.3940157890319824219 2.4476473331451416016 2.3453226089477539062 2.1678040027618408203 2.0544819831848144531 2.0270617008209228516 2.0710923671722412109 2.0874476432800292969 2.0884408950805664062 2.0817580223083496094 2.1176416873931884766 2.0743696689605712891 1.9989870786666870117 1.9818042516708374023 2.0040435791015625 2.03260040283203125 2.05352020263671875 2.0690443515777587891 2.0790734291076660156 2.1020436286926269531 2.13355255126953125 2.1397142410278320312 2.1778631210327148438 2.2671122550964355469 2.2896819114685058594 2.2961702346801757812 2.3193011283874511719 2.3340442180633544922 2.356964111328125 2.3929030895233154297 2.4465372562408447266 2.5037701129913330078 2.6336431503295898438 2.8064959049224853516 2.8687577247619628906 2.8424096107482910156 2.79634857177734375 2.7739346027374267578 2.6934802532196044922 2.6764156818389892578 2.7106304168701171875 2.7144653797149658203 2.7139329910278320312 2.7245874404907226562 2.7419748306274414062 2.7605125904083251953 2.776340484619140625 2.7910735607147216797 2.8046851158142089844 2.8212540149688720703 2.8406190872192382812 2.8692262172698974609 2.9387810230255126953 3.0683176517486572266 3.2032976150512695312 3.2540371417999267578 3.1982960700988769531 3.1299817562103271484 3.1885242462158203125 3.2625985145568847656 3.2931103706359863281 3.3059384822845458984 3.3205685615539550781 3.2887444496154785156 3.3003141880035400391 3.3266460895538330078 3.353473663330078125 3.3824837207794189453 3.4099683761596679688 3.4445436000823974609 3.5614478588104248047 3.7575972080230712891 3.9558098316192626953 4.1469264030456542969 4.3326749801635742188 4.3958811759948730469 4.4245972633361816406 4.4591727256774902344 4.5261383056640625 4.6165928840637207031 4.6907649040222167969 4.8471341133117675781 5.0605454444885253906 5.1975798606872558594 5.2872586250305175781 5.3800835609436035156 5.4915018081665039062 5.6030635833740234375 5.6854248046875 5.7670946121215820312 5.8493170738220214844 5.9030404090881347656 5.9199481010437011719 
2.7904670238494873047 2.6954932212829589844 2.471195220947265625 2.2451064586639404297 2.02013397216796875 2.0538089275360107422 2.2324678897857666016 2.2336633205413818359 2.1499946117401123047 2.2133276462554931641 2.3387792110443115234 2.4974954128265380859 2.7678458690643310547 2.9734592437744140625 2.9017407894134521484 2.8652505874633789062 2.8652532100677490234 2.8405563831329345703 2.5709078311920166016 2.2659270763397216797 2.1985142230987548828 2.3804605007171630859 2.7372033596038818359 2.9788978099822998047 3.0086963176727294922 2.9020936489105224609 2.7024836540222167969 2.5222275257110595703 2.4707229137420654297 2.3782718181610107422 2.4750413894653320312 2.5860829353332519531 2.5925319194793701172 2.7126233577728271484 2.7654147148132324219 2.5805251598358154297 2.2957193851470947266 2.0946161746978759766 2.0376796722412109375 2.1193609237670898438 2.1462514400482177734 2.1550374031066894531 2.2257311344146728516 2.2404680252075195312 2.3116114139556884766 2.3580780029296875 2.2765650749206542969 2.2132723331451416016 2.2196550369262695312 2.1508698463439941406 2.07202911376953125 2.0636925697326660156 2.0953345298767089844 2.1809270381927490234 2.2822258472442626953 2.239227294921875 2.2248370647430419922 2.2580814361572265625 2.2744643688201904297 2.3358147144317626953 2.3677668571472167969 2.3734235763549804688 2.3835282325744628906 2.3777709007263183594 2.3958377838134765625 2.4329583644866943359 2.4894328117370605469 2.609645843505859375 2.7373728752136230469 2.7342462539672851562 2.6959290504455566406 2.7062532901763916016 2.6881902217864990234 2.6604382991790771484 2.6701259613037109375 2.68143463134765625 2.6984767913818359375 2.7203080654144287109 2.7412540912628173828 2.7635488510131835938 2.7825374603271484375 2.8003568649291992188 2.81244659423828125 2.8207678794860839844 2.8581132888793945312 2.9228715896606445312 3.0213336944580078125 3.1650719642639160156 3.2289185523986816406 3.1463232040405273438 3.0933485031127929688 3.1878802776336669922 3.3206965923309326172 3.3629679679870605469 3.3789980411529541016 3.3934056758880615234 3.3968589305877685547 3.3663332462310791016 3.3546226024627685547 3.3567373752593994141 3.359317779541015625 3.3851923942565917969 3.4125096797943115234 3.4858367443084716797 3.6861538887023925781 3.8865511417388916016 4.0336246490478515625 4.2105545997619628906 4.3600840568542480469 4.3426299095153808594 4.2264966964721679688 4.2893338203430175781 4.5111165046691894531 4.6584272384643554688 4.698993682861328125 4.7888402938842773438 5.014007568359375 5.1385703086853027344 5.2161312103271484375 5.3344898223876953125 5.4699769020080566406 5.5842127799987792969 5.6552433967590332031 5.72484588623046875 5.7808170318603515625 5.7455687522888183594 5.6959939002990722656 
2.8404860496520996094 2.6305191516876220703 2.3826215267181396484 2.2079029083251953125 2.0423860549926757812 2.1409347057342529297 2.3852510452270507812 2.4679629802703857422 2.3526558876037597656 2.2890291213989257812 2.2431137561798095703 2.270305633544921875 2.5153009891510009766 2.8635065555572509766 3.0173680782318115234 3.0157144069671630859 3.1418166160583496094 3.0912451744079589844 2.8305661678314208984 2.4488651752471923828 2.2489099502563476562 2.3815767765045166016 2.63216400146484375 2.7949824333190917969 2.9669210910797119141 2.9851083755493164062 2.8086569309234619141 2.6269240379333496094 2.6712272167205810547 2.4660241603851318359 2.5069820880889892578 2.7511816024780273438 2.8905627727508544922 3.0708780288696289062 2.9851472377777099609 2.6533398628234863281 2.3466048240661621094 2.1331205368041992188 2.0984172821044921875 2.2748422622680664062 2.3058264255523681641 2.3183317184448242188 2.4311137199401855469 2.5106675624847412109 2.611957550048828125 2.6543607711791992188 2.6509201526641845703 2.7742297649383544922 2.8407397270202636719 2.5993304252624511719 2.2961211204528808594 2.1827113628387451172 2.1569912433624267578 2.2035570144653320312 2.320072174072265625 2.4325451850891113281 2.4463300704956054688 2.3348276615142822266 2.3162963390350341797 2.3661594390869140625 2.3808071613311767578 2.4058592319488525391 2.4150483608245849609 2.4139797687530517578 2.3995594978332519531 2.4039683341979980469 2.4473056793212890625 2.5111448764801025391 2.6226108074188232422 2.6520087718963623047 2.6050209999084472656 2.6153616905212402344 2.639812469482421875 2.6396691799163818359 2.6493153572082519531 2.6636602878570556641 2.6824352741241455078 2.7072138786315917969 2.7309587001800537109 2.7544941902160644531 2.7799732685089111328 2.8076195716857910156 2.8255281448364257812 2.8400340080261230469 2.9060416221618652344 3.0295846462249755859 3.1402847766876220703 3.1900813579559326172 3.1134657859802246094 3.0691852569580078125 3.1666214466094970703 3.3004148006439208984 3.3728137016296386719 3.4012236595153808594 3.4146845340728759766 3.4223806858062744141 3.4323658943176269531 3.4332010746002197266 3.4269452095031738281 3.4386467933654785156 3.4171760082244873047 3.4093291759490966797 3.4310474395751953125 3.5172853469848632812 3.6671552658081054688 3.8062939643859863281 3.9649713039398193359 4.1117444038391113281 4.2246685028076171875 4.1655154228210449219 4.0642142295837402344 4.2597107887268066406 4.4431614875793457031 4.5535612106323242188 4.6178159713745117188 4.7262907028198242188 4.9942026138305664062 5.1377539634704589844 5.2174763679504394531 5.327213287353515625 5.4205446243286132812 5.4918713569641113281 5.4895491600036621094 5.5403981208801269531 5.62640380859375 5.5031285285949707031 5.3581695556640625 
2.7248864173889160156 2.5005869865417480469 2.2800898551940917969 2.1951966285705566406 2.0762858390808105469 2.1827716827392578125 2.4510791301727294922 2.6420423984527587891 2.6804690361022949219 2.6389007568359375 2.4471261501312255859 2.2963609695434570312 2.3620171546936035156 2.6379628181457519531 2.8465521335601806641 2.9597208499908447266 3.1292736530303955078 3.1071019172668457031 2.8810746669769287109 2.5030820369720458984 2.2989339828491210938 2.3405737876892089844 2.4845857620239257812 2.6555674076080322266 2.8725247383117675781 3.0318386554718017578 2.9531562328338623047 2.7306461334228515625 2.7424044609069824219 2.5308942794799804688 2.6377480030059814453 3.0048124790191650391 3.1542227268218994141 3.3081486225128173828 3.1497299671173095703 2.9521818161010742188 2.6780078411102294922 2.333248138427734375 2.1786115169525146484 2.4545586109161376953 2.6282701492309570312 2.6535320281982421875 2.8208396434783935547 2.93310546875 3.0752377510070800781 3.0459501743316650391 3.0555698871612548828 3.3038039207458496094 3.3736765384674072266 2.9992988109588623047 2.6557722091674804688 2.4049904346466064453 2.2216238975524902344 2.2253582477569580078 2.3505878448486328125 2.6395938396453857422 2.7724027633666992188 2.5459008216857910156 2.529598236083984375 2.5205235481262207031 2.4010162353515625 2.4078872203826904297 2.4320831298828125 2.4448735713958740234 2.440631866455078125 2.4149291515350341797 2.4463150501251220703 2.5071718692779541016 2.5703842639923095703 2.5664124488830566406 2.5612730979919433594 2.5806658267974853516 2.5887913703918457031 2.5950849056243896484 2.6176369190216064453 2.6412451267242431641 2.6613385677337646484 2.6905357837677001953 2.7150003910064697266 2.7336862087249755859 2.7592079639434814453 2.7907621860504150391 2.8231587409973144531 2.8543174266815185547 2.9371361732482910156 3.0430645942687988281 3.0787637233734130859 3.0525825023651123047 3.0402441024780273438 3.1756045818328857422 3.3090512752532958984 3.3658082485198974609 3.4094998836517333984 3.4415888786315917969 3.4530620574951171875 3.4544596672058105469 3.4705426692962646484 3.4731380939483642578 3.4701921939849853516 3.4872369766235351562 3.4926664829254150391 3.4902329444885253906 3.4849767684936523438 3.5128014087677001953 3.5584769248962402344 3.6565272808074951172 3.8140215873718261719 3.9200980663299560547 4.0007042884826660156 3.9574635028839111328 3.9103639125823974609 4.0543446540832519531 4.1574039459228515625 4.322025299072265625 4.4780306816101074219 4.6646466255187988281 4.89221954345703125 4.9779114723205566406 5.0780839920043945312 5.2312359809875488281 5.3035645484924316406 5.2835969924926757812 5.2145214080810546875 5.3530049324035644531 5.51963043212890625 5.3772735595703125 5.1450834274291992188 
2.5930457115173339844 2.4872076511383056641 2.4313282966613769531 2.3132073879241943359 2.1161398887634277344 2.1295306682586669922 2.2198922634124755859 2.4168817996978759766 2.5983672142028808594 2.7069237232208251953 2.6807465553283691406 2.4464418888092041016 2.3058402538299560547 2.395275115966796875 2.5180685520172119141 2.7269983291625976562 2.9435212612152099609 2.8961379528045654297 2.7428326606750488281 2.6634042263031005859 2.4923622608184814453 2.3330709934234619141 2.4587099552154541016 2.6498088836669921875 2.8241269588470458984 3.0004415512084960938 3.0760865211486816406 2.8797173500061035156 2.78015899658203125 2.6150577068328857422 2.6199712753295898438 2.97904205322265625 3.2836174964904785156 3.4088571071624755859 3.3731377124786376953 3.3215553760528564453 3.0016117095947265625 2.5999808311462402344 2.3739070892333984375 2.52789306640625 2.9385211467742919922 3.1311998367309570312 3.3016779422760009766 3.4517877101898193359 3.5455987453460693359 3.5045816898345947266 3.481571197509765625 3.6864652633666992188 3.7314589023590087891 3.3987298011779785156 3.0825407505035400391 2.6620581150054931641 2.2955698966979980469 2.263763427734375 2.4282946586608886719 2.6979205608367919922 2.8715279102325439453 2.7130489349365234375 2.7667434215545654297 2.7390003204345703125 2.4916527271270751953 2.45308685302734375 2.4818708896636962891 2.4784755706787109375 2.4799962043762207031 2.4394388198852539062 2.4392881393432617188 2.4857146739959716797 2.49773406982421875 2.5054163932800292969 2.5293371677398681641 2.5485491752624511719 2.5632531642913818359 2.5893125534057617188 2.6128025054931640625 2.6348121166229248047 2.6626255512237548828 2.6910719871520996094 2.7137722969055175781 2.7334299087524414062 2.7567129135131835938 2.7842123508453369141 2.8131058216094970703 2.8508379459381103516 2.8810284137725830078 2.9212040901184082031 2.9404296875 2.989505767822265625 3.1383547782897949219 3.2824244499206542969 3.3739778995513916016 3.4109175205230712891 3.4438114166259765625 3.4608097076416015625 3.4704535007476806641 3.4754071235656738281 3.4938204288482666016 3.4968039989471435547 3.500377655029296875 3.5139100551605224609 3.5405557155609130859 3.5697267055511474609 3.5846629142761230469 3.6100380420684814453 3.611080169677734375 3.5962278842926025391 3.6395704746246337891 3.7185192108154296875 3.7423720359802246094 3.7608370780944824219 3.8208136558532714844 3.9051353931427001953 4.0707101821899414062 4.3306531906127929688 4.4699039459228515625 4.5704965591430664062 4.5844826698303222656 4.7012677192687988281 4.9704327583312988281 5.130718231201171875 5.1036672592163085938 4.9486341476440429688 4.9746694564819335938 5.2609381675720214844 5.3521471023559570312 5.1677598953247070312 4.9238719940185546875 
2.6466119289398193359 2.62471771240234375 2.4988064765930175781 2.2711443901062011719 2.1440663337707519531 2.2359611988067626953 2.2382128238677978516 2.285274505615234375 2.4475104808807373047 2.5583245754241943359 2.6976580619812011719 2.5996153354644775391 2.3990182876586914062 2.3564543724060058594 2.3894500732421875 2.5614161491394042969 2.8077402114868164062 2.9567725658416748047 2.90685272216796875 2.7596611976623535156 2.5349853038787841797 2.3679814338684082031 2.433475494384765625 2.5797202587127685547 2.76830291748046875 3.0208678245544433594 3.1042451858520507812 2.93320465087890625 2.8348367214202880859 2.7950263023376464844 2.6817660331726074219 2.8449060916900634766 3.2756626605987548828 3.4811944961547851562 3.6081883907318115234 3.5617883205413818359 3.2622206211090087891 2.9971277713775634766 2.7926557064056396484 2.7205905914306640625 3.0412287712097167969 3.506103515625 3.7942368984222412109 4.0012569427490234375 4.0628809928894042969 4.0576272010803222656 4.0269441604614257812 4.103641510009765625 4.1025052070617675781 3.7510652542114257812 3.2577817440032958984 2.7244594097137451172 2.3291518688201904297 2.2795259952545166016 2.6121809482574462891 3.0093243122100830078 3.1143672466278076172 2.9868097305297851562 2.9273655414581298828 2.8084723949432373047 2.7463672161102294922 2.6775784492492675781 2.6360177993774414062 2.6155061721801757812 2.5656125545501708984 2.4860699176788330078 2.4604589939117431641 2.4897980690002441406 2.5484561920166015625 2.5830667018890380859 2.6131253242492675781 2.6133313179016113281 2.5622348785400390625 2.5841541290283203125 2.6169614791870117188 2.6437866687774658203 2.6682047843933105469 2.6849014759063720703 2.7060561180114746094 2.7300887107849121094 2.7581758499145507812 2.7933022975921630859 2.8398280143737792969 2.8984761238098144531 2.9432964324951171875 2.9856607913970947266 2.9934723377227783203 3.0628690719604492188 3.1913635730743408203 3.3052768707275390625 3.4041507244110107422 3.4473199844360351562 3.4531300067901611328 3.4495790004730224609 3.475032806396484375 3.5042023658752441406 3.5230264663696289062 3.5269091129302978516 3.5373299121856689453 3.5444622039794921875 3.5708529949188232422 3.6003665924072265625 3.63059234619140625 3.6441309452056884766 3.6579108238220214844 3.6493420600891113281 3.6377069950103759766 3.6452937126159667969 3.6633770465850830078 3.6993434429168701172 3.7842428684234619141 3.8424012660980224609 3.9730768203735351562 4.1828866004943847656 4.20709991455078125 4.2570447921752929688 4.3343186378479003906 4.5920705795288085938 4.7746262550354003906 4.8183765411376953125 4.7140984535217285156 4.5901169776916503906 4.7773180007934570312 5.0726351737976074219 5.0867743492126464844 4.8724074363708496094 4.6544895172119140625 
2.7224640846252441406 2.7422626018524169922 2.6149435043334960938 2.4241271018981933594 2.2383697032928466797 2.2184557914733886719 2.2752428054809570312 2.3085939884185791016 2.5200753211975097656 2.5861856937408447266 2.6614716053009033203 2.7305254936218261719 2.5903761386871337891 2.5039396286010742188 2.3944163322448730469 2.4900920391082763672 2.685962677001953125 2.8650987148284912109 2.9245402812957763672 2.7011075019836425781 2.5202171802520751953 2.4861879348754882812 2.4648237228393554688 2.5294301509857177734 2.7885997295379638672 3.0555396080017089844 3.0984928607940673828 2.9658460617065429688 2.9849550724029541016 3.0276196002960205078 2.7851490974426269531 2.8125569820404052734 3.2116754055023193359 3.4800443649291992188 3.6594955921173095703 3.7001144886016845703 3.5824668407440185547 3.4821765422821044922 3.2986907958984375 3.1461021900177001953 3.1708469390869140625 3.5480496883392333984 3.9867422580718994141 4.2726354598999023438 4.4167633056640625 4.5085463523864746094 4.5018181800842285156 4.4377884864807128906 4.2833037376403808594 3.8549833297729492188 3.3631813526153564453 2.8994014263153076172 2.4903883934020996094 2.3106908798217773438 2.6150815486907958984 3.1513221263885498047 3.4993894100189208984 3.4494545459747314453 3.3006005287170410156 3.1650631427764892578 3.1471495628356933594 3.0086574554443359375 2.8455338478088378906 2.7872223854064941406 2.6400523185729980469 2.5608510971069335938 2.5174181461334228516 2.5175111293792724609 2.5739102363586425781 2.6752314567565917969 2.7195370197296142578 2.6901805400848388672 2.5810375213623046875 2.5929892063140869141 2.6369783878326416016 2.66342926025390625 2.6775546073913574219 2.6939513683319091797 2.7125492095947265625 2.7340767383575439453 2.7530915737152099609 2.7874307632446289062 2.8767125606536865234 2.9683172702789306641 3.0196282863616943359 3.0543544292449951172 3.0310840606689453125 3.069530487060546875 3.1943771839141845703 3.3364226818084716797 3.4198894500732421875 3.4399087429046630859 3.4363565444946289062 3.4493792057037353516 3.482082366943359375 3.5031425952911376953 3.5278520584106445312 3.5374252796173095703 3.5483083724975585938 3.5565569400787353516 3.5712535381317138672 3.5993444919586181641 3.620334625244140625 3.6421597003936767578 3.662761688232421875 3.6771819591522216797 3.6948845386505126953 3.7142672538757324219 3.7328917980194091797 3.7503707408905029297 3.7760572433471679688 3.7971639633178710938 3.8520224094390869141 3.957061767578125 3.9726774692535400391 4.0540795326232910156 4.1770539283752441406 4.3252439498901367188 4.3918566703796386719 4.4179081916809082031 4.3603730201721191406 4.3419342041015625 4.5288367271423339844 4.8049159049987792969 4.8651509284973144531 4.6469578742980957031 4.4887251853942871094 
2.6924984455108642578 2.7323389053344726562 2.6994562149047851562 2.6589000225067138672 2.4844136238098144531 2.2944712638854980469 2.25913238525390625 2.3240249156951904297 2.4484145641326904297 2.6093821525573730469 2.6973855495452880859 2.779865264892578125 2.7781312465667724609 2.6519260406494140625 2.5382475852966308594 2.4688820838928222656 2.5205147266387939453 2.6847031116485595703 2.9136648178100585938 2.9079301357269287109 2.6829087734222412109 2.6509039402008056641 2.6126844882965087891 2.5230298042297363281 2.6382603645324707031 2.8624792098999023438 3.1267986297607421875 3.1073091030120849609 3.1757049560546875 3.1812062263488769531 2.8831968307495117188 2.7761874198913574219 3.0851526260375976562 3.4579782485961914062 3.6257891654968261719 3.7221920490264892578 3.815090179443359375 3.8314366340637207031 3.7929499149322509766 3.6671352386474609375 3.4894456863403320312 3.5180902481079101562 3.8047406673431396484 4.0429806709289550781 4.2110896110534667969 4.348796844482421875 4.4198598861694335938 4.3477144241333007812 4.3085656166076660156 4.0954847335815429688 3.6802532672882080078 3.1667695045471191406 2.6911635398864746094 2.4069278240203857422 2.5314090251922607422 2.9847970008850097656 3.5057206153869628906 3.8221271038055419922 3.7782533168792724609 3.6500780582427978516 3.6437165737152099609 3.4630975723266601562 3.2089693546295166016 2.9873044490814208984 2.8322801589965820312 2.7155954837799072266 2.5774676799774169922 2.5427753925323486328 2.5586924552917480469 2.6437802314758300781 2.6763627529144287109 2.6510646343231201172 2.5858869552612304688 2.6247768402099609375 2.6668925285339355469 2.6891393661499023438 2.703643798828125 2.7169680595397949219 2.7269406318664550781 2.7434854507446289062 2.7663428783416748047 2.7985560894012451172 2.8828816413879394531 2.9737493991851806641 3.0551543235778808594 3.1000788211822509766 3.0452468395233154297 3.0925297737121582031 3.2320551872253417969 3.3573863506317138672 3.4056324958801269531 3.4147675037384033203 3.4249033927917480469 3.4440400600433349609 3.4635422229766845703 3.4756746292114257812 3.5032467842102050781 3.5149335861206054688 3.5290901660919189453 3.54521942138671875 3.5712485313415527344 3.5947411060333251953 3.6231722831726074219 3.6565535068511962891 3.6807744503021240234 3.6907861232757568359 3.7112512588500976562 3.7455828189849853516 3.7738382816314697266 3.8022747039794921875 3.8315434455871582031 3.852596282958984375 3.8717980384826660156 3.8922181129455566406 3.9126329421997070312 3.9501316547393798828 4.0162410736083984375 4.0802822113037109375 4.1387944221496582031 4.1661081314086914062 4.1847991943359375 4.2166795730590820312 4.3108119964599609375 4.4785742759704589844 4.5336561203002929688 4.4369683265686035156 4.3987140655517578125 
2.5796122550964355469 2.6275079250335693359 2.6703217029571533203 2.7257251739501953125 2.6893718242645263672 2.4820115566253662109 2.3076848983764648438 2.3525040149688720703 2.5005807876586914062 2.5705411434173583984 2.7024836540222167969 2.8243503570556640625 2.9194021224975585938 2.8771758079528808594 2.7428312301635742188 2.6076128482818603516 2.5624294281005859375 2.5963380336761474609 2.7950239181518554688 3.0080571174621582031 2.9156262874603271484 2.8097908496856689453 2.8239674568176269531 2.6311030387878417969 2.6034915447235107422 2.7899711132049560547 3.1182837486267089844 3.2075493335723876953 3.2213542461395263672 3.3228261470794677734 3.1760628223419189453 2.8795378208160400391 2.9020748138427734375 3.28380584716796875 3.6388270854949951172 3.7309918403625488281 3.7711787223815917969 3.8581738471984863281 3.9567389488220214844 3.9457542896270751953 3.7866387367248535156 3.6513135433197021484 3.6803174018859863281 3.837299346923828125 3.9890642166137695312 4.0671930313110351562 4.1062345504760742188 4.1096425056457519531 4.1553707122802734375 4.1611456871032714844 3.8993768692016601562 3.3699419498443603516 2.9323732852935791016 2.7088210582733154297 2.5698645114898681641 2.7554824352264404297 3.2721304893493652344 3.8169333934783935547 4.0761084556579589844 4.03436279296875 4.0612721443176269531 3.9297592639923095703 3.6307857036590576172 3.4040503501892089844 3.2150633335113525391 2.9193029403686523438 2.6882717609405517578 2.591838836669921875 2.5959637165069580078 2.7012882232666015625 2.6967816352844238281 2.6297054290771484375 2.5916857719421386719 2.6477508544921875 2.708385467529296875 2.7220973968505859375 2.7362089157104492188 2.74748992919921875 2.7497677803039550781 2.7510182857513427734 2.7807919979095458984 2.8324382305145263672 2.9175662994384765625 2.9762091636657714844 3.066310882568359375 3.1302592754364013672 3.0807964801788330078 3.1443831920623779297 3.2685379981994628906 3.3385951519012451172 3.3703339099884033203 3.3973209857940673828 3.4130547046661376953 3.4217114448547363281 3.4328794479370117188 3.4508156776428222656 3.4729747772216796875 3.496059417724609375 3.5201382637023925781 3.5423076152801513672 3.5739357471466064453 3.5873615741729736328 3.6108918190002441406 3.6512959003448486328 3.6997215747833251953 3.7100846767425537109 3.7273640632629394531 3.7573699951171875 3.7834279537200927734 3.8137202262878417969 3.8444316387176513672 3.8730034828186035156 3.9065680503845214844 3.9402756690979003906 3.9614980220794677734 3.9729223251342773438 3.9891142845153808594 4.0200834274291992188 4.0578947067260742188 4.0938358306884765625 4.1372814178466796875 4.1810860633850097656 4.2261915206909179688 4.2765154838562011719 4.3175539970397949219 4.386180877685546875 4.4962506294250488281 
2.591033935546875 2.6077697277069091797 2.667850494384765625 2.7553894519805908203 2.8171603679656982422 2.7157311439514160156 2.4173388481140136719 2.3836538791656494141 2.6490793228149414062 2.7458989620208740234 2.6633238792419433594 2.7736847400665283203 3.0177447795867919922 3.0662884712219238281 2.9389719963073730469 2.8265655040740966797 2.6547236442565917969 2.6075825691223144531 2.6619889736175537109 2.9379849433898925781 3.1120004653930664062 2.9868750572204589844 3.0047748088836669922 2.8070621490478515625 2.6510469913482666016 2.7079069614410400391 2.9459786415100097656 3.1859729290008544922 3.2214596271514892578 3.3130042552947998047 3.4183638095855712891 3.2134985923767089844 2.9222724437713623047 3.0099420547485351562 3.4061899185180664062 3.7274646759033203125 3.8219838142395019531 3.8548538684844970703 3.8813865184783935547 3.8999104499816894531 3.8780124187469482422 3.8096768856048583984 3.8041229248046875 3.8689038753509521484 3.9171559810638427734 4.0315752029418945312 4.1004872322082519531 4.0806326866149902344 4.0923504829406738281 4.1499185562133789062 4.0763216018676757812 3.6733005046844482422 3.3535478115081787109 3.2076623439788818359 2.8308625221252441406 2.6463532447814941406 3.0128915309906005859 3.5359537601470947266 3.9397270679473876953 4.1941905021667480469 4.3223280906677246094 4.3183774948120117188 4.1158432960510253906 3.9211866855621337891 3.6159234046936035156 3.1971859931945800781 2.8590562343597412109 2.7104420661926269531 2.6535558700561523438 2.7310543060302734375 2.8079662322998046875 2.6895689964294433594 2.6140644550323486328 2.6191287040710449219 2.7018232345581054688 2.7519488334655761719 2.7596211433410644531 2.7736532688140869141 2.7816507816314697266 2.7826128005981445312 2.7947225570678710938 2.842601776123046875 2.9381279945373535156 2.9917683601379394531 3.0597815513610839844 3.1249854564666748047 3.1228759288787841797 3.2008402347564697266 3.2868432998657226562 3.3222749233245849609 3.3471200466156005859 3.3720428943634033203 3.3918249607086181641 3.3987462520599365234 3.4069433212280273438 3.4302225112915039062 3.4574244022369384766 3.4885880947113037109 3.5086488723754882812 3.5348110198974609375 3.5599033832550048828 3.5818064212799072266 3.5971746444702148438 3.6223661899566650391 3.6761786937713623047 3.7061543464660644531 3.7236962318420410156 3.7494566440582275391 3.7766938209533691406 3.7994868755340576172 3.8316261768341064453 3.8719313144683837891 3.9049570560455322266 3.9359750747680664062 3.9661552906036376953 3.9952294826507568359 4.0122075080871582031 4.0368967056274414062 4.0717749595642089844 4.1106019020080566406 4.1809153556823730469 4.3003935813903808594 4.3725314140319824219 4.3402996063232421875 4.3503298759460449219 4.5223598480224609375 4.7396073341369628906 
2.6465830802917480469 2.6426413059234619141 2.6784322261810302734 2.7773325443267822266 2.9371023178100585938 2.8819663524627685547 2.5283715724945068359 2.3710541725158691406 2.64211273193359375 2.9033079147338867188 2.7705543041229248047 2.7957396507263183594 3.1075942516326904297 3.2316734790802001953 3.1589629650115966797 2.9852302074432373047 2.7617933750152587891 2.6654257774353027344 2.6387336254119873047 2.8774044513702392578 3.1992151737213134766 3.1806612014770507812 3.1541850566864013672 2.980449676513671875 2.7060120105743408203 2.7362577915191650391 2.9599430561065673828 3.2167069911956787109 3.3226392269134521484 3.3848383426666259766 3.5771577358245849609 3.5088207721710205078 3.1166188716888427734 2.9066431522369384766 3.0873498916625976562 3.4864909648895263672 3.8643267154693603516 4.0023679733276367188 3.9414134025573730469 3.9072084426879882812 3.8673918247222900391 3.7964055538177490234 3.8859145641326904297 3.9750530719757080078 4.0304365158081054688 4.163394927978515625 4.2358303070068359375 4.2454676628112792969 4.1792387962341308594 4.1606974601745605469 4.1441388130187988281 3.9266953468322753906 3.7287290096282958984 3.4905116558074951172 3.0566849708557128906 2.7013962268829345703 2.7429745197296142578 3.0985343456268310547 3.4862837791442871094 3.8642716407775878906 4.192142486572265625 4.3952946662902832031 4.4211893081665039062 4.294475555419921875 3.9662005901336669922 3.5291919708251953125 3.2035837173461914062 3.0553476810455322266 2.8277971744537353516 2.7508764266967773438 2.8122882843017578125 2.7150242328643798828 2.6482241153717041016 2.6197779178619384766 2.6664404869079589844 2.7493207454681396484 2.7822961807250976562 2.7996611595153808594 2.8087623119354248047 2.8200848102569580078 2.8233935832977294922 2.8424134254455566406 2.8918824195861816406 2.9369854927062988281 2.9732785224914550781 3.0415966510772705078 3.1238150596618652344 3.19622802734375 3.2582476139068603516 3.3063743114471435547 3.3355739116668701172 3.3445847034454345703 3.3589711189270019531 3.3709528446197509766 3.3911216259002685547 3.4239127635955810547 3.4566748142242431641 3.4803984165191650391 3.5009000301361083984 3.5280618667602539062 3.5473001003265380859 3.5696575641632080078 3.5848803520202636719 3.6142971515655517578 3.6466448307037353516 3.6759753227233886719 3.7091591358184814453 3.7305121421813964844 3.7448658943176269531 3.7684676647186279297 3.8000910282135009766 3.8448398113250732422 3.8754220008850097656 3.9078702926635742188 3.9567742347717285156 4.0211114883422851562 4.0590119361877441406 4.063129425048828125 4.0903301239013671875 4.1431555747985839844 4.2553834915161132812 4.4379553794860839844 4.5873141288757324219 4.5991830825805664062 4.519023895263671875 4.547374725341796875 4.7188472747802734375 
2.7124011516571044922 2.7089705467224121094 2.7615811824798583984 2.8134059906005859375 2.9355149269104003906 2.8613629341125488281 2.515625 2.3738870620727539062 2.5942862033843994141 2.8937809467315673828 2.8531432151794433594 2.8784742355346679688 3.1409955024719238281 3.2649466991424560547 3.2643940448760986328 3.1600503921508789062 2.9832510948181152344 2.7678747177124023438 2.6844532489776611328 2.8485324382781982422 3.1666653156280517578 3.2629840373992919922 3.2877500057220458984 3.04811859130859375 2.7568147182464599609 2.7855234146118164062 2.9435627460479736328 3.1969537734985351562 3.3916842937469482422 3.5031502246856689453 3.5842700004577636719 3.6111316680908203125 3.3797352313995361328 3.0455720424652099609 2.9694738388061523438 3.3029775619506835938 3.7671782970428466797 4.0505161285400390625 4.0061364173889160156 3.9594273567199707031 3.8988530635833740234 3.8280663490295410156 3.8782899379730224609 3.9883596897125244141 4.1106719970703125 4.1992397308349609375 4.2669973373413085938 4.3969573974609375 4.3516168594360351562 4.2548937797546386719 4.1894073486328125 4.0489325523376464844 3.8122611045837402344 3.5424368381500244141 3.3055129051208496094 3.0115215778350830078 2.7276966571807861328 2.8035612106323242188 3.1487455368041992188 3.5466735363006591797 3.8979778289794921875 4.1483149528503417969 4.3305001258850097656 4.4226298332214355469 4.2131123542785644531 3.8744952678680419922 3.6736786365509033203 3.4411406517028808594 3.0773434638977050781 2.8127164840698242188 2.9152822494506835938 2.9132127761840820312 2.7867915630340576172 2.6942815780639648438 2.6606266498565673828 2.6867661476135253906 2.7577688694000244141 2.8129098415374755859 2.8232491016387939453 2.8418483734130859375 2.8562386035919189453 2.8562498092651367188 2.8690302371978759766 2.8976359367370605469 2.9285786151885986328 2.9951751232147216797 3.1063573360443115234 3.1900675296783447266 3.2448256015777587891 3.2684473991394042969 3.2914993762969970703 3.2934658527374267578 3.3016653060913085938 3.3443613052368164062 3.3850152492523193359 3.4191913604736328125 3.4456987380981445312 3.4638195037841796875 3.4814193248748779297 3.5041108131408691406 3.5243976116180419922 3.5477633476257324219 3.5744128227233886719 3.6001808643341064453 3.6221942901611328125 3.6501457691192626953 3.6834251880645751953 3.7055742740631103516 3.7301242351531982422 3.7677319049835205078 3.8083860874176025391 3.8479778766632080078 3.8881859779357910156 3.9226772785186767578 3.9712960720062255859 4.0523920059204101562 4.1065850257873535156 4.1184325218200683594 4.1202106475830078125 4.150424957275390625 4.2418966293334960938 4.38777923583984375 4.6062688827514648438 4.7894520759582519531 4.7456851005554199219 4.6402063369750976562 4.6769576072692871094 
2.8404119014739990234 2.8792891502380371094 2.9043726921081542969 2.9402151107788085938 2.9318785667419433594 2.8692173957824707031 2.5600161552429199219 2.3991324901580810547 2.5222525596618652344 2.7898204326629638672 2.8805387020111083984 2.9079790115356445312 3.0468969345092773438 3.1831524372100830078 3.2747008800506591797 3.2876455783843994141 3.1220521926879882812 2.8679881095886230469 2.7538914680480957031 2.8223426342010498047 2.9756970405578613281 3.0726170539855957031 3.2704842090606689453 3.1815013885498046875 2.90655517578125 2.8043649196624755859 2.8723766803741455078 3.0968492031097412109 3.3601465225219726562 3.5584430694580078125 3.6369824409484863281 3.6470556259155273438 3.6249942779541015625 3.2589595317840576172 2.9957363605499267578 3.1967780590057373047 3.6051633358001708984 3.9557180404663085938 4.0580840110778808594 4.0491185188293457031 3.9743010997772216797 3.9150514602661132812 3.8640606403350830078 3.990848541259765625 4.0868959426879882812 4.1386928558349609375 4.1931104660034179688 4.3264255523681640625 4.4275832176208496094 4.3948464393615722656 4.3466644287109375 4.2266726493835449219 4.0900664329528808594 3.9401326179504394531 3.691623687744140625 3.352268218994140625 3.0126316547393798828 2.7942013740539550781 3.0439145565032958984 3.5180325508117675781 3.8913528919219970703 4.1326165199279785156 4.2942309379577636719 4.3423309326171875 4.2912836074829101562 4.2392559051513671875 4.0651574134826660156 3.6821043491363525391 3.2060186862945556641 2.9684717655181884766 3.1546421051025390625 3.2443447113037109375 2.9945611953735351562 2.7841196060180664062 2.7333960533142089844 2.7081944942474365234 2.7158341407775878906 2.7536993026733398438 2.7708380222320556641 2.8378000259399414062 2.8783788681030273438 2.8890998363494873047 2.9016754627227783203 2.9132704734802246094 2.9374663829803466797 2.9901926517486572266 3.1140296459197998047 3.1992766857147216797 3.2119128704071044922 3.2099349498748779297 3.2300963401794433594 3.2552616596221923828 3.2669482231140136719 3.3197298049926757812 3.3517346382141113281 3.3831870555877685547 3.4085795879364013672 3.4330351352691650391 3.4588081836700439453 3.4787371158599853516 3.4982328414916992188 3.5145592689514160156 3.5461435317993164062 3.5750281810760498047 3.6056730747222900391 3.6297309398651123047 3.6495707035064697266 3.6841132640838623047 3.7332470417022705078 3.7734868526458740234 3.8150336742401123047 3.8556599617004394531 3.9008221626281738281 3.9407641887664794922 3.9813768863677978516 4.0460996627807617188 4.1103496551513671875 4.1499009132385253906 4.16961669921875 4.1790080070495605469 4.1977162361145019531 4.2647447586059570312 4.4521799087524414062 4.6473660469055175781 4.6219534873962402344 4.5898518562316894531 4.6302838325500488281 
2.9704556465148925781 3.0875132083892822266 3.1321842670440673828 3.0935769081115722656 3.0058636665344238281 2.8908238410949707031 2.581584930419921875 2.4789364337921142578 2.5051753520965576172 2.5824451446533203125 2.686855316162109375 2.8196277618408203125 2.9610745906829833984 3.1459879875183105469 3.2893621921539306641 3.2880825996398925781 3.2363045215606689453 3.0193269252777099609 2.8455741405487060547 2.9594271183013916016 2.9909272193908691406 3.0047132968902587891 3.1354765892028808594 3.3255760669708251953 3.2629525661468505859 3.0254862308502197266 2.9009647369384765625 2.9423696994781494141 3.1387426853179931641 3.3999943733215332031 3.6878652572631835938 3.7102668285369873047 3.7465448379516601562 3.4328820705413818359 3.0968215465545654297 3.0630247592926025391 3.299076080322265625 3.6375424861907958984 3.9784221649169921875 4.1340379714965820312 4.0737652778625488281 3.9814195632934570312 3.9059653282165527344 3.9017236232757568359 3.9968042373657226562 4.1066679954528808594 4.17273712158203125 4.2483077049255371094 4.4148068428039550781 4.4944486618041992188 4.4568042755126953125 4.3990907669067382812 4.4107761383056640625 4.2894830703735351562 3.9411597251892089844 3.6437079906463623047 3.3485965728759765625 2.9116694927215576172 2.9047293663024902344 3.2633080482482910156 3.5992729663848876953 3.9374353885650634766 4.1380677223205566406 4.1441249847412109375 4.2821359634399414062 4.3633074760437011719 4.0803799629211425781 3.6776578426361083984 3.2969150543212890625 3.2204351425170898438 3.4480104446411132812 3.4003019332885742188 3.1061851978302001953 2.8657894134521484375 2.8143689632415771484 2.8094656467437744141 2.7507460117340087891 2.7718892097473144531 2.7808232307434082031 2.7973845005035400391 2.8856730461120605469 2.9205560684204101562 2.9288861751556396484 2.9395005702972412109 2.9531512260437011719 2.9874904155731201172 3.0695319175720214844 3.1530976295471191406 3.1614768505096435547 3.1720547676086425781 3.2075743675231933594 3.2414691448211669922 3.2588150501251220703 3.3072495460510253906 3.3346421718597412109 3.3611736297607421875 3.3915474414825439453 3.4184365272521972656 3.4393486976623535156 3.4396200180053710938 3.4580209255218505859 3.4908959865570068359 3.5260915756225585938 3.5554382801055908203 3.5845901966094970703 3.6113500595092773438 3.6474397182464599609 3.6841020584106445312 3.7187891006469726562 3.7610781192779541016 3.8106601238250732422 3.8540465831756591797 3.8941004276275634766 3.9394783973693847656 3.9803044795989990234 4.0290188789367675781 4.0707101821899414062 4.0835442543029785156 4.11824798583984375 4.1718440055847167969 4.2244057655334472656 4.2357888221740722656 4.3024153709411621094 4.4031891822814941406 4.4851589202880859375 4.6469469070434570312 4.7637567520141601562 
3.1478915214538574219 3.2813608646392822266 3.3516755104064941406 3.2926132678985595703 3.1262812614440917969 2.9030869007110595703 2.6220219135284423828 2.5339632034301757812 2.6179647445678710938 2.6055686473846435547 2.6531591415405273438 2.6358017921447753906 2.7322294712066650391 2.9507615566253662109 3.1727781295776367188 3.2567381858825683594 3.3131422996520996094 3.0805115699768066406 2.8917920589447021484 3.1342899799346923828 3.3259615898132324219 3.2422664165496826172 3.1813971996307373047 3.4415776729583740234 3.5833394527435302734 3.4130270481109619141 3.1830182075500488281 2.997447967529296875 2.9823219776153564453 3.2743842601776123047 3.6922376155853271484 3.7942533493041992188 3.7810447216033935547 3.5272393226623535156 3.2503931522369384766 3.0944659709930419922 3.1065003871917724609 3.3364930152893066406 3.6891424655914306641 3.9226069450378417969 4.0326013565063476562 4.0772109031677246094 4.0159168243408203125 3.9342534542083740234 3.9316504001617431641 3.9935958385467529297 4.0603780746459960938 4.2032327651977539062 4.3427076339721679688 4.3854775428771972656 4.3686528205871582031 4.4030070304870605469 4.4573283195495605469 4.3265872001647949219 4.0966916084289550781 3.89261627197265625 3.4838955402374267578 2.9895045757293701172 2.9991507530212402344 3.3812131881713867188 3.5299742221832275391 3.6776967048645019531 3.8980669975280761719 4.1610212326049804688 4.4978127479553222656 4.4817686080932617188 4.0858349800109863281 3.7838726043701171875 3.6283545494079589844 3.532039642333984375 3.6780610084533691406 3.5306987762451171875 3.2569329738616943359 2.9586861133575439453 2.9368021488189697266 3.0111413002014160156 2.8639194965362548828 2.8313672542572021484 2.8394324779510498047 2.7877483367919921875 2.8265390396118164062 2.9108710289001464844 2.9507138729095458984 2.9691309928894042969 2.9822866916656494141 3.0023062229156494141 3.0324752330780029297 3.0823562145233154297 3.1340916156768798828 3.1700882911682128906 3.1950814723968505859 3.2195246219635009766 3.2625997066497802734 3.3033618927001953125 3.3180685043334960938 3.3443186283111572266 3.3690481185913085938 3.3894391059875488281 3.3942897319793701172 3.4189314842224121094 3.4621369838714599609 3.50258636474609375 3.5349678993225097656 3.5584707260131835938 3.5841231346130371094 3.605854034423828125 3.6367702484130859375 3.6675369739532470703 3.7025015354156494141 3.7425479888916015625 3.7813348770141601562 3.8236212730407714844 3.8681316375732421875 3.9053199291229248047 3.9433972835540771484 3.9935858249664306641 3.9970126152038574219 4.0173559188842773438 4.0761547088623046875 4.1011476516723632812 4.16197967529296875 4.1879887580871582031 4.2356920242309570312 4.354320526123046875 4.5473141670227050781 4.7112364768981933594 4.8258428573608398438 
3.4105131626129150391 3.4286139011383056641 3.2774031162261962891 3.2028856277465820312 3.1355242729187011719 2.9178988933563232422 2.7071409225463867188 2.5845282077789306641 2.6834311485290527344 2.7746214866638183594 2.8050091266632080078 2.7898705005645751953 2.7385067939758300781 2.7525353431701660156 2.9332561492919921875 3.1330130100250244141 3.3377249240875244141 3.2103130817413330078 2.941944122314453125 3.0998151302337646484 3.4178376197814941406 3.4798107147216796875 3.3224194049835205078 3.4396138191223144531 3.7130305767059326172 3.71695709228515625 3.4285399913787841797 3.105533599853515625 3.0015590190887451172 3.2417805194854736328 3.6317536830902099609 3.7470622062683105469 3.6097252368927001953 3.4527709484100341797 3.2903630733489990234 3.2112271785736083984 3.1434013843536376953 3.192905426025390625 3.3908317089080810547 3.6083037853240966797 3.96851348876953125 4.2065448760986328125 4.1327486038208007812 4.0668940544128417969 3.9982757568359375 4.0164241790771484375 4.0092830657958984375 4.0422501564025878906 4.1681337356567382812 4.2374863624572753906 4.2785649299621582031 4.3145766258239746094 4.3321552276611328125 4.3456435203552246094 4.2662353515625 3.9430985450744628906 3.4149923324584960938 2.9904010295867919922 3.1469724178314208984 3.6307668685913085938 3.8086848258972167969 3.7643027305603027344 3.8876123428344726562 4.2838501930236816406 4.5371556282043457031 4.5164847373962402344 4.2981762886047363281 4.1479182243347167969 3.9489274024963378906 3.8567411899566650391 3.9728896617889404297 3.7691621780395507812 3.3281514644622802734 3.0496542453765869141 3.1961412429809570312 3.2697069644927978516 3.02912139892578125 2.9256956577301025391 2.8631660938262939453 2.8409819602966308594 2.8082060813903808594 2.8267588615417480469 2.9082579612731933594 2.9687104225158691406 3.0047471523284912109 3.0324652194976806641 3.0578551292419433594 3.0712797641754150391 3.0995941162109375 3.1406891345977783203 3.1683969497680664062 3.2167584896087646484 3.2567973136901855469 3.2763671875 3.2812001705169677734 3.3049602508544921875 3.3196091651916503906 3.3421649932861328125 3.3731114864349365234 3.4143731594085693359 3.4514210224151611328 3.4855868816375732422 3.5128164291381835938 3.5294015407562255859 3.5453588962554931641 3.5682399272918701172 3.5946445465087890625 3.6364927291870117188 3.6743605136871337891 3.7085163593292236328 3.7296707630157470703 3.76702880859375 3.8045938014984130859 3.84976959228515625 3.8689727783203125 3.8812208175659179688 3.9379351139068603516 4.145992279052734375 4.2790560722351074219 4.2362608909606933594 4.197551727294921875 4.2124667167663574219 4.2267026901245117188 4.2659201622009277344 4.4087505340576171875 4.6044917106628417969 4.749340057373046875 
3.4064197540283203125 3.4447069168090820312 3.2748816013336181641 3.0470023155212402344 3.0467135906219482422 2.9927856922149658203 2.785186767578125 2.6156227588653564453 2.6777441501617431641 2.8727130889892578125 2.8385083675384521484 2.9355251789093017578 2.9888315200805664062 2.8647911548614501953 2.7817876338958740234 2.9559826850891113281 3.2059130668640136719 3.2403376102447509766 3.0102081298828125 3.020175933837890625 3.3166093826293945312 3.5992691516876220703 3.5984253883361816406 3.6038360595703125 3.7003731727600097656 3.6365580558776855469 3.3694949150085449219 3.0951855182647705078 3.0816943645477294922 3.3249406814575195312 3.6475226879119873047 3.7573146820068359375 3.6441988945007324219 3.5793740749359130859 3.3946137428283691406 3.4143846035003662109 3.3679819107055664062 3.1895515918731689453 3.2695651054382324219 3.5580475330352783203 3.8959412574768066406 4.2105131149291992188 4.3149971961975097656 4.2359986305236816406 4.0999774932861328125 4.0923695564270019531 4.1220297813415527344 4.0732073783874511719 4.0603556632995605469 4.0844120979309082031 4.1585702896118164062 4.2440361976623535156 4.264324188232421875 4.3355126380920410156 4.2112789154052734375 3.8459172248840332031 3.3577392101287841797 3.0255239009857177734 3.2986781597137451172 3.7487862110137939453 4.0207109451293945312 4.0946059226989746094 4.11742401123046875 4.3123679161071777344 4.4503188133239746094 4.552989959716796875 4.4727301597595214844 4.3134942054748535156 4.0276288986206054688 4.0605802536010742188 4.2349085807800292969 3.9435417652130126953 3.4995350837707519531 3.324726104736328125 3.5389974117279052734 3.5844972133636474609 3.3094959259033203125 3.0865879058837890625 2.9128975868225097656 2.9002277851104736328 2.8622519969940185547 2.8385007381439208984 2.8320765495300292969 2.8857986927032470703 2.9999091625213623047 3.0474016666412353516 3.0720143318176269531 3.1029367446899414062 3.1124598979949951172 3.1235778331756591797 3.1488335132598876953 3.1827607154846191406 3.2097342014312744141 3.233734130859375 3.2554738521575927734 3.2906680107116699219 3.3202645778656005859 3.3473699092864990234 3.3723516464233398438 3.4041330814361572266 3.4329309463500976562 3.4628262519836425781 3.4821512699127197266 3.485992431640625 3.5154395103454589844 3.5507242679595947266 3.5899770259857177734 3.6288442611694335938 3.6571612358093261719 3.6872513294219970703 3.7109622955322265625 3.740474700927734375 3.7610681056976318359 3.8011507987976074219 3.8399827480316162109 3.8909046649932861328 3.9583752155303955078 4.126964569091796875 4.3633942604064941406 4.4134607315063476562 4.3460745811462402344 4.3717241287231445312 4.4207196235656738281 4.3686342239379882812 4.32012176513671875 4.4758119583129882812 4.667022705078125 
3.3068149089813232422 3.3770315647125244141 3.2297046184539794922 3.0151355266571044922 2.9408178329467773438 2.8430199623107910156 2.6987957954406738281 2.6565279960632324219 2.6835391521453857422 2.9022066593170166016 2.9711301326751708984 3.0302188396453857422 3.0707962512969970703 3.0501866340637207031 2.8626575469970703125 2.8630719184875488281 2.9560818672180175781 3.0689327716827392578 3.0370409488677978516 3.0503487586975097656 3.2113502025604248047 3.4195153713226318359 3.5571911334991455078 3.6505048274993896484 3.6334691047668457031 3.4002554416656494141 3.200656890869140625 3.0809271335601806641 3.1765539646148681641 3.5472435951232910156 3.8428156375885009766 3.8734958171844482422 3.8073337078094482422 3.6938385963439941406 3.4981877803802490234 3.5719919204711914062 3.4507567882537841797 3.2422928810119628906 3.2388422489166259766 3.4355189800262451172 3.698657989501953125 4.0370311737060546875 4.3711552619934082031 4.4069323539733886719 4.2685832977294921875 4.2086710929870605469 4.2275338172912597656 4.2072505950927734375 4.1485323905944824219 4.14013671875 4.2230634689331054688 4.3488583564758300781 4.3994097709655761719 4.40447998046875 4.1104412078857421875 3.7367177009582519531 3.3157465457916259766 3.0746161937713623047 3.4583573341369628906 3.9758906364440917969 4.2141594886779785156 4.4428863525390625 4.4323010444641113281 4.3502984046936035156 4.4968657493591308594 4.52362060546875 4.3998312950134277344 4.2234907150268554688 4.0193924903869628906 4.1164569854736328125 4.3148064613342285156 4.243927001953125 3.9095454216003417969 3.7725889682769775391 3.9806911945343017578 3.9706795215606689453 3.5752227306365966797 3.2056281566619873047 3.0130510330200195312 2.9505116939544677734 2.9158573150634765625 2.8920331001281738281 2.8853490352630615234 2.8597822189331054688 2.9545726776123046875 3.0404915809631347656 3.0791215896606445312 3.1045203208923339844 3.1284737586975097656 3.1466057300567626953 3.1646211147308349609 3.183650970458984375 3.2114505767822265625 3.2373831272125244141 3.2639107704162597656 3.2959570884704589844 3.3166043758392333984 3.3202695846557617188 3.3323919773101806641 3.3642399311065673828 3.3955843448638916016 3.4221684932708740234 3.4473826885223388672 3.4936897754669189453 3.5471332073211669922 3.5860354900360107422 3.6210389137268066406 3.6583578586578369141 3.6882107257843017578 3.7228574752807617188 3.7560226917266845703 3.7897214889526367188 3.8215782642364501953 3.8519921302795410156 3.8836681842803955078 3.919147491455078125 3.9514701366424560547 4.0091314315795898438 4.1586446762084960938 4.3594951629638671875 4.4485192298889160156 4.5676789283752441406 4.6432814598083496094 4.5320615768432617188 4.3887314796447753906 4.426300048828125 4.6117272377014160156 
3.2036151885986328125 3.2371156215667724609 3.1636216640472412109 3.1488811969757080078 3.1080136299133300781 2.8934495449066162109 2.7510774135589599609 2.7381815910339355469 2.6783883571624755859 2.8648061752319335938 3.0568706989288330078 3.2224102020263671875 3.2959043979644775391 3.2941124439239501953 3.1388268470764160156 3.0464498996734619141 2.9584600925445556641 2.9588932991027832031 3.0090491771697998047 3.1020302772521972656 3.2854168415069580078 3.4079000949859619141 3.4470763206481933594 3.5515768527984619141 3.6401305198669433594 3.4833807945251464844 3.2242009639739990234 3.1145079135894775391 3.2296519279479980469 3.5947775840759277344 3.9510180950164794922 3.9755089282989501953 3.9597651958465576172 3.7744348049163818359 3.5987982749938964844 3.6018006801605224609 3.4339706897735595703 3.3891000747680664062 3.2913801670074462891 3.3375704288482666016 3.5733430385589599609 3.8119559288024902344 4.0917906761169433594 4.3219037055969238281 4.4100680351257324219 4.3683490753173828125 4.379444122314453125 4.3580651283264160156 4.3407340049743652344 4.30756378173828125 4.3899807929992675781 4.4126720428466796875 4.4515933990478515625 4.4574599266052246094 4.2729430198669433594 3.9375345706939697266 3.4984250068664550781 3.1751651763916015625 3.3095724582672119141 3.7295541763305664062 4.0593333244323730469 4.3811659812927246094 4.451862335205078125 4.4088950157165527344 4.5112977027893066406 4.4811997413635253906 4.3004212379455566406 4.1700563430786132812 4.1684789657592773438 4.2259302139282226562 4.3948025703430175781 4.5050654411315917969 4.3244152069091796875 4.2764678001403808594 4.4264369010925292969 4.2528672218322753906 3.8601415157318115234 3.5794832706451416016 3.2801454067230224609 3.0410339832305908203 2.9714915752410888672 2.94124603271484375 2.9392042160034179688 2.8785419464111328125 2.8935637474060058594 2.9550974369049072266 3.013126373291015625 3.0551102161407470703 3.0992891788482666016 3.134185791015625 3.1559782028198242188 3.1751701831817626953 3.20014190673828125 3.2383410930633544922 3.2727506160736083984 3.2960209846496582031 3.2896509170532226562 3.2924599647521972656 3.3283863067626953125 3.3701479434967041016 3.4119522571563720703 3.4454138278961181641 3.4815361499786376953 3.5215208530426025391 3.5599460601806640625 3.5940253734588623047 3.6247320175170898438 3.6608755588531494141 3.6928153038024902344 3.7270929813385009766 3.7654893398284912109 3.8020925521850585938 3.8343560695648193359 3.8555672168731689453 3.8757309913635253906 3.9017186164855957031 3.9153966903686523438 3.9257385730743408203 3.9797582626342773438 4.1745314598083496094 4.4338846206665039062 4.6744899749755859375 4.7344555854797363281 4.6206765174865722656 4.4852910041809082031 4.4175028800964355469 4.5712714195251464844 
3.0611338615417480469 3.0869293212890625 3.1502661705017089844 3.1164102554321289062 3.0421252250671386719 2.9051952362060546875 2.8595712184906005859 2.8936367034912109375 2.7801754474639892578 2.7626309394836425781 2.9111044406890869141 3.116191864013671875 3.2559924125671386719 3.3590803146362304688 3.3465938568115234375 3.2191908359527587891 3.058788299560546875 3.1033887863159179688 3.0914547443389892578 3.0846717357635498047 3.2658431529998779297 3.4870963096618652344 3.5094323158264160156 3.5842461585998535156 3.7641406059265136719 3.5852720737457275391 3.2491199970245361328 3.2084207534790039062 3.2644581794738769531 3.4728817939758300781 3.6977374553680419922 3.8547773361206054688 3.9020626544952392578 3.7472214698791503906 3.7402362823486328125 3.6622569561004638672 3.5524570941925048828 3.6197192668914794922 3.4375846385955810547 3.3272249698638916016 3.4471366405487060547 3.6020228862762451172 3.7758824825286865234 4.0166831016540527344 4.3231668472290039062 4.5440168380737304688 4.6165175437927246094 4.60619354248046875 4.59392547607421875 4.5699367523193359375 4.6089482307434082031 4.5202531814575195312 4.5043773651123046875 4.5348300933837890625 4.4680905342102050781 4.0803208351135253906 3.6656484603881835938 3.3709089756011962891 3.2312076091766357422 3.3462874889373779297 3.6281599998474121094 3.9503400325775146484 4.22519683837890625 4.43434906005859375 4.457782745361328125 4.34998321533203125 4.2713608741760253906 4.3923716545104980469 4.4927096366882324219 4.3928923606872558594 4.5208783149719238281 4.67687225341796875 4.7027997970581054688 4.7206063270568847656 4.7778820991516113281 4.5757818222045898438 4.2123866081237792969 3.8185796737670898438 3.3903696537017822266 3.1037065982818603516 3.0205826759338378906 3.0064210891723632812 2.9810862541198730469 2.9306893348693847656 2.8819737434387207031 2.9046905040740966797 2.9523098468780517578 3.0037665367126464844 3.0297679901123046875 3.0579192638397216797 3.0777740478515625 3.1081240177154541016 3.1360142230987548828 3.1791281700134277344 3.2312376499176025391 3.2461428642272949219 3.2561104297637939453 3.3067722320556640625 3.3520133495330810547 3.4026389122009277344 3.4323055744171142578 3.4589815139770507812 3.4889333248138427734 3.5262899398803710938 3.5604672431945800781 3.5859916210174560547 3.6159684658050537109 3.6528506278991699219 3.6903452873229980469 3.7400956153869628906 3.7734665870666503906 3.8013830184936523438 3.8263134956359863281 3.8455166816711425781 3.8631100654602050781 3.8751382827758789062 3.8778755664825439453 3.9098641872406005859 3.9824917316436767578 4.1319637298583984375 4.3580007553100585938 4.6412534713745117188 4.7404866218566894531 4.6803717613220214844 4.611118316650390625 4.4855456352233886719 4.531688690185546875 
2.8514544963836669922 2.9932401180267333984 3.0948615074157714844 2.9983897209167480469 2.9083156585693359375 2.8819448947906494141 2.9895961284637451172 3.0776736736297607422 2.9650022983551025391 2.7979421615600585938 2.8019101619720458984 2.8705170154571533203 2.9758388996124267578 3.1233403682708740234 3.3040864467620849609 3.2842202186584472656 3.1740474700927734375 3.2981607913970947266 3.2377448081970214844 3.1668035984039306641 3.1909277439117431641 3.3779218196868896484 3.5954983234405517578 3.7098386287689208984 3.7116918563842773438 3.471111297607421875 3.29969024658203125 3.4049041271209716797 3.4123139381408691406 3.3662841320037841797 3.5003750324249267578 3.6897664070129394531 3.8876450061798095703 3.9488835334777832031 4.033756256103515625 3.8966443538665771484 3.7968237400054931641 3.8005254268646240234 3.5941648483276367188 3.3845782279968261719 3.4485366344451904297 3.6858184337615966797 3.878337860107421875 3.9750895500183105469 4.1883587837219238281 4.5361185073852539062 4.8376374244689941406 4.9412693977355957031 4.899456024169921875 4.7978124618530273438 4.7274022102355957031 4.666492462158203125 4.70230865478515625 4.7532968521118164062 4.5839123725891113281 4.2020120620727539062 3.9519798755645751953 3.7996463775634765625 3.5337474346160888672 3.3309655189514160156 3.3462598323822021484 3.5260615348815917969 3.8360750675201416016 4.2047533988952636719 4.3360338211059570312 4.3709659576416015625 4.474376678466796875 4.5715889930725097656 4.58344268798828125 4.4893541336059570312 4.5449147224426269531 4.690540313720703125 4.8748826980590820312 4.9957308769226074219 5.0188770294189453125 4.8560624122619628906 4.396228790283203125 3.927394866943359375 3.6213440895080566406 3.3642702102661132812 3.1601948738098144531 3.0679998397827148438 3.0212583541870117188 3.0199022293090820312 2.9546515941619873047 2.934009552001953125 2.9392845630645751953 3.0216262340545654297 3.07466888427734375 3.0820233821868896484 3.115085601806640625 3.1663877964019775391 3.1904065608978271484 3.1915555000305175781 3.2040083408355712891 3.225475311279296875 3.2601599693298339844 3.2993500232696533203 3.3373444080352783203 3.3700098991394042969 3.3929965496063232422 3.4283766746520996094 3.4612793922424316406 3.5013909339904785156 3.5328068733215332031 3.5398414134979248047 3.5757551193237304688 3.6144378185272216797 3.6625883579254150391 3.7406115531921386719 3.7723703384399414062 3.7837004661560058594 3.7978408336639404297 3.8160557746887207031 3.8303930759429931641 3.8377025127410888672 3.8518025875091552734 3.9230313301086425781 4.0608553886413574219 4.2048435211181640625 4.3837060928344726562 4.6317539215087890625 4.7573137283325195312 4.7398524284362792969 4.694980621337890625 4.546741485595703125 4.6318120956420898438 
2.7057824134826660156 2.8770589828491210938 3.0781884193420410156 3.0916583538055419922 3.0366189479827880859 3.0416367053985595703 3.2008087635040283203 3.3074641227722167969 3.1198911666870117188 2.8896875381469726562 2.8831541538238525391 2.8880865573883056641 2.8804142475128173828 3.0270683765411376953 3.2688479423522949219 3.3400342464447021484 3.3630118370056152344 3.4272553920745849609 3.2962319850921630859 3.2143588066101074219 3.1740977764129638672 3.2773089408874511719 3.5286834239959716797 3.7780196666717529297 3.7327873706817626953 3.4690985679626464844 3.3777611255645751953 3.4830994606018066406 3.5826940536499023438 3.5556013584136962891 3.6141452789306640625 3.7850680351257324219 3.9673695564270019531 4.2112841606140136719 4.3207798004150390625 4.114223480224609375 3.9331760406494140625 3.7361803054809570312 3.5993847846984863281 3.4407551288604736328 3.4696259498596191406 3.7131874561309814453 3.8888151645660400391 3.9378333091735839844 4.1107072830200195312 4.4057230949401855469 4.8410229682922363281 5.1866364479064941406 5.2216801643371582031 5.0480866432189941406 4.9588189125061035156 4.94835662841796875 5.0113568305969238281 5.0877423286437988281 4.8606591224670410156 4.5701904296875 4.4021744728088378906 4.2559914588928222656 3.9210925102233886719 3.7364854812622070312 3.5602676868438720703 3.4034600257873535156 3.5159668922424316406 3.7940723896026611328 3.9892084598541259766 4.2814002037048339844 4.59038543701171875 4.6419439315795898438 4.5701527595520019531 4.6126966476440429688 4.6782207489013671875 4.7338700294494628906 4.8633289337158203125 4.9767613410949707031 5.0598020553588867188 4.978893280029296875 4.5855097770690917969 4.2564897537231445312 3.9964914321899414062 3.624256134033203125 3.2735154628753662109 3.0821464061737060547 3.0413341522216796875 3.0784447193145751953 3.0692117214202880859 3.0367183685302734375 2.9618730545043945312 2.9898083209991455078 3.0810124874114990234 3.1314673423767089844 3.1622490882873535156 3.1937668323516845703 3.2179150581359863281 3.2411489486694335938 3.2645411491394042969 3.2912621498107910156 3.3083431720733642578 3.3248441219329833984 3.3498058319091796875 3.3964972496032714844 3.5045001506805419922 3.57840728759765625 3.5940318107604980469 3.5223860740661621094 3.5056629180908203125 3.5524973869323730469 3.5895991325378417969 3.6397600173950195312 3.6622881889343261719 3.6989932060241699219 3.7361111640930175781 3.7481532096862792969 3.7633333206176757812 3.78823089599609375 3.8112490177154541016 3.8196732997894287109 3.8421061038970947266 3.9214856624603271484 4.04132843017578125 4.13883209228515625 4.363948822021484375 4.6429562568664550781 4.794219970703125 4.8063783645629882812 4.79730987548828125 4.6443285942077636719 4.6102466583251953125 
2.6097300052642822266 2.7819962501525878906 3.0573668479919433594 3.1774768829345703125 3.2093310356140136719 3.1792159080505371094 3.2864251136779785156 3.4586989879608154297 3.3831732273101806641 3.1121561527252197266 3.0981740951538085938 3.0875873565673828125 2.9641485214233398438 2.9875369071960449219 3.1801779270172119141 3.3665065765380859375 3.5291705131530761719 3.52983856201171875 3.3531196117401123047 3.3009195327758789062 3.244083404541015625 3.3043990135192871094 3.4365172386169433594 3.6592319011688232422 3.7824473381042480469 3.6037318706512451172 3.4199824333190917969 3.499176025390625 3.6955502033233642578 3.8232119083404541016 3.8644938468933105469 4.0063600540161132812 4.2082061767578125 4.4608626365661621094 4.5273690223693847656 4.2187027931213378906 3.9444370269775390625 3.8140528202056884766 3.6859955787658691406 3.5179686546325683594 3.4738323688507080078 3.5945339202880859375 3.6538977622985839844 3.7370355129241943359 3.9666311740875244141 4.2546715736389160156 4.62369537353515625 5.0136308670043945312 5.2539639472961425781 5.2950901985168457031 5.3084268569946289062 5.3198323249816894531 5.3406286239624023438 5.4078016281127929688 5.1902251243591308594 4.9595370292663574219 4.7828698158264160156 4.5500125885009765625 4.2878017425537109375 4.22391510009765625 3.9769265651702880859 3.6295022964477539062 3.4810903072357177734 3.5380620956420898438 3.6597630977630615234 3.9506978988647460938 4.3196797370910644531 4.4959883689880371094 4.4602336883544921875 4.5971059799194335938 4.742633819580078125 4.7570252418518066406 4.7647137641906738281 4.8184957504272460938 5.0030765533447265625 5.0122885704040527344 4.8151960372924804688 4.5055251121520996094 4.0456681251525878906 3.5580198764801025391 3.1972815990447998047 3.0760614871978759766 3.0597136020660400391 3.0977709293365478516 3.1033260822296142578 3.0906121730804443359 3.0100677013397216797 2.9845268726348876953 3.0446956157684326172 3.0938217639923095703 3.1280167102813720703 3.1602640151977539062 3.1982195377349853516 3.2253775596618652344 3.2507598400115966797 3.2757918834686279297 3.2947366237640380859 3.31165313720703125 3.32593536376953125 3.4105107784271240234 3.6385595798492431641 3.8663370609283447266 3.8927240371704101562 3.6975982189178466797 3.6339223384857177734 3.6988613605499267578 3.7499101161956787109 3.7589244842529296875 3.69985198974609375 3.6766042709350585938 3.7068362236022949219 3.7157616615295410156 3.7499828338623046875 3.8014545440673828125 3.8397455215454101562 3.8456196784973144531 3.8597648143768310547 3.9035217761993408203 3.9675114154815673828 4.0696177482604980469 4.2890386581420898438 4.5617647171020507812 4.827693939208984375 4.9576621055603027344 4.9517769813537597656 4.794910430908203125 4.6922845840454101562 
2.4947304725646972656 2.7172091007232666016 2.8614320755004882812 2.9398357868194580078 3.1391923427581787109 3.1199550628662109375 3.1725759506225585938 3.3750464916229248047 3.4549758434295654297 3.3560917377471923828 3.3206412792205810547 3.2146990299224853516 3.0246586799621582031 2.9878368377685546875 3.1414387226104736328 3.3005654811859130859 3.4413301944732666016 3.5377354621887207031 3.5046331882476806641 3.4566295146942138672 3.3700361251831054688 3.3823218345642089844 3.4904162883758544922 3.7476861476898193359 3.9219000339508056641 3.7318632602691650391 3.5123581886291503906 3.5771527290344238281 3.7032399177551269531 3.8427052497863769531 4.1078772544860839844 4.3931450843811035156 4.5773954391479492188 4.842372894287109375 4.7563371658325195312 4.3655085563659667969 4.11078643798828125 4.0140748023986816406 3.7557790279388427734 3.5442073345184326172 3.539989471435546875 3.55326080322265625 3.6258556842803955078 3.6937043666839599609 3.8833227157592773438 4.1016263961791992188 4.3570680618286132812 4.6136746406555175781 4.8900861740112304688 5.2035555839538574219 5.4233293533325195312 5.5010714530944824219 5.5057992935180664062 5.4913234710693359375 5.3347897529602050781 5.1364102363586425781 4.93505096435546875 4.7269301414489746094 4.6061358451843261719 4.4071092605590820312 4.0713329315185546875 3.8133485317230224609 3.8172762393951416016 3.7138855457305908203 3.5742647647857666016 3.7008352279663085938 3.9304826259613037109 4.049957275390625 4.0802216529846191406 4.3274121284484863281 4.5440497398376464844 4.5583105087280273438 4.5340328216552734375 4.7074985504150390625 4.9447426795959472656 5.0567607879638671875 4.8684973716735839844 4.4183917045593261719 3.9296665191650390625 3.4575412273406982422 3.1527535915374755859 3.0774815082550048828 3.0611224174499511719 3.09296417236328125 3.1050753593444824219 3.1006250381469726562 3.0609290599822998047 2.9844303131103515625 2.9950408935546875 3.0628101825714111328 3.0945274829864501953 3.1290199756622314453 3.1617693901062011719 3.1975815296173095703 3.2284677028656005859 3.2448909282684326172 3.2740628719329833984 3.2898092269897460938 3.3146643638610839844 3.3995208740234375 3.6212625503540039062 3.8988356590270996094 4.040729522705078125 3.95604705810546875 3.9899756908416748047 4.0482330322265625 4.007228851318359375 3.9542915821075439453 3.8153223991394042969 3.7465057373046875 3.7268569469451904297 3.7168979644775390625 3.7486555576324462891 3.8234202861785888672 3.8861155509948730469 3.9278204441070556641 3.9458472728729248047 3.9898188114166259766 4.0675091743469238281 4.1763720512390136719 4.2807321548461914062 4.4514718055725097656 4.7866139411926269531 5.0657391548156738281 5.1050310134887695312 5.0293307304382324219 5.0074853897094726562 
2.4104399681091308594 2.5060279369354248047 2.5365436077117919922 2.6416983604431152344 2.8628509044647216797 2.8490498065948486328 2.9382951259613037109 3.0537228584289550781 3.2419750690460205078 3.3044240474700927734 3.3311614990234375 3.2037205696105957031 3.0994460582733154297 3.0817861557006835938 3.2149603366851806641 3.4013228416442871094 3.5499296188354492188 3.5880131721496582031 3.5805506706237792969 3.5594689846038818359 3.4841480255126953125 3.5058686733245849609 3.5722856521606445312 3.8432738780975341797 3.9179220199584960938 3.7371296882629394531 3.6041274070739746094 3.6828212738037109375 3.7853467464447021484 3.8688108921051025391 4.0912218093872070312 4.4794669151306152344 4.7870359420776367188 5.0768785476684570312 5.022731781005859375 4.5665788650512695312 4.2004475593566894531 3.9741127490997314453 3.7192511558532714844 3.6359012126922607422 3.7198777198791503906 3.6845479011535644531 3.7133708000183105469 3.8054251670837402344 3.7666521072387695312 3.9082558155059814453 4.1058955192565917969 4.2713608741760253906 4.539215087890625 4.8146848678588867188 5.0191960334777832031 5.1466264724731445312 5.225154876708984375 5.3057532310485839844 5.1972570419311523438 5.0136318206787109375 4.8890581130981445312 4.8121333122253417969 4.6438112258911132812 4.41855621337890625 4.2328138351440429688 4.1719622611999511719 4.1520295143127441406 3.921665191650390625 3.6712901592254638672 3.8070938587188720703 3.8897833824157714844 3.9324803352355957031 3.9591085910797119141 4.0277628898620605469 4.1817164421081542969 4.2592711448669433594 4.3809461593627929688 4.6304254531860351562 4.8933901786804199219 4.9992995262145996094 4.691860198974609375 4.2371387481689453125 3.7903819084167480469 3.3888916969299316406 3.1307024955749511719 3.0716865062713623047 3.0518956184387207031 3.0732662677764892578 3.0931563377380371094 3.0903108119964599609 3.0741553306579589844 3.0142564773559570312 3.0042662620544433594 3.0647325515747070312 3.1227514743804931641 3.168880462646484375 3.1766393184661865234 3.2210981845855712891 3.2747170925140380859 3.3071677684783935547 3.3196456432342529297 3.3245189189910888672 3.31356048583984375 3.3548185825347900391 3.4743020534515380859 3.6665325164794921875 3.8043766021728515625 3.9377920627593994141 4.1621103286743164062 4.2515163421630859375 4.149600982666015625 4.1218752861022949219 4.07840728759765625 4.0079369544982910156 3.9585759639739990234 3.8437197208404541016 3.8388690948486328125 3.9864573478698730469 4.1228723526000976562 4.1810231208801269531 4.2312517166137695312 4.2874965667724609375 4.3550839424133300781 4.5127501487731933594 4.6743822097778320312 4.7896375656127929688 5.0322437286376953125 5.1872868537902832031 5.3207502365112304688 5.3561577796936035156 5.29279327392578125 
2.2500777244567871094 2.3134999275207519531 2.3815732002258300781 2.4861540794372558594 2.5815346240997314453 2.6077885627746582031 2.6675076484680175781 2.8068060874938964844 3.0352628231048583984 3.1696100234985351562 3.3219773769378662109 3.3380854129791259766 3.2326478958129882812 3.1815187931060791016 3.2432911396026611328 3.346340179443359375 3.4894380569458007812 3.5229876041412353516 3.5668799877166748047 3.6617269515991210938 3.5958523750305175781 3.5225379467010498047 3.6119577884674072266 3.8369541168212890625 3.8790748119354248047 3.6641919612884521484 3.5896103382110595703 3.7007098197937011719 3.8044996261596679688 3.8769867420196533203 4.0998392105102539062 4.5361285209655761719 4.8486990928649902344 5.1068086624145507812 5.1216998100280761719 4.6407637596130371094 4.1641416549682617188 3.8602747917175292969 3.7756037712097167969 3.8336315155029296875 3.9197740554809570312 3.8584928512573242188 3.7694609165191650391 3.9127597808837890625 3.8296773433685302734 3.8373081684112548828 3.9662005901336669922 4.0811409950256347656 4.3506035804748535156 4.5303249359130859375 4.6859354972839355469 4.7949242591857910156 4.9463472366333007812 5.123508453369140625 5.087497711181640625 5.0834293365478515625 5.1102142333984375 5.0714049339294433594 4.9318203926086425781 4.8241353034973144531 4.6629743576049804688 4.528774261474609375 4.4268651008605957031 4.1047277450561523438 3.7693870067596435547 3.9910180568695068359 4.2530331611633300781 4.3023977279663085938 4.1945371627807617188 4.0389776229858398438 4.1936440467834472656 4.3351697921752929688 4.4072499275207519531 4.5151286125183105469 4.680194854736328125 4.6864504814147949219 4.4003300666809082031 4.0338129997253417969 3.6423316001892089844 3.2809653282165527344 3.1060521602630615234 3.0790059566497802734 3.0706493854522705078 3.0783956050872802734 3.0915627479553222656 3.0806446075439453125 3.0611789226531982422 3.0512866973876953125 3.0525801181793212891 3.0238287448883056641 3.0954504013061523438 3.1790463924407958984 3.215526580810546875 3.2431704998016357422 3.2861840724945068359 3.3486480712890625 3.3645012378692626953 3.3633646965026855469 3.3363676071166992188 3.3343961238861083984 3.3594558238983154297 3.4274775981903076172 3.5191187858581542969 3.7018172740936279297 3.8974919319152832031 3.9339344501495361328 3.8969280719757080078 4.0132308006286621094 4.1999101638793945312 4.2120623588562011719 4.1371598243713378906 3.9975099563598632812 4.085765838623046875 4.28150177001953125 4.4956440925598144531 4.6182103157043457031 4.6781315803527832031 4.7834520339965820312 4.7872128486633300781 4.8737850189208984375 5.1637730598449707031 5.3068256378173828125 5.4288191795349121094 5.4066090583801269531 5.5427827835083007812 5.625125885009765625 5.6023473739624023438 
2.2354640960693359375 2.2671625614166259766 2.3463134765625 2.4106082916259765625 2.4649317264556884766 2.5202448368072509766 2.6129117012023925781 2.7760190963745117188 2.8872590065002441406 3.0023753643035888672 3.2122819423675537109 3.3535177707672119141 3.2634625434875488281 3.2537233829498291016 3.3486871719360351562 3.3513779640197753906 3.4010879993438720703 3.4823772907257080078 3.5725884437561035156 3.7254002094268798828 3.7560427188873291016 3.6137874126434326172 3.6574022769927978516 3.8991532325744628906 3.9293975830078125 3.7067193984985351562 3.6184070110321044922 3.7038426399230957031 3.8267817497253417969 3.9149599075317382812 4.0805997848510742188 4.4846692085266113281 4.8632435798645019531 5.0784330368041992188 4.974578857421875 4.54373931884765625 4.0841960906982421875 3.9161477088928222656 4.0304980278015136719 4.0951166152954101562 4.1411213874816894531 3.9932141304016113281 3.8895435333251953125 3.9464397430419921875 3.9887816905975341797 3.9280552864074707031 3.9302942752838134766 4.0498719215393066406 4.18239593505859375 4.3986148834228515625 4.5634045600891113281 4.6665091514587402344 4.8917665481567382812 5.0885710716247558594 5.1309695243835449219 5.2968530654907226562 5.4713220596313476562 5.4671730995178222656 5.3596057891845703125 5.1773281097412109375 4.9162459373474121094 4.7391266822814941406 4.5647244453430175781 4.18810272216796875 3.8198666572570800781 3.9884562492370605469 4.4143009185791015625 4.5476732254028320312 4.3129453659057617188 4.1104941368103027344 4.2778277397155761719 4.502826690673828125 4.5554599761962890625 4.5148825645446777344 4.5029988288879394531 4.3642363548278808594 4.0872359275817871094 3.7244219779968261719 3.4001765251159667969 3.1802279949188232422 3.111873626708984375 3.1029067039489746094 3.0944232940673828125 3.0896818637847900391 3.0884237289428710938 3.0720632076263427734 3.0568757057189941406 3.0751259326934814453 3.1019272804260253906 3.0566523075103759766 3.0981514453887939453 3.1605124473571777344 3.2063350677490234375 3.2549111843109130859 3.2835748195648193359 3.3211083412170410156 3.3586759567260742188 3.3756842613220214844 3.3660154342651367188 3.3626692295074462891 3.3572218418121337891 3.3738737106323242188 3.4139349460601806641 3.4840674400329589844 3.5739207267761230469 3.6127676963806152344 3.6452836990356445312 3.7974653244018554688 4.0202403068542480469 4.0355811119079589844 4.0328273773193359375 4.1004147529602050781 4.3466706275939941406 4.6346659660339355469 4.9200944900512695312 5.0851230621337890625 5.1165366172790527344 5.2465906143188476562 5.2303857803344726562 5.210346221923828125 5.4645185470581054688 5.6636099815368652344 5.6824665069580078125 5.620105743408203125 5.6616687774658203125 5.7548809051513671875 5.8141903877258300781 
2.3552050590515136719 2.3565673828125 2.496227264404296875 2.5168769359588623047 2.5655171871185302734 2.5985255241394042969 2.6844105720520019531 2.7827646732330322266 2.8776543140411376953 3.0066471099853515625 3.1432919502258300781 3.3371975421905517578 3.3717539310455322266 3.2925667762756347656 3.3839101791381835938 3.4161312580108642578 3.5026528835296630859 3.6378312110900878906 3.7268481254577636719 3.8285610675811767578 3.9481074810028076172 3.7742488384246826172 3.6929445266723632812 3.92217254638671875 3.9772970676422119141 3.7675511837005615234 3.6951470375061035156 3.7238218784332275391 3.8784747123718261719 3.9995038509368896484 4.030239105224609375 4.2381844520568847656 4.5382432937622070312 4.8505887985229492188 4.8028588294982910156 4.40750885009765625 4.1021084785461425781 4.1887054443359375 4.3633627891540527344 4.4054179191589355469 4.3284168243408203125 4.1386289596557617188 4.1092782020568847656 4.0294079780578613281 4.151317596435546875 4.0859026908874511719 4.0207376480102539062 4.2210969924926757812 4.3459677696228027344 4.5495004653930664062 4.7429838180541992188 4.8616323471069335938 5.0312304496765136719 5.1519079208374023438 5.2159795761108398438 5.3855733871459960938 5.5927367210388183594 5.7086114883422851562 5.6537413597106933594 5.4137663841247558594 5.2035379409790039062 4.9235906600952148438 4.5951833724975585938 4.2576503753662109375 3.8957691192626953125 3.9367673397064208984 4.2858567237854003906 4.5158782005310058594 4.4228105545043945312 4.2502756118774414062 4.2889909744262695312 4.4097652435302734375 4.4897623062133789062 4.5547666549682617188 4.4407253265380859375 4.12264251708984375 3.8128538131713867188 3.5333583354949951172 3.3227145671844482422 3.2066929340362548828 3.1870450973510742188 3.1866772174835205078 3.1458725929260253906 3.1183502674102783203 3.0902066230773925781 3.0821063518524169922 3.0746059417724609375 3.0886521339416503906 3.126453399658203125 3.0899982452392578125 3.0829262733459472656 3.1044561862945556641 3.1770424842834472656 3.2371783256530761719 3.2793908119201660156 3.3175711631774902344 3.3430302143096923828 3.3676455020904541016 3.3804960250854492188 3.3791851997375488281 3.3821899890899658203 3.4252877235412597656 3.4656980037689208984 3.4577949047088623047 3.4632244110107421875 3.5015015602111816406 3.5551130771636962891 3.6457383632659912109 3.7746469974517822266 3.8806004524230957031 3.9951567649841308594 4.1775774955749511719 4.5161004066467285156 4.8539013862609863281 5.2255301475524902344 5.4272398948669433594 5.4543929100036621094 5.5329217910766601562 5.4974112510681152344 5.4365053176879882812 5.5700287818908691406 5.6557154655456542969 5.6355314254760742188 5.6076426506042480469 5.5489635467529296875 5.5656476020812988281 5.6646146774291992188 
2.5202686786651611328 2.4800777435302734375 2.6576507091522216797 2.6640207767486572266 2.7349431514739990234 2.762378692626953125 2.8517820835113525391 2.9640905857086181641 3.0291879177093505859 3.1729514598846435547 3.2981343269348144531 3.3946125507354736328 3.4954516887664794922 3.35951995849609375 3.4039547443389892578 3.4720029830932617188 3.6193637847900390625 3.7656362056732177734 3.9069662094116210938 4.0198197364807128906 4.1156787872314453125 3.8969783782958984375 3.7659726142883300781 3.9483308792114257812 3.9958386421203613281 3.8079602718353271484 3.8370509147644042969 3.7895154953002929688 3.8374865055084228516 4.0811939239501953125 4.1563324928283691406 4.2859544754028320312 4.532581329345703125 4.7316212654113769531 4.6628828048706054688 4.3496365547180175781 4.3317618370056152344 4.5088863372802734375 4.7305111885070800781 4.78334808349609375 4.5536017417907714844 4.3859047889709472656 4.3385529518127441406 4.1449961662292480469 4.23947906494140625 4.1135315895080566406 4.1331300735473632812 4.4617981910705566406 4.6806554794311523438 4.7799310684204101562 5.0341310501098632812 5.1503610610961914062 5.18543243408203125 5.2235927581787109375 5.1835336685180664062 5.2507004737854003906 5.3727164268493652344 5.4641757011413574219 5.5277123451232910156 5.5348782539367675781 5.4039592742919921875 5.1051678657531738281 4.815006256103515625 4.489452362060546875 4.0480298995971679688 3.9228680133819580078 4.1977868080139160156 4.5036516189575195312 4.6044178009033203125 4.5102238655090332031 4.4765753746032714844 4.5046749114990234375 4.5132288932800292969 4.5832619667053222656 4.429126739501953125 4.1087737083435058594 3.8164625167846679688 3.7101662158966064453 3.5123381614685058594 3.4425997734069824219 3.4752023220062255859 3.4184141159057617188 3.3211712837219238281 3.1853837966918945312 3.1126873493194580078 3.1135311126708984375 3.1180164813995361328 3.1227152347564697266 3.1682362556457519531 3.1759927272796630859 3.1721339225769042969 3.1361761093139648438 3.1524384021759033203 3.2249178886413574219 3.2808675765991210938 3.3416526317596435547 3.3691785335540771484 3.3723566532135009766 3.3855414390563964844 3.3915724754333496094 3.4067952632904052734 3.4720141887664794922 3.5181431770324707031 3.4716866016387939453 3.4901852607727050781 3.5814874172210693359 3.6476118564605712891 3.6860220432281494141 3.7250926494598388672 3.8264892101287841797 3.9211101531982421875 4.1117243766784667969 4.471767425537109375 4.9093060493469238281 5.3249301910400390625 5.5064911842346191406 5.55361175537109375 5.5146870613098144531 5.4240679740905761719 5.3810405731201171875 5.450458526611328125 5.4302067756652832031 5.4267263412475585938 5.3737788200378417969 5.2522563934326171875 5.3549652099609375 5.5565729141235351562 
2.7166464328765869141 2.6480219364166259766 2.7604436874389648438 2.8206298351287841797 2.8778212070465087891 2.9698894023895263672 3.0654509067535400391 3.1757340431213378906 3.2296128273010253906 3.2254564762115478516 3.3810837268829345703 3.5245821475982666016 3.5121221542358398438 3.3878419399261474609 3.4652636051177978516 3.5894057750701904297 3.6587421894073486328 3.7662677764892578125 3.9070150852203369141 4.0807290077209472656 4.1334366798400878906 3.8994195461273193359 3.8696420192718505859 4.0764713287353515625 4.0298585891723632812 3.9432303905487060547 3.9314293861389160156 3.8518087863922119141 3.9920024871826171875 4.1978883743286132812 4.3831419944763183594 4.57752227783203125 4.8612756729125976562 4.9605731964111328125 4.8104443550109863281 4.5532021522521972656 4.5557613372802734375 4.765651702880859375 5.040637969970703125 5.1018891334533691406 4.8523478507995605469 4.6127867698669433594 4.3866629600524902344 4.2915287017822265625 4.3857488632202148438 4.2121829986572265625 4.2683424949645996094 4.6127429008483886719 4.920375823974609375 5.058856964111328125 5.2366042137145996094 5.3478312492370605469 5.3041663169860839844 5.2186603546142578125 5.0394062995910644531 5.0631122589111328125 5.062744140625 5.078243255615234375 5.1340432167053222656 5.2745318412780761719 5.3926320075988769531 5.2225565910339355469 4.8491005897521972656 4.4706783294677734375 4.11743927001953125 3.9710676670074462891 4.2453947067260742188 4.6097455024719238281 4.8318877220153808594 4.8586893081665039062 4.8051214218139648438 4.7801885604858398438 4.7189478874206542969 4.7390899658203125 4.6108269691467285156 4.2870321273803710938 4.0848717689514160156 3.9823222160339355469 3.708408355712890625 3.8519394397735595703 3.8776156902313232422 3.6873505115509033203 3.4737923145294189453 3.2300410270690917969 3.1503527164459228516 3.1531302928924560547 3.1638023853302001953 3.1750195026397705078 3.1854517459869384766 3.2347109317779541016 3.2512621879577636719 3.2065572738647460938 3.1476492881774902344 3.1916234493255615234 3.2861325740814208984 3.3569972515106201172 3.4076678752899169922 3.4088106155395507812 3.3968715667724609375 3.4056637287139892578 3.4177598953247070312 3.4354221820831298828 3.4651167392730712891 3.4719552993774414062 3.5376174449920654297 3.7464807033538818359 3.9324741363525390625 3.9559490680694580078 3.9187846183776855469 3.9242644309997558594 3.9947524070739746094 4.2280325889587402344 4.5532321929931640625 4.9389424324035644531 5.2360053062438964844 5.3520970344543457031 5.3825449943542480469 5.2760186195373535156 5.1798610687255859375 5.1789226531982421875 5.2333240509033203125 5.1796221733093261719 5.1741514205932617188 5.0637841224670410156 4.9815115928649902344 5.1961822509765625 5.3855700492858886719 
2.9118781089782714844 2.8182489871978759766 2.8559410572052001953 2.9866402149200439453 2.9885816574096679688 2.9943552017211914062 3.0920789241790771484 3.1005284786224365234 3.159732818603515625 3.2386527061462402344 3.3503093719482421875 3.4684405326843261719 3.5360291004180908203 3.4842195510864257812 3.4904701709747314453 3.7009408473968505859 3.80432891845703125 3.8348219394683837891 3.8829874992370605469 3.9621222019195556641 4.0388321876525878906 3.894626617431640625 3.9169375896453857422 4.1194834709167480469 4.1482133865356445312 4.1560587882995605469 3.9859864711761474609 3.8893589973449707031 4.0631794929504394531 4.2385525703430175781 4.4399919509887695312 4.6715192794799804688 4.9832897186279296875 5.2356610298156738281 5.1694073677062988281 4.8401465415954589844 4.6927428245544433594 4.8205575942993164062 5.1153926849365234375 5.2976994514465332031 5.0965647697448730469 4.78252410888671875 4.5628080368041992188 4.6279582977294921875 4.6403431892395019531 4.4103679656982421875 4.3133296966552734375 4.5399231910705566406 4.8251786231994628906 5.0765228271484375 5.2193622589111328125 5.2227978706359863281 5.1077671051025390625 5.0237064361572265625 4.880466461181640625 4.8805370330810546875 4.8821969032287597656 4.8135509490966796875 4.8790612220764160156 5.0463213920593261719 5.1377239227294921875 5.0710153579711914062 4.8072009086608886719 4.5361790657043457031 4.2416830062866210938 4.0425100326538085938 4.3379740715026855469 4.7069344520568847656 4.8867673873901367188 4.9108905792236328125 4.9338293075561523438 5.00887298583984375 4.9765191078186035156 4.9327244758605957031 4.7189564704895019531 4.3936095237731933594 4.3414397239685058594 4.1401920318603515625 3.9068078994750976562 4.0751338005065917969 4.110790252685546875 3.8343963623046875 3.5360779762268066406 3.3582415580749511719 3.2599401473999023438 3.3155081272125244141 3.3122797012329101562 3.2264146804809570312 3.2067806720733642578 3.2561519145965576172 3.3339440822601318359 3.3102443218231201172 3.2329518795013427734 3.1769583225250244141 3.2692725658416748047 3.3814177513122558594 3.4436295032501220703 3.4509024620056152344 3.4206278324127197266 3.4276344776153564453 3.4407815933227539062 3.4532253742218017578 3.4695141315460205078 3.4900960922241210938 3.5631256103515625 3.7872829437255859375 4.0801339149475097656 4.2725677490234375 4.309268951416015625 4.2334733009338378906 4.3077497482299804688 4.6131010055541992188 4.8855786323547363281 5.0707068443298339844 5.1429638862609863281 5.1235609054565429688 5.1162304878234863281 5.0541882514953613281 4.9212598800659179688 4.9038333892822265625 4.9072551727294921875 4.8688287734985351562 4.8609871864318847656 4.7419342994689941406 4.81188201904296875 5.09592437744140625 5.3514766693115234375 
2.8025994300842285156 2.7498707771301269531 2.7840127944946289062 2.8916163444519042969 2.9037849903106689453 2.8486204147338867188 2.9242138862609863281 2.9182643890380859375 2.9816262722015380859 3.1269404888153076172 3.2797687053680419922 3.3898069858551025391 3.5390515327453613281 3.5889637470245361328 3.6230695247650146484 3.6770262718200683594 3.7968976497650146484 3.8598980903625488281 3.9514298439025878906 4.0438899993896484375 4.0394873619079589844 3.9136388301849365234 3.9289946556091308594 4.0313129425048828125 4.176242828369140625 4.1827850341796875 4.0048632621765136719 3.9164805412292480469 4.0310115814208984375 4.1446022987365722656 4.2773718833923339844 4.4729099273681640625 4.751251220703125 5.1281933784484863281 5.2525010108947753906 5.0568175315856933594 4.931552886962890625 4.9223499298095703125 5.0726542472839355469 5.2873325347900390625 5.3155727386474609375 5.0408902168273925781 4.890422821044921875 4.9996347427368164062 4.9304227828979492188 4.7026600837707519531 4.4917902946472167969 4.6121969223022460938 4.9078955650329589844 5.1102318763732910156 5.0982160568237304688 5.0823831558227539062 4.9517264366149902344 4.852130889892578125 4.819622039794921875 4.7468013763427734375 4.7424840927124023438 4.6560754776000976562 4.7509627342224121094 4.9220900535583496094 4.8552923202514648438 4.8107733726501464844 4.7634229660034179688 4.6520409584045410156 4.3255739212036132812 4.1094517707824707031 4.3731846809387207031 4.5778450965881347656 4.6486997604370117188 4.7791414260864257812 4.9934077262878417969 5.2019824981689453125 5.2035570144653320312 5.0824761390686035156 4.7567148208618164062 4.57309722900390625 4.5776000022888183594 4.312602996826171875 4.1503190994262695312 4.1430048942565917969 4.1854948997497558594 3.9971156120300292969 3.7232983112335205078 3.5277805328369140625 3.47272491455078125 3.5389134883880615234 3.4031436443328857422 3.2531294822692871094 3.2293341159820556641 3.2614006996154785156 3.3512699604034423828 3.3883302211761474609 3.3155043125152587891 3.1892564296722412109 3.2165474891662597656 3.3057854175567626953 3.3577291965484619141 3.4165606498718261719 3.4285147190093994141 3.4434649944305419922 3.4619059562683105469 3.4778795242309570312 3.5011775493621826172 3.5264720916748046875 3.5773913860321044922 3.7348029613494873047 3.9686844348907470703 4.2050395011901855469 4.2519469261169433594 4.1432871818542480469 4.3424882888793945312 4.6489405632019042969 4.7676682472229003906 4.8849630355834960938 4.9363660812377929688 4.8811244964599609375 4.9010634422302246094 4.8732352256774902344 4.68563079833984375 4.6274871826171875 4.6041502952575683594 4.5623221397399902344 4.5479822158813476562 4.5980100631713867188 4.8735675811767578125 5.1941428184509277344 5.4355797767639160156 
2.5956072807312011719 2.5901801586151123047 2.6076843738555908203 2.6536850929260253906 2.6810905933380126953 2.7130038738250732422 2.7864801883697509766 2.8703048229217529297 2.9471576213836669922 3.0383982658386230469 3.1525564193725585938 3.2726063728332519531 3.4754686355590820312 3.6439905166625976562 3.7745201587677001953 3.776065826416015625 3.7422955036163330078 3.8239088058471679688 3.9528739452362060547 4.1198148727416992188 4.1691493988037109375 4.0767965316772460938 4.0594024658203125 4.136623382568359375 4.1989316940307617188 4.1074776649475097656 3.9901013374328613281 4.0086979866027832031 4.0116238594055175781 4.0183191299438476562 4.1287326812744140625 4.2808465957641601562 4.5183782577514648438 4.7954878807067871094 4.9725775718688964844 5.04216766357421875 5.0829281806945800781 5.0108056068420410156 5.1104679107666015625 5.3208417892456054688 5.4537987709045410156 5.3189320564270019531 5.2247214317321777344 5.1789631843566894531 5.0999026298522949219 4.96321868896484375 4.7767934799194335938 4.8326549530029296875 4.9864678382873535156 5.0705018043518066406 4.9987320899963378906 4.9921307563781738281 4.9495592117309570312 4.8471240997314453125 4.7556738853454589844 4.6492986679077148438 4.5851616859436035156 4.5231509208679199219 4.5749783515930175781 4.6717829704284667969 4.5822439193725585938 4.4755454063415527344 4.4434452056884765625 4.4621977806091308594 4.2615656852722167969 4.1209778785705566406 4.2792377471923828125 4.4545230865478515625 4.6715908050537109375 4.9141402244567871094 5.1854801177978515625 5.4007687568664550781 5.3504920005798339844 5.0944919586181640625 4.8125791549682617188 4.7955508232116699219 4.8227562904357910156 4.5885648727416992188 4.4339699745178222656 4.3071780204772949219 4.3494534492492675781 4.1322674751281738281 3.8007264137268066406 3.7343733310699462891 3.7115187644958496094 3.5690321922302246094 3.3585064411163330078 3.2811098098754882812 3.2702770233154296875 3.2700021266937255859 3.3369038105010986328 3.409881591796875 3.4107468128204345703 3.3019340038299560547 3.2523496150970458984 3.2500743865966796875 3.2655544281005859375 3.2904181480407714844 3.3441576957702636719 3.4242880344390869141 3.4494683742523193359 3.4556012153625488281 3.4913957118988037109 3.5418655872344970703 3.5900638103485107422 3.6607878208160400391 3.7578523159027099609 3.8959927558898925781 3.9139389991760253906 3.8873510360717773438 4.1373796463012695312 4.34235382080078125 4.3976025581359863281 4.5388159751892089844 4.6725864410400390625 4.641986846923828125 4.6909761428833007812 4.6707606315612792969 4.4781160354614257812 4.3875546455383300781 4.3863062858581542969 4.3470387458801269531 4.4104547500610351562 4.5964879989624023438 4.8242959976196289062 5.0481166839599609375 5.2732462882995605469 
2.4228374958038330078 2.4625673294067382812 2.5119936466217041016 2.5895900726318359375 2.6988797187805175781 2.7966825962066650391 2.9062287807464599609 2.9527530670166015625 2.9817042350769042969 3.0246109962463378906 3.1484065055847167969 3.2977364063262939453 3.4269940853118896484 3.6426568031311035156 3.8777060508728027344 3.947299957275390625 3.8645012378692626953 3.92205810546875 3.9391129016876220703 4.0669469833374023438 4.192829132080078125 4.192535400390625 4.2651991844177246094 4.3358454704284667969 4.3221583366394042969 4.1116204261779785156 4.1265501976013183594 4.1823239326477050781 4.1432585716247558594 4.0505437850952148438 4.1552767753601074219 4.2363739013671875 4.3512530326843261719 4.49295806884765625 4.6699619293212890625 4.7906498908996582031 4.9516339302062988281 5.0417580604553222656 5.1035480499267578125 5.2686791419982910156 5.4046149253845214844 5.4221353530883789062 5.2979693412780761719 5.1945247650146484375 5.1360087394714355469 5.0469641685485839844 4.9864602088928222656 5.0392527580261230469 5.0865521430969238281 4.969051361083984375 4.8915691375732421875 4.8786997795104980469 4.9038095474243164062 4.9160261154174804688 4.8330578804016113281 4.7681403160095214844 4.7022233009338378906 4.5519165992736816406 4.4523129463195800781 4.4342336654663085938 4.3736014366149902344 4.2750802040100097656 4.2353482246398925781 4.2257556915283203125 4.1519932746887207031 4.2735033035278320312 4.4875626564025878906 4.6455340385437011719 4.8269128799438476562 5.0442342758178710938 5.3521709442138671875 5.5448007583618164062 5.3393754959106445312 5.0656862258911132812 4.993976593017578125 5.0661096572875976562 5.0314135551452636719 4.8343014717102050781 4.5839991569519042969 4.4312801361083984375 4.4865012168884277344 4.1945834159851074219 4.0116701126098632812 4.0256824493408203125 3.8609943389892578125 3.6109080314636230469 3.5282137393951416016 3.5105574131011962891 3.3913149833679199219 3.2970910072326660156 3.3258159160614013672 3.4072747230529785156 3.4784157276153564453 3.4093241691589355469 3.3252911567687988281 3.3088402748107910156 3.3598828315734863281 3.3457562923431396484 3.3216156959533691406 3.3286776542663574219 3.3388915061950683594 3.3656249046325683594 3.4167478084564208984 3.4587416648864746094 3.4935090541839599609 3.5216276645660400391 3.556682586669921875 3.622447967529296875 3.6648020744323730469 3.7426433563232421875 3.9257323741912841797 4.0682401657104492188 4.0692396163940429688 4.2108874320983886719 4.3858194351196289062 4.3738880157470703125 4.4291758537292480469 4.3948378562927246094 4.267528533935546875 4.2227935791015625 4.2475104331970214844 4.2393536567687988281 4.3311529159545898438 4.5472688674926757812 4.7669963836669921875 4.962413787841796875 5.1423158645629882812 
2.4082338809967041016 2.4652922153472900391 2.5388214588165283203 2.6771779060363769531 2.8412168025970458984 2.9632191658020019531 3.1577663421630859375 3.1531517505645751953 3.1034729480743408203 3.0972473621368408203 3.1425638198852539062 3.2932775020599365234 3.4224660396575927734 3.5818967819213867188 3.8334558010101318359 4.0282049179077148438 3.9645543098449707031 3.9928350448608398438 4.0519852638244628906 4.0794711112976074219 4.1731953620910644531 4.2185907363891601562 4.3330740928649902344 4.3622465133666992188 4.2707610130310058594 4.1208848953247070312 4.1992053985595703125 4.3132834434509277344 4.1971311569213867188 4.0760316848754882812 4.1569719314575195312 4.3267154693603515625 4.3826761245727539062 4.4201912879943847656 4.6214861869812011719 4.7374048233032226562 4.8693399429321289062 4.9781198501586914062 5.0337581634521484375 5.1668443679809570312 5.2935080528259277344 5.303768157958984375 5.204936981201171875 5.1788463592529296875 5.1011857986450195312 4.9835534095764160156 4.9748463630676269531 5.0705838203430175781 5.1043553352355957031 4.9553656578063964844 4.8415174484252929688 4.8150629997253417969 4.8537230491638183594 4.87575531005859375 4.751678466796875 4.7597513198852539062 4.7358140945434570312 4.6629428863525390625 4.5080404281616210938 4.4325385093688964844 4.3757576942443847656 4.2999882698059082031 4.2484312057495117188 4.1929006576538085938 4.1627268791198730469 4.3423962593078613281 4.5393242835998535156 4.6945910453796386719 4.8920688629150390625 5.1459774971008300781 5.46234130859375 5.6315159797668457031 5.4201679229736328125 5.2940077781677246094 5.2527570724487304688 5.1843271255493164062 5.0102267265319824219 4.7512927055358886719 4.5608782768249511719 4.6364016532897949219 4.6283588409423828125 4.3572072982788085938 4.3715596199035644531 4.2617173194885253906 4.0030460357666015625 3.9106640815734863281 3.9266126155853271484 3.7970621585845947266 3.5021457672119140625 3.3689877986907958984 3.3412497043609619141 3.3967409133911132812 3.4684305191040039062 3.4644274711608886719 3.3962085247039794922 3.3392858505249023438 3.4379663467407226562 3.5115606784820556641 3.4599232673645019531 3.3819978237152099609 3.3525118827819824219 3.3447253704071044922 3.3918135166168212891 3.4753656387329101562 3.5076291561126708984 3.5224764347076416016 3.5570001602172851562 3.5651760101318359375 3.5792572498321533203 3.6582562923431396484 3.7608218193054199219 3.9116334915161132812 3.8899102210998535156 3.9525349140167236328 4.0560336112976074219 4.0903339385986328125 4.1190176010131835938 4.0930676460266113281 4.0663051605224609375 4.0872235298156738281 4.1304655075073242188 4.2243819236755371094 4.3869581222534179688 4.5255970954895019531 4.7044920921325683594 4.8729510307312011719 5.0736761093139648438 
