ncols        127
nrows        131
xllcorner    -71.681135979344
yllcorner    -16.519694133538
cellsize     0.001836012963
NODATA_value -9999
-9999.0 -9999 -9999 -9999 -9999 -9999 -9999 -9999 -9999 -9999 -9999 1.1891362667083740234 1.3343181610107421875 -9999 -9999 1.7914125919342041016 -9999 -9999 -9999 -9999 -9999 -9999 1.7692499160766601562 2.2369475364685058594 -9999 -9999 3.0353362560272216797 -9999 -9999 -9999 -9999 -9999 1.3861306905746459961 -9999 -9999 -9999 -9999 -9999 -9999 -9999 -9999 -9999 -9999 -9999 -9999 -9999 -9999 -9999 -9999 -9999 -9999 -9999 -9999 -9999 -9999 -9999 -9999 -9999 -9999 -9999 -9999 -9999 -9999 -9999 -9999 -9999 -9999 -9999 -9999 -9999 -9999 -9999 -9999 -9999 -9999 -9999 -9999 -9999 -9999 -9999 -9999 -9999 -9999 -9999 -9999 -9999 -9999 -9999 -9999 -9999 -9999 -9999 -9999 -9999 -9999 -9999 -9999 -9999 -9999 -9999 -9999 -9999 -9999 -9999 -9999 -9999 -9999 -9999 -9999 -9999 -9999 -9999 -9999 -9999 -9999 -9999 -9999 -9999 -9999 -9999 -9999 -9999 -9999 -9999 -9999 -9999 -9999 
-9999 -9999 -9999 -9999 -9999 -9999 -9999 -9999 -9999 -9999 -9999 1.3516218662261962891 1.565972447395324707 -9999 -9999 -9999 -9999 -9999 -9999 -9999 -9999 -9999 1.9411292076110839844 2.1168215274810791016 1.3701452016830444336 1.912108302116394043 2.1978757381439208984 1.5268709659576416016 2.4329991340637207031 -9999 -9999 1.8235979080200195312 -9999 -9999 -9999 -9999 -9999 -9999 -9999 -9999 -9999 -9999 -9999 -9999 -9999 -9999 -9999 -9999 -9999 -9999 -9999 -9999 -9999 -9999 -9999 -9999 -9999 -9999 -9999 -9999 -9999 -9999 -9999 -9999 -9999 -9999 -9999 -9999 -9999 1.0798488855361938477 -9999 -9999 -9999 -9999 1.0180934667587280273 1.014422297477722168 -9999 -9999 -9999 -9999 -9999 -9999 -9999 -9999 -9999 -9999 -9999 -9999 -9999 -9999 -9999 1.1205636262893676758 1.0906020402908325195 -9999 -9999 -9999 -9999 -9999 -9999 -9999 -9999 -9999 -9999 -9999 -9999 -9999 -9999 -9999 -9999 -9999 -9999 -9999 -9999 1.4261372089385986328 -9999 -9999 -9999 -9999 -9999 -9999 -9999 -9999 -9999 -9999 -9999 -9999 -9999 
-9999 -9999 -9999 -9999 -9999 -9999 -9999 -9999 -9999 -9999 1.4581831693649291992 1.7544338703155517578 2.3487746715545654297 2.2618312835693359375 1.719807744026184082 1.2207518815994262695 -9999 -9999 -9999 -9999 -9999 -9999 2.1588146686553955078 2.4379873275756835938 1.4467159509658813477 1.3859959840774536133 1.4362833499908447266 -9999 3.4121778011322021484 -9999 -9999 1.9852242469787597656 -9999 -9999 -9999 -9999 -9999 -9999 -9999 -9999 -9999 -9999 -9999 -9999 -9999 -9999 -9999 -9999 -9999 -9999 -9999 -9999 -9999 -9999 -9999 -9999 -9999 -9999 -9999 -9999 -9999 -9999 -9999 -9999 -9999 -9999 -9999 -9999 -9999 1.2999271154403686523 1.3066867589950561523 -9999 -9999 -9999 1.3296537399291992188 -9999 -9999 -9999 -9999 -9999 1.0159077644348144531 -9999 -9999 -9999 -9999 -9999 -9999 -9999 -9999 -9999 -9999 -9999 -9999 -9999 -9999 -9999 -9999 -9999 -9999 -9999 -9999 -9999 -9999 -9999 -9999 -9999 -9999 -9999 -9999 -9999 -9999 -9999 -9999 -9999 -9999 -9999 -9999 -9999 -9999 -9999 1.2424091100692749023 -9999 -9999 -9999 -9999 -9999 -9999 
1.7220751047134399414 -9999 -9999 -9999 -9999 -9999 -9999 -9999 -9999 1.7652609348297119141 -9999 1.5667601823806762695 3.1546349525451660156 3.8541536331176757812 2.4714481830596923828 2.0717971324920654297 2.7740466594696044922 -9999 -9999 -9999 3.1602039337158203125 2.5546851158142089844 3.8888113498687744141 3.0029389858245849609 2.1722779273986816406 3.3098206520080566406 2.3128592967987060547 -9999 6.0850396156311035156 -9999 5.2129001617431640625 -9999 -9999 -9999 -9999 -9999 -9999 -9999 -9999 -9999 -9999 -9999 -9999 -9999 -9999 -9999 1.2482242584228515625 -9999 -9999 -9999 -9999 -9999 -9999 -9999 -9999 -9999 -9999 -9999 -9999 -9999 -9999 -9999 -9999 -9999 -9999 -9999 -9999 -9999 -9999 1.6020185947418212891 2.1183671951293945312 2.0427768230438232422 2.4384818077087402344 4.0438008308410644531 2.6272666454315185547 -9999 -9999 1.0731222629547119141 1.1745014190673828125 -9999 -9999 -9999 -9999 -9999 -9999 -9999 -9999 -9999 1.3709582090377807617 -9999 -9999 -9999 -9999 -9999 -9999 -9999 -9999 -9999 -9999 -9999 -9999 -9999 -9999 -9999 -9999 -9999 -9999 -9999 -9999 -9999 -9999 -9999 -9999 -9999 -9999 -9999 -9999 1.3126348257064819336 -9999 -9999 1.2887709140777587891 -9999 -9999 -9999 -9999 -9999 -9999 
-9999 -9999 -9999 -9999 -9999 -9999 -9999 -9999 -9999 -9999 1.3247939348220825195 1.6106227636337280273 3.1289639472961425781 4.7682428359985351562 3.9847559928894042969 4.0339136123657226562 3.4178850650787353516 -9999 -9999 -9999 2.7723698616027832031 5.0443787574768066406 6.5229206085205078125 4.3637676239013671875 2.4600043296813964844 3.5737957954406738281 2.9256594181060791016 4.9264492988586425781 4.9480562210083007812 4.1132726669311523438 3.9479153156280517578 -9999 -9999 -9999 -9999 -9999 -9999 -9999 -9999 -9999 -9999 -9999 -9999 -9999 -9999 -9999 -9999 -9999 -9999 -9999 1.461400151252746582 -9999 -9999 -9999 -9999 -9999 -9999 -9999 -9999 -9999 -9999 -9999 -9999 -9999 -9999 -9999 -9999 -9999 1.499735713005065918 2.0309114456176757812 2.4452884197235107422 2.5858945846557617188 3.5800695419311523438 4.9965672492980957031 3.4877073764801025391 4.5469717979431152344 2.8180987834930419922 1.6638981103897094727 1.0987622737884521484 -9999 -9999 -9999 -9999 -9999 -9999 -9999 -9999 1.1982309818267822266 1.1594196557998657227 1.6520535945892333984 -9999 -9999 -9999 1.5876330137252807617 1.9062292575836181641 -9999 1.3046804666519165039 -9999 -9999 -9999 -9999 -9999 -9999 -9999 -9999 -9999 -9999 -9999 -9999 -9999 -9999 -9999 -9999 -9999 -9999 -9999 -9999 -9999 -9999 -9999 -9999 -9999 -9999 -9999 -9999 -9999 -9999 
-9999 -9999 -9999 -9999 -9999 -9999 -9999 1.8058165311813354492 2.1992933750152587891 1.7739771604537963867 1.3705487251281738281 1.6151230335235595703 1.8933136463165283203 3.4710180759429931641 4.9855203628540039062 6.5391912460327148438 4.358219146728515625 -9999 -9999 -9999 3.8598806858062744141 8.3259859085083007812 8.9504833221435546875 5.7906041145324707031 3.3202016353607177734 4.761150360107421875 7.5491423606872558594 7.395473480224609375 9.4272327423095703125 6.8398108482360839844 5.9237346649169921875 -9999 -9999 -9999 -9999 -9999 -9999 -9999 -9999 -9999 -9999 -9999 -9999 -9999 -9999 -9999 -9999 -9999 1.3135257959365844727 -9999 -9999 -9999 -9999 -9999 -9999 -9999 -9999 -9999 -9999 -9999 -9999 -9999 -9999 -9999 -9999 -9999 -9999 -9999 1.336291193962097168 1.6330487728118896484 2.9468481540679931641 3.1614947319030761719 3.3290889263153076172 5.0695347785949707031 6.1947464942932128906 6.7605957984924316406 2.9325489997863769531 2.1347000598907470703 1.159052729606628418 1.5095099210739135742 -9999 -9999 -9999 1.2504899501800537109 1.1409199237823486328 -9999 1.2505458593368530273 1.9086928367614746094 1.244774937629699707 1.0284447669982910156 1.2805303335189819336 -9999 -9999 -9999 -9999 -9999 -9999 -9999 -9999 -9999 -9999 -9999 -9999 -9999 -9999 -9999 -9999 -9999 -9999 -9999 -9999 -9999 -9999 -9999 -9999 -9999 -9999 -9999 -9999 -9999 -9999 -9999 -9999 -9999 -9999 -9999 -9999 
-9999 -9999 -9999 -9999 -9999 -9999 -9999 1.5247298479080200195 1.9074583053588867188 1.5548722743988037109 1.5341460704803466797 1.5469392538070678711 1.9887200593948364258 3.4274189472198486328 5.1522889137268066406 6.3165202140808105469 3.6394746303558349609 -9999 -9999 1.8469644784927368164 4.13861083984375 6.3516373634338378906 6.067302703857421875 8.961971282958984375 11.930533409118652344 14.842755317687988281 17.969896316528320312 11.532613754272460938 15.075325965881347656 8.3620920181274414062 3.2228612899780273438 -9999 -9999 -9999 -9999 -9999 -9999 1.7022036314010620117 -9999 -9999 -9999 -9999 -9999 -9999 -9999 -9999 -9999 -9999 -9999 -9999 -9999 -9999 -9999 -9999 1.2998391389846801758 -9999 -9999 -9999 -9999 -9999 -9999 -9999 -9999 -9999 -9999 -9999 -9999 -9999 -9999 -9999 1.9276179075241088867 2.8272676467895507812 3.4285295009613037109 6.6407194137573242188 7.3890891075134277344 5.04644012451171875 1.4274576902389526367 1.211704254150390625 -9999 -9999 -9999 1.3053468465805053711 1.3663337230682373047 1.5505182743072509766 1.2138472795486450195 -9999 2.090576171875 4.1235032081604003906 1.7704026699066162109 1.4074449539184570312 1.6199866533279418945 1.5117042064666748047 1.315436244010925293 1.0920701026916503906 -9999 -9999 -9999 -9999 -9999 -9999 -9999 -9999 -9999 -9999 -9999 -9999 -9999 -9999 -9999 -9999 -9999 -9999 3.0138833522796630859 1.8502988815307617188 -9999 -9999 -9999 -9999 -9999 -9999 -9999 -9999 -9999 -9999 -9999 -9999 -9999 
-9999 -9999 -9999 -9999 -9999 1.5115288496017456055 -9999 1.4425183534622192383 1.9053552150726318359 1.554261326789855957 1.8558974266052246094 1.9509595632553100586 2.8575277328491210938 4.0009551048278808594 2.6892292499542236328 2.6368889808654785156 2.1547718048095703125 -9999 1.2256804704666137695 2.1268291473388671875 6.3321785926818847656 4.3181204795837402344 1.9857842922210693359 7.5836672782897949219 24.073028564453125 36.108364105224609375 23.644208908081054688 17.5977783203125 25.287776947021484375 17.61190032958984375 11.040513992309570312 8.7370424270629882812 5.1404986381530761719 -9999 -9999 -9999 -9999 1.4901540279388427734 -9999 -9999 -9999 -9999 -9999 -9999 -9999 -9999 -9999 -9999 -9999 -9999 -9999 -9999 -9999 -9999 -9999 -9999 -9999 -9999 -9999 -9999 -9999 -9999 -9999 -9999 -9999 -9999 -9999 -9999 -9999 -9999 -9999 1.878470301628112793 4.8718495368957519531 8.9528875350952148438 8.6889734268188476562 2.6993184089660644531 1.1773157119750976562 -9999 -9999 1.7404544353485107422 1.4939361810684204102 1.6277930736541748047 2.8929181098937988281 3.9299097061157226562 2.2255055904388427734 1.635874629020690918 2.5675253868103027344 4.5883703231811523438 2.9177858829498291016 1.938190460205078125 1.7498331069946289062 1.7521437406539916992 1.4913423061370849609 1.1684163808822631836 -9999 -9999 -9999 -9999 -9999 -9999 -9999 -9999 -9999 -9999 -9999 -9999 -9999 -9999 -9999 -9999 -9999 1.5271902084350585938 2.3139843940734863281 -9999 -9999 -9999 -9999 -9999 -9999 -9999 -9999 -9999 -9999 -9999 -9999 -9999 -9999 
-9999 -9999 -9999 -9999 1.4806089401245117188 -9999 -9999 1.2728345394134521484 1.3534871339797973633 1.626688838005065918 -9999 2.2059590816497802734 3.0548768043518066406 2.2629523277282714844 1.4445222616195678711 -9999 -9999 -9999 -9999 1.9885456562042236328 3.7574298381805419922 3.6736690998077392578 -9999 9.5598783493041992188 22.712121963500976562 30.444110870361328125 22.27114105224609375 18.472112655639648438 24.945384979248046875 36.4876251220703125 42.158329010009765625 30.089815139770507812 9.5837926864624023438 -9999 -9999 -9999 -9999 -9999 -9999 -9999 -9999 -9999 -9999 -9999 -9999 -9999 -9999 -9999 -9999 -9999 -9999 -9999 -9999 -9999 -9999 -9999 -9999 -9999 -9999 -9999 -9999 -9999 -9999 -9999 -9999 -9999 -9999 -9999 -9999 -9999 -9999 2.4254257678985595703 5.8427038192749023438 10.133861541748046875 6.0246825218200683594 2.0536823272705078125 1.2470434904098510742 -9999 -9999 1.5177122354507446289 1.3879979848861694336 1.7928026914596557617 4.9483008384704589844 6.3813199996948242188 4.0218420028686523438 3.6121571063995361328 5.3628816604614257812 4.8372974395751953125 5.7534909248352050781 2.5082974433898925781 2.6306316852569580078 2.7142169475555419922 1.6783835887908935547 -9999 -9999 -9999 -9999 -9999 -9999 -9999 -9999 -9999 -9999 -9999 -9999 -9999 -9999 -9999 -9999 -9999 -9999 -9999 -9999 -9999 -9999 -9999 -9999 -9999 -9999 -9999 -9999 -9999 -9999 -9999 -9999 -9999 -9999 
-9999 -9999 -9999 -9999 -9999 -9999 -9999 1.4722797870635986328 1.4441360235214233398 1.5698875188827514648 1.5613144636154174805 1.8788759708404541016 2.9957027435302734375 2.7699708938598632812 1.302965998649597168 -9999 -9999 -9999 1.902985692024230957 2.3870449066162109375 3.5623552799224853516 -9999 2.2739317417144775391 6.467060089111328125 10.542103767395019531 8.6942462921142578125 18.575719833374023438 24.895574569702148438 27.938343048095703125 58.04091644287109375 71.31159210205078125 53.197101593017578125 18.7995452880859375 3.2966947555541992188 3.6219222545623779297 1.7189089059829711914 -9999 -9999 -9999 -9999 -9999 -9999 -9999 -9999 -9999 -9999 -9999 -9999 1.4857835769653320312 -9999 -9999 -9999 -9999 -9999 -9999 -9999 -9999 -9999 -9999 -9999 -9999 -9999 -9999 -9999 -9999 -9999 -9999 -9999 -9999 -9999 -9999 2.8379502296447753906 5.1277413368225097656 5.138835906982421875 3.0478370189666748047 -9999 -9999 -9999 1.8502458333969116211 1.6274466514587402344 1.5959184169769287109 2.2361013889312744141 5.542316436767578125 6.5970778465270996094 5.8895406723022460938 9.1169042587280273438 11.848995208740234375 6.3077282905578613281 6.9731492996215820312 2.8929681777954101562 3.364105224609375 2.5532701015472412109 1.6794877052307128906 -9999 -9999 -9999 -9999 -9999 -9999 -9999 -9999 -9999 -9999 -9999 -9999 -9999 -9999 -9999 -9999 -9999 -9999 -9999 -9999 -9999 -9999 -9999 -9999 -9999 -9999 -9999 -9999 -9999 -9999 -9999 -9999 -9999 -9999 
-9999 -9999 -9999 1.3328483104705810547 -9999 -9999 1.2089564800262451172 1.70904541015625 1.7303525209426879883 1.4563831090927124023 1.5531963109970092773 1.6153521537780761719 1.8072977066040039062 -9999 -9999 -9999 -9999 -9999 -9999 7.5608048439025878906 15.668260574340820312 9.63263702392578125 2.5482842922210693359 3.938510894775390625 6.8678808212280273438 12.315558433532714844 22.645116806030273438 29.927801132202148438 52.6728057861328125 71.44647216796875 70.35086822509765625 60.88805389404296875 35.62076568603515625 6.5434284210205078125 2.8210210800170898438 2.6746630668640136719 2.5215060710906982422 -9999 -9999 -9999 -9999 -9999 -9999 -9999 -9999 -9999 -9999 -9999 -9999 -9999 -9999 -9999 -9999 -9999 -9999 -9999 -9999 -9999 -9999 -9999 -9999 -9999 -9999 -9999 1.3835294246673583984 -9999 -9999 -9999 -9999 -9999 -9999 -9999 4.0243000984191894531 3.5296158790588378906 2.0322170257568359375 1.3586117029190063477 -9999 -9999 -9999 -9999 1.5932387113571166992 2.5031094551086425781 4.9426436424255371094 8.40883636474609375 7.1021356582641601562 13.271113395690917969 15.306960105895996094 6.1203260421752929688 4.1314272880554199219 2.8167216777801513672 3.3118162155151367188 2.5245831012725830078 1.5212715864181518555 -9999 -9999 -9999 -9999 -9999 -9999 -9999 -9999 -9999 -9999 -9999 -9999 -9999 -9999 -9999 -9999 -9999 -9999 -9999 -9999 -9999 -9999 -9999 -9999 -9999 -9999 -9999 -9999 -9999 -9999 -9999 -9999 -9999 -9999 
-9999 2.1250748634338378906 2.0034458637237548828 1.5833562612533569336 1.3315179347991943359 1.5149946212768554688 1.5094423294067382812 2.5353810787200927734 3.1860780715942382812 1.9550834894180297852 1.7046496868133544922 1.8594306707382202148 1.4893422126770019531 -9999 -9999 -9999 -9999 -9999 -9999 -9999 -9999 3.8476681709289550781 4.1091647148132324219 3.9929518699645996094 6.2370791435241699219 9.6772108078002929688 12.502765655517578125 24.743717193603515625 52.97670745849609375 78.91887664794921875 77.5453033447265625 57.659267425537109375 40.328609466552734375 17.738569259643554688 9.84685516357421875 10.814911842346191406 7.1443996429443359375 -9999 -9999 -9999 -9999 -9999 -9999 -9999 -9999 -9999 -9999 -9999 -9999 -9999 -9999 -9999 -9999 -9999 -9999 -9999 -9999 -9999 -9999 -9999 -9999 -9999 -9999 -9999 -9999 -9999 -9999 -9999 -9999 -9999 -9999 -9999 3.4346032142639160156 3.4712119102478027344 4.4153547286987304688 1.9432387351989746094 -9999 -9999 -9999 -9999 3.2780869007110595703 4.60311126708984375 6.6412692070007324219 7.7164306640625 7.9048151969909667969 17.949991226196289062 17.424221038818359375 5.0077056884765625 2.5282168388366699219 2.0276334285736083984 2.424480438232421875 2.1980395317077636719 -9999 -9999 -9999 -9999 -9999 -9999 -9999 -9999 -9999 -9999 -9999 -9999 -9999 -9999 -9999 -9999 1.0273509025573730469 -9999 -9999 -9999 -9999 -9999 -9999 -9999 -9999 -9999 -9999 -9999 -9999 -9999 -9999 -9999 -9999 -9999 -9999 
1.9048595428466796875 1.9235235452651977539 1.7470394372940063477 1.6170053482055664062 -9999 -9999 2.4792385101318359375 3.1271255016326904297 2.4124994277954101562 1.8550856113433837891 1.5156025886535644531 1.5847349166870117188 1.4874340295791625977 -9999 -9999 -9999 -9999 -9999 -9999 -9999 -9999 2.5371551513671875 5.5595245361328125 3.6630930900573730469 3.9047474861145019531 6.1500678062438964844 9.2377605438232421875 17.001115798950195312 24.167535781860351562 53.3611602783203125 69.68003082275390625 47.6355133056640625 36.306118011474609375 39.526950836181640625 36.057559967041015625 28.759344100952148438 13.0249481201171875 2.0886380672454833984 -9999 -9999 -9999 -9999 -9999 -9999 -9999 -9999 -9999 -9999 -9999 -9999 -9999 -9999 -9999 -9999 -9999 -9999 -9999 -9999 -9999 -9999 -9999 -9999 -9999 -9999 -9999 -9999 -9999 -9999 -9999 -9999 -9999 -9999 2.6617150306701660156 3.9938943386077880859 3.4243893623352050781 1.9241540431976318359 -9999 -9999 1.1050138473510742188 2.4542574882507324219 5.6952567100524902344 9.4588060379028320312 13.950488090515136719 14.333436012268066406 7.9056067466735839844 17.082818984985351562 20.559076309204101562 7.9845890998840332031 6.7253293991088867188 3.5064916610717773438 -9999 1.295100092887878418 -9999 -9999 -9999 -9999 -9999 -9999 -9999 -9999 -9999 -9999 -9999 -9999 -9999 -9999 -9999 -9999 -9999 -9999 -9999 -9999 -9999 -9999 -9999 -9999 -9999 -9999 -9999 -9999 -9999 -9999 -9999 -9999 -9999 -9999 -9999 
1.8778396844863891602 1.6686470508575439453 1.5917575359344482422 1.5835317373275756836 -9999 -9999 3.8032786846160888672 3.6801888942718505859 2.7269163131713867188 2.108982086181640625 1.6257990598678588867 1.799713134765625 1.229809880256652832 -9999 -9999 1.5657635927200317383 1.3637017011642456055 1.2488092184066772461 1.4252797365188598633 -9999 -9999 2.5660457611083984375 5.0158433914184570312 4.4141998291015625 4.3857207298278808594 4.2342791557312011719 9.6400995254516601562 19.2608642578125 18.111318588256835938 30.817922592163085938 59.504711151123046875 43.8262481689453125 38.239887237548828125 56.393901824951171875 63.17604827880859375 52.60849761962890625 31.622547149658203125 9.2808933258056640625 -9999 -9999 -9999 -9999 -9999 -9999 -9999 -9999 -9999 -9999 -9999 -9999 -9999 -9999 -9999 -9999 -9999 -9999 1.3436853885650634766 1.1554937362670898438 -9999 -9999 -9999 -9999 -9999 -9999 -9999 -9999 -9999 -9999 -9999 -9999 -9999 2.8006937503814697266 4.5432910919189453125 5.884334564208984375 3.0016877651214599609 1.5519920587539672852 -9999 -9999 1.3898417949676513672 4.9225487709045410156 12.391668319702148438 16.734045028686523438 21.427930831909179688 15.023843765258789062 18.019420623779296875 28.930784225463867188 22.6123046875 8.4782257080078125 5.68401336669921875 3.6055276393890380859 -9999 1.3856810331344604492 1.1785567998886108398 -9999 -9999 -9999 -9999 -9999 -9999 -9999 -9999 -9999 -9999 -9999 2.0292201042175292969 -9999 -9999 -9999 -9999 -9999 -9999 -9999 -9999 -9999 -9999 -9999 -9999 -9999 -9999 -9999 -9999 -9999 -9999 -9999 -9999 -9999 -9999 
1.2693755626678466797 1.488904118537902832 1.6471107006072998047 1.6728632450103759766 1.4947742223739624023 2.3888092041015625 3.3587019443511962891 2.9944126605987548828 2.8672354221343994141 2.0848746299743652344 1.5314954519271850586 1.5464104413986206055 -9999 -9999 2.2847871780395507812 3.3710887432098388672 3.1207902431488037109 1.66593170166015625 3.5345559120178222656 -9999 2.5229604244232177734 4.3006434440612792969 7.0769224166870117188 9.6692867279052734375 5.6253509521484375 6.9395170211791992188 12.703989028930664062 19.325183868408203125 18.606945037841796875 24.94678497314453125 34.1222381591796875 19.32370758056640625 25.746662139892578125 57.65631866455078125 71.78491973876953125 61.1370086669921875 53.78093719482421875 31.838321685791015625 13.061776161193847656 7.8948588371276855469 6.8343234062194824219 -9999 -9999 -9999 -9999 -9999 -9999 -9999 -9999 -9999 -9999 -9999 1.0318692922592163086 1.0482923984527587891 -9999 2.9212634563446044922 1.4723079204559326172 -9999 -9999 -9999 -9999 -9999 -9999 -9999 -9999 -9999 -9999 -9999 -9999 -9999 9.0691976547241210938 16.900197982788085938 15.528223037719726562 9.0417547225952148438 3.1003861427307128906 1.2872375249862670898 -9999 -9999 3.6471951007843017578 15.2996368408203125 26.608530044555664062 27.625692367553710938 33.5272979736328125 19.572069168090820312 35.857799530029296875 36.502033233642578125 19.611818313598632812 4.1618518829345703125 2.7227659225463867188 2.4109070301055908203 -9999 1.7710591554641723633 1.4032789468765258789 -9999 -9999 -9999 -9999 -9999 -9999 -9999 -9999 -9999 -9999 -9999 -9999 -9999 -9999 -9999 -9999 -9999 -9999 -9999 -9999 -9999 -9999 -9999 -9999 -9999 -9999 -9999 -9999 -9999 -9999 -9999 -9999 -9999 -9999 
1.346837162971496582 1.0907257795333862305 -9999 -9999 2.0285725593566894531 2.4832119941711425781 2.9602718353271484375 3.0367624759674072266 2.0690805912017822266 1.5535252094268798828 1.4971585273742675781 1.3189439773559570312 -9999 -9999 2.6548449993133544922 3.3613421916961669922 2.8301482200622558594 2.28018951416015625 4.4100699424743652344 5.8679871559143066406 5.9094767570495605469 8.0257196426391601562 8.0944929122924804688 13.008984565734863281 8.42455291748046875 6.35344696044921875 7.0565009117126464844 16.986310958862304688 28.116115570068359375 41.679569244384765625 18.359376907348632812 8.6271467208862304688 24.069751739501953125 49.609096527099609375 73.05157470703125 68.0774688720703125 65.73632049560546875 59.459522247314453125 44.47243499755859375 30.193401336669921875 18.170118331909179688 4.8102307319641113281 -9999 -9999 -9999 -9999 -9999 -9999 -9999 -9999 -9999 -9999 -9999 -9999 3.1516118049621582031 5.7681322097778320312 2.3434770107269287109 1.6219652891159057617 2.0430436134338378906 1.4041122198104858398 -9999 2.2051990032196044922 -9999 -9999 -9999 -9999 3.8821861743927001953 5.3463692665100097656 8.62305450439453125 15.838022232055664062 34.90387725830078125 42.321807861328125 32.062702178955078125 31.010303497314453125 8.753662109375 1.4970327615737915039 1.5416254997253417969 1.7223905324935913086 7.5728726387023925781 22.42180633544921875 20.807931900024414062 23.220035552978515625 44.574840545654296875 26.080509185791015625 44.838855743408203125 36.4114837646484375 12.043784141540527344 -9999 2.1794924736022949219 -9999 1.6310145854949951172 2.3848319053649902344 1.5553874969482421875 -9999 -9999 -9999 -9999 -9999 -9999 -9999 -9999 -9999 -9999 -9999 -9999 -9999 -9999 -9999 -9999 -9999 -9999 -9999 -9999 -9999 -9999 -9999 -9999 -9999 -9999 -9999 -9999 -9999 -9999 -9999 -9999 -9999 -9999 
1.104679107666015625 1.0393934249877929688 -9999 2.2792637348175048828 1.6867195367813110352 1.7119231224060058594 1.8449938297271728516 2.4509334564208984375 2.3222537040710449219 2.0458133220672607422 1.4283488988876342773 -9999 3.8792631626129150391 2.487102508544921875 3.1197555065155029297 2.3310542106628417969 2.0204732418060302734 3.6777567863464355469 5.2804999351501464844 6.976520538330078125 7.4417443275451660156 7.0640134811401367188 7.394870758056640625 10.267314910888671875 12.424287796020507812 11.515377044677734375 12.121336936950683594 14.015062332153320312 18.731847763061523438 30.70847320556640625 12.027759552001953125 23.305011749267578125 37.63829803466796875 40.820705413818359375 70.341796875 85.161895751953125 78.8637237548828125 61.929378509521484375 56.66785430908203125 46.9637603759765625 32.111598968505859375 21.164213180541992188 8.7438859939575195312 -9999 -9999 -9999 -9999 -9999 -9999 -9999 -9999 2.7247297763824462891 4.8384881019592285156 4.0215296745300292969 5.2900681495666503906 5.3318209648132324219 -9999 2.7003948688507080078 4.1239690780639648438 2.7138535976409912109 -9999 -9999 2.0165500640869140625 -9999 -9999 3.7712583541870117188 9.9944705963134765625 11.023647308349609375 17.93310546875 27.80457305908203125 49.199138641357421875 65.07498931884765625 67.9492645263671875 50.36470794677734375 15.9927825927734375 9.5139904022216796875 5.0814123153686523438 3.6568696498870849609 14.590636253356933594 26.855747222900390625 19.7777252197265625 32.211223602294921875 43.32538604736328125 29.961965560913085938 37.743633270263671875 32.21686553955078125 8.5382900238037109375 1.4449485540390014648 1.9291979074478149414 -9999 1.4516156911849975586 2.4726850986480712891 1.4496425390243530273 -9999 -9999 -9999 -9999 -9999 -9999 -9999 -9999 -9999 2.3927767276763916016 -9999 -9999 -9999 -9999 -9999 -9999 -9999 -9999 -9999 -9999 -9999 -9999 -9999 -9999 -9999 -9999 -9999 -9999 -9999 -9999 -9999 -9999 -9999 -9999 
-9999 1.566562652587890625 1.3656585216522216797 1.2436757087707519531 1.5195417404174804688 -9999 -9999 1.9310884475708007812 1.9181746244430541992 1.5709575414657592773 -9999 -9999 3.4042654037475585938 2.5810501575469970703 2.7516119480133056641 2.8620252609252929688 3.8531854152679443359 6.25263214111328125 5.270076751708984375 5.0649390220642089844 5.8130984306335449219 7.0941061973571777344 7.9923305511474609375 7.824314117431640625 16.186635971069335938 17.5641632080078125 20.239683151245117188 21.452028274536132812 15.889123916625976562 12.94000244140625 4.1577944755554199219 14.976738929748535156 28.363368988037109375 35.598606109619140625 54.67537689208984375 82.13347625732421875 94.22336578369140625 76.33065032958984375 60.255359649658203125 57.13550567626953125 58.682041168212890625 59.008815765380859375 32.310565948486328125 9.0447998046875 2.1715304851531982422 1.663021087646484375 -9999 -9999 -9999 5.9087095260620117188 11.317234992980957031 17.022356033325195312 21.528167724609375 14.574786186218261719 15.110222816467285156 8.2128047943115234375 2.1472609043121337891 2.9169614315032958984 4.3264827728271484375 2.85012054443359375 -9999 -9999 -9999 -9999 -9999 4.9036984443664550781 10.214627265930175781 12.096546173095703125 29.305562973022460938 34.763568878173828125 53.2495880126953125 78.01114654541015625 75.22113800048828125 53.038394927978515625 31.380723953247070312 33.4798431396484375 26.554302215576171875 16.604183197021484375 27.641370773315429688 29.443178176879882812 25.165203094482421875 27.382200241088867188 23.630481719970703125 40.709110260009765625 42.432659149169921875 30.264646530151367188 7.5436353683471679688 1.2438606023788452148 -9999 -9999 -9999 -9999 -9999 -9999 -9999 -9999 -9999 1.5115599632263183594 1.8384103775024414062 1.9264284372329711914 -9999 1.4873385429382324219 -9999 -9999 -9999 -9999 -9999 -9999 -9999 -9999 -9999 -9999 -9999 -9999 -9999 -9999 -9999 -9999 -9999 -9999 -9999 -9999 -9999 -9999 -9999 -9999 -9999 
-9999 1.9000891447067260742 1.3188879489898681641 1.0911946296691894531 -9999 -9999 -9999 1.9456406831741333008 1.8060278892517089844 1.1875880956649780273 -9999 -9999 2.1218113899230957031 3.5461516380310058594 3.8288388252258300781 3.2685804367065429688 3.8445277214050292969 3.7543652057647705078 2.6675729751586914062 3.5005350112915039062 4.1501011848449707031 7.7475857734680175781 9.005161285400390625 10.949810981750488281 10.794359207153320312 5.8269906044006347656 11.308868408203125 21.628255844116210938 13.346399307250976562 4.4464654922485351562 3.6080572605133056641 4.47357940673828125 6.0403628349304199219 14.959546089172363281 16.092439651489257812 44.112155914306640625 69.99092864990234375 55.207630157470703125 57.8062896728515625 55.89592742919921875 70.993560791015625 63.66565704345703125 57.177677154541015625 41.650543212890625 15.591572761535644531 4.0023164749145507812 3.5496113300323486328 12.1383056640625 15.864968299865722656 26.627473831176757812 39.93548583984375 42.07355499267578125 30.8021697998046875 21.313701629638671875 21.867259979248046875 6.5282235145568847656 2.3530471324920654297 2.1742303371429443359 2.0976989269256591797 -9999 -9999 -9999 -9999 -9999 -9999 -9999 4.9589719772338867188 22.800603866577148438 59.612003326416015625 69.21225738525390625 77.752685546875 82.1812896728515625 66.01145172119140625 48.487796783447265625 53.499240875244140625 57.270435333251953125 48.885990142822265625 36.0324859619140625 24.92957305908203125 18.689245223999023438 32.009212493896484375 22.242994308471679688 9.386016845703125 28.002262115478515625 43.578155517578125 22.88393402099609375 3.4471888542175292969 1.0993293523788452148 -9999 -9999 -9999 -9999 -9999 -9999 -9999 1.7775216102600097656 1.3300054073333740234 -9999 -9999 -9999 -9999 -9999 -9999 -9999 -9999 -9999 -9999 -9999 -9999 -9999 -9999 -9999 -9999 -9999 -9999 -9999 -9999 -9999 -9999 -9999 -9999 -9999 -9999 -9999 -9999 -9999 -9999 
-9999 -9999 -9999 -9999 -9999 1.1911160945892333984 -9999 1.4950823783874511719 -9999 -9999 -9999 -9999 1.9105267524719238281 3.7276737689971923828 4.7104425430297851562 4.4759159088134765625 3.7899017333984375 3.1837065219879150391 2.2496602535247802734 3.2156136035919189453 5.0370202064514160156 6.2448577880859375 4.6816840171813964844 6.0295977592468261719 4.2969040870666503906 2.2888891696929931641 5.6746206283569335938 10.489146232604980469 11.212180137634277344 4.2160830497741699219 2.6024661064147949219 -9999 3.3157095909118652344 6.9143271446228027344 4.3051443099975585938 13.853569984436035156 22.360416412353515625 28.166654586791992188 53.994663238525390625 58.833499908447265625 54.15154266357421875 60.20485687255859375 74.58541107177734375 67.7558135986328125 37.93418121337890625 13.292672157287597656 12.867138862609863281 33.743499755859375 42.953159332275390625 53.971500396728515625 49.74078369140625 45.526576995849609375 20.396619796752929688 31.314762115478515625 25.712566375732421875 6.8087706565856933594 1.8174511194229125977 1.533039093017578125 -9999 1.4396722316741943359 -9999 -9999 -9999 -9999 -9999 -9999 10.745875358581542969 46.5438690185546875 72.2399749755859375 80.66451263427734375 87.68485260009765625 84.74355316162109375 73.18738555908203125 42.581974029541015625 48.518115997314453125 54.96062469482421875 40.038074493408203125 31.071590423583984375 25.024332046508789062 26.526189804077148438 24.570293426513671875 10.570801734924316406 9.4535999298095703125 27.645412445068359375 34.3594207763671875 14.183193206787109375 -9999 -9999 -9999 -9999 -9999 1.3372396230697631836 1.171826481819152832 -9999 -9999 -9999 -9999 -9999 -9999 -9999 -9999 -9999 -9999 -9999 -9999 -9999 -9999 -9999 -9999 -9999 -9999 -9999 -9999 -9999 -9999 -9999 -9999 -9999 -9999 -9999 -9999 -9999 -9999 -9999 -9999 -9999 -9999 
-9999 -9999 -9999 1.5050501823425292969 1.8652737140655517578 1.3914670944213867188 1.2053602933883666992 1.6729857921600341797 1.2570761442184448242 -9999 -9999 2.4067592620849609375 2.0272259712219238281 3.2361834049224853516 4.6181855201721191406 3.7069718837738037109 3.2711455821990966797 3.1851470470428466797 2.129619598388671875 4.0492281913757324219 6.4778676033020019531 4.5315690040588378906 2.7525861263275146484 -9999 -9999 -9999 1.7148725986480712891 6.4374542236328125 13.65911102294921875 5.5263047218322753906 2.8806302547454833984 3.7989239692687988281 4.5053110122680664062 6.5831112861633300781 3.5362570285797119141 3.3029499053955078125 7.3220577239990234375 19.819398880004882812 36.692005157470703125 53.904693603515625 49.630977630615234375 57.47127532958984375 77.46395111083984375 75.9339141845703125 49.9824676513671875 26.228122711181640625 28.750091552734375 62.391300201416015625 76.1369171142578125 79.83983612060546875 69.63027191162109375 56.110424041748046875 33.208026885986328125 53.9181671142578125 26.720005035400390625 14.650907516479492188 3.1694622039794921875 -9999 2.1763975620269775391 1.6705051660537719727 4.8105893135070800781 14.53040313720703125 9.91541290283203125 2.2711760997772216797 2.9117093086242675781 10.618306159973144531 32.741268157958984375 58.8408660888671875 61.043163299560546875 85.23040008544921875 81.00492095947265625 61.033847808837890625 59.44557952880859375 33.354549407958984375 35.78983306884765625 46.609256744384765625 21.894222259521484375 20.086427688598632812 43.6144256591796875 46.88843536376953125 17.311712265014648438 8.9268827438354492188 15.448798179626464844 21.31768798828125 18.496898651123046875 -9999 -9999 -9999 -9999 -9999 -9999 1.5244119167327880859 1.4737135171890258789 -9999 -9999 -9999 -9999 -9999 -9999 -9999 -9999 -9999 -9999 -9999 -9999 -9999 -9999 -9999 -9999 -9999 -9999 -9999 -9999 -9999 -9999 -9999 -9999 -9999 -9999 -9999 -9999 -9999 -9999 -9999 -9999 -9999 -9999 
-9999 -9999 -9999 1.7842037677764892578 1.8710057735443115234 1.5945078134536743164 1.2563998699188232422 -9999 -9999 -9999 2.6744925975799560547 2.2699120044708251953 1.6571574211120605469 2.0097837448120117188 3.4526910781860351562 3.2598805427551269531 3.2563982009887695312 3.2413370609283447266 3.0825433731079101562 4.4448099136352539062 5.8958182334899902344 5.0230269432067871094 3.7838337421417236328 -9999 3.3161716461181640625 -9999 3.8763959407806396484 12.474192619323730469 13.350027084350585938 4.1046323776245117188 2.8680222034454345703 5.0915012359619140625 9.7790355682373046875 8.5386981964111328125 10.074753761291503906 5.3852238655090332031 3.8872859477996826172 8.564136505126953125 24.191192626953125 26.567333221435546875 30.09201812744140625 39.20068359375 42.243885040283203125 63.854892730712890625 55.577037811279296875 41.364803314208984375 50.881816864013671875 77.73180389404296875 93.8350372314453125 95.864715576171875 91.811676025390625 63.075885772705078125 45.632823944091796875 54.712825775146484375 42.623783111572265625 24.49646759033203125 10.599677085876464844 -9999 -9999 -9999 5.7759280204772949219 29.30481719970703125 34.55989837646484375 15.445562362670898438 14.164704322814941406 39.70992279052734375 65.64594268798828125 72.978668212890625 63.884082794189453125 82.8452301025390625 76.380767822265625 58.341796875 64.36536407470703125 36.40184783935546875 36.096897125244140625 42.35694122314453125 13.337022781372070312 24.482135772705078125 55.8054962158203125 42.94081878662109375 13.541668891906738281 6.4376397132873535156 7.5808382034301757812 4.0267457962036132812 2.2401459217071533203 -9999 -9999 -9999 -9999 -9999 -9999 1.771424412727355957 1.6688667535781860352 -9999 -9999 -9999 -9999 -9999 -9999 -9999 -9999 -9999 -9999 -9999 -9999 -9999 -9999 -9999 -9999 -9999 -9999 -9999 -9999 -9999 -9999 -9999 -9999 -9999 -9999 -9999 -9999 -9999 -9999 -9999 -9999 -9999 -9999 
-9999 -9999 -9999 1.748913884162902832 1.5670427083969116211 1.4109252691268920898 1.3881249427795410156 -9999 -9999 -9999 1.471285700798034668 1.457127690315246582 1.5205354690551757812 1.3957704305648803711 2.072185516357421875 2.1490666866302490234 3.1692490577697753906 3.30185699462890625 3.5314190387725830078 4.3418722152709960938 4.6776881217956542969 4.319667816162109375 3.0167040824890136719 -9999 -9999 -9999 4.2517843246459960938 12.439176559448242188 9.99483489990234375 4.6231398582458496094 6.0198712348937988281 12.048197746276855469 13.656002998352050781 7.4935956001281738281 6.6865129470825195312 4.4010348320007324219 6.1202068328857421875 8.6826038360595703125 11.350816726684570312 19.392808914184570312 17.327911376953125 16.15634918212890625 20.493671417236328125 27.978717803955078125 38.4500732421875 35.67617034912109375 59.490573883056640625 86.09384918212890625 94.560760498046875 97.027587890625 89.6384124755859375 61.147487640380859375 29.610109329223632812 43.8905181884765625 46.85948944091796875 24.006748199462890625 9.911663055419921875 3.2841136455535888672 3.6608853340148925781 3.4538695812225341797 -9999 29.02907562255859375 40.56499481201171875 28.13710784912109375 37.9285736083984375 52.1812744140625 60.48282623291015625 70.9547882080078125 74.3979034423828125 60.8053741455078125 53.685455322265625 48.106441497802734375 43.64917755126953125 26.420995712280273438 41.95293426513671875 36.1376800537109375 11.40765380859375 14.750441551208496094 31.8610076904296875 24.089756011962890625 19.081647872924804688 9.2940778732299804688 2.9185986518859863281 -9999 1.0331021547317504883 -9999 -9999 3.8162877559661865234 5.3003325462341308594 -9999 -9999 -9999 -9999 -9999 -9999 -9999 -9999 -9999 -9999 -9999 -9999 -9999 -9999 -9999 -9999 -9999 -9999 -9999 -9999 -9999 -9999 -9999 -9999 -9999 -9999 -9999 -9999 -9999 -9999 -9999 -9999 -9999 -9999 -9999 -9999 -9999 -9999 
-9999 -9999 1.5390583276748657227 -9999 1.4444530010223388672 1.2885400056838989258 1.1864924430847167969 -9999 -9999 1.6511350870132446289 1.5525323152542114258 1.6344726085662841797 -9999 1.6603059768676757812 2.6339385509490966797 2.0881967544555664062 2.5263962745666503906 2.5149595737457275391 3.6060934066772460938 3.3455102443695068359 2.9120736122131347656 2.7266230583190917969 1.7218482494354248047 -9999 -9999 -9999 4.9881997108459472656 5.9294910430908203125 4.286647796630859375 3.1341335773468017578 8.0128574371337890625 17.364076614379882812 14.2825469970703125 10.748578071594238281 5.6174592971801757812 6.6175098419189453125 6.7325978279113769531 10.064866065979003906 13.89990234375 11.426586151123046875 8.267566680908203125 11.482075691223144531 14.56754302978515625 14.797637939453125 44.1636810302734375 54.638210296630859375 69.33827972412109375 94.50583648681640625 87.66143798828125 99.4954376220703125 94.5373992919921875 70.08902740478515625 37.024982452392578125 61.956127166748046875 42.611675262451171875 28.727321624755859375 14.65583038330078125 17.623792648315429688 25.659276962280273438 22.844289779663085938 18.569194793701171875 35.61762237548828125 54.68044281005859375 61.065456390380859375 68.39215850830078125 52.09554290771484375 55.976917266845703125 82.18396759033203125 79.69345855712890625 77.754852294921875 55.55410003662109375 42.84343719482421875 34.765178680419921875 43.953887939453125 49.57965850830078125 25.381498336791992188 35.0815277099609375 43.5677032470703125 26.688814163208007812 23.505153656005859375 18.569330215454101562 6.6368665695190429688 -9999 1.7787089347839355469 1.7351294755935668945 -9999 -9999 2.9511687755584716797 3.7709085941314697266 -9999 -9999 -9999 -9999 -9999 -9999 -9999 -9999 1.5024360418319702148 -9999 -9999 -9999 -9999 -9999 -9999 -9999 -9999 -9999 -9999 -9999 -9999 -9999 -9999 -9999 -9999 -9999 -9999 -9999 -9999 -9999 -9999 -9999 -9999 -9999 -9999 -9999 -9999 -9999 
-9999 -9999 -9999 1.2573086023330688477 1.3737401962280273438 -9999 -9999 -9999 1.7318720817565917969 1.5953134298324584961 1.6391160488128662109 1.8351876735687255859 3.1558547019958496094 2.6240296363830566406 2.5036933422088623047 -9999 -9999 1.8823349475860595703 2.0314738750457763672 2.2167103290557861328 3.0766324996948242188 2.7803177833557128906 2.0379271507263183594 -9999 -9999 5.8175883293151855469 5.119083404541015625 5.2378644943237304688 -9999 5.2138957977294921875 9.1083097457885742188 13.719583511352539062 11.611153602600097656 5.028209686279296875 5.0026311874389648438 5.0979599952697753906 8.0167293548583984375 19.860960006713867188 32.0633544921875 20.279506683349609375 18.570140838623046875 13.788174629211425781 12.6968536376953125 11.80344390869140625 26.622148513793945312 54.06676483154296875 60.57297515869140625 94.02904510498046875 90.35333251953125 98.12773895263671875 100.23987579345703125 72.50675201416015625 61.155933380126953125 76.443817138671875 51.481357574462890625 42.17253875732421875 33.577770233154296875 42.308868408203125 55.504150390625 53.839019775390625 50.271877288818359375 69.13892364501953125 75.19754791259765625 79.947723388671875 91.35064697265625 82.70944976806640625 84.94574737548828125 97.28730010986328125 97.93392181396484375 97.71694183349609375 76.231689453125 57.330047607421875 53.019298553466796875 58.59012603759765625 46.5167236328125 40.291606903076171875 67.286224365234375 68.12165069580078125 46.442352294921875 39.97422027587890625 17.005794525146484375 4.2121734619140625 1.8370785713195800781 2.1997532844543457031 1.7008622884750366211 3.0105836391448974609 2.1945257186889648438 -9999 -9999 -9999 -9999 -9999 -9999 -9999 -9999 -9999 -9999 -9999 -9999 -9999 -9999 -9999 -9999 -9999 -9999 -9999 -9999 -9999 -9999 -9999 -9999 -9999 -9999 -9999 -9999 -9999 -9999 -9999 -9999 -9999 -9999 -9999 -9999 -9999 -9999 -9999 -9999 
-9999 -9999 1.4301697015762329102 -9999 -9999 -9999 -9999 -9999 -9999 1.6214437484741210938 -9999 1.4378006458282470703 -9999 2.2403142452239990234 2.1865022182464599609 1.6359338760375976562 1.7716474533081054688 2.0841858386993408203 2.6381726264953613281 2.9423420429229736328 2.1615502834320068359 -9999 -9999 -9999 2.898052215576171875 3.5627377033233642578 -9999 7.9275827407836914062 4.6259322166442871094 4.4768848419189453125 7.4937648773193359375 11.388644218444824219 8.8652391433715820312 4.1545267105102539062 4.0225462913513183594 9.3999452590942382812 20.346843719482421875 32.4770050048828125 37.85742950439453125 31.133939743041992188 31.447849273681640625 14.438579559326171875 9.9838390350341796875 18.189443588256835938 26.810466766357421875 48.02251434326171875 72.84389495849609375 87.6623077392578125 96.37694549560546875 86.33408355712890625 71.45397186279296875 63.271633148193359375 82.63875579833984375 77.32622528076171875 67.88507080078125 56.593051910400390625 52.995121002197265625 62.61661529541015625 53.17999267578125 60.40740203857421875 78.2707672119140625 87.3995819091796875 83.339630126953125 88.07065582275390625 91.97090911865234375 71.37722015380859375 83.40683746337890625 83.5525360107421875 80.69684600830078125 82.955108642578125 57.172054290771484375 53.700923919677734375 73.28014373779296875 66.46672821044921875 50.089756011962890625 59.0197296142578125 77.8935394287109375 63.95294189453125 46.829273223876953125 40.552700042724609375 10.201555252075195312 2.8634612560272216797 2.9371297359466552734 -9999 -9999 -9999 1.5306999683380126953 2.2727363109588623047 2.0073020458221435547 -9999 -9999 -9999 -9999 -9999 -9999 -9999 -9999 -9999 -9999 -9999 -9999 -9999 -9999 -9999 -9999 -9999 -9999 -9999 -9999 -9999 -9999 -9999 -9999 -9999 -9999 -9999 -9999 -9999 -9999 -9999 -9999 -9999 -9999 -9999 -9999 -9999 -9999 
-9999 -9999 1.8324360847473144531 -9999 -9999 -9999 -9999 -9999 -9999 1.8860398530960083008 -9999 1.5128122568130493164 -9999 1.4436116218566894531 2.152217864990234375 1.8225475549697875977 2.8141467571258544922 2.4310708045959472656 2.5812485218048095703 2.2918202877044677734 -9999 2.5156548023223876953 -9999 -9999 -9999 3.6363158226013183594 -9999 2.2447922229766845703 1.9260314702987670898 2.4733002185821533203 8.3507595062255859375 11.209184646606445312 6.961231231689453125 4.0067973136901855469 3.8586866855621337891 15.260640144348144531 20.518945693969726562 32.490024566650390625 26.386503219604492188 34.008190155029296875 34.605579376220703125 17.316059112548828125 20.883710861206054688 17.991092681884765625 27.979282379150390625 38.993328094482421875 79.032806396484375 83.3515625 88.7279815673828125 63.05922698974609375 29.85272979736328125 71.799041748046875 93.639434814453125 87.152740478515625 73.725067138671875 70.16933441162109375 72.62047576904296875 60.79290771484375 40.78900909423828125 75.41115570068359375 92.354339599609375 90.93889617919921875 85.525054931640625 90.79479217529296875 92.6445465087890625 64.46794891357421875 77.65561676025390625 70.8905487060546875 73.2973480224609375 61.739925384521484375 42.214824676513671875 80.8753662109375 68.70001983642578125 62.17131805419921875 75.42596435546875 76.7952423095703125 87.14942169189453125 54.466884613037109375 48.712436676025390625 21.010498046875 4.4214348793029785156 2.8093075752258300781 2.4291317462921142578 -9999 -9999 -9999 1.8350794315338134766 2.6054639816284179688 -9999 -9999 -9999 -9999 -9999 -9999 -9999 -9999 -9999 -9999 -9999 -9999 -9999 -9999 -9999 -9999 -9999 -9999 -9999 -9999 -9999 -9999 -9999 -9999 -9999 -9999 -9999 -9999 -9999 -9999 -9999 -9999 -9999 -9999 -9999 -9999 -9999 -9999 -9999 
-9999 -9999 -9999 1.8798496723175048828 -9999 -9999 -9999 -9999 -9999 -9999 1.5630135536193847656 1.3244594335556030273 1.3318043947219848633 1.1972587108612060547 1.7064561843872070312 2.4533815383911132812 2.898586273193359375 2.7376379966735839844 1.9511666297912597656 1.5876125097274780273 -9999 1.5440812110900878906 -9999 -9999 -9999 -9999 -9999 -9999 1.9874217510223388672 2.5406610965728759766 4.11572265625 4.8246159553527832031 10.149483680725097656 8.5073528289794921875 6.7092413902282714844 6.9878368377685546875 6.28890228271484375 20.168712615966796875 29.637033462524414062 45.8547210693359375 39.08135223388671875 30.09780120849609375 30.551204681396484375 28.727142333984375 56.754970550537109375 60.388454437255859375 74.43798828125 79.37354278564453125 81.41082763671875 42.775959014892578125 34.607311248779296875 83.29346466064453125 95.089599609375 86.5381927490234375 68.54437255859375 66.08904266357421875 67.4010009765625 52.379833221435546875 67.3332672119140625 75.70294189453125 65.75853729248046875 74.40810394287109375 61.406158447265625 68.95603179931640625 82.473876953125 69.1244049072265625 77.3370819091796875 80.7014923095703125 86.7365570068359375 72.57982635498046875 54.850543975830078125 61.4356842041015625 52.536861419677734375 87.79460906982421875 79.007568359375 79.08814239501953125 86.6425018310546875 70.24466705322265625 39.896015167236328125 10.117146492004394531 5.8474078178405761719 3.1179995536804199219 -9999 -9999 -9999 -9999 1.2340050935745239258 -9999 -9999 -9999 -9999 -9999 -9999 -9999 -9999 -9999 -9999 -9999 -9999 -9999 -9999 -9999 -9999 -9999 -9999 -9999 -9999 -9999 -9999 -9999 -9999 -9999 -9999 -9999 -9999 -9999 -9999 -9999 -9999 -9999 -9999 -9999 -9999 -9999 -9999 -9999 -9999 
-9999 -9999 -9999 -9999 -9999 -9999 -9999 -9999 -9999 1.5376279354095458984 1.7223801612854003906 1.7459585666656494141 1.7418456077575683594 1.6119358539581298828 2.167697906494140625 2.1467106342315673828 2.4949889183044433594 2.14110565185546875 1.6515234708786010742 -9999 -9999 -9999 -9999 -9999 -9999 -9999 -9999 -9999 2.5278291702270507812 2.9516017436981201172 -9999 2.9044423103332519531 8.63893890380859375 8.0732421875 9.2628736495971679688 7.8993983268737792969 15.904667854309082031 32.9311065673828125 39.65442657470703125 45.2875823974609375 28.020023345947265625 41.867115020751953125 38.679042816162109375 42.56295013427734375 75.86423492431640625 64.98574066162109375 62.608753204345703125 55.26747894287109375 51.8243560791015625 30.413667678833007812 59.308979034423828125 85.20125579833984375 90.850677490234375 82.9600677490234375 69.87715911865234375 65.424591064453125 38.548152923583984375 52.729709625244140625 66.1644744873046875 61.9601593017578125 58.8756103515625 61.374698638916015625 57.926319122314453125 59.036930084228515625 61.46460723876953125 61.6570281982421875 71.52887725830078125 77.47097015380859375 84.8737335205078125 76.9579315185546875 64.86063385009765625 67.76922607421875 93.11232757568359375 95.29510498046875 61.922344207763671875 57.902080535888671875 87.59044647216796875 74.798675537109375 31.716815948486328125 3.6070227622985839844 2.1663124561309814453 -9999 -9999 -9999 -9999 -9999 1.2804954051971435547 1.2856034040451049805 -9999 -9999 -9999 -9999 -9999 -9999 -9999 -9999 -9999 -9999 -9999 -9999 -9999 -9999 -9999 -9999 -9999 -9999 -9999 -9999 -9999 -9999 -9999 -9999 -9999 -9999 -9999 -9999 -9999 -9999 -9999 -9999 -9999 -9999 -9999 -9999 -9999 -9999 -9999 
-9999 -9999 -9999 -9999 -9999 -9999 2.3250901699066162109 -9999 -9999 1.4855847358703613281 1.5749061107635498047 1.6741925477981567383 1.9244784116744995117 2.2972135543823242188 2.1472556591033935547 2.1213030815124511719 2.6472084522247314453 1.8534364700317382812 -9999 -9999 -9999 -9999 -9999 -9999 -9999 -9999 2.1953215599060058594 1.930389404296875 2.28565216064453125 -9999 1.9084721803665161133 2.6848747730255126953 8.1382246017456054688 11.266724586486816406 20.452297210693359375 26.68804168701171875 35.385955810546875 36.50662994384765625 38.42459869384765625 34.5383148193359375 26.134717941284179688 38.31723785400390625 25.2518463134765625 36.16974639892578125 77.3147735595703125 65.21178436279296875 69.1089324951171875 63.367023468017578125 37.77623748779296875 39.66168212890625 68.05129241943359375 88.873565673828125 79.58392333984375 63.6771697998046875 68.3440399169921875 53.091205596923828125 25.239521026611328125 21.59796905517578125 20.802761077880859375 17.77484893798828125 17.077756881713867188 15.872563362121582031 15.731625556945800781 17.716856002807617188 17.818561553955078125 25.529224395751953125 52.749523162841796875 67.07427215576171875 76.54242706298828125 65.37505340576171875 72.99431610107421875 88.767669677734375 97.7642364501953125 92.89459991455078125 84.7533111572265625 90.490081787109375 90.1456451416015625 62.493946075439453125 20.091100692749023438 2.3614189624786376953 1.7253568172454833984 -9999 -9999 -9999 -9999 -9999 -9999 -9999 -9999 -9999 -9999 1.3273780345916748047 1.6199805736541748047 1.170407414436340332 -9999 -9999 -9999 -9999 -9999 -9999 -9999 -9999 -9999 -9999 -9999 -9999 -9999 -9999 -9999 -9999 -9999 -9999 -9999 -9999 -9999 -9999 -9999 -9999 -9999 -9999 -9999 -9999 -9999 -9999 -9999 -9999 -9999 
-9999 -9999 -9999 -9999 -9999 -9999 -9999 1.5462057590484619141 -9999 1.260220646858215332 1.3525549173355102539 1.6429702043533325195 1.9911550283432006836 1.985442042350769043 2.4820098876953125 2.5635669231414794922 1.9833052158355712891 1.7755240201950073242 2.9355161190032958984 4.2369589805603027344 3.2833542823791503906 2.020214080810546875 -9999 -9999 -9999 -9999 -9999 2.1373240947723388672 2.1360633373260498047 2.3560383319854736328 3.1946291923522949219 4.3429112434387207031 16.500391006469726562 20.889772415161132812 19.386051177978515625 35.7468414306640625 47.4427337646484375 39.647533416748046875 35.46839141845703125 36.07859039306640625 33.315273284912109375 33.398468017578125 35.27422332763671875 44.364986419677734375 65.03517913818359375 53.67218780517578125 63.13458251953125 65.281982421875 49.90533447265625 83.5316009521484375 81.2529449462890625 94.69367218017578125 81.24282073974609375 73.0953521728515625 58.99895477294921875 26.679449081420898438 7.7381415367126464844 -9999 -9999 -9999 -9999 -9999 -9999 2.000186920166015625 -9999 4.3086986541748046875 15.401413917541503906 37.101840972900390625 65.15660858154296875 66.7201690673828125 85.83182525634765625 89.1186981201171875 79.93532562255859375 77.42450714111328125 95.2066650390625 96.42081451416015625 85.2634429931640625 40.77880859375 8.5013513565063476562 3.0165126323699951172 1.7143218517303466797 -9999 -9999 -9999 -9999 -9999 -9999 -9999 -9999 -9999 1.943019866943359375 2.2270081043243408203 3.1213920116424560547 1.7633138895034790039 -9999 -9999 -9999 -9999 -9999 -9999 -9999 -9999 -9999 -9999 -9999 -9999 -9999 -9999 -9999 -9999 -9999 -9999 -9999 -9999 -9999 -9999 -9999 -9999 -9999 -9999 -9999 -9999 -9999 -9999 -9999 -9999 -9999 
-9999 -9999 -9999 -9999 -9999 -9999 -9999 -9999 -9999 1.5238579511642456055 -9999 2.2661488056182861328 2.4880459308624267578 2.5101895332336425781 2.9439158439636230469 3.8295505046844482422 2.5457959175109863281 5.8096928596496582031 7.7976412773132324219 8.9440889358520507812 5.1004724502563476562 -9999 -9999 -9999 -9999 2.1254777908325195312 2.143108367919921875 2.4946248531341552734 2.1882963180541992188 3.5284132957458496094 6.1294522285461425781 8.8654718399047851562 22.450559616088867188 17.271587371826171875 23.086755752563476562 45.309795379638671875 52.18454742431640625 38.323757171630859375 41.68369293212890625 45.097320556640625 48.066799163818359375 41.377719879150390625 29.140306472778320312 48.80046844482421875 41.4687957763671875 21.293056488037109375 33.73255157470703125 48.493438720703125 51.482208251953125 78.10424041748046875 87.56601715087890625 89.53136444091796875 72.243804931640625 61.339496612548828125 29.2469329833984375 5.543384552001953125 -9999 -9999 -9999 -9999 -9999 -9999 -9999 -9999 -9999 -9999 -9999 10.341866493225097656 45.177371978759765625 62.07314300537109375 71.9226531982421875 87.551116943359375 64.4329833984375 75.1329498291015625 92.29792022705078125 97.79850006103515625 81.35399627685546875 38.18808746337890625 5.2461056709289550781 1.6032309532165527344 -9999 -9999 -9999 -9999 -9999 -9999 -9999 1.1240609884262084961 -9999 2.214786529541015625 1.8591400384902954102 2.78696441650390625 3.8906543254852294922 1.9090524911880493164 -9999 -9999 -9999 -9999 -9999 -9999 -9999 -9999 -9999 -9999 -9999 -9999 -9999 -9999 -9999 -9999 -9999 -9999 -9999 -9999 -9999 -9999 -9999 -9999 -9999 -9999 1.0192189216613769531 -9999 -9999 -9999 -9999 -9999 -9999 
-9999 -9999 -9999 -9999 -9999 -9999 -9999 2.3210682868957519531 2.1747581958770751953 1.7606599330902099609 1.6920483112335205078 2.1089930534362792969 3.4929339885711669922 2.4907667636871337891 2.6427319049835205078 2.99399566650390625 4.9156599044799804688 8.9568281173706054688 8.7254972457885742188 10.275531768798828125 4.3714566230773925781 1.7510579824447631836 1.525957942008972168 -9999 2.1231801509857177734 -9999 -9999 2.4994995594024658203 2.7281661033630371094 4.2500944137573242188 4.5443067550659179688 9.1660442352294921875 17.311258316040039062 20.037626266479492188 45.29831695556640625 55.469715118408203125 44.902477264404296875 47.3687286376953125 49.01854705810546875 47.817783355712890625 70.84630584716796875 50.21904754638671875 28.29123687744140625 36.763843536376953125 11.62458038330078125 4.00174713134765625 12.967337608337402344 29.5902862548828125 45.539875030517578125 43.719940185546875 37.282680511474609375 29.382999420166015625 21.94347381591796875 16.665628433227539062 5.2859344482421875 -9999 -9999 -9999 -9999 -9999 -9999 -9999 -9999 -9999 -9999 -9999 -9999 5.0945744514465332031 35.031463623046875 70.0779266357421875 76.975982666015625 82.57505035400390625 73.5505828857421875 86.45966339111328125 95.63269805908203125 97.4344635009765625 73.214019775390625 31.2837066650390625 3.2987291812896728516 1.2368988990783691406 -9999 -9999 -9999 -9999 -9999 -9999 2.5591728687286376953 2.7567081451416015625 4.878143310546875 6.7453680038452148438 6.0216536521911621094 4.2131142616271972656 2.9478232860565185547 1.4445841312408447266 -9999 -9999 -9999 -9999 -9999 -9999 -9999 -9999 -9999 -9999 -9999 -9999 -9999 -9999 -9999 -9999 -9999 -9999 -9999 -9999 -9999 -9999 -9999 -9999 -9999 -9999 -9999 -9999 -9999 -9999 -9999 -9999 -9999 
-9999 -9999 -9999 -9999 -9999 -9999 -9999 -9999 -9999 -9999 1.4403976202011108398 2.0105307102203369141 2.6813776493072509766 1.9583766460418701172 2.2155797481536865234 4.4723191261291503906 12.264692306518554688 10.889703750610351562 7.0013647079467773438 6.1623439788818359375 2.2401590347290039062 2.1405119895935058594 -9999 -9999 2.4365558624267578125 -9999 -9999 2.1571280956268310547 7.0191760063171386719 9.9876356124877929688 13.978819847106933594 16.39273834228515625 10.442501068115234375 22.680110931396484375 47.41278839111328125 43.34285736083984375 47.61600494384765625 60.18454742431640625 57.495746612548828125 43.16136932373046875 50.43129730224609375 30.185014724731445312 26.95299530029296875 17.243928909301757812 -9999 20.295801162719726562 29.350973129272460938 53.793888092041015625 62.609508514404296875 62.39545440673828125 31.649242401123046875 11.753256797790527344 8.3271856307983398438 4.9736094474792480469 3.6892004013061523438 -9999 -9999 -9999 -9999 -9999 1.3570488691329956055 1.308627009391784668 1.7927968502044677734 3.4561278820037841797 1.4617705345153808594 1.3187923431396484375 -9999 3.3670127391815185547 18.16608428955078125 44.5896759033203125 82.76629638671875 91.8460845947265625 94.5736083984375 85.99472808837890625 94.517303466796875 98.33937835693359375 77.5117340087890625 26.23889923095703125 3.2454416751861572266 -9999 -9999 -9999 -9999 -9999 -9999 1.7558927536010742188 5.3136138916015625 4.7374410629272460938 4.6150054931640625 6.9105076789855957031 7.2616786956787109375 6.2049646377563476562 3.4343898296356201172 -9999 -9999 -9999 -9999 -9999 -9999 -9999 -9999 -9999 -9999 -9999 -9999 -9999 -9999 -9999 -9999 -9999 -9999 -9999 -9999 -9999 -9999 -9999 -9999 -9999 -9999 -9999 -9999 -9999 -9999 -9999 -9999 -9999 -9999 
-9999 -9999 -9999 -9999 -9999 1.2164193391799926758 -9999 -9999 -9999 1.3605234622955322266 1.4976887702941894531 2.6281874179840087891 2.8761122226715087891 2.4641656875610351562 4.108295440673828125 8.21804046630859375 9.4771213531494140625 6.2680387496948242188 6.2980523109436035156 3.7720921039581298828 2.958621978759765625 -9999 -9999 2.1068656444549560547 -9999 2.1774895191192626953 2.4835901260375976562 4.7466297149658203125 8.8847904205322265625 11.727666854858398438 23.287813186645507812 14.365251541137695312 4.0452604293823242188 9.6515903472900390625 18.574964523315429688 35.21424102783203125 52.422023773193359375 63.772762298583984375 58.996501922607421875 41.252262115478515625 45.177646636962890625 28.276611328125 28.404111862182617188 31.24663543701171875 31.385974884033203125 34.11051177978515625 46.28806304931640625 78.41847991943359375 81.50494384765625 67.52989959716796875 74.88120269775390625 62.738773345947265625 47.65074920654296875 31.770387649536132812 16.806367874145507812 13.445806503295898438 10.881410598754882812 5.1098179817199707031 1.9994144439697265625 2.1297354698181152344 1.6872285604476928711 2.9152114391326904297 -9999 -9999 -9999 1.5663219690322875977 3.9655203819274902344 11.770263671875 25.339982986450195312 43.03564453125 80.93462371826171875 94.5582427978515625 92.6484832763671875 90.95883941650390625 96.91226959228515625 91.63298797607421875 75.550079345703125 32.298427581787109375 3.4644441604614257812 1.6664307117462158203 -9999 -9999 -9999 7.6338109970092773438 8.0128698348999023438 3.5170457363128662109 12.45273590087890625 9.3990678787231445312 2.9715411663055419922 5.7633047103881835938 7.80136871337890625 6.0776910781860351562 3.5113866329193115234 2.2074973583221435547 -9999 -9999 -9999 -9999 -9999 -9999 -9999 -9999 -9999 -9999 -9999 -9999 -9999 -9999 -9999 -9999 -9999 -9999 -9999 -9999 -9999 -9999 -9999 -9999 -9999 -9999 -9999 -9999 -9999 -9999 -9999 -9999 -9999 
-9999 -9999 -9999 -9999 -9999 -9999 1.5052182674407958984 -9999 1.3085350990295410156 1.2714989185333251953 1.8874115943908691406 3.3826165199279785156 4.0804700851440429688 4.1952910423278808594 8.1916856765747070312 8.0738000869750976562 4.3360729217529296875 4.7217550277709960938 4.9297876358032226562 3.06219482421875 2.3955693244934082031 -9999 3.0135238170623779297 3.2408680915832519531 2.8205895423889160156 -9999 2.7132334709167480469 8.3876771926879882812 15.426576614379882812 18.889923095703125 14.482178688049316406 5.2571115493774414062 4.9610743522644042969 9.9576511383056640625 32.083408355712890625 53.310855865478515625 57.085205078125 47.726016998291015625 41.86480712890625 37.448001861572265625 55.04676055908203125 38.493442535400390625 22.820465087890625 24.876192092895507812 35.3918609619140625 50.265140533447265625 68.85956573486328125 77.47412872314453125 71.920684814453125 40.12180328369140625 51.465625762939453125 89.97103118896484375 81.72248077392578125 64.10936737060546875 32.0198822021484375 26.677186965942382812 15.778871536254882812 9.9666337966918945312 3.125019073486328125 1.6119920015335083008 4.3412423133850097656 9.9347991943359375 10.31011199951171875 4.2508783340454101562 -9999 9.379730224609375 31.773046493530273438 46.937992095947265625 63.1960601806640625 79.639617919921875 90.47959136962890625 91.205291748046875 89.3481903076171875 96.4407958984375 96.10378265380859375 81.56491851806640625 66.8337554931640625 25.507875442504882812 4.4547667503356933594 1.8798011541366577148 -9999 -9999 -9999 11.521809577941894531 14.903521537780761719 9.41010284423828125 27.981121063232421875 29.3905487060546875 9.813320159912109375 5.2184405326843261719 10.592311859130859375 6.6552977561950683594 5.7755565643310546875 6.5987915992736816406 3.5225548744201660156 -9999 -9999 -9999 -9999 -9999 -9999 -9999 -9999 -9999 -9999 -9999 -9999 -9999 -9999 -9999 -9999 -9999 -9999 -9999 -9999 1.7175042629241943359 -9999 -9999 -9999 -9999 -9999 -9999 -9999 -9999 -9999 -9999 -9999 
-9999 -9999 -9999 -9999 -9999 -9999 -9999 -9999 1.6847974061965942383 1.8423807621002197266 2.6988320350646972656 4.092926025390625 4.9004364013671875 4.494045257568359375 6.9151668548583984375 5.5138559341430664062 2.59696197509765625 2.3514468669891357422 2.7463896274566650391 1.8356449604034423828 1.7188882827758789062 1.3806946277618408203 2.2496190071105957031 3.0015816688537597656 3.4943511486053466797 2.9073064327239990234 2.8929851055145263672 7.2124485969543457031 17.883893966674804688 18.355936050415039062 8.78447723388671875 6.223358154296875 9.7715892791748046875 20.8556976318359375 47.94565582275390625 57.949268341064453125 45.02337646484375 30.121883392333984375 39.207988739013671875 45.50804901123046875 52.29447174072265625 40.61296844482421875 30.984142303466796875 49.965564727783203125 69.09810638427734375 73.71743011474609375 74.95815277099609375 66.70241546630859375 67.13549041748046875 68.61736297607421875 71.161712646484375 81.14992523193359375 64.04122161865234375 66.61997222900390625 47.81713104248046875 32.905853271484375 19.311862945556640625 18.149967193603515625 3.8712580204010009766 -9999 2.8193717002868652344 7.8937830924987792969 6.6057424545288085938 3.9106342792510986328 13.459638595581054688 42.163959503173828125 64.32277679443359375 63.904460906982421875 73.153717041015625 85.6412200927734375 90.56334686279296875 91.91117095947265625 93.53926849365234375 97.06690216064453125 90.35147857666015625 73.095428466796875 59.771518707275390625 13.93796539306640625 2.1262896060943603516 -9999 -9999 -9999 3.3711338043212890625 10.35988616943359375 16.593097686767578125 21.810840606689453125 42.648548126220703125 34.71137237548828125 9.086269378662109375 12.773495674133300781 20.74817657470703125 10.192995071411132812 7.6628651618957519531 7.5097217559814453125 2.6609594821929931641 -9999 -9999 -9999 -9999 -9999 -9999 -9999 -9999 -9999 -9999 -9999 -9999 -9999 -9999 -9999 -9999 -9999 -9999 -9999 -9999 -9999 -9999 -9999 -9999 -9999 -9999 -9999 -9999 -9999 -9999 -9999 -9999 
-9999 -9999 -9999 -9999 1.3212734460830688477 -9999 -9999 1.4395046234130859375 1.6059857606887817383 3.7943499088287353516 4.9089574813842773438 6.35930633544921875 3.468105316162109375 3.6235644817352294922 3.7849726676940917969 3.7708795070648193359 2.2473452091217041016 1.9961063861846923828 2.4257471561431884766 1.7788318395614624023 1.6853456497192382812 1.632882237434387207 2.2244706153869628906 3.2150640487670898438 3.0975306034088134766 1.8017709255218505859 2.09059906005859375 5.8491148948669433594 16.270099639892578125 6.7488560676574707031 3.5928258895874023438 4.6465935707092285156 17.013927459716796875 24.986799240112304688 45.030841827392578125 35.847301483154296875 34.262542724609375 21.397998809814453125 26.853849411010742188 39.454280853271484375 41.48540496826171875 24.602344512939453125 50.572536468505859375 67.6239166259765625 81.53859710693359375 80.5005340576171875 64.82588958740234375 60.859767913818359375 55.166088104248046875 50.4719085693359375 45.0211181640625 51.0759735107421875 58.9431610107421875 56.374080657958984375 51.9863433837890625 52.7742462158203125 28.818389892578125 27.770511627197265625 23.876550674438476562 7.8146762847900390625 2.3870537281036376953 6.0976462364196777344 8.517833709716796875 23.1384735107421875 53.382297515869140625 68.73480224609375 71.9694061279296875 73.18164825439453125 84.54988861083984375 87.43227386474609375 92.44539642333984375 95.0006866455078125 95.7950897216796875 95.418914794921875 80.162139892578125 69.85988616943359375 59.40642547607421875 14.263257980346679688 -9999 -9999 -9999 -9999 2.7520768642425537109 9.158733367919921875 11.804417610168457031 31.90627288818359375 64.2878265380859375 55.3240814208984375 25.126008987426757812 14.342168807983398438 22.350244522094726562 12.358859062194824219 4.6124854087829589844 2.7032072544097900391 1.7516182661056518555 -9999 -9999 -9999 -9999 -9999 -9999 -9999 -9999 -9999 -9999 -9999 -9999 -9999 -9999 -9999 -9999 -9999 -9999 -9999 -9999 -9999 -9999 -9999 -9999 -9999 -9999 -9999 -9999 -9999 -9999 -9999 -9999 
-9999 -9999 -9999 1.3574593067169189453 -9999 -9999 -9999 1.4656406641006469727 2.1842277050018310547 2.2494473457336425781 3.0129668712615966797 4.1733717918395996094 2.6346518993377685547 2.9059879779815673828 2.4934389591217041016 1.9192709922790527344 2.0170843601226806641 2.1301736831665039062 2.4920904636383056641 2.0966849327087402344 -9999 3.2549831867218017578 2.6888613700866699219 2.4847791194915771484 2.6639294624328613281 1.9795634746551513672 3.5879967212677001953 8.4483127593994140625 12.108534812927246094 7.2262406349182128906 7.2074112892150878906 14.440974235534667969 27.875764846801757812 36.010257720947265625 33.147464752197265625 22.293827056884765625 22.075727462768554688 23.32202911376953125 24.697156906127929688 20.217985153198242188 29.7373809814453125 44.487762451171875 50.005962371826171875 41.62448883056640625 68.69185638427734375 64.9654541015625 54.345836639404296875 40.95511627197265625 57.078304290771484375 37.529613494873046875 41.25243377685546875 25.6346282958984375 38.250537872314453125 34.779376983642578125 31.01718902587890625 44.53497314453125 42.809200286865234375 51.070354461669921875 63.131282806396484375 36.748104095458984375 13.450299263000488281 17.659746170043945312 32.787647247314453125 67.7757720947265625 75.77088165283203125 66.11940765380859375 78.43622589111328125 85.03033447265625 89.7637939453125 80.03302764892578125 88.2261505126953125 94.772064208984375 94.4783477783203125 90.98126220703125 60.9859619140625 67.89180755615234375 54.93072509765625 11.8694305419921875 -9999 -9999 -9999 -9999 2.3748729228973388672 10.035439491271972656 10.668307304382324219 33.56512451171875 67.76503753662109375 61.194580078125 35.914745330810546875 22.295484542846679688 22.844364166259765625 11.284874916076660156 11.199838638305664062 7.2224855422973632812 3.6927440166473388672 -9999 -9999 -9999 -9999 -9999 1.4655891656875610352 -9999 -9999 -9999 -9999 -9999 -9999 -9999 -9999 -9999 -9999 -9999 -9999 -9999 -9999 -9999 -9999 -9999 -9999 -9999 -9999 -9999 -9999 -9999 -9999 -9999 -9999 
-9999 -9999 -9999 -9999 -9999 1.4100162982940673828 1.8286055326461791992 2.2548210620880126953 1.9719680547714233398 -9999 -9999 2.9422512054443359375 2.0725831985473632812 2.2514460086822509766 2.2136859893798828125 2.4358968734741210938 2.2144925594329833984 2.6975522041320800781 1.9967913627624511719 1.5520091056823730469 1.9471633434295654297 2.6616482734680175781 2.3256745338439941406 1.8426873683929443359 2.0601227283477783203 2.8860237598419189453 7.0404009819030761719 10.448763847351074219 4.09610748291015625 3.1365284919738769531 7.1954865455627441406 21.73558807373046875 30.999866485595703125 32.463871002197265625 28.677701950073242188 13.183848381042480469 17.152927398681640625 27.682384490966796875 16.785465240478515625 7.1450572013854980469 13.949991226196289062 32.806865692138671875 50.5012969970703125 49.3510284423828125 56.543323516845703125 62.84345245361328125 41.87957000732421875 53.850055694580078125 77.018096923828125 57.420032501220703125 36.338169097900390625 12.828533172607421875 12.294507026672363281 13.075479507446289062 19.319362640380859375 19.541116714477539062 24.348293304443359375 31.0713348388671875 49.622402191162109375 60.175708770751953125 44.329219818115234375 46.115222930908203125 68.351806640625 90.9031524658203125 85.75304412841796875 74.9507293701171875 83.4931182861328125 58.469329833984375 70.09980010986328125 86.10227203369140625 94.50882720947265625 92.14984893798828125 82.04267120361328125 68.3585357666015625 61.334064483642578125 62.136417388916015625 38.553821563720703125 6.5883436203002929688 2.3651928901672363281 2.0400240421295166016 1.542107701301574707 1.5573621988296508789 3.3244495391845703125 4.9262328147888183594 6.6376852989196777344 36.154781341552734375 60.948333740234375 42.0385589599609375 38.94609832763671875 21.914920806884765625 12.907458305358886719 10.076148033142089844 13.051840782165527344 10.272521018981933594 7.6321349143981933594 2.5215981006622314453 -9999 -9999 -9999 -9999 -9999 -9999 -9999 -9999 -9999 -9999 -9999 -9999 -9999 -9999 -9999 -9999 -9999 -9999 -9999 -9999 -9999 -9999 -9999 -9999 -9999 -9999 -9999 -9999 -9999 -9999 -9999 
-9999 -9999 -9999 -9999 -9999 1.6125724315643310547 2.2307560443878173828 2.6632406711578369141 1.9013756513595581055 -9999 -9999 1.3655661344528198242 1.6527122259140014648 1.6997839212417602539 1.6716246604919433594 1.962749481201171875 1.9400873184204101562 1.9861228466033935547 1.7947411537170410156 2.2190463542938232422 1.7175590991973876953 2.5808308124542236328 1.8865003585815429688 2.0463206768035888672 1.6936095952987670898 -9999 5.5134196281433105469 5.4372706413269042969 2.9545164108276367188 4.8027653694152832031 13.88437652587890625 23.243814468383789062 27.287424087524414062 20.145420074462890625 18.562849044799804688 15.081219673156738281 16.706104278564453125 13.152153968811035156 9.1634311676025390625 7.3898553848266601562 6.4269251823425292969 8.1328802108764648438 21.755342483520507812 32.995883941650390625 49.261608123779296875 48.837982177734375 42.3105010986328125 74.2307586669921875 71.4204254150390625 32.92986297607421875 12.850335121154785156 -9999 -9999 4.266765594482421875 19.300464630126953125 16.94829559326171875 4.7716374397277832031 7.8714880943298339844 19.312747955322265625 29.67397308349609375 58.12494659423828125 74.0305633544921875 89.98352813720703125 88.13590240478515625 81.5560302734375 76.92934417724609375 68.262847900390625 43.691997528076171875 39.772613525390625 54.776821136474609375 86.068145751953125 79.8773040771484375 36.6137542724609375 45.89212799072265625 78.97716522216796875 70.49266815185546875 30.510364532470703125 3.3805301189422607422 -9999 -9999 -9999 -9999 7.1817622184753417969 9.582401275634765625 4.9919710159301757812 26.323965072631835938 52.398712158203125 44.922740936279296875 36.669261932373046875 16.739698410034179688 3.0030264854431152344 7.3490967750549316406 15.289764404296875 9.2893953323364257812 6.2426285743713378906 2.0206339359283447266 -9999 -9999 -9999 -9999 -9999 -9999 -9999 -9999 -9999 -9999 -9999 -9999 -9999 -9999 -9999 1.782176971435546875 1.713817596435546875 -9999 -9999 -9999 -9999 -9999 -9999 -9999 -9999 -9999 -9999 -9999 -9999 -9999 -9999 
-9999 -9999 -9999 -9999 -9999 1.8737636804580688477 2.3990690708160400391 2.4072878360748291016 1.6171308755874633789 -9999 1.2877775430679321289 1.8098325729370117188 1.6375184059143066406 1.2538425922393798828 -9999 1.4083534479141235352 1.5967829227447509766 1.9570344686508178711 1.4492371082305908203 1.4332984685897827148 2.0008153915405273438 3.1153895854949951172 2.8125574588775634766 2.2577738761901855469 1.4695481061935424805 2.4227862358093261719 6.7416982650756835938 6.3659663200378417969 4.8434991836547851562 8.3687000274658203125 13.529292106628417969 12.060832977294921875 14.293245315551757812 13.112954139709472656 12.771940231323242188 16.015420913696289062 18.219392776489257812 11.198033332824707031 7.048282623291015625 6.3277072906494140625 4.1726541519165039062 4.904743194580078125 5.6135797500610351562 13.570384025573730469 31.187383651733398438 31.278598785400390625 40.65093994140625 51.420261383056640625 35.0009918212890625 9.09580230712890625 2.9025406837463378906 2.1845111846923828125 -9999 4.4959797859191894531 20.058332443237304688 21.687089920043945312 4.9949564933776855469 6.8968725204467773438 8.9691066741943359375 7.8847455978393554688 15.667696952819824219 26.919340133666992188 54.276397705078125 48.876514434814453125 43.51377105712890625 33.882720947265625 27.436250686645507812 22.881841659545898438 11.545680046081542969 17.794153213500976562 61.10405731201171875 50.035984039306640625 27.133150100708007812 80.34185028076171875 87.027099609375 69.43047332763671875 29.72469329833984375 -9999 2.4862108230590820312 2.4987370967864990234 -9999 2.9304845333099365234 9.9445180892944335938 13.643002510070800781 9.4059934616088867188 23.294939041137695312 34.00450897216796875 21.7446746826171875 19.60933685302734375 16.764007568359375 14.961682319641113281 17.159578323364257812 16.803741455078125 6.0223784446716308594 1.6584734916687011719 1.4672765731811523438 1.6152070760726928711 2.2273645401000976562 -9999 -9999 -9999 -9999 -9999 -9999 -9999 -9999 -9999 -9999 -9999 -9999 -9999 -9999 -9999 -9999 -9999 -9999 -9999 -9999 -9999 -9999 -9999 -9999 -9999 -9999 -9999 -9999 -9999 
-9999 -9999 -9999 -9999 1.2417471408843994141 1.6374261379241943359 1.5049849748611450195 1.7916871309280395508 1.8188225030899047852 1.6824434995651245117 1.6781835556030273438 1.798529505729675293 1.4306474924087524414 1.3480117321014404297 1.6283829212188720703 2.0701069831848144531 2.4025864601135253906 2.6232175827026367188 1.8479593992233276367 1.5643171072006225586 3.4726662635803222656 3.3422670364379882812 3.5262897014617919922 3.0249550342559814453 1.5830322504043579102 3.0453457832336425781 6.1028523445129394531 6.6019306182861328125 6.4915604591369628906 7.8094043731689453125 9.3047189712524414062 5.6974582672119140625 9.6919164657592773438 17.730594635009765625 15.250576019287109375 19.81266021728515625 16.090007781982421875 7.0594916343688964844 3.1518464088439941406 3.1562438011169433594 2.3989963531494140625 1.9526205062866210938 2.8006939888000488281 10.293559074401855469 16.78368377685546875 18.757936477661132812 25.483129501342773438 19.294870376586914062 4.8662014007568359375 2.8379728794097900391 2.6211450099945068359 3.2215173244476318359 3.0596230030059814453 5.7819461822509765625 12.194540977478027344 16.799753189086914062 5.8815927505493164062 2.1228449344635009766 6.189739227294921875 6.419406890869140625 4.8366303443908691406 10.847006797790527344 23.71553802490234375 15.715798377990722656 6.1055054664611816406 3.6577868461608886719 -9999 2.2173066139221191406 3.5373218059539794922 11.769985198974609375 31.2835235595703125 10.523545265197753906 44.7944488525390625 93.02617645263671875 87.7669219970703125 72.693328857421875 37.084522247314453125 5.6342434883117675781 2.9440491199493408203 4.0425763130187988281 -9999 3.5851104259490966797 11.829360008239746094 20.113994598388671875 33.2093353271484375 30.59662628173828125 11.695812225341796875 11.73919677734375 20.943073272705078125 28.498844146728515625 25.720472335815429688 13.107929229736328125 -9999 7.0243325233459472656 9.4910259246826171875 8.6699085235595703125 5.5104432106018066406 2.8820636272430419922 2.9220256805419921875 2.1996352672576904297 -9999 1.1458252668380737305 -9999 -9999 -9999 -9999 -9999 -9999 -9999 2.5761120319366455078 -9999 -9999 -9999 -9999 -9999 -9999 -9999 -9999 -9999 -9999 -9999 -9999 -9999 -9999 -9999 -9999 -9999 
-9999 -9999 -9999 -9999 1.3959811925888061523 1.7424057722091674805 1.5826669931411743164 2.1542284488677978516 2.0821909904479980469 1.6895811557769775391 1.5250228643417358398 1.1863996982574462891 1.4734350442886352539 1.5338354110717773438 -9999 -9999 2.2707383632659912109 2.9435071945190429688 2.0826635360717773438 1.6962974071502685547 3.3783938884735107422 2.7734050750732421875 2.9346981048583984375 2.5595407485961914062 1.9389101266860961914 4.8662014007568359375 7.2729196548461914062 6.1185865402221679688 7.0119533538818359375 9.9866743087768554688 10.714656829833984375 6.5747652053833007812 10.722730636596679688 19.3007354736328125 17.985401153564453125 13.40862274169921875 10.808948516845703125 4.1221556663513183594 1.5966629981994628906 2.0591599941253662109 1.5977361202239990234 1.5875030755996704102 4.6854944229125976562 14.053480148315429688 18.149850845336914062 11.910708427429199219 6.108051300048828125 3.5833165645599365234 2.5302181243896484375 2.3652765750885009766 -9999 -9999 2.1385743618011474609 4.6321730613708496094 7.5179829597473144531 6.5855040550231933594 4.1926503181457519531 3.5122914314270019531 12.295310020446777344 9.78026580810546875 4.7272853851318359375 12.490091323852539062 14.684596061706542969 18.231130599975585938 11.494610786437988281 7.2011547088623046875 8.091815948486328125 3.9809122085571289062 3.8017659187316894531 11.710086822509765625 11.624421119689941406 8.7033939361572265625 63.246337890625 93.7514495849609375 88.1095428466796875 73.542266845703125 48.273960113525390625 7.6099338531494140625 2.2930536270141601562 -9999 -9999 3.1493420600891113281 6.6144580841064453125 15.123620986938476562 39.5156707763671875 30.473913192749023438 10.260308265686035156 10.927336692810058594 10.524366378784179688 18.935285568237304688 20.571531295776367188 20.07430267333984375 32.740535736083984375 30.44139862060546875 28.876621246337890625 19.143690109252929688 9.16201019287109375 4.5189905166625976562 3.0506927967071533203 1.8259749412536621094 2.3522973060607910156 1.8356539011001586914 -9999 -9999 -9999 -9999 -9999 -9999 -9999 -9999 -9999 -9999 -9999 -9999 -9999 -9999 -9999 -9999 -9999 -9999 -9999 -9999 -9999 -9999 -9999 -9999 -9999 
-9999 -9999 -9999 1.3094671964645385742 -9999 -9999 1.7011967897415161133 1.5589619874954223633 1.4575467109680175781 1.4700675010681152344 1.2866494655609130859 1.6752780675888061523 1.5395528078079223633 1.482606053352355957 1.4993851184844970703 1.8159220218658447266 2.3913798332214355469 1.8858469724655151367 1.6876109838485717773 2.0661327838897705078 2.0130975246429443359 2.2806274890899658203 2.9356024265289306641 2.0889525413513183594 2.9314198493957519531 5.5213379859924316406 6.3017249107360839844 6.3433284759521484375 9.3144063949584960938 9.4102077484130859375 9.3454761505126953125 6.332393646240234375 9.0694150924682617188 19.976629257202148438 17.756227493286132812 10.115851402282714844 6.7065834999084472656 2.5833547115325927734 2.2659785747528076172 2.1607351303100585938 -9999 2.2084381580352783203 6.1830587387084960938 12.535394668579101562 11.375792503356933594 6.2358179092407226562 -9999 1.4490814208984375 -9999 4.097652435302734375 3.3442378044128417969 1.6432118415832519531 1.7539227008819580078 2.9339909553527832031 2.5534551143646240234 4.7237520217895507812 7.7943844795227050781 3.2467632293701171875 6.9397740364074707031 7.0593485832214355469 6.560791015625 8.2029514312744140625 7.4858517646789550781 14.85982513427734375 18.701646804809570312 20.860992431640625 16.437223434448242188 4.6760778427124023438 2.6325786113739013672 5.2572560310363769531 4.8989553451538085938 10.231253623962402344 54.380504608154296875 90.65576934814453125 88.04769134521484375 67.10558319091796875 52.562023162841796875 10.452727317810058594 -9999 1.660397648811340332 1.259066462516784668 2.5728006362915039062 3.7325415611267089844 17.951185226440429688 38.854618072509765625 25.718801498413085938 10.649605751037597656 15.627286911010742188 35.19623565673828125 62.746429443359375 59.5346221923828125 60.82978057861328125 47.416248321533203125 24.315433502197265625 18.884119033813476562 13.592588424682617188 13.864731788635253906 10.085167884826660156 5.3221149444580078125 5.0296921730041503906 4.60243988037109375 2.2569825649261474609 -9999 1.0892463922500610352 -9999 -9999 -9999 -9999 -9999 -9999 -9999 -9999 -9999 -9999 -9999 -9999 -9999 -9999 -9999 -9999 -9999 -9999 -9999 -9999 -9999 -9999 -9999 
-9999 -9999 -9999 -9999 -9999 -9999 2.1557338237762451172 -9999 1.5028909444808959961 1.5258595943450927734 1.7433216571807861328 2.5210449695587158203 1.5997916460037231445 1.3170286417007446289 2.0458512306213378906 2.3317961692810058594 1.4558532238006591797 1.7630230188369750977 2.1612694263458251953 1.9368113279342651367 2.2914872169494628906 2.8055045604705810547 2.9399123191833496094 2.1218492984771728516 4.2373824119567871094 6.8159251213073730469 7.3412537574768066406 7.2743749618530273438 9.2319974899291992188 5.1398053169250488281 5.9928708076477050781 -9999 6.2947659492492675781 21.080982208251953125 25.3451385498046875 14.873049736022949219 3.7377498149871826172 3.0162284374237060547 2.3466875553131103516 -9999 1.4325647354125976562 1.688261866569519043 4.1435866355895996094 10.845444679260253906 5.0532236099243164062 -9999 -9999 -9999 3.5869226455688476562 5.3371748924255371094 2.2161223888397216797 3.0644593238830566406 3.4651684761047363281 3.6297459602355957031 2.2884306907653808594 4.0196557044982910156 5.3407487869262695312 5.5858540534973144531 4.0352034568786621094 3.5917010307312011719 5.7961945533752441406 6.9306778907775878906 7.9563107490539550781 10.383641242980957031 23.851764678955078125 20.598989486694335938 8.5396165847778320312 4.6070847511291503906 5.6625218391418457031 5.2154550552368164062 5.3011960983276367188 5.4257936477661132812 31.93065643310546875 80.129547119140625 73.63530731201171875 76.66847991943359375 57.287151336669921875 13.121316909790039062 -9999 2.2132017612457275391 1.5391285419464111328 5.4744882583618164062 11.716014862060546875 31.554418563842773438 33.849094390869140625 25.378252029418945312 37.7578582763671875 67.1067352294921875 78.52468109130859375 77.849456787109375 71.13100433349609375 50.897186279296875 25.824850082397460938 15.012728691101074219 8.9026250839233398438 19.1300048828125 28.310571670532226562 15.716150283813476562 5.484943389892578125 8.3961496353149414062 3.9634015560150146484 1.3735336065292358398 1.7399047613143920898 1.9902188777923583984 -9999 -9999 -9999 -9999 -9999 -9999 -9999 -9999 -9999 -9999 -9999 -9999 -9999 -9999 -9999 -9999 -9999 -9999 -9999 -9999 -9999 -9999 -9999 
-9999 1.0810425281524658203 -9999 -9999 -9999 1.7457808256149291992 -9999 -9999 -9999 -9999 1.4837605953216552734 1.6251616477966308594 1.479061126708984375 1.4681229591369628906 1.9115337133407592773 1.7664848566055297852 1.9092049598693847656 3.0146372318267822266 2.8495812416076660156 2.3927385807037353516 3.4293820858001708984 4.01592254638671875 3.7429473400115966797 2.3445587158203125 4.5016217231750488281 4.5365147590637207031 4.9587354660034179688 5.8628897666931152344 7.8635740280151367188 5.0472517013549804688 3.7506470680236816406 -9999 8.0379276275634765625 15.570789337158203125 20.114027023315429688 11.855801582336425781 4.1397190093994140625 2.5107836723327636719 1.7065644264221191406 1.3028606176376342773 1.3851397037506103516 2.4727048873901367188 4.7657451629638671875 6.8863167762756347656 4.1580572128295898438 2.4536898136138916016 -9999 -9999 3.7329223155975341797 2.7306351661682128906 1.6610429286956787109 1.7090247869491577148 1.9971054792404174805 2.1380801200866699219 2.4916222095489501953 3.9418010711669921875 4.46096038818359375 5.2166833877563476562 3.8943107128143310547 -9999 -9999 4.6664190292358398438 9.804538726806640625 38.052059173583984375 59.20015716552734375 36.979228973388671875 20.400026321411132812 21.7822418212890625 15.534505844116210938 8.9642305374145507812 2.3802087306976318359 6.5358142852783203125 46.3202667236328125 84.20850372314453125 84.98303985595703125 72.56212615966796875 42.2856292724609375 8.9872760772705078125 3.172882080078125 6.833038330078125 4.8562555313110351562 21.1539306640625 36.089935302734375 26.192693710327148438 25.296436309814453125 65.3446044921875 76.998382568359375 77.999908447265625 82.514801025390625 85.34941864013671875 69.8568267822265625 26.536130905151367188 14.811387062072753906 14.611583709716796875 13.892251968383789062 18.321748733520507812 23.679317474365234375 13.588679313659667969 13.346674919128417969 17.891254425048828125 7.6991925239562988281 3.4919714927673339844 3.2029769420623779297 2.2122344970703125 -9999 -9999 -9999 -9999 -9999 -9999 -9999 1.5773396492004394531 -9999 -9999 -9999 -9999 -9999 -9999 -9999 -9999 -9999 -9999 -9999 -9999 -9999 -9999 -9999 
1.1687052249908447266 -9999 -9999 -9999 -9999 -9999 -9999 -9999 -9999 -9999 -9999 1.2900614738464355469 1.527857661247253418 1.6972587108612060547 1.5927788019180297852 1.8226110935211181641 2.1482441425323486328 4.2712321281433105469 3.8113706111907958984 2.6719007492065429688 3.2638971805572509766 3.5369296073913574219 3.9513683319091796875 3.2004327774047851562 5.0699720382690429688 3.9007971286773681641 3.9609086513519287109 8.262176513671875 6.6838383674621582031 2.814205169677734375 -9999 2.8154494762420654297 10.555199623107910156 14.000681877136230469 7.62793731689453125 5.7802920341491699219 9.7576551437377929688 4.049091339111328125 2.7030248641967773438 2.5955860614776611328 2.6257722377777099609 3.9837212562561035156 5.2798604965209960938 4.2842993736267089844 3.5108067989349365234 1.8073593378067016602 -9999 1.7324787378311157227 2.1266753673553466797 2.0777428150177001953 2.0544626712799072266 1.6557071208953857422 1.4608893394470214844 1.6858712434768676758 2.1076588630676269531 3.2736229896545410156 8.4037647247314453125 6.4317951202392578125 -9999 -9999 2.3775351047515869141 5.5062251091003417969 11.903966903686523438 50.83805084228515625 64.27883148193359375 47.4654693603515625 32.61016082763671875 24.929294586181640625 11.115899085998535156 7.553852081298828125 3.5536348819732666016 7.5645122528076171875 24.500581741333007812 45.483158111572265625 61.01340484619140625 33.337741851806640625 19.936115264892578125 12.3491668701171875 7.8815436363220214844 12.894739151000976562 10.080269813537597656 22.7094573974609375 36.39237213134765625 40.472148895263671875 69.60025787353515625 79.966888427734375 69.85662841796875 84.89916229248046875 91.0107421875 81.12679290771484375 56.04941558837890625 26.670778274536132812 13.411030769348144531 19.690673828125 42.024784088134765625 44.50652313232421875 43.9906158447265625 36.821697235107421875 32.947605133056640625 25.01723480224609375 12.995398521423339844 10.734655380249023438 4.0367298126220703125 2.7491819858551025391 3.6365439891815185547 1.7757457494735717773 -9999 -9999 -9999 -9999 -9999 -9999 -9999 -9999 -9999 -9999 -9999 -9999 -9999 -9999 -9999 -9999 -9999 -9999 -9999 -9999 -9999 
1.1796679496765136719 -9999 -9999 -9999 -9999 -9999 -9999 -9999 -9999 -9999 -9999 1.9362318515777587891 2.0042922496795654297 2.6163213253021240234 1.9863286018371582031 1.9852277040481567383 2.1242957115173339844 3.1599631309509277344 3.2272100448608398438 2.3095262050628662109 2.3124098777770996094 3.29352569580078125 4.8507142066955566406 3.1203708648681640625 3.8973433971405029297 4.3430905342102050781 4.0921626091003417969 4.3299002647399902344 5.9458065032958984375 3.0765862464904785156 -9999 3.2629649639129638672 7.6321749687194824219 6.2944083213806152344 5.2600674629211425781 5.5750813484191894531 6.578601837158203125 3.7574319839477539062 2.7195179462432861328 3.2721109390258789062 2.4001696109771728516 3.4997682571411132812 4.478801727294921875 2.5271916389465332031 2.0706830024719238281 1.9912903308868408203 2.4970157146453857422 2.0237448215484619141 1.5792065858840942383 1.7803092002868652344 2.0215268135070800781 1.9264731407165527344 1.3632405996322631836 -9999 1.5898970365524291992 3.5995459556579589844 11.824315071105957031 8.6290979385375976562 3.7453157901763916016 3.2736964225769042969 -9999 5.0686383247375488281 16.13460540771484375 21.08190155029296875 17.6859130859375 24.936586380004882812 26.5166473388671875 16.990621566772460938 19.814144134521484375 9.7216138839721679688 5.4941234588623046875 10.370787620544433594 11.585307121276855469 14.973759651184082031 28.521810531616210938 14.904636383056640625 10.928402900695800781 17.455301284790039062 12.42864227294921875 6.3394608497619628906 6.9004311561584472656 9.6526336669921875 42.042324066162109375 78.9142608642578125 92.98149871826171875 82.55926513671875 83.456268310546875 82.15472412109375 84.2696380615234375 51.670928955078125 14.840650558471679688 19.675912857055664062 32.6660003662109375 60.819637298583984375 87.38927459716796875 86.8134613037109375 77.75685882568359375 55.135601043701171875 26.317529678344726562 17.903644561767578125 13.294389724731445312 9.0553064346313476562 4.6578354835510253906 7.189830780029296875 4.5819125175476074219 1.7980716228485107422 -9999 -9999 -9999 -9999 1.2319104671478271484 -9999 -9999 -9999 -9999 -9999 -9999 -9999 -9999 -9999 -9999 -9999 -9999 -9999 -9999 -9999 -9999 
-9999 -9999 -9999 -9999 -9999 -9999 -9999 -9999 -9999 1.207079768180847168 -9999 2.9864094257354736328 1.60649871826171875 1.9457299709320068359 1.9509714841842651367 2.1043446063995361328 2.1411187648773193359 2.2218995094299316406 4.8477311134338378906 4.6167721748352050781 2.8546619415283203125 3.2871849536895751953 3.1260504722595214844 2.5498483180999755859 3.0727427005767822266 3.3456552028656005859 2.1652932167053222656 2.2799479961395263672 3.5175454616546630859 1.4933938980102539062 1.1655577421188354492 2.2864806652069091797 4.3205790519714355469 5.5838985443115234375 6.4245524406433105469 5.0214757919311523438 3.6300988197326660156 2.4977755546569824219 2.1395671367645263672 1.7204616069793701172 1.8914227485656738281 2.3290162086486816406 2.2118089199066162109 -9999 -9999 4.1829133033752441406 3.0720751285552978516 1.6534003019332885742 1.9110202789306640625 1.5285881757736206055 2.4503824710845947266 2.1716697216033935547 1.5696240663528442383 1.7851346731185913086 2.2338051795959472656 -9999 8.322845458984375 7.3248744010925292969 5.3894796371459960938 4.4219088554382324219 6.2320017814636230469 12.876662254333496094 41.846942901611328125 27.310794830322265625 26.063568115234375 35.35329437255859375 30.287168502807617188 39.476467132568359375 51.6851654052734375 21.62706756591796875 19.674312591552734375 10.304332733154296875 15.116025924682617188 35.3721923828125 49.094268798828125 19.37226104736328125 5.9011373519897460938 11.706950187683105469 12.717000961303710938 14.506534576416015625 11.428340911865234375 17.900007247924804688 68.99759674072265625 91.56928253173828125 94.64476776123046875 84.9067840576171875 63.182621002197265625 45.62575531005859375 50.3689117431640625 44.065486907958984375 34.81882476806640625 56.621334075927734375 78.3306884765625 79.19261932373046875 93.97367095947265625 92.33397674560546875 84.29474639892578125 59.943775177001953125 44.0967254638671875 36.3218994140625 21.380052566528320312 19.568552017211914062 12.267238616943359375 9.5569601058959960938 2.7907276153564453125 2.0167927742004394531 1.5792397260665893555 1.4693362712860107422 -9999 1.4654679298400878906 1.6120843887329101562 -9999 -9999 -9999 -9999 -9999 -9999 -9999 -9999 -9999 -9999 -9999 -9999 -9999 -9999 -9999 -9999 
-9999 -9999 1.3633300065994262695 -9999 -9999 -9999 -9999 -9999 -9999 -9999 3.0896003246307373047 3.6744301319122314453 1.8632127046585083008 2.0616934299468994141 2.0579977035522460938 2.1361975669860839844 2.6113018989562988281 3.931774139404296875 8.9596796035766601562 8.0834093093872070312 3.3268532752990722656 1.82021331787109375 2.3588852882385253906 2.6207387447357177734 3.5555348396301269531 2.7414638996124267578 3.113719940185546875 3.3765959739685058594 2.6462759971618652344 2.0499904155731201172 1.6004955768585205078 3.2110240459442138672 5.5146794319152832031 5.6798601150512695312 3.0823926925659179688 2.4360563755035400391 2.0815217494964599609 1.6537255048751831055 2.6012051105499267578 -9999 2.3037257194519042969 2.2788877487182617188 1.6651531457901000977 -9999 -9999 3.6651716232299804688 2.5360841751098632812 2.2157719135284423828 2.2049670219421386719 -9999 4.9537425041198730469 4.2419657707214355469 1.6697305440902709961 2.0698308944702148438 3.0442588329315185547 9.2821626663208007812 6.7352075576782226562 11.212443351745605469 6.963718414306640625 -9999 3.0410814285278320312 17.052419662475585938 34.050441741943359375 38.334735870361328125 72.6953887939453125 82.13524627685546875 75.54618072509765625 86.6347198486328125 78.9490203857421875 50.16352081298828125 39.621799468994140625 23.37683868408203125 49.01329803466796875 72.28868865966796875 57.77503204345703125 13.382454872131347656 3.163585662841796875 16.276014328002929688 19.596071243286132812 14.321639060974121094 7.7922739982604980469 10.202414512634277344 60.172039031982421875 91.45119476318359375 88.3953399658203125 66.15615081787109375 48.013538360595703125 49.946964263916015625 63.101520538330078125 79.11312103271484375 71.62059783935546875 85.63939666748046875 94.2127685546875 94.59572601318359375 94.91472625732421875 91.31317138671875 86.449920654296875 85.4150543212890625 83.15084075927734375 64.9361419677734375 44.75577545166015625 31.4846649169921875 15.712673187255859375 6.0419287681579589844 2.8859984874725341797 3.9993045330047607422 1.9750536680221557617 -9999 -9999 -9999 2.8902661800384521484 3.1649141311645507812 -9999 -9999 -9999 -9999 -9999 -9999 -9999 1.4451322555541992188 1.8001217842102050781 -9999 -9999 -9999 -9999 -9999 -9999 
-9999 -9999 -9999 -9999 -9999 -9999 -9999 -9999 -9999 -9999 2.7287144660949707031 2.422176361083984375 1.6740403175354003906 1.9795550107955932617 1.887162327766418457 2.36537933349609375 3.5742254257202148438 4.2573823928833007812 4.9402966499328613281 4.8755626678466796875 2.2321915626525878906 1.5172636508941650391 2.3512203693389892578 2.6245119571685791016 3.8758299350738525391 3.1576533317565917969 3.0296866893768310547 4.4094986915588378906 4.91408538818359375 2.4598753452301025391 2.1948838233947753906 4.5466704368591308594 4.1452350616455078125 2.3880841732025146484 1.7860549688339233398 2.6053164005279541016 2.7337300777435302734 2.3448841571807861328 -9999 -9999 -9999 1.5980530977249145508 1.061257481575012207 -9999 1.2470486164093017578 2.3850066661834716797 -9999 -9999 -9999 -9999 -9999 2.0041823387145996094 1.5796471834182739258 1.5228966474533081055 -9999 17.990716934204101562 6.76604461669921875 13.905609130859375 8.436527252197265625 3.8991062641143798828 14.941141128540039062 38.26589202880859375 38.31420135498046875 55.563037872314453125 92.95503997802734375 96.2632598876953125 75.19191741943359375 68.15657806396484375 54.43329620361328125 80.1761322021484375 45.03472900390625 16.802522659301757812 36.29571533203125 77.20157623291015625 73.03289031982421875 19.447206497192382812 3.7930469512939453125 18.492685317993164062 20.68489837646484375 4.9585642814636230469 4.3534593582153320312 16.161989212036132812 26.526960372924804688 52.398754119873046875 75.44721221923828125 79.18119049072265625 81.9782257080078125 87.5137481689453125 93.79488372802734375 94.9775848388671875 93.08397674560546875 93.423980712890625 94.8324737548828125 93.373992919921875 88.61829376220703125 91.4940032958984375 94.7093963623046875 87.7364349365234375 67.57662200927734375 62.12213134765625 45.008563995361328125 32.441387176513671875 8.4730386734008789062 2.0505733489990234375 3.8936238288879394531 3.8078992366790771484 -9999 5.6773157119750976562 -9999 -9999 1.9831978082656860352 3.1116991043090820312 -9999 -9999 -9999 2.5486476421356201172 -9999 -9999 1.1636823415756225586 -9999 1.747933506965637207 -9999 -9999 -9999 -9999 -9999 -9999 
-9999 -9999 -9999 -9999 -9999 -9999 -9999 -9999 2.3808004856109619141 2.2864668369293212891 -9999 1.4385336637496948242 1.806377410888671875 1.6891041994094848633 1.5112406015396118164 2.9480059146881103516 3.2559936046600341797 2.8579137325286865234 -9999 -9999 1.9802391529083251953 2.2792761325836181641 2.4973173141479492188 2.0701587200164794922 2.5038170814514160156 3.1293425559997558594 3.0424680709838867188 4.1612443923950195312 7.0795192718505859375 3.9192121028900146484 3.0850894451141357422 2.6929936408996582031 1.9862157106399536133 1.6873979568481445312 1.3666710853576660156 2.1966657638549804688 3.4588220119476318359 2.9854178428649902344 3.936168670654296875 3.2980945110321044922 2.4310467243194580078 1.691158294677734375 1.0171309709548950195 -9999 -9999 1.7846710681915283203 -9999 -9999 -9999 2.1074044704437255859 -9999 -9999 -9999 -9999 -9999 2.7922563552856445312 3.8983454704284667969 9.9362707138061523438 9.160808563232421875 22.15370941162109375 53.36913299560546875 62.562404632568359375 42.28638458251953125 46.047634124755859375 86.95556640625 92.6778411865234375 70.58559417724609375 49.1560211181640625 58.09169769287109375 85.4050445556640625 54.774356842041015625 16.673589706420898438 11.257094383239746094 49.813106536865234375 78.51529693603515625 28.397867202758789062 7.4852490425109863281 4.3742132186889648438 4.4203267097473144531 2.484523773193359375 6.1824536323547363281 20.430755615234375 38.52440643310546875 63.9890899658203125 83.93597412109375 88.5240936279296875 91.3608551025390625 94.5300445556640625 94.811187744140625 95.93766021728515625 96.55298614501953125 95.6171722412109375 89.04347991943359375 88.24225616455078125 94.7591705322265625 97.259307861328125 93.30779266357421875 64.27162933349609375 60.1861114501953125 52.01523590087890625 24.29349517822265625 20.818599700927734375 9.2043275833129882812 4.0878076553344726562 4.1958160400390625 2.5254883766174316406 5.2805457115173339844 5.3013629913330078125 -9999 2.4309935569763183594 2.8185732364654541016 2.1176137924194335938 3.9138612747192382812 -9999 1.6349306106567382812 -9999 -9999 -9999 -9999 2.3797032833099365234 2.016094207763671875 -9999 -9999 -9999 -9999 -9999 -9999 
-9999 -9999 -9999 -9999 -9999 -9999 -9999 -9999 3.6440656185150146484 1.9329710006713867188 -9999 1.8725898265838623047 1.8555548191070556641 1.4163463115692138672 1.7342367172241210938 2.0059139728546142578 2.1954121589660644531 1.8829914331436157227 -9999 -9999 2.2290506362915039062 1.9228514432907104492 1.9666271209716796875 2.0867607593536376953 1.6078804731369018555 2.6201124191284179688 3.6060593128204345703 5.8580579757690429688 8.468776702880859375 6.5272698402404785156 6.0719561576843261719 3.2451004981994628906 1.9376600980758666992 1.6781648397445678711 2.087078094482421875 3.1877179145812988281 4.1566119194030761719 3.4650115966796875 5.4797291755676269531 2.5706317424774169922 1.7813353538513183594 -9999 -9999 -9999 -9999 1.6028348207473754883 -9999 -9999 1.9979919195175170898 1.2958220243453979492 -9999 -9999 -9999 -9999 18.63524627685546875 9.25211334228515625 7.7283902168273925781 11.769198417663574219 27.894601821899414062 62.1427764892578125 75.33495330810546875 68.4683074951171875 20.5642547607421875 20.389978408813476562 74.14569854736328125 86.3610687255859375 74.94365692138671875 83.36431121826171875 88.53376007080078125 78.44669342041015625 56.407871246337890625 22.8033599853515625 9.0124387741088867188 56.628086090087890625 72.59909820556640625 17.547746658325195312 4.282283782958984375 3.2940304279327392578 2.9916250705718994141 2.0990304946899414062 5.9901437759399414062 41.91245269775390625 81.51941680908203125 91.432037353515625 91.53472900390625 94.595733642578125 94.76900482177734375 94.78189849853515625 95.00360107421875 96.69029998779296875 96.56719207763671875 87.6295013427734375 84.048736572265625 95.55965423583984375 96.96905517578125 94.4400482177734375 69.48724365234375 27.3218841552734375 29.590351104736328125 32.478679656982421875 17.777124404907226562 25.254117965698242188 13.708388328552246094 7.9059538841247558594 5.938884735107421875 3.0402560234069824219 2.5725293159484863281 1.6093348264694213867 -9999 2.3618779182434082031 2.2893266677856445312 1.9129285812377929688 2.9970419406890869141 -9999 -9999 -9999 -9999 -9999 -9999 -9999 -9999 -9999 -9999 -9999 -9999 -9999 -9999 
-9999 -9999 -9999 -9999 -9999 -9999 -9999 -9999 -9999 -9999 -9999 -9999 1.9655067920684814453 1.8489077091217041016 -9999 -9999 -9999 -9999 -9999 3.4177393913269042969 3.0085813999176025391 1.481646418571472168 -9999 3.1679663658142089844 1.8647421598434448242 2.2563655376434326172 4.3983855247497558594 7.5317864418029785156 6.4771871566772460938 5.7057261466979980469 6.3696050643920898438 4.2438855171203613281 2.0559535026550292969 1.5512180328369140625 2.3700315952301025391 2.2261373996734619141 2.5109341144561767578 3.0650489330291748047 3.1225633621215820312 1.5333995819091796875 1.340596318244934082 -9999 -9999 -9999 -9999 -9999 -9999 -9999 -9999 -9999 1.434002995491027832 1.3215757608413696289 2.2447197437286376953 -9999 7.0876870155334472656 11.571559906005859375 18.96256256103515625 28.901140213012695312 72.2512054443359375 81.402801513671875 86.484588623046875 84.33640289306640625 36.750370025634765625 23.194427490234375 73.1593475341796875 90.4620208740234375 90.28119659423828125 88.714935302734375 94.19185638427734375 92.533966064453125 71.1342010498046875 49.185848236083984375 46.27779388427734375 73.64536285400390625 78.87575531005859375 33.874172210693359375 11.750665664672851562 15.101523399353027344 10.179408073425292969 6.4178576469421386719 9.5162296295166015625 53.77451324462890625 89.64971923828125 94.7304229736328125 94.36663818359375 94.4877471923828125 95.045654296875 89.80614471435546875 96.1671905517578125 97.35369110107421875 84.88372039794921875 85.895477294921875 94.68587493896484375 88.57886505126953125 76.9486846923828125 67.57080841064453125 29.559326171875 32.339328765869140625 34.43482208251953125 22.712299346923828125 22.529710769653320312 29.78807830810546875 20.528484344482421875 11.737633705139160156 8.6020946502685546875 6.50478363037109375 2.6732866764068603516 1.2910783290863037109 1.2134249210357666016 -9999 1.6617257595062255859 1.4073920249938964844 -9999 -9999 -9999 -9999 -9999 -9999 2.7355935573577880859 3.8054742813110351562 4.2724819183349609375 -9999 -9999 -9999 -9999 -9999 -9999 
-9999 -9999 -9999 -9999 -9999 -9999 -9999 -9999 -9999 -9999 -9999 1.53461456298828125 1.9576220512390136719 1.9049396514892578125 -9999 -9999 -9999 1.5111055374145507812 -9999 2.9284739494323730469 2.2636930942535400391 -9999 -9999 -9999 -9999 2.9853034019470214844 2.8710753917694091797 5.7956571578979492188 6.7340860366821289062 8.3993539810180664062 5.7525849342346191406 4.2846832275390625 2.3691205978393554688 1.4912072420120239258 2.4741604328155517578 2.5106203556060791016 3.9394710063934326172 5.5851035118103027344 3.5453538894653320312 2.0209660530090332031 1.7289921045303344727 -9999 -9999 -9999 1.6153432130813598633 -9999 -9999 -9999 1.5270568132400512695 2.3191244602203369141 2.2295675277709960938 1.7373830080032348633 3.6778142452239990234 2.2194926738739013672 3.6888287067413330078 19.382528305053710938 35.95362091064453125 63.70745849609375 79.4229583740234375 87.6584320068359375 88.576263427734375 78.117340087890625 37.478855133056640625 15.028395652770996094 53.092380523681640625 75.28058624267578125 87.39882659912109375 71.2333984375 87.8184356689453125 87.8813629150390625 74.26029205322265625 81.1314239501953125 87.0335845947265625 89.40520477294921875 85.965301513671875 77.16748809814453125 59.3304443359375 37.05646514892578125 24.353845596313476562 21.446582794189453125 14.322548866271972656 46.608318328857421875 69.56854248046875 70.81005096435546875 85.01491546630859375 93.7442779541015625 94.41120147705078125 94.359954833984375 96.9088592529296875 97.7417144775390625 94.171142578125 96.14444732666015625 94.01857757568359375 81.85811614990234375 71.57232666015625 63.67144012451171875 45.534549713134765625 54.295806884765625 41.72464752197265625 11.798743247985839844 9.9613904953002929688 9.4399347305297851562 7.4544196128845214844 12.661955833435058594 11.750738143920898438 6.3828673362731933594 2.4261350631713867188 -9999 -9999 -9999 1.833081364631652832 1.808536529541015625 -9999 -9999 -9999 -9999 3.0540671348571777344 4.3805565834045410156 3.0107381343841552734 -9999 3.324092864990234375 -9999 -9999 -9999 -9999 -9999 -9999 
-9999 -9999 -9999 -9999 -9999 -9999 -9999 -9999 1.4230554103851318359 -9999 -9999 -9999 2.0504424571990966797 1.5445444583892822266 -9999 2.0470137596130371094 -9999 -9999 -9999 -9999 -9999 -9999 -9999 1.6015568971633911133 1.8901754617691040039 2.5522615909576416016 2.3044607639312744141 2.7112448215484619141 4.1501345634460449219 7.2486104965209960938 5.7520155906677246094 4.3239374160766601562 2.8604369163513183594 4.0158948898315429688 4.1946682929992675781 4.5264940261840820312 3.0960664749145507812 3.2332079410552978516 2.1114869117736816406 1.7137010097503662109 2.1941328048706054688 1.6508558988571166992 -9999 -9999 1.7879977226257324219 -9999 -9999 -9999 -9999 3.4537594318389892578 4.139202117919921875 1.8390487432479858398 1.7775555849075317383 4.7367339134216308594 8.2821130752563476562 20.897317886352539062 44.45658111572265625 72.060150146484375 69.61687469482421875 94.5626983642578125 87.25351715087890625 73.39839935302734375 30.632404327392578125 7.5030508041381835938 31.589464187622070312 60.81137847900390625 79.61016082763671875 72.65375518798828125 85.96958160400390625 79.69134521484375 68.0603485107421875 85.02744293212890625 83.52773284912109375 90.01270294189453125 93.03271484375 91.27603912353515625 93.05634307861328125 84.3856658935546875 71.61358642578125 39.216335296630859375 15.122582435607910156 14.9376068115234375 11.877335548400878906 14.709794998168945312 58.06093597412109375 90.87570953369140625 94.03092193603515625 95.3956451416015625 97.0807647705078125 98.417999267578125 99.760467529296875 95.2303466796875 83.99456787109375 75.75366973876953125 67.29817962646484375 48.58574676513671875 30.494970321655273438 34.52899169921875 16.385303497314453125 2.5049533843994140625 -9999 -9999 2.6608898639678955078 6.6374697685241699219 5.0238108634948730469 3.4902226924896240234 -9999 -9999 -9999 -9999 4.7435145378112792969 4.4319581985473632812 1.6489570140838623047 -9999 -9999 1.2604467868804931641 -9999 -9999 2.2255003452301025391 -9999 -9999 -9999 -9999 2.591144561767578125 -9999 -9999 -9999 
-9999 -9999 -9999 -9999 1.3313542604446411133 -9999 -9999 -9999 1.8709199428558349609 -9999 1.6914943456649780273 1.9975504875183105469 -9999 1.4312827587127685547 -9999 2.2182679176330566406 -9999 -9999 -9999 1.5833197832107543945 -9999 -9999 1.3528176546096801758 1.6464678049087524414 2.1205382347106933594 2.4063603878021240234 1.8163826465606689453 -9999 1.9850357770919799805 2.4939398765563964844 3.2994692325592041016 4.3102016448974609375 3.3917036056518554688 8.1681585311889648438 6.76187896728515625 3.9072592258453369141 2.270153045654296875 2.5172164440155029297 -9999 1.7719771862030029297 2.2364401817321777344 1.6346784830093383789 1.8870496749877929688 2.5488512516021728516 2.6067409515380859375 1.460156559944152832 -9999 2.0846548080444335938 7.4500188827514648438 10.003718376159667969 4.0190629959106445312 1.3285822868347167969 1.8102071285247802734 5.3162183761596679688 11.521977424621582031 32.90558624267578125 70.27947998046875 82.546600341796875 88.86902618408203125 91.03246307373046875 83.3252105712890625 71.92823028564453125 28.771020889282226562 6.518260955810546875 16.626316070556640625 43.50617218017578125 48.1422576904296875 52.42147064208984375 85.649993896484375 80.08319091796875 76.7941741943359375 89.773193359375 89.79863739013671875 92.05847930908203125 95.9970855712890625 95.3979949951171875 95.32411956787109375 94.16153717041015625 72.339599609375 23.993764877319335938 9.9533510208129882812 20.8617095947265625 14.905867576599121094 31.6530914306640625 78.56246185302734375 95.1742401123046875 95.00376129150390625 95.203826904296875 96.58696746826171875 97.3723297119140625 99.52777099609375 88.6971282958984375 74.46387481689453125 58.359561920166015625 31.8397216796875 11.391348838806152344 3.8338334560394287109 5.6403689384460449219 -9999 -9999 -9999 1.9520375728607177734 7.7034444808959960938 8.8744630813598632812 6.83750152587890625 3.0422098636627197266 -9999 -9999 3.4053180217742919922 6.59051513671875 8.4507017135620117188 6.8932018280029296875 2.9565286636352539062 -9999 -9999 1.7254050970077514648 1.9873028993606567383 1.9359028339385986328 1.2384827136993408203 -9999 -9999 -9999 2.6049084663391113281 -9999 -9999 -9999 -9999 
-9999 -9999 -9999 -9999 -9999 -9999 -9999 1.4599798917770385742 1.715611577033996582 2.2471842765808105469 1.736008763313293457 -9999 1.6115536689758300781 -9999 -9999 1.5903017520904541016 -9999 -9999 -9999 -9999 -9999 -9999 -9999 -9999 -9999 -9999 -9999 -9999 -9999 -9999 2.9836535453796386719 3.1191344261169433594 5.7981271743774414062 7.038898468017578125 3.6827831268310546875 1.6959207057952880859 -9999 -9999 1.7115710973739624023 1.8913694620132446289 2.1089355945587158203 1.4738885164260864258 1.7816437482833862305 2.4052832126617431641 2.3771061897277832031 1.415828704833984375 -9999 1.9558126926422119141 4.265903472900390625 6.1546339988708496094 2.4490821361541748047 1.4097058773040771484 3.4147951602935791016 8.7055196762084960938 8.0229730606079101562 19.510873794555664062 72.0239715576171875 79.496185302734375 80.6280670166015625 88.49352264404296875 86.26232147216796875 76.88997650146484375 54.0864410400390625 35.542034149169921875 32.456027984619140625 44.12941741943359375 23.078039169311523438 25.266931533813476562 76.00797271728515625 81.46417999267578125 82.25768280029296875 90.55030059814453125 93.13802337646484375 94.19133758544921875 95.9198760986328125 94.8935546875 96.04703521728515625 88.9379119873046875 42.824176788330078125 16.012876510620117188 25.753374099731445312 53.061969757080078125 35.497589111328125 69.86609649658203125 94.14391326904296875 96.116363525390625 94.974945068359375 92.322998046875 97.143585205078125 95.67093658447265625 96.6063079833984375 84.9515228271484375 55.424983978271484375 21.86676788330078125 6.6910276412963867188 -9999 -9999 -9999 -9999 -9999 -9999 4.5879974365234375 17.344125747680664062 19.704183578491210938 12.7377777099609375 5.7547788619995117188 4.1910805702209472656 3.1617138385772705078 5.1076269149780273438 9.78842926025390625 9.5469942092895507812 7.2907161712646484375 3.6304280757904052734 -9999 -9999 1.7885677814483642578 3.4085171222686767578 2.7958536148071289062 1.3425197601318359375 2.2532629966735839844 -9999 -9999 -9999 -9999 -9999 -9999 -9999 
-9999 -9999 1.2967963218688964844 1.8869259357452392578 -9999 1.8876607418060302734 1.9268625974655151367 1.3493456840515136719 1.3972203731536865234 -9999 -9999 -9999 1.5937291383743286133 -9999 -9999 -9999 -9999 -9999 -9999 -9999 1.4870955944061279297 -9999 -9999 -9999 -9999 1.4252055883407592773 1.3712652921676635742 1.6267997026443481445 2.5972738265991210938 5.5404462814331054688 3.8311841487884521484 5.2482190132141113281 11.878687858581542969 7.1649217605590820312 1.8953969478607177734 1.9940561056137084961 2.1582102775573730469 1.6752909421920776367 -9999 -9999 2.0942320823669433594 1.4995199441909790039 1.2791255712509155273 1.7370572090148925781 1.6642326116561889648 2.4305882453918457031 1.5824441909790039062 2.15819549560546875 2.1947581768035888672 2.2460873126983642578 2.5667376518249511719 3.2873971462249755859 8.3174257278442382812 20.549371719360351562 26.316156387329101562 35.69849395751953125 70.3351898193359375 73.9126434326171875 90.38365936279296875 94.03121185302734375 88.509124755859375 75.2376861572265625 71.263702392578125 58.90554046630859375 32.901763916015625 35.832103729248046875 28.594079971313476562 30.84964752197265625 75.4579010009765625 93.27020263671875 88.999786376953125 82.31606292724609375 93.036346435546875 95.9397735595703125 97.06340789794921875 95.17607879638671875 95.70391845703125 76.58148193359375 39.625255584716796875 23.589954376220703125 33.464771270751953125 56.781887054443359375 69.88909912109375 88.501190185546875 94.9854736328125 95.76790618896484375 96.08496856689453125 96.38927459716796875 98.65769195556640625 98.79068756103515625 93.49514007568359375 81.45858001708984375 41.332073211669921875 7.1904110908508300781 -9999 -9999 -9999 -9999 -9999 -9999 5.2378940582275390625 14.298985481262207031 33.78741455078125 28.309427261352539062 17.796703338623046875 10.774474143981933594 11.348785400390625 7.0429096221923828125 5.7375693321228027344 8.8481998443603515625 9.798969268798828125 8.3683147430419921875 2.9378538131713867188 -9999 -9999 1.8150924444198608398 3.2554483413696289062 1.8626953363418579102 1.2667841911315917969 1.9084119796752929688 2.1867859363555908203 2.2828457355499267578 -9999 -9999 -9999 -9999 -9999 
-9999 -9999 1.2656897306442260742 1.6930047273635864258 -9999 1.6813449859619140625 1.8673861026763916016 1.5487045049667358398 -9999 -9999 -9999 -9999 1.6411186456680297852 -9999 1.2555710077285766602 -9999 -9999 -9999 -9999 -9999 -9999 -9999 1.6305152177810668945 -9999 1.1187969446182250977 1.2568138837814331055 1.7353796958923339844 3.3900167942047119141 3.2691164016723632812 6.5218114852905273438 4.4312863349914550781 6.8403568267822265625 6.58039093017578125 2.8896129131317138672 -9999 3.1130306720733642578 2.5532851219177246094 1.6314845085144042969 1.9600862264633178711 -9999 1.3131934404373168945 2.0670228004455566406 2.131481170654296875 2.0580315589904785156 1.6792538166046142578 2.4563677310943603516 1.9855587482452392578 -9999 2.2489638328552246094 2.689727783203125 2.4138007164001464844 4.2976732254028320312 17.637035369873046875 30.582853317260742188 51.645908355712890625 77.33270263671875 86.2774505615234375 85.24210357666015625 93.7144622802734375 94.604583740234375 93.8460693359375 90.1587982177734375 85.70528411865234375 61.329891204833984375 42.91550445556640625 42.77828216552734375 30.629682540893554688 30.118410110473632812 67.09085845947265625 92.90636444091796875 86.35887908935546875 76.54727935791015625 83.94460296630859375 81.9349517822265625 94.0673980712890625 94.96854400634765625 95.6768951416015625 60.017162322998046875 39.886383056640625 51.879245758056640625 39.686489105224609375 46.27911376953125 73.93923187255859375 86.485321044921875 94.4995269775390625 96.271148681640625 96.57636260986328125 98.1457672119140625 97.13538360595703125 96.94721221923828125 90.9356536865234375 77.61472320556640625 35.8537445068359375 6.652252197265625 -9999 -9999 4.7234010696411132812 4.2806506156921386719 -9999 5.9426403045654296875 10.153026580810546875 18.594936370849609375 36.276210784912109375 28.440786361694335938 13.421630859375 6.6266279220581054688 12.757238388061523438 12.639060020446777344 7.1378526687622070312 9.1169414520263671875 15.560235977172851562 9.878925323486328125 2.3270990848541259766 -9999 -9999 4.01326751708984375 5.0979585647583007812 2.0005238056182861328 1.6820836067199707031 1.5412764549255371094 2.8367960453033447266 2.0743360519409179688 -9999 -9999 -9999 -9999 -9999 
-9999 -9999 -9999 -9999 -9999 -9999 -9999 -9999 -9999 -9999 -9999 -9999 -9999 -9999 -9999 -9999 1.47647857666015625 -9999 -9999 -9999 -9999 -9999 -9999 1.6722081899642944336 1.9205476045608520508 1.4259569644927978516 2.4031815528869628906 3.0060770511627197266 2.0992677211761474609 2.9428446292877197266 5.4157700538635253906 4.8476343154907226562 2.0835218429565429688 -9999 6.5620546340942382812 5.7870931625366210938 2.165302276611328125 -9999 1.3106107711791992188 1.8851885795593261719 2.1738111972808837891 -9999 -9999 1.3001304864883422852 1.6254563331604003906 1.7129437923431396484 1.6823281049728393555 -9999 -9999 1.5928682088851928711 1.6366199254989624023 5.1597228050231933594 29.199026107788085938 49.8981781005859375 75.407989501953125 90.7666778564453125 92.7857666015625 84.37818145751953125 55.972461700439453125 83.395477294921875 93.2902679443359375 96.00974273681640625 94.30965423583984375 75.3610687255859375 71.52313995361328125 61.2081756591796875 42.04230499267578125 47.241115570068359375 56.003986358642578125 90.26717376708984375 91.4047088623046875 92.74131011962890625 87.7656402587890625 84.0564422607421875 90.78401947021484375 88.16326904296875 79.27872467041015625 48.014820098876953125 64.744964599609375 83.15035247802734375 77.03900909423828125 72.166168212890625 80.42484283447265625 94.12102508544921875 98.8694915771484375 96.74042510986328125 95.93808746337890625 96.31573486328125 95.85402679443359375 96.4561004638671875 91.3841705322265625 78.30155181884765625 48.617443084716796875 28.653446197509765625 15.853077888488769531 5.1623673439025878906 20.149824142456054688 20.66352081298828125 12.365401268005371094 14.561239242553710938 17.406644821166992188 18.030246734619140625 38.430156707763671875 35.0796966552734375 7.6808953285217285156 5.5094923973083496094 24.142179489135742188 31.27310943603515625 18.373113632202148438 18.745525360107421875 14.829202651977539062 9.438236236572265625 2.2138679027557373047 -9999 3.8995478153228759766 8.7765827178955078125 7.0210938453674316406 2.5408725738525390625 -9999 1.2296243906021118164 2.231678009033203125 -9999 -9999 1.3862502574920654297 -9999 -9999 -9999 
-9999 1.8220752477645874023 2.0548794269561767578 1.5910735130310058594 -9999 -9999 -9999 -9999 -9999 -9999 -9999 -9999 1.5324560403823852539 -9999 -9999 -9999 -9999 -9999 -9999 -9999 -9999 1.4626282453536987305 1.3879008293151855469 1.7408417463302612305 2.1644961833953857422 1.9719529151916503906 2.2222514152526855469 2.7348811626434326172 2.1957032680511474609 2.4845752716064453125 3.3803968429565429688 2.0034801959991455078 1.729828953742980957 1.7975265979766845703 4.2638597488403320312 5.936710357666015625 2.8837046623229980469 1.7392967939376831055 -9999 2.0922369956970214844 2.0228104591369628906 -9999 -9999 -9999 2.8412384986877441406 2.4821689128875732422 1.804203033447265625 1.2899782657623291016 -9999 -9999 1.7415076494216918945 5.2880735397338867188 16.514833450317382812 62.49126434326171875 94.34795379638671875 91.9283447265625 87.76877593994140625 92.54866790771484375 70.349700927734375 84.08759307861328125 93.10532379150390625 91.65995025634765625 74.8174896240234375 40.8613128662109375 42.408451080322265625 59.03060150146484375 36.618816375732421875 38.428653717041015625 53.394290924072265625 83.3270111083984375 83.23797607421875 94.988037109375 95.74370574951171875 96.5805206298828125 94.50157928466796875 87.5791015625 51.77667236328125 47.809017181396484375 82.37702178955078125 95.177642822265625 96.55573272705078125 91.8461456298828125 83.46785736083984375 96.943145751953125 96.83879852294921875 95.84859466552734375 92.57707977294921875 94.9703216552734375 95.86768341064453125 96.40203857421875 84.24102020263671875 78.637725830078125 55.908229827880859375 53.49283599853515625 51.51888275146484375 32.093357086181640625 25.848115921020507812 36.131046295166015625 30.2257080078125 30.819173812866210938 25.64044952392578125 33.478954315185546875 44.88454437255859375 46.64846038818359375 26.937677383422851562 25.525331497192382812 43.083080291748046875 37.212646484375 34.134517669677734375 26.770463943481445312 16.943212509155273438 8.4692773818969726562 2.7114017009735107422 1.7451255321502685547 5.7870311737060546875 10.244194984436035156 7.7272334098815917969 2.3675088882446289062 1.3707145452499389648 1.5503077507019042969 1.3622086048126220703 -9999 -9999 1.2139818668365478516 -9999 -9999 1.3634386062622070312 
1.5413988828659057617 1.4093136787414550781 1.4730973243713378906 -9999 -9999 -9999 -9999 -9999 -9999 -9999 1.2966256141662597656 1.1383936405181884766 1.3817293643951416016 1.5370079278945922852 1.6029845476150512695 -9999 -9999 -9999 -9999 1.3078088760375976562 1.3484201431274414062 1.6196300983428955078 1.5249418020248413086 1.6785099506378173828 2.3259670734405517578 2.7223422527313232422 2.2398443222045898438 2.5202877521514892578 1.9255195856094360352 1.8353730440139770508 1.9987837076187133789 1.8503267765045166016 2.1667959690093994141 1.3687129020690917969 3.4280810356140136719 5.5553879737854003906 5.471706390380859375 4.2965388298034667969 -9999 -9999 -9999 1.5317119359970092773 -9999 -9999 1.6307187080383300781 2.5646007061004638672 1.7133287191390991211 -9999 -9999 -9999 6.3226647377014160156 13.65077972412109375 16.04061126708984375 66.42783355712890625 91.953125 88.28148651123046875 85.4235382080078125 95.454315185546875 90.9701385498046875 93.89688873291015625 92.8534088134765625 80.30683135986328125 25.910367965698242188 10.044211387634277344 13.183362960815429688 34.639190673828125 28.280958175659179688 67.23500823974609375 84.79222869873046875 90.29445648193359375 75.7332000732421875 93.24353790283203125 91.60599517822265625 96.05033111572265625 91.95420074462890625 84.05554962158203125 37.4995269775390625 76.10687255859375 98.69190216064453125 98.2464447021484375 96.7821807861328125 94.22933197021484375 86.77557373046875 97.3568267822265625 97.73625946044921875 94.9983062744140625 93.73952484130859375 95.52022552490234375 95.81884765625 90.17194366455078125 70.3466949462890625 58.108943939208984375 65.16468048095703125 76.74832916259765625 79.47139739990234375 74.91693878173828125 54.564605712890625 47.837200164794921875 56.910808563232421875 54.090694427490234375 31.438516616821289062 37.945281982421875 45.02695465087890625 42.593944549560546875 58.28078460693359375 43.65842437744140625 34.8065948486328125 23.1096954345703125 29.083280563354492188 25.6691436767578125 21.658657073974609375 7.5533852577209472656 -9999 4.9432759284973144531 9.0729703903198242188 8.9854650497436523438 6.1628365516662597656 3.0604152679443359375 2.8506975173950195312 -9999 3.4351282119750976562 -9999 -9999 -9999 -9999 -9999 -9999 
-9999 -9999 -9999 -9999 -9999 -9999 -9999 -9999 1.3227194547653198242 -9999 -9999 1.3011023998260498047 -9999 -9999 -9999 -9999 3.8025019168853759766 -9999 -9999 -9999 1.3382024765014648438 1.7413212060928344727 2.1164424419403076172 2.1415734291076660156 2.6213696002960205078 2.5490915775299072266 2.0734307765960693359 2.405765533447265625 1.9724216461181640625 1.6834380626678466797 -9999 2.2577486038208007812 5.0656619071960449219 -9999 6.2837095260620117188 9.936767578125 6.5579404830932617188 3.2329783439636230469 1.6658043861389160156 -9999 1.366864323616027832 -9999 -9999 2.1883552074432373047 2.9045262336730957031 2.4709496498107910156 1.913365483283996582 1.5113734006881713867 -9999 -9999 6.8310804367065429688 9.969287872314453125 20.00241851806640625 75.71637725830078125 85.09069061279296875 87.24524688720703125 88.57126617431640625 95.0439300537109375 93.40185546875 92.9420623779296875 90.95854949951171875 72.12591552734375 16.344579696655273438 2.9311087131500244141 3.5140569210052490234 10.048069953918457031 15.784081459045410156 51.4036712646484375 56.7066497802734375 81.3849029541015625 94.2569580078125 94.776702880859375 93.2366943359375 87.42980194091796875 83.1345672607421875 73.16341400146484375 69.93890380859375 95.8005218505859375 91.28365325927734375 95.81195831298828125 97.1829833984375 98.33225250244140625 96.52338409423828125 92.440704345703125 95.26116180419921875 94.08349609375 93.7143096923828125 96.004486083984375 95.69321441650390625 81.5113983154296875 51.595432281494140625 32.64410400390625 69.80104827880859375 93.831512451171875 93.64264678955078125 92.32160186767578125 90.41623687744140625 86.77402496337890625 92.39521026611328125 72.00669097900390625 56.2688446044921875 58.8168792724609375 57.79372406005859375 70.889678955078125 75.35681915283203125 37.252368927001953125 29.302000045776367188 32.32745361328125 23.723077774047851562 18.169900894165039062 15.979998588562011719 5.0691881179809570312 3.4983682632446289062 9.7371578216552734375 10.471300125122070312 8.58887481689453125 4.294368743896484375 5.9253497123718261719 3.0017535686492919922 1.3628782033920288086 -9999 -9999 -9999 -9999 -9999 -9999 -9999 
-9999 -9999 -9999 -9999 -9999 -9999 -9999 -9999 1.0772683620452880859 -9999 -9999 -9999 -9999 -9999 1.4610006809234619141 -9999 -9999 -9999 -9999 -9999 -9999 1.5838593244552612305 2.2319848537445068359 2.1798908710479736328 2.4946813583374023438 2.3765199184417724609 3.1519312858581542969 -9999 2.1941633224487304688 2.1521735191345214844 1.6728218793869018555 2.2989315986633300781 4.7629475593566894531 4.6719260215759277344 3.7234911918640136719 5.581844329833984375 4.6045622825622558594 2.0812091827392578125 1.5855746269226074219 2.8014786243438720703 1.6546695232391357422 2.1316285133361816406 1.9076740741729736328 2.3886196613311767578 2.7122292518615722656 2.9579114913940429688 5.0385913848876953125 2.3799338340759277344 1.3938908576965332031 1.6505359411239624023 3.96294403076171875 14.248950958251953125 37.3745880126953125 84.447509765625 83.4777984619140625 86.29753875732421875 89.81946563720703125 89.8123321533203125 91.55733489990234375 88.76111602783203125 91.251922607421875 76.0743408203125 26.547443389892578125 3.0948512554168701172 1.9049779176712036133 2.1192831993103027344 3.573551177978515625 11.878346443176269531 25.106676101684570312 62.837055206298828125 94.22954559326171875 95.7276458740234375 93.97057342529296875 75.8419036865234375 73.71765899658203125 59.215732574462890625 89.02398681640625 98.3276519775390625 84.29351806640625 88.9090576171875 98.0994873046875 94.65179443359375 95.097503662109375 95.97620391845703125 88.83429718017578125 79.55167388916015625 85.47393035888671875 91.3487091064453125 95.59436798095703125 90.6671600341796875 75.911163330078125 62.66410064697265625 77.98638916015625 97.41405487060546875 98.21230316162109375 96.67523956298828125 97.87518310546875 92.23784637451171875 96.205718994140625 90.979583740234375 89.49385833740234375 91.49372100830078125 81.56285858154296875 92.3581085205078125 92.65110015869140625 63.757373809814453125 49.1945343017578125 42.440708160400390625 20.89827728271484375 17.524806976318359375 20.25670623779296875 5.6239843368530273438 5.3275785446166992188 6.7182383537292480469 4.1802563667297363281 3.1933553218841552734 3.8988735675811767578 3.7154209613800048828 1.3738839626312255859 -9999 -9999 2.6661651134490966797 -9999 -9999 1.5346715450286865234 -9999 -9999 
-9999 -9999 -9999 -9999 -9999 1.4854658842086791992 -9999 -9999 -9999 -9999 -9999 -9999 -9999 -9999 -9999 -9999 -9999 -9999 -9999 -9999 -9999 2.2699310779571533203 2.9759166240692138672 -9999 2.8916563987731933594 3.8896605968475341797 3.7005889415740966797 2.0455369949340820312 2.9023294448852539062 2.7653663158416748047 2.6426632404327392578 -9999 1.8695851564407348633 -9999 1.5115922689437866211 3.2633166313171386719 3.6807868480682373047 2.20183563232421875 2.0904040336608886719 2.6880946159362792969 -9999 2.3243951797485351562 2.2116096019744873047 4.6582050323486328125 5.3864145278930664062 4.7464666366577148438 5.4148893356323242188 2.2795696258544921875 2.2466356754302978516 3.3847038745880126953 8.692142486572265625 19.020521163940429688 28.080816268920898438 60.4521484375 87.21759796142578125 89.00904083251953125 90.3703155517578125 89.08444976806640625 88.8017425537109375 71.3309173583984375 87.789886474609375 77.35039520263671875 39.319225311279296875 5.3113527297973632812 -9999 4.2345981597900390625 10.332478523254394531 23.323007583618164062 47.529163360595703125 65.01653289794921875 90.062957763671875 95.4258270263671875 96.17694854736328125 94.32938385009765625 70.02774810791015625 63.92475128173828125 96.5082855224609375 96.73415374755859375 89.0811614990234375 82.65287017822265625 96.40927886962890625 94.0585174560546875 94.8193817138671875 93.1479339599609375 80.484710693359375 69.09961700439453125 84.943511962890625 88.81853485107421875 91.7997589111328125 77.32575225830078125 61.288799285888671875 90.91835784912109375 82.775390625 96.34387969970703125 98.9739990234375 99.922515869140625 100.81865692138671875 98.74001312255859375 97.8012237548828125 98.2733154296875 98.7463531494140625 100.41875457763671875 96.569366455078125 88.27631378173828125 93.83127593994140625 78.0482635498046875 54.65253448486328125 42.136386871337890625 24.139093399047851562 19.463239669799804688 10.235849380493164062 4.6324238777160644531 6.7199759483337402344 5.058353424072265625 5.4805784225463867188 5.2099766731262207031 3.4051899909973144531 2.7365040779113769531 1.5065201520919799805 -9999 1.8409992456436157227 1.5992935895919799805 -9999 -9999 -9999 -9999 -9999 
-9999 -9999 -9999 -9999 -9999 -9999 -9999 -9999 -9999 -9999 1.3074852228164672852 1.3782981634140014648 -9999 -9999 2.1619105339050292969 -9999 -9999 2.0436863899230957031 1.818867802619934082 2.0311322212219238281 2.3340208530426025391 2.2950932979583740234 2.9114403724670410156 4.3638525009155273438 2.5059962272644042969 2.1499567031860351562 3.0487382411956787109 3.137218475341796875 2.5198590755462646484 2.0111136436462402344 2.0743219852447509766 2.6128211021423339844 2.0494909286499023438 -9999 -9999 2.3442511558532714844 2.1930818557739257812 1.8923745155334472656 2.6904766559600830078 2.1512181758880615234 3.0337018966674804688 2.68073272705078125 4.3682651519775390625 10.138691902160644531 10.5125274658203125 8.4694185256958007812 5.5548911094665527344 3.9043636322021484375 5.7348294258117675781 13.766451835632324219 15.9269561767578125 19.852993011474609375 25.21108245849609375 41.837451934814453125 59.9264373779296875 76.0638580322265625 69.21710205078125 70.3556976318359375 76.6552734375 53.36163330078125 72.66886138916015625 62.974365234375 26.941453933715820312 7.45467376708984375 11.421228408813476562 14.619103431701660156 15.377288818359375 35.146266937255859375 44.00241851806640625 45.011798858642578125 79.11151885986328125 94.7473602294921875 90.11229705810546875 88.089447021484375 44.911350250244140625 72.68080902099609375 96.71886444091796875 99.33586883544921875 81.8111724853515625 63.59851837158203125 72.90322113037109375 92.4414825439453125 93.35533905029296875 82.0503387451171875 48.50969696044921875 44.26665496826171875 80.03903961181640625 88.86150360107421875 86.49979400634765625 86.754638671875 85.4131927490234375 95.3271636962890625 95.14403533935546875 98.2678070068359375 99.51490020751953125 100.51549530029296875 100.0958251953125 99.65700531005859375 98.02999114990234375 97.765350341796875 98.89447021484375 99.72247314453125 96.64247894287109375 88.49459075927734375 92.505126953125 70.120391845703125 42.141201019287109375 43.29950714111328125 37.475818634033203125 40.65232086181640625 37.589771270751953125 41.558567047119140625 32.456394195556640625 22.057268142700195312 14.499219894409179688 13.502779960632324219 14.41208648681640625 11.897844314575195312 3.3696758747100830078 -9999 -9999 -9999 2.5014581680297851562 -9999 -9999 -9999 -9999 
-9999 -9999 -9999 -9999 -9999 -9999 -9999 -9999 -9999 1.5611113309860229492 1.6883900165557861328 1.5290484428405761719 -9999 -9999 -9999 2.0209209918975830078 -9999 2.3034820556640625 2.1103551387786865234 2.6436336040496826172 3.3015527725219726562 3.2748141288757324219 2.7395908832550048828 3.3062551021575927734 3.1410989761352539062 3.1308269500732421875 2.6999053955078125 2.2271897792816162109 -9999 -9999 3.1831946372985839844 3.5813715457916259766 -9999 -9999 3.1884098052978515625 2.1791555881500244141 -9999 -9999 1.8862154483795166016 2.2659564018249511719 2.7255721092224121094 3.1881432533264160156 5.8358950614929199219 14.686243057250976562 15.604593276977539062 18.281263351440429688 17.1251373291015625 14.428807258605957031 12.16565704345703125 28.906192779541015625 25.317966461181640625 18.435916900634765625 33.42453765869140625 33.188579559326171875 32.304515838623046875 39.765995025634765625 29.420171737670898438 31.79946136474609375 40.42780303955078125 37.16432952880859375 54.68338775634765625 41.407314300537109375 30.254291534423828125 16.961727142333984375 21.757127761840820312 10.048458099365234375 5.7989101409912109375 29.607463836669921875 49.72260284423828125 71.2622222900390625 85.8635711669921875 88.120880126953125 83.1873931884765625 63.878681182861328125 55.444980621337890625 91.58739471435546875 96.30388641357421875 99.7294158935546875 94.84989166259765625 88.9705963134765625 82.03488922119140625 90.5795135498046875 85.92827606201171875 89.0279388427734375 65.35662841796875 50.6680755615234375 68.2217559814453125 69.704376220703125 85.1087799072265625 86.24834442138671875 90.01959228515625 94.29482269287109375 95.671630859375 96.50954437255859375 96.4904022216796875 97.9534149169921875 97.6837005615234375 98.7358551025390625 97.3080596923828125 97.51911163330078125 97.9407196044921875 98.408599853515625 97.5459442138671875 95.0548248291015625 98.267852783203125 85.74423980712890625 78.14250946044921875 82.1566619873046875 88.75267791748046875 91.63957977294921875 88.37351226806640625 88.45827484130859375 74.654327392578125 59.42104339599609375 46.627838134765625 33.56934356689453125 19.752841949462890625 13.64305877685546875 3.7413933277130126953 2.3914721012115478516 -9999 -9999 -9999 -9999 -9999 -9999 -9999 
-9999 1.3860732316970825195 -9999 -9999 -9999 -9999 -9999 -9999 -9999 -9999 1.403588414192199707 -9999 -9999 1.80612945556640625 -9999 -9999 2.736789703369140625 2.2526736259460449219 2.0222008228302001953 2.6888630390167236328 2.4302854537963867188 2.2813253402709960938 2.7544534206390380859 4.1396799087524414062 4.6171941757202148438 3.5632157325744628906 4.2584352493286132812 3.4604160785675048828 1.9622802734375 2.0738947391510009766 2.3306202888488769531 -9999 3.2828729152679443359 2.8590459823608398438 3.1679012775421142578 1.9362506866455078125 2.0290420055389404297 3.412540435791015625 2.6310148239135742188 3.3613786697387695312 4.5277042388916015625 7.0894517898559570312 8.2341299057006835938 11.650094032287597656 19.403232574462890625 17.058706283569335938 12.374452590942382812 13.316973686218261719 13.218770980834960938 10.229640007019042969 12.529903411865234375 17.493555068969726562 26.849857330322265625 28.206943511962890625 23.832315444946289062 23.641931533813476562 11.940416336059570312 14.582957267761230469 8.5540561676025390625 10.894804954528808594 49.729213714599609375 44.9928741455078125 45.5570220947265625 31.600429534912109375 28.1797027587890625 23.127752304077148438 18.296289443969726562 51.280162811279296875 78.9398193359375 89.0785064697265625 74.48522186279296875 70.49996185302734375 63.319652557373046875 30.733623504638671875 74.56563568115234375 93.12364959716796875 92.1754302978515625 94.963470458984375 97.63727569580078125 92.84688568115234375 98.10454559326171875 97.00917816162109375 87.47158050537109375 89.1749420166015625 83.8593902587890625 71.08855438232421875 72.98963165283203125 37.079288482666015625 67.398284912109375 86.737640380859375 90.41869354248046875 91.14070892333984375 95.3432464599609375 98.40764617919921875 96.9877777099609375 95.6874542236328125 93.79294586181640625 98.21942138671875 99.05450439453125 98.3829345703125 97.96396636962890625 98.4191131591796875 97.05188751220703125 86.9841766357421875 93.0183258056640625 94.82115936279296875 94.8748016357421875 97.188446044921875 96.07570648193359375 93.83928680419921875 89.165008544921875 91.793182373046875 87.96282196044921875 70.89910125732421875 50.83695220947265625 34.501728057861328125 8.3882551193237304688 3.2418243885040283203 2.4965071678161621094 3.6128256320953369141 2.3367936611175537109 1.3490426540374755859 1.5393739938735961914 -9999 -9999 -9999 -9999 
1.6529366970062255859 -9999 -9999 -9999 -9999 -9999 -9999 -9999 -9999 -9999 -9999 -9999 -9999 -9999 -9999 -9999 3.1466534137725830078 2.5857923030853271484 -9999 1.9025962352752685547 -9999 2.0503954887390136719 3.141376495361328125 5.684406280517578125 5.8916692733764648438 2.3147604465484619141 3.1457223892211914062 3.0675890445709228516 2.5369517803192138672 3.2392919063568115234 3.3902370929718017578 2.1865766048431396484 4.2828202247619628906 6.1699123382568359375 4.9873614311218261719 2.7023997306823730469 2.6272768974304199219 3.3391680717468261719 2.1182262897491455078 3.3431987762451171875 7.9435000419616699219 11.004271507263183594 9.0427036285400390625 5.2239742279052734375 8.4449329376220703125 5.5264105796813964844 3.5644471645355224609 4.4919772148132324219 3.5667138099670410156 -9999 5.0640339851379394531 11.326535224914550781 19.542797088623046875 9.624645233154296875 11.668360710144042969 8.6293315887451171875 -9999 4.8000559806823730469 6.4516115188598632812 22.880773544311523438 48.791187286376953125 64.14269256591796875 44.239349365234375 23.131193161010742188 16.321353912353515625 24.13750457763671875 22.890283584594726562 24.655733108520507812 43.490581512451171875 42.15575408935546875 57.093441009521484375 69.69783782958984375 32.448246002197265625 45.455493927001953125 86.46781158447265625 70.122955322265625 60.3831024169921875 84.54936981201171875 91.99505615234375 60.958927154541015625 87.61468505859375 69.2977294921875 84.672821044921875 88.7006378173828125 81.6101837158203125 88.786895751953125 85.376220703125 58.708255767822265625 68.499755859375 90.34125518798828125 93.048675537109375 81.297027587890625 89.327484130859375 98.95026397705078125 99.41344451904296875 94.17929840087890625 92.75652313232421875 99.6741790771484375 99.99176788330078125 98.98954010009765625 97.6178131103515625 90.462921142578125 97.0938568115234375 94.66286468505859375 92.85869598388671875 88.5262451171875 82.6602020263671875 83.95806884765625 95.8998565673828125 93.2545928955078125 84.60111236572265625 88.33850860595703125 77.38974761962890625 47.13134002685546875 32.300098419189453125 17.53693389892578125 3.10040283203125 -9999 -9999 2.4070615768432617188 2.1683437824249267578 1.2308553457260131836 -9999 -9999 -9999 -9999 -9999 
-9999 -9999 -9999 -9999 -9999 -9999 -9999 -9999 -9999 1.706756591796875 -9999 -9999 -9999 -9999 -9999 1.8644316196441650391 1.8391548395156860352 -9999 1.4808832406997680664 2.5137670040130615234 3.7352969646453857422 3.1911151409149169922 7.0769972801208496094 5.8380765914916992188 3.7831537723541259766 2.8568723201751708984 2.4396424293518066406 5.3657183647155761719 7.1660866737365722656 7.729404449462890625 6.9619183540344238281 6.056125640869140625 6.8472409248352050781 9.7076816558837890625 3.4910860061645507812 2.6943342685699462891 2.3661732673645019531 3.4430146217346191406 3.3969676494598388672 3.2863104343414306641 3.9778516292572021484 3.1260514259338378906 4.9061326980590820312 3.56578826904296875 4.3943243026733398438 6.1410851478576660156 3.9516091346740722656 3.0087211132049560547 2.4665362834930419922 2.5798358917236328125 2.5095784664154052734 7.0323696136474609375 11.781054496765136719 4.6422963142395019531 9.3833608627319335938 11.264292716979980469 5.5246806144714355469 4.0571765899658203125 15.333916664123535156 39.87004852294921875 61.56227874755859375 64.3156890869140625 33.486438751220703125 7.6890892982482910156 3.5823345184326171875 16.9957275390625 29.129810333251953125 26.637083053588867188 26.890003204345703125 30.895837783813476562 45.64897918701171875 36.792816162109375 29.541521072387695312 75.90299224853515625 80.42858123779296875 43.993656158447265625 39.442577362060546875 87.738128662109375 97.96724700927734375 82.58971405029296875 79.50733184814453125 83.62442779541015625 92.9147491455078125 94.2021636962890625 95.09539031982421875 87.82403564453125 71.55010223388671875 53.948749542236328125 58.718685150146484375 85.86392974853515625 93.28253936767578125 85.41583251953125 93.14531707763671875 98.065887451171875 98.72615814208984375 95.411102294921875 94.94140625 100.48252105712890625 101 99.681396484375 94.1138916015625 88.11907196044921875 97.069000244140625 93.1479339599609375 78.90969085693359375 67.43167877197265625 82.86923980712890625 83.92317962646484375 74.91687774658203125 87.09572601318359375 58.89129638671875 38.51044464111328125 25.737926483154296875 9.8297214508056640625 5.2574181556701660156 5.9727883338928222656 4.3834009170532226562 3.8491754531860351562 3.0132133960723876953 1.5771908760070800781 1.2469933032989501953 1.2765854597091674805 1.0669254064559936523 -9999 -9999 -9999 1.3105891942977905273 
1.1079192161560058594 -9999 -9999 -9999 -9999 -9999 -9999 -9999 -9999 -9999 -9999 1.7504476308822631836 1.9217252731323242188 -9999 2.0564925670623779297 1.868831634521484375 1.7357763051986694336 -9999 -9999 2.9115555286407470703 5.3954262733459472656 3.8801195621490478516 6.2513499259948730469 6.2668066024780273438 3.1169669628143310547 3.0988225936889648438 3.4300544261932373047 6.3496580123901367188 9.1455106735229492188 7.53997802734375 7.4263472557067871094 5.5888767242431640625 4.43947601318359375 4.6314563751220703125 2.8120126724243164062 3.4009065628051757812 1.9155880212783813477 3.1113388538360595703 3.8582205772399902344 2.4147956371307373047 2.266582489013671875 2.7178337574005126953 1.9851903915405273438 1.9568423032760620117 6.1979079246520996094 17.29931640625 18.024610519409179688 14.011464118957519531 5.9634041786193847656 2.9061822891235351562 -9999 1.8677151203155517578 -9999 8.3855838775634765625 29.666303634643554688 40.47466278076171875 30.992685317993164062 27.462383270263671875 43.41703033447265625 36.881343841552734375 38.433269500732421875 34.91065216064453125 7.4876184463500976562 -9999 2.4342017173767089844 12.07370758056640625 13.071063041687011719 14.865575790405273438 22.258457183837890625 31.109218597412109375 18.989597320556640625 7.9220361709594726562 40.649444580078125 80.57868194580078125 56.13608551025390625 34.4913330078125 70.5704803466796875 95.4818572998046875 96.4677581787109375 62.3957977294921875 65.93051910400390625 88.82170867919921875 88.94609832763671875 88.37677001953125 69.19269561767578125 35.786220550537109375 20.880331039428710938 46.71318817138671875 84.106201171875 95.71478271484375 96.84771728515625 94.71196746826171875 96.02912139892578125 98.300384521484375 97.56912994384765625 99.1863555908203125 100.43070220947265625 100.500579833984375 99.83255767822265625 99.54195404052734375 96.81497955322265625 96.134002685546875 97.063751220703125 83.7670135498046875 71.01222991943359375 88.1756134033203125 89.74071502685546875 73.153228759765625 68.71802520751953125 54.392299652099609375 32.688938140869140625 25.978336334228515625 20.560201644897460938 17.194005966186523438 19.76934051513671875 31.01663970947265625 20.910589218139648438 14.033966064453125 8.5828008651733398438 2.8823828697204589844 1.4115397930145263672 1.9538953304290771484 -9999 -9999 1.4385504722595214844 1.9032523632049560547 1.6829675436019897461 
-9999 -9999 -9999 -9999 -9999 1.0840716361999511719 -9999 -9999 -9999 -9999 -9999 -9999 1.8368576765060424805 -9999 3.0236961841583251953 2.7123541831970214844 -9999 2.1052088737487792969 1.7503960132598876953 2.1583318710327148438 2.5699367523193359375 4.3132252693176269531 5.3328227996826171875 4.9354114532470703125 3.8765020370483398438 2.4007058143615722656 2.1708266735076904297 3.9820849895477294922 5.1852908134460449219 2.8465688228607177734 1.8629217147827148438 1.5686105489730834961 3.1362421512603759766 3.0619161128997802734 2.8904058933258056641 2.5446727275848388672 -9999 2.0678267478942871094 3.6344249248504638672 2.0064568519592285156 3.3970935344696044922 4.0929403305053710938 1.9272085428237915039 4.1232881546020507812 8.3206768035888671875 12.055309295654296875 20.803028106689453125 25.715135574340820312 8.1968126296997070312 -9999 -9999 1.6189389228820800781 7.8468275070190429688 29.774480819702148438 47.308338165283203125 58.171115875244140625 43.38665771484375 29.45249176025390625 27.352144241333007812 12.228522300720214844 5.4341454505920410156 7.0625338554382324219 2.7194392681121826172 -9999 3.3381786346435546875 8.0484838485717773438 4.1649727821350097656 3.2671008110046386719 7.84850311279296875 12.968642234802246094 7.7102389335632324219 4.4639954566955566406 35.472812652587890625 72.26416015625 51.77734375 57.641742706298828125 90.37439727783203125 98.28896331787109375 97.9677734375 80.46506500244140625 73.82610321044921875 73.43195343017578125 71.88744354248046875 65.436187744140625 17.983915328979492188 4.9309148788452148438 18.63582611083984375 55.5147857666015625 73.034393310546875 90.1197357177734375 93.75323486328125 94.4590911865234375 95.37060546875 97.2043304443359375 98.56341552734375 100.5825653076171875 100.67369842529296875 97.69029998779296875 96.325408935546875 98.25726318359375 98.16350555419921875 98.04364013671875 97.44280242919921875 95.82573699951171875 93.24505615234375 96.0587921142578125 89.6391754150390625 70.82421875 85.71063232421875 86.3407135009765625 63.89310455322265625 24.615701675415039062 19.033582687377929688 40.549297332763671875 41.368900299072265625 42.735309600830078125 29.135877609252929688 15.60045623779296875 6.2504162788391113281 2.7750723361968994141 2.0321326255798339844 1.822808384895324707 -9999 1.1336569786071777344 1.4613933563232421875 1.5347341299057006836 1.9363933801651000977 
-9999 -9999 -9999 -9999 -9999 -9999 -9999 -9999 -9999 1.6351794004440307617 -9999 1.5075850486755371094 1.621767878532409668 2.2141842842102050781 2.6921417713165283203 2.1388974189758300781 2.2041981220245361328 2.4871437549591064453 2.7642586231231689453 3.2333216667175292969 2.1193053722381591797 3.3584678173065185547 3.6416306495666503906 3.82421112060546875 -9999 -9999 1.345831751823425293 -9999 -9999 -9999 2.5120742321014404297 2.3077282905578613281 4.1033563613891601562 3.6913917064666748047 2.1892888545989990234 2.3588972091674804688 1.6180822849273681641 1.407379150390625 1.9584164619445800781 -9999 2.2392594814300537109 2.2092936038970947266 1.6943105459213256836 3.1745624542236328125 5.6754689216613769531 7.8908815383911132812 18.561107635498046875 25.81270599365234375 8.79779052734375 1.6387232542037963867 1.7284536361694335938 1.7692692279815673828 11.386982917785644531 36.609588623046875 27.4091644287109375 20.347991943359375 10.298043251037597656 -9999 4.0195641517639160156 3.0553152561187744141 -9999 2.2539298534393310547 -9999 2.7637979984283447266 3.8590245246887207031 5.0930237770080566406 3.2933077812194824219 3.7161974906921386719 -9999 9.56777191162109375 13.939389228820800781 24.077844619750976562 39.314365386962890625 39.6783905029296875 33.290073394775390625 71.41167449951171875 93.2554473876953125 99.03005218505859375 98.95667266845703125 90.3001861572265625 63.156917572021484375 70.19182586669921875 84.46765899658203125 80.26041412353515625 27.746446609497070312 8.6090755462646484375 28.905508041381835938 54.2081298828125 57.724536895751953125 79.5107421875 62.866428375244140625 70.447479248046875 93.23799896240234375 93.586395263671875 94.6465606689453125 97.58206939697265625 98.743896484375 96.2524566650390625 93.46709442138671875 97.0428924560546875 97.9240875244140625 98.11161041259765625 97.46343994140625 97.65349578857421875 97.33722686767578125 95.34438323974609375 84.371490478515625 76.04361724853515625 93.9457855224609375 90.86107635498046875 76.5213470458984375 39.1635589599609375 43.302448272705078125 61.11951446533203125 46.727230072021484375 32.5281524658203125 17.648878097534179688 7.1692438125610351562 5.1088047027587890625 3.2792489528656005859 2.9497575759887695312 2.6239261627197265625 1.844023585319519043 1.354256749153137207 1.046893000602722168 1.1817204952239990234 1.5021641254425048828 
-9999 -9999 -9999 -9999 -9999 -9999 -9999 2.2508885860443115234 1.9992102384567260742 -9999 3.4966509342193603516 3.3906996250152587891 1.9695845842361450195 2.3329093456268310547 3.5515189170837402344 3.5683369636535644531 2.2790274620056152344 3.1340706348419189453 6.76436614990234375 5.8351092338562011719 3.54715728759765625 2.0380525588989257812 2.7804987430572509766 2.4114172458648681641 2.8239543437957763672 2.0412735939025878906 1.725037693977355957 1.7637174129486083984 2.4314475059509277344 1.7750934362411499023 2.8142299652099609375 3.5733489990234375 3.8147799968719482422 5.0454134941101074219 2.9963960647583007812 -9999 2.7746613025665283203 2.0260882377624511719 1.5551563501358032227 2.7200911045074462891 2.8428056240081787109 2.0598294734954833984 2.1843972206115722656 2.1898620128631591797 2.217380523681640625 2.8728790283203125 8.8656482696533203125 18.749612808227539062 12.754039764404296875 2.3000135421752929688 -9999 3.3795490264892578125 16.648096084594726562 32.75043487548828125 10.237801551818847656 2.5609118938446044922 -9999 1.8906280994415283203 1.6738516092300415039 2.1895616054534912109 9.4222669601440429688 7.41655731201171875 -9999 3.3789401054382324219 7.519084930419921875 5.9936289787292480469 5.9939837455749511719 10.875758171081542969 2.3522369861602783203 5.7271533012390136719 15.951251029968261719 32.971240997314453125 46.906764984130859375 42.923618316650390625 45.05611419677734375 79.01978302001953125 94.52740478515625 96.755126953125 96.535430908203125 68.023712158203125 60.115100860595703125 86.87311553955078125 94.7255859375 85.851226806640625 50.394359588623046875 19.68819427490234375 10.57537841796875 36.736255645751953125 63.5160369873046875 73.51004791259765625 33.37305450439453125 51.37839508056640625 92.200653076171875 80.004150390625 81.76006317138671875 92.117431640625 97.2582244873046875 98.103607177734375 97.76253509521484375 97.20996856689453125 96.555816650390625 97.69852447509765625 98.062713623046875 98.20896148681640625 91.70687103271484375 89.99013519287109375 81.3205413818359375 86.11194610595703125 88.6410369873046875 42.90517425537109375 29.95737457275390625 31.286106109619140625 68.2485504150390625 69.3699798583984375 50.4043426513671875 21.88759613037109375 10.992038726806640625 3.4762625694274902344 3.4470167160034179688 2.8081524372100830078 3.5503046512603759766 3.7813787460327148438 3.2992146015167236328 2.1678686141967773438 1.0863516330718994141 1.3244317770004272461 1.6928462982177734375 
-9999 -9999 -9999 -9999 -9999 -9999 2.7111022472381591797 4.4756174087524414062 2.6003477573394775391 2.0557355880737304688 4.3798727989196777344 3.7810599803924560547 2.2626209259033203125 2.6362314224243164062 2.9702982902526855469 2.3288006782531738281 2.6301794052124023438 3.8534760475158691406 5.2420601844787597656 2.8753440380096435547 2.2681245803833007812 3.559467315673828125 6.0701684951782226562 -9999 3.0190985202789306641 2.7239558696746826172 -9999 2.9010028839111328125 3.7764863967895507812 -9999 1.7522845268249511719 2.8482506275177001953 2.2935049533843994141 3.07555389404296875 2.8923866748809814453 4.0956845283508300781 2.7360639572143554688 1.9120651483535766602 1.8636989593505859375 2.5458350181579589844 3.1416902542114257812 2.2875475883483886719 1.5486414432525634766 2.1892397403717041016 2.6784698963165283203 1.468916773796081543 1.8856313228607177734 5.2388110160827636719 6.4151773452758789062 2.9840073585510253906 3.4343659877777099609 4.7805719375610351562 10.241983413696289062 14.389112472534179688 5.7901287078857421875 -9999 -9999 2.0816771984100341797 1.8985384702682495117 7.8783888816833496094 31.4933319091796875 20.230180740356445312 2.3765745162963867188 5.2025570869445800781 7.5769524574279785156 14.64565277099609375 19.344911575317382812 11.276465415954589844 5.6114039421081542969 14.486529350280761719 30.468088150024414062 50.52459716796875 44.0295257568359375 36.49192047119140625 57.530628204345703125 70.435333251953125 80.2627716064453125 84.4368133544921875 66.289825439453125 18.888965606689453125 22.980039596557617188 68.78350830078125 92.79193115234375 86.84236907958984375 61.936771392822265625 25.31319427490234375 6.3439574241638183594 22.92386627197265625 55.555835723876953125 65.1826171875 62.83919525146484375 80.430389404296875 90.9110107421875 88.31101226806640625 91.350860595703125 88.03376007080078125 95.2235107421875 94.1329345703125 95.62941741943359375 95.4428863525390625 95.48430633544921875 97.503814697265625 97.15676116943359375 92.97484588623046875 81.32590484619140625 89.09619903564453125 77.254974365234375 72.99800872802734375 51.65899658203125 12.863356590270996094 13.022315025329589844 36.5249481201171875 55.98778533935546875 56.53571319580078125 40.0084991455078125 31.864833831787109375 25.282815933227539062 8.914035797119140625 2.4571552276611328125 1.4748804569244384766 2.3945114612579345703 2.99286651611328125 2.3178451061248779297 1.9765658378601074219 -9999 -9999 -9999 
2.2044496536254882812 -9999 -9999 1.9595035314559936523 2.2196376323699951172 3.6335628032684326172 2.8060507774353027344 3.2033224105834960938 2.7831668853759765625 2.3130376338958740234 2.8415739536285400391 2.3154108524322509766 2.4789474010467529297 1.8460935354232788086 1.9618014097213745117 2.5944931507110595703 5.1615781784057617188 8.0817308425903320312 4.4847178459167480469 2.4319279193878173828 -9999 2.2342536449432373047 3.7830560207366943359 2.3728849887847900391 5.6490921974182128906 4.4260611534118652344 -9999 4.1357469558715820312 -9999 -9999 2.5412347316741943359 2.3601953983306884766 -9999 2.8038151264190673828 2.2900502681732177734 3.7796008586883544922 3.0115792751312255859 2.0444707870483398438 1.6385363340377807617 2.1942431926727294922 3.5886981487274169922 -9999 1.8439260721206665039 2.6240365505218505859 2.7062029838562011719 1.4005073308944702148 -9999 1.8788114786148071289 -9999 7.4373321533203125 13.199472427368164062 10.815070152282714844 -9999 -9999 -9999 -9999 -9999 -9999 -9999 8.17557525634765625 33.8195343017578125 20.958179473876953125 3.9245412349700927734 10.387126922607421875 10.383388519287109375 15.685047149658203125 12.022975921630859375 8.6831722259521484375 17.71561431884765625 37.422649383544921875 64.3228302001953125 63.032016754150390625 47.5277557373046875 41.63854217529296875 41.0637969970703125 45.425891876220703125 33.85918426513671875 48.05184173583984375 50.118572235107421875 31.431514739990234375 29.68526458740234375 69.989410400390625 95.66670989990234375 91.1809844970703125 72.359893798828125 27.100530624389648438 11.403225898742675781 17.156869888305664062 39.19759368896484375 67.9619598388671875 87.66120147705078125 93.5779571533203125 92.02873992919921875 88.26708221435546875 76.62491607666015625 72.96833038330078125 91.77877044677734375 95.7126312255859375 94.3963623046875 93.30849456787109375 91.9095458984375 84.64096832275390625 79.36792755126953125 87.280059814453125 89.34259796142578125 84.050537109375 55.64556121826171875 24.034315109252929688 10.413801193237304688 12.718117713928222656 30.395708084106445312 44.03841400146484375 46.396389007568359375 52.1527862548828125 50.292510986328125 51.575084686279296875 31.960287094116210938 11.077956199645996094 4.7257928848266601562 1.8364168405532836914 -9999 -9999 1.6893663406372070312 -9999 -9999 -9999 -9999 
2.0617613792419433594 1.6403585672378540039 -9999 2.8771674633026123047 7.8528008460998535156 16.4533843994140625 7.7683362960815429688 2.9806976318359375 4.041156768798828125 -9999 6.8651375770568847656 4.2672204971313476562 2.0606513023376464844 -9999 2.4024319648742675781 3.2808115482330322266 5.6095957756042480469 6.9690861701965332031 6.37136077880859375 4.4333753585815429688 2.1169207096099853516 1.304058074951171875 2.1637098789215087891 3.4168095588684082031 18.716413497924804688 17.690324783325195312 4.8701529502868652344 3.2142808437347412109 1.1191854476928710938 -9999 1.9161511659622192383 1.6727986335754394531 2.1720144748687744141 2.2033686637878417969 2.4553945064544677734 2.0661585330963134766 2.2261209487915039062 2.4857873916625976562 1.9353663921356201172 1.7426050901412963867 2.2243750095367431641 2.3609127998352050781 2.3483746051788330078 1.8791432380676269531 2.9876446723937988281 2.2344493865966796875 -9999 -9999 -9999 4.5285906791687011719 15.710880279541015625 15.358005523681640625 -9999 -9999 -9999 -9999 -9999 -9999 7.0183877944946289062 14.213802337646484375 33.75341796875 21.780633926391601562 24.580121994018554688 18.644403457641601562 10.838235855102539062 5.7514514923095703125 4.3829798698425292969 17.09912109375 39.7489166259765625 32.243862152099609375 51.625331878662109375 64.0654754638671875 38.885662078857421875 38.3603057861328125 46.07041168212890625 55.043544769287109375 33.732143402099609375 44.1550445556640625 39.276824951171875 57.74335479736328125 66.8668212890625 85.1272430419921875 94.69676971435546875 93.53464508056640625 88.596099853515625 62.292236328125 46.028408050537109375 49.75215911865234375 72.83202362060546875 91.17632293701171875 92.31545257568359375 92.27149200439453125 93.9630126953125 83.376434326171875 68.5095367431640625 83.5284881591796875 93.45501708984375 94.19515228271484375 91.21854400634765625 91.96459197998046875 91.33220672607421875 73.00342559814453125 72.5453338623046875 87.6729888916015625 76.82068634033203125 47.455142974853515625 20.253009796142578125 6.5335564613342285156 9.3453912734985351562 18.550701141357421875 45.45693206787109375 31.486207962036132812 27.081424713134765625 23.710870742797851562 28.41393280029296875 31.724706649780273438 27.725229263305664062 16.539445877075195312 7.4173960685729980469 2.2078826427459716797 -9999 -9999 -9999 -9999 -9999 -9999 -9999 
1.9698721170425415039 2.3474678993225097656 2.8886442184448242188 6.6095404624938964844 18.958587646484375 26.887189865112304688 15.385982513427734375 7.0635890960693359375 8.9014520645141601562 9.8065176010131835938 10.658009529113769531 6.4897060394287109375 2.3571879863739013672 2.1304199695587158203 2.4661600589752197266 1.9664895534515380859 3.6052446365356445312 3.2655425071716308594 6.8845133781433105469 3.3948986530303955078 -9999 1.2027585506439208984 -9999 3.473728179931640625 19.469486236572265625 29.230928421020507812 9.99712371826171875 2.5353403091430664062 -9999 -9999 1.7775512933731079102 1.4448379278182983398 3.1775259971618652344 2.2999234199523925781 5.1857657432556152344 3.9063048362731933594 2.1761059761047363281 1.7548196315765380859 1.773468017578125 1.3606795072555541992 1.7901703119277954102 2.0183651447296142578 2.2053680419921875 3.2515158653259277344 3.1619908809661865234 3.7360599040985107422 1.7868151664733886719 1.2375380992889404297 -9999 -9999 13.603883743286132812 15.689700126647949219 15.806818962097167969 6.8043613433837890625 -9999 -9999 5.01230621337890625 10.713820457458496094 30.273517608642578125 36.216060638427734375 25.0460205078125 47.671390533447265625 65.18206787109375 43.758052825927734375 11.965272903442382812 6.7263898849487304688 10.3763427734375 19.090764999389648438 33.131072998046875 27.761762619018554688 28.87415313720703125 29.71673583984375 16.267557144165039062 31.621931076049804688 74.75499725341796875 76.46501922607421875 60.189899444580078125 47.32895660400390625 39.38938140869140625 74.9504852294921875 79.33277130126953125 80.09067535400390625 71.31642913818359375 79.6771240234375 81.23346710205078125 80.0300445556640625 86.94687652587890625 89.42458343505859375 90.31158447265625 92.03148651123046875 88.47731781005859375 86.044708251953125 92.24623870849609375 85.1537017822265625 67.40946197509765625 83.38201141357421875 93.791595458984375 93.686004638671875 90.2657012939453125 93.681182861328125 95.27074432373046875 91.74420928955078125 91.22625732421875 88.98659515380859375 53.322139739990234375 32.87563323974609375 28.375158309936523438 13.323883056640625 20.762792587280273438 32.445850372314453125 31.961795806884765625 17.0322418212890625 14.084287643432617188 10.714531898498535156 13.123149871826171875 12.446214675903320312 8.8689174652099609375 14.300024986267089844 8.2571096420288085938 2.3115472793579101562 -9999 -9999 -9999 -9999 -9999 -9999 -9999 
-9999 -9999 2.1783885955810546875 5.3948836326599121094 7.5817766189575195312 8.5041351318359375 8.3218555450439453125 6.9836230278015136719 4.2330031394958496094 5.290203094482421875 4.3812084197998046875 3.1076407432556152344 1.9948036670684814453 1.523592829704284668 1.7411346435546875 -9999 -9999 2.72638702392578125 5.84062957763671875 3.0254330635070800781 1.642726898193359375 -9999 -9999 -9999 5.6283583641052246094 13.549418449401855469 9.70777130126953125 3.1142594814300537109 2.6986157894134521484 1.769865870475769043 2.1847994327545166016 -9999 -9999 2.0758638381958007812 3.9753677845001220703 3.0435426235198974609 3.3285627365112304688 -9999 1.4629095792770385742 2.7013719081878662109 3.4153759479522705078 2.7699427604675292969 5.2308902740478515625 4.511386871337890625 3.4809491634368896484 4.5288510322570800781 2.2436602115631103516 2.4080095291137695312 1.6588292121887207031 3.1511950492858886719 11.22748565673828125 15.564800262451171875 20.856525421142578125 15.383786201477050781 5.0225224494934082031 -9999 11.546490669250488281 23.732774734497070312 33.937641143798828125 53.16495513916015625 46.36083984375 70.51354217529296875 75.41265106201171875 54.717754364013671875 26.992338180541992188 24.806959152221679688 30.598623275756835938 45.0252227783203125 23.550479888916015625 7.3170771598815917969 6.7709054946899414062 7.7052416801452636719 16.195501327514648438 61.25057220458984375 90.05973052978515625 83.3448638916015625 46.971035003662109375 47.2696685791015625 58.432170867919921875 87.45761871337890625 87.84793853759765625 76.85413360595703125 45.48284149169921875 83.03083038330078125 88.983734130859375 87.35021209716796875 93.10854339599609375 91.4996185302734375 81.99912261962890625 79.94377899169921875 84.42829132080078125 87.91083526611328125 78.19976043701171875 72.70522308349609375 43.126087188720703125 40.05792999267578125 66.7826995849609375 77.54734039306640625 80.3799896240234375 92.45375823974609375 93.75116729736328125 94.65799713134765625 91.4046173095703125 83.8686981201171875 55.649658203125 46.55362701416015625 42.9043426513671875 27.87078857421875 25.609832763671875 37.150089263916015625 23.009599685668945312 18.996843338012695312 12.718350410461425781 15.539155006408691406 12.597678184509277344 6.0002031326293945312 2.7463371753692626953 5.9160146713256835938 5.2013120651245117188 1.5938060283660888672 -9999 -9999 -9999 -9999 -9999 -9999 1.9938035011291503906 
-9999 -9999 -9999 1.9673190116882324219 5.9294123649597167969 10.345216751098632812 9.7937469482421875 3.1733644008636474609 -9999 -9999 -9999 1.6084012985229492188 1.2613540887832641602 1.5438549518585205078 2.0932738780975341797 1.9170222282409667969 -9999 1.4717147350311279297 1.8415369987487792969 2.2112390995025634766 1.8056732416152954102 -9999 -9999 -9999 -9999 3.2938072681427001953 8.342105865478515625 4.5163526535034179688 1.8397158384323120117 1.449680328369140625 1.7371445894241333008 1.6346780061721801758 3.4421772956848144531 4.6366710662841796875 2.6300177574157714844 2.1966407299041748047 2.2337424755096435547 -9999 2.67790985107421875 5.8865642547607421875 2.6913416385650634766 2.5963938236236572266 7.5788607597351074219 19.424020767211914062 8.1510515213012695312 2.0758619308471679688 3.1084105968475341797 3.8808512687683105469 2.5438456535339355469 2.3307061195373535156 6.1006827354431152344 15.870336532592773438 21.491851806640625 19.90648651123046875 9.6966075897216796875 -9999 10.556577682495117188 13.614958763122558594 22.296825408935546875 39.63065338134765625 62.58603668212890625 67.77407073974609375 50.2091827392578125 27.7606201171875 23.949632644653320312 50.004634857177734375 47.313568115234375 44.55751800537109375 15.877962112426757812 3.3486354351043701172 18.0913238525390625 17.688510894775390625 26.586729049682617188 76.91876983642578125 90.6485137939453125 88.7384033203125 63.38702392578125 61.67943572998046875 85.02068328857421875 87.25098419189453125 88.903167724609375 85.415740966796875 68.2089080810546875 94.1748504638671875 94.9426727294921875 86.56909942626953125 86.708465576171875 91.7356109619140625 87.72966766357421875 79.70168304443359375 74.54885101318359375 80.55895233154296875 56.901874542236328125 33.655399322509765625 11.500176429748535156 9.8735551834106445312 28.009778976440429688 73.56981658935546875 90.0712738037109375 91.10897064208984375 79.77977752685546875 66.61113739013671875 72.07865142822265625 73.92533111572265625 59.072200775146484375 30.95447540283203125 23.794179916381835938 33.797412872314453125 37.299457550048828125 36.206249237060546875 14.948276519775390625 14.068196296691894531 8.6020650863647460938 10.601774215698242188 9.2830629348754882812 5.2394781112670898438 2.0252430438995361328 3.4191274642944335938 4.3808507919311523438 1.9214659929275512695 -9999 -9999 -9999 -9999 -9999 -9999 -9999 
-9999 -9999 -9999 2.8890621662139892578 7.755924224853515625 13.200063705444335938 13.449384689331054688 6.4326567649841308594 3.44849395751953125 2.905895233154296875 -9999 -9999 1.3038977384567260742 1.189655303955078125 1.3395446538925170898 1.3670783042907714844 1.7585272789001464844 -9999 -9999 -9999 -9999 -9999 -9999 -9999 -9999 -9999 -9999 2.0735056400299072266 2.3444149494171142578 1.5771400928497314453 1.692905426025390625 -9999 3.853641510009765625 3.7386219501495361328 -9999 2.7744803428649902344 2.5129752159118652344 -9999 1.9536466598510742188 2.6221051216125488281 1.4129430055618286133 1.5043952465057373047 8.4784564971923828125 21.915744781494140625 19.15668487548828125 6.9978995323181152344 6.9221124649047851562 13.017916679382324219 6.0837750434875488281 -9999 8.0487394332885742188 13.328832626342773438 21.785015106201171875 23.930515289306640625 11.509108543395996094 -9999 4.0311789512634277344 7.1898541450500488281 8.8256072998046875 13.813066482543945312 47.69539642333984375 53.2171173095703125 38.56009674072265625 33.899860382080078125 49.74156951904296875 48.757778167724609375 23.269594192504882812 13.085490226745605469 6.8646488189697265625 2.8718287944793701172 14.508056640625 12.951788902282714844 27.86188507080078125 40.172512054443359375 58.975627899169921875 62.491252899169921875 41.4096527099609375 55.71030426025390625 85.09124755859375 73.0771484375 72.08200836181640625 91.59783935546875 89.38871002197265625 97.170440673828125 95.2498321533203125 92.42668914794921875 89.00609588623046875 93.0048980712890625 81.77019500732421875 76.9405670166015625 69.582489013671875 77.21631622314453125 78.08414459228515625 53.70185089111328125 11.132352828979492188 5.6080403327941894531 19.029146194458007812 42.44525909423828125 68.69281005859375 66.996490478515625 33.167362213134765625 10.028632164001464844 20.810382843017578125 50.41046142578125 56.677234649658203125 36.48125457763671875 26.81822967529296875 25.6469268798828125 30.875644683837890625 37.341434478759765625 10.776591300964355469 3.2410752773284912109 4.3565731048583984375 4.9931354522705078125 2.8613731861114501953 2.0068109035491943359 1.3450816869735717773 3.3953807353973388672 4.2280416488647460938 2.6965987682342529297 1.5339336395263671875 -9999 -9999 -9999 -9999 -9999 -9999 
-9999 2.3126809597015380859 -9999 1.8026536703109741211 4.0080103874206542969 7.7587957382202148438 9.8250570297241210938 7.7274966239929199219 6.526416778564453125 5.2666630744934082031 2.5630829334259033203 2.2696516513824462891 2.4556062221527099609 -9999 -9999 1.4209333658218383789 -9999 1.5156812667846679688 -9999 -9999 -9999 -9999 -9999 -9999 -9999 -9999 -9999 -9999 2.5978667736053466797 2.0352013111114501953 1.6903784275054931641 -9999 2.2661483287811279297 2.5987720489501953125 1.8427703380584716797 2.2207305431365966797 -9999 1.5577132701873779297 2.1389040946960449219 1.5550453662872314453 1.2310788631439208984 1.1899056434631347656 2.8193643093109130859 13.4392852783203125 33.188816070556640625 16.921625137329101562 12.157673835754394531 15.406868934631347656 5.4443125724792480469 3.7603764533996582031 13.004080772399902344 11.509491920471191406 11.139156341552734375 20.088109970092773438 10.151163101196289062 3.4116611480712890625 2.3140702247619628906 3.2715108394622802734 3.2102236747741699219 8.76488494873046875 16.833988189697265625 45.032962799072265625 31.176462173461914062 35.64661407470703125 49.45545196533203125 28.678552627563476562 13.705620765686035156 4.2493615150451660156 1.6565310955047607422 4.683837890625 13.739908218383789062 7.4657092094421386719 9.99432373046875 19.965974807739257812 27.11670684814453125 18.715375900268554688 20.924627304077148438 58.026653289794921875 89.7190399169921875 74.298583984375 70.6246185302734375 96.03496551513671875 97.35813140869140625 93.7234344482421875 96.14919281005859375 96.7090911865234375 92.47257232666015625 93.459259033203125 87.04270172119140625 75.41368865966796875 69.911224365234375 67.758636474609375 58.71001434326171875 42.074920654296875 16.2621307373046875 18.497373580932617188 28.722787857055664062 21.860261917114257812 20.380662918090820312 32.66974639892578125 28.288949966430664062 8.5463151931762695312 26.463527679443359375 45.913951873779296875 53.110256195068359375 44.80406951904296875 41.0283203125 43.76442718505859375 37.937068939208984375 30.958688735961914062 12.150011062622070312 3.8351976871490478516 3.1793117523193359375 2.297657012939453125 1.2763837575912475586 -9999 2.3687703609466552734 5.4875044822692871094 4.599590301513671875 2.0320956707000732422 -9999 -9999 -9999 -9999 -9999 -9999 -9999 
-9999 -9999 -9999 -9999 1.9652392864227294922 4.5550150871276855469 6.3306093215942382812 6.5289826393127441406 6.9573984146118164062 5.3143744468688964844 3.2307155132293701172 2.0909562110900878906 2.8977522850036621094 1.5849672555923461914 -9999 -9999 -9999 -9999 2.6965417861938476562 5.1433744430541992188 2.1103179454803466797 -9999 -9999 -9999 -9999 -9999 -9999 -9999 2.2184283733367919922 2.0780985355377197266 -9999 -9999 1.9889383316040039062 2.4805066585540771484 2.8323454856872558594 2.4354572296142578125 -9999 1.5467399358749389648 2.0124032497406005859 -9999 1.1091976165771484375 1.2079125642776489258 2.1860384941101074219 9.3332910537719726562 32.643566131591796875 19.892307281494140625 8.3213109970092773438 6.7454419136047363281 -9999 8.7451457977294921875 15.545433998107910156 14.174152374267578125 3.746662139892578125 13.843554496765136719 15.969784736633300781 4.7034177780151367188 -9999 1.51114654541015625 8.90769195556640625 22.91074371337890625 18.50507354736328125 34.68341064453125 19.941303253173828125 36.786121368408203125 31.030057907104492188 13.511750221252441406 7.5055856704711914062 2.8778023719787597656 -9999 6.2014780044555664062 18.012174606323242188 7.6031370162963867188 2.6957998275756835938 16.989179611206054688 21.766439437866210938 10.779584884643554688 27.892803192138671875 83.162139892578125 91.9877166748046875 75.156768798828125 80.97025299072265625 95.1311798095703125 98.02716827392578125 96.91155242919921875 98.09770965576171875 97.91207122802734375 91.9528961181640625 77.8834686279296875 79.62702178955078125 73.55928802490234375 45.8955230712890625 25.78867340087890625 26.42340087890625 23.116319656372070312 18.200807571411132812 15.741201400756835938 16.855159759521484375 17.107685089111328125 9.7429800033569335938 7.9224820137023925781 7.5945448875427246094 5.48358917236328125 23.61917877197265625 42.29471588134765625 42.173229217529296875 39.6657562255859375 32.72371673583984375 40.45911407470703125 30.487964630126953125 26.456110000610351562 14.318807601928710938 9.4949083328247070312 9.1143999099731445312 5.901172637939453125 1.7078412771224975586 1.4706015586853027344 2.6861164569854736328 3.4777379035949707031 2.1818299293518066406 -9999 -9999 -9999 -9999 -9999 -9999 -9999 -9999 
-9999 -9999 -9999 -9999 -9999 -9999 3.8750660419464111328 4.2518210411071777344 4.5522756576538085938 5.45623779296875 4.4344134330749511719 2.3599567413330078125 3.3880114555358886719 2.1911211013793945312 -9999 -9999 -9999 -9999 2.9139602184295654297 4.3300037384033203125 -9999 -9999 -9999 -9999 -9999 -9999 -9999 -9999 2.1734852790832519531 2.165069580078125 4.2903285026550292969 -9999 -9999 -9999 3.1373856067657470703 3.3307766914367675781 1.2332700490951538086 1.5142920017242431641 -9999 -9999 1.4134217500686645508 1.6510663032531738281 2.1422452926635742188 5.8523235321044921875 27.606739044189453125 28.974369049072265625 6.5302343368530273438 2.608928680419921875 4.3538579940795898438 19.161090850830078125 16.69681549072265625 10.229602813720703125 -9999 11.395967483520507812 25.415264129638671875 9.8530817031860351562 -9999 2.5965473651885986328 7.7454051971435546875 18.261873245239257812 28.210145950317382812 21.895929336547851562 6.3373980522155761719 24.802194595336914062 36.847064971923828125 35.618267059326171875 16.24295806884765625 7.0606312751770019531 8.2213163375854492188 5.7305502891540527344 7.4329247474670410156 7.5943541526794433594 4.2722463607788085938 15.058668136596679688 17.025058746337890625 13.585559844970703125 33.611541748046875 78.168426513671875 85.3126678466796875 77.40259552001953125 71.9587860107421875 89.55326080322265625 95.64702606201171875 97.68453216552734375 98.2377777099609375 97.87564849853515625 89.48401641845703125 56.517238616943359375 62.079071044921875 53.495288848876953125 18.679433822631835938 -9999 5.0572934150695800781 8.7267131805419921875 14.232778549194335938 5.2970752716064453125 4.8906807899475097656 8.4189291000366210938 11.561397552490234375 7.2149572372436523438 2.8638491630554199219 1.8672751188278198242 13.979332923889160156 38.836704254150390625 29.23486328125 29.155590057373046875 25.893754959106445312 21.01792144775390625 10.705576896667480469 12.681390762329101562 7.6941161155700683594 5.5318598747253417969 7.0424413681030273438 3.8273003101348876953 1.4200592041015625 1.1664522886276245117 -9999 -9999 -9999 -9999 -9999 -9999 -9999 -9999 -9999 -9999 -9999 
-9999 -9999 -9999 -9999 -9999 -9999 -9999 2.9935200214385986328 5.2933259010314941406 5.1706070899963378906 3.8826458454132080078 2.5140099525451660156 2.6768233776092529297 2.2001454830169677734 -9999 -9999 -9999 -9999 -9999 -9999 -9999 -9999 2.0261487960815429688 -9999 -9999 -9999 -9999 -9999 -9999 4.0814728736877441406 7.5699110031127929688 4.1428685188293457031 -9999 -9999 2.4822964668273925781 2.1130244731903076172 -9999 -9999 2.8776242733001708984 2.0573105812072753906 3.0369162559509277344 3.7664232254028320312 4.2895221710205078125 10.807019233703613281 38.2759857177734375 46.457424163818359375 24.758287429809570312 10.948377609252929688 9.1775360107421875 29.799776077270507812 28.957773208618164062 9.4490146636962890625 4.58646392822265625 12.939823150634765625 24.879884719848632812 12.09674835205078125 3.6654632091522216797 6.6542387008666992188 3.1102936267852783203 15.173313140869140625 23.292047500610351562 10.295079231262207031 6.4971394538879394531 16.411890029907226562 32.618560791015625 57.20439910888671875 58.44829559326171875 51.645000457763671875 50.463375091552734375 33.246685028076171875 17.02202606201171875 19.493272781372070312 12.44799041748046875 21.877338409423828125 15.464291572570800781 26.156740188598632812 46.1988983154296875 31.606801986694335938 33.2567291259765625 52.55609130859375 86.13454437255859375 95.18251800537109375 95.110809326171875 95.377655029296875 95.75482177734375 95.8794708251953125 95.02721405029296875 63.4480743408203125 23.34587860107421875 10.53607940673828125 6.0626230239868164062 2.8521611690521240234 -9999 14.61733245849609375 26.025655746459960938 15.800789833068847656 3.4793817996978759766 2.5104622840881347656 3.3921523094177246094 4.4647822380065917969 6.9564485549926757812 5.6846146583557128906 8.4976568222045898438 15.900297164916992188 5.8063282966613769531 6.9211297035217285156 6.5619549751281738281 3.9498910903930664062 -9999 -9999 2.1996982097625732422 -9999 2.9920670986175537109 2.06987762451171875 -9999 -9999 -9999 -9999 -9999 -9999 -9999 -9999 -9999 -9999 -9999 -9999 -9999 
-9999 -9999 -9999 -9999 -9999 -9999 -9999 1.9243887662887573242 2.6315226554870605469 3.2940886020660400391 2.7638990879058837891 2.5411860942840576172 1.8982665538787841797 1.3247359991073608398 -9999 -9999 -9999 -9999 -9999 -9999 -9999 1.6993573904037475586 2.1865406036376953125 2.0230350494384765625 1.4372152090072631836 -9999 -9999 -9999 -9999 5.9219326972961425781 20.455867767333984375 22.242511749267578125 9.2736301422119140625 -9999 1.459530949592590332 1.3607909679412841797 2.7952001094818115234 6.2450594902038574219 5.8337969779968261719 2.2730655670166015625 7.1615118980407714844 9.551166534423828125 10.92018890380859375 21.498752593994140625 38.382534027099609375 37.741973876953125 28.495656967163085938 29.394861221313476562 25.427398681640625 36.323070526123046875 33.49501800537109375 25.577398300170898438 15.324871063232421875 11.936126708984375 25.360490798950195312 21.631023406982421875 10.7714996337890625 3.7894177436828613281 4.6046538352966308594 23.7035675048828125 15.035155296325683594 3.8916299343109130859 9.1974515914916992188 11.662416458129882812 33.8611602783203125 73.24875640869140625 75.160858154296875 76.03961181640625 73.7754669189453125 63.036014556884765625 47.244152069091796875 28.171268463134765625 28.190753936767578125 38.89427947998046875 13.695620536804199219 17.873861312866210938 29.812557220458984375 15.025406837463378906 8.479030609130859375 55.16762542724609375 91.0540771484375 92.73259735107421875 92.9971466064453125 95.37790679931640625 96.06982421875 96.4464569091796875 96.33713531494140625 75.941558837890625 18.90518951416015625 4.527721405029296875 7.6760621070861816406 8.0951204299926757812 7.6060442924499511719 14.218007087707519531 14.629080772399902344 15.859898567199707031 6.1900868415832519531 1.9436014890670776367 -9999 1.9094147682189941406 4.354434967041015625 7.0093564987182617188 3.2247486114501953125 3.3170232772827148438 1.9450134038925170898 -9999 -9999 2.5701134204864501953 1.5197402238845825195 -9999 -9999 -9999 -9999 -9999 -9999 -9999 -9999 -9999 -9999 -9999 -9999 -9999 -9999 -9999 -9999 -9999 -9999 
-9999 -9999 -9999 -9999 -9999 -9999 -9999 -9999 1.6828598976135253906 1.8427525758743286133 1.4018430709838867188 1.9655275344848632812 1.6326005458831787109 1.5444154739379882812 -9999 -9999 1.5265978574752807617 -9999 -9999 -9999 -9999 -9999 -9999 -9999 -9999 1.3345803022384643555 -9999 -9999 -9999 10.707643508911132812 43.523807525634765625 48.366741180419921875 22.3306427001953125 6.9247074127197265625 -9999 -9999 2.8953003883361816406 9.7226762771606445312 12.810914993286132812 3.0225856304168701172 3.9871938228607177734 11.944911003112792969 21.599361419677734375 32.744380950927734375 32.606601715087890625 21.629413604736328125 14.693906784057617188 23.99045562744140625 25.568210601806640625 34.136699676513671875 26.795976638793945312 23.893320083618164062 9.5244846343994140625 13.030373573303222656 25.521070480346679688 30.866174697875976562 18.93149566650390625 -9999 7.9111194610595703125 10.686235427856445312 4.721527099609375 3.8829121589660644531 11.997762680053710938 7.6444530487060546875 27.431665420532226562 78.864044189453125 88.03810882568359375 87.01010894775390625 82.929412841796875 75.5655059814453125 39.1181182861328125 12.648901939392089844 28.153858184814453125 23.479328155517578125 10.013944625854492188 8.26987457275390625 7.6759052276611328125 6.3373365402221679688 9.6891021728515625 53.0640411376953125 88.770294189453125 92.833404541015625 93.262664794921875 94.75798797607421875 95.52040863037109375 89.54821014404296875 86.3500518798828125 86.895599365234375 57.58829498291015625 35.5988922119140625 29.409290313720703125 22.22320556640625 17.838254928588867188 19.053804397583007812 12.964701652526855469 14.880426406860351562 13.720410346984863281 4.2312231063842773438 -9999 -9999 2.3740699291229248047 2.3782689571380615234 2.1832289695739746094 2.3790946006774902344 1.6382366418838500977 -9999 2.5660107135772705078 6.8310546875 2.6581060886383056641 -9999 -9999 -9999 -9999 -9999 -9999 -9999 -9999 -9999 -9999 -9999 -9999 -9999 -9999 -9999 -9999 -9999 -9999 
-9999 -9999 -9999 -9999 -9999 -9999 -9999 -9999 -9999 -9999 -9999 -9999 -9999 -9999 -9999 -9999 -9999 -9999 -9999 -9999 -9999 -9999 -9999 -9999 -9999 -9999 -9999 -9999 2.9802694320678710938 13.03791046142578125 45.94976043701171875 58.521297454833984375 47.43387603759765625 38.114154815673828125 10.850914955139160156 2.1760935783386230469 -9999 4.7001862525939941406 9.514171600341796875 3.5121371746063232422 2.3486046791076660156 7.1712665557861328125 12.965963363647460938 14.819811820983886719 24.956150054931640625 19.921644210815429688 11.978634834289550781 14.967655181884765625 17.506521224975585938 10.356232643127441406 10.712498664855957031 12.707609176635742188 2.9528141021728515625 7.9801440238952636719 20.428022384643554688 22.032075881958007812 23.227685928344726562 8.9881906509399414062 7.72351837158203125 3.7366158962249755859 1.6098570823669433594 4.1412096023559570312 13.199748039245605469 9.0294828414916992188 14.132285118103027344 52.974422454833984375 84.34561920166015625 93.30846405029296875 93.33197021484375 91.48065185546875 79.870758056640625 56.194400787353515625 62.11749267578125 18.040094375610351562 9.8978414535522460938 4.7058324813842773438 2.1605443954467773438 7.6426372528076171875 26.086694717407226562 72.762603759765625 77.3444366455078125 87.4489593505859375 91.87055206298828125 87.00737762451171875 83.15399169921875 79.99730682373046875 85.62928009033203125 88.17555999755859375 85.8670501708984375 84.97545623779296875 68.2563934326171875 56.0361175537109375 59.7747650146484375 57.7405548095703125 44.97772979736328125 20.693601608276367188 14.981227874755859375 7.7190871238708496094 1.8131715059280395508 2.21002197265625 7.3015074729919433594 8.2087602615356445312 2.7180042266845703125 1.6783692836761474609 1.3338209390640258789 -9999 4.3315920829772949219 9.0957269668579101562 2.7549612522125244141 1.895001530647277832 -9999 -9999 -9999 -9999 -9999 -9999 -9999 -9999 -9999 -9999 1.3508920669555664062 -9999 -9999 -9999 -9999 -9999 -9999 
-9999 -9999 -9999 -9999 -9999 -9999 -9999 -9999 -9999 -9999 -9999 -9999 -9999 -9999 -9999 -9999 -9999 -9999 -9999 -9999 -9999 -9999 -9999 -9999 -9999 -9999 -9999 -9999 -9999 4.2522897720336914062 13.181487083435058594 32.202976226806640625 49.687915802001953125 61.6191558837890625 44.17058563232421875 11.256581306457519531 -9999 -9999 2.0051708221435546875 2.6338362693786621094 4.3327736854553222656 5.4705986976623535156 5.1712861061096191406 8.1304264068603515625 9.3219709396362304688 13.365307807922363281 9.3806905746459960938 8.7416744232177734375 13.343226432800292969 38.701534271240234375 40.16361236572265625 14.097579002380371094 -9999 4.3973212242126464844 13.062412261962890625 15.806184768676757812 28.413362503051757812 17.121896743774414062 5.2110457420349121094 1.8071951866149902344 4.2494754791259765625 7.5134725570678710938 21.985094070434570312 39.7633209228515625 30.034986495971679688 24.955213546752929688 61.645313262939453125 90.9583892822265625 93.82901763916015625 94.0798492431640625 90.58403778076171875 90.09180450439453125 73.1190338134765625 14.957821846008300781 3.2136380672454833984 4.4430112838745117188 3.6884377002716064453 9.7667074203491210938 25.92914581298828125 62.85034942626953125 86.1104583740234375 91.91641998291015625 89.80352020263671875 77.68053436279296875 82.48748779296875 89.85327911376953125 87.014495849609375 83.0330352783203125 81.08642578125 81.48784637451171875 74.1229705810546875 60.43239593505859375 48.141719818115234375 36.95592498779296875 26.740114212036132812 15.38100433349609375 12.292206764221191406 7.7584581375122070312 5.5367522239685058594 6.3781676292419433594 17.342966079711914062 10.8709869384765625 2.7572739124298095703 1.444579005241394043 1.1737399101257324219 1.7167915105819702148 5.4632654190063476562 7.2065253257751464844 2.8872065544128417969 2.2629311084747314453 -9999 -9999 -9999 1.6015753746032714844 -9999 -9999 -9999 -9999 -9999 -9999 -9999 -9999 -9999 -9999 -9999 -9999 -9999 
1.9322960376739501953 -9999 -9999 -9999 -9999 -9999 -9999 -9999 -9999 -9999 -9999 -9999 -9999 -9999 -9999 -9999 -9999 -9999 -9999 -9999 -9999 -9999 -9999 -9999 -9999 -9999 -9999 -9999 -9999 -9999 1.9844835996627807617 11.772104263305664062 28.839857101440429688 46.762165069580078125 56.378498077392578125 27.877889633178710938 13.812422752380371094 4.8199796676635742188 -9999 1.4254069328308105469 -9999 -9999 -9999 5.5324206352233886719 9.5713109970092773438 14.2726593017578125 19.475561141967773438 32.228199005126953125 58.2044830322265625 82.573028564453125 54.319225311279296875 16.602214813232421875 15.786248207092285156 11.393185615539550781 7.9386768341064453125 11.370013236999511719 10.444737434387207031 7.1040182113647460938 -9999 2.0951800346374511719 4.713367462158203125 14.385845184326171875 40.267108917236328125 39.650089263916015625 47.824443817138671875 49.47686767578125 66.55150604248046875 90.40906524658203125 94.48987579345703125 91.257232666015625 79.8908843994140625 90.238922119140625 71.303497314453125 22.75843048095703125 11.090929031372070312 16.57491302490234375 16.113840103149414062 30.019817352294921875 62.073017120361328125 88.8565521240234375 88.4428863525390625 78.74301910400390625 75.44887542724609375 82.544403076171875 92.13042449951171875 86.615936279296875 77.95346832275390625 68.9394683837890625 55.62030792236328125 60.288299560546875 70.16046142578125 48.51439666748046875 12.130179405212402344 4.9930868148803710938 3.5118052959442138672 2.3704245090484619141 7.0103406906127929688 5.9680829048156738281 8.417789459228515625 14.7898406982421875 15.262719154357910156 7.3639345169067382812 6.1574549674987792969 2.4242620468139648438 -9999 1.8586620092391967773 3.7698996067047119141 2.7930884361267089844 1.4199453592300415039 1.7556594610214233398 1.3293017148971557617 -9999 -9999 1.6697719097137451172 -9999 -9999 -9999 -9999 -9999 -9999 -9999 -9999 -9999 -9999 -9999 -9999 -9999 
-9999 -9999 -9999 -9999 -9999 -9999 -9999 -9999 -9999 -9999 -9999 -9999 -9999 -9999 -9999 -9999 -9999 -9999 -9999 -9999 -9999 -9999 -9999 1.0246744155883789062 -9999 1.8062118291854858398 -9999 -9999 -9999 -9999 -9999 10.134235382080078125 21.83917236328125 28.759523391723632812 55.9194488525390625 47.384532928466796875 40.568233489990234375 13.155537605285644531 1.3396917581558227539 -9999 -9999 1.8736766576766967773 2.5474255084991455078 7.0612821578979492188 6.3057160377502441406 4.1342263221740722656 7.4385066032409667969 33.30303192138671875 82.51139068603515625 91.31717681884765625 67.64665985107421875 43.6529693603515625 39.244899749755859375 19.347507476806640625 5.2932891845703125 8.0169229507446289062 3.8897533416748046875 3.4864568710327148438 -9999 -9999 -9999 11.472326278686523438 27.41269683837890625 16.597314834594726562 22.099531173706054688 41.963863372802734375 69.83896636962890625 90.74871826171875 95.43328094482421875 93.0270233154296875 94.0120391845703125 89.9530029296875 68.066070556640625 39.700763702392578125 14.018860816955566406 12.35944366455078125 24.09836578369140625 59.268650054931640625 84.43829345703125 93.45177459716796875 86.9869384765625 68.27809906005859375 82.8271026611328125 88.62458038330078125 85.93885040283203125 78.864471435546875 70.4432220458984375 42.050548553466796875 13.643132209777832031 30.5689849853515625 63.37064361572265625 59.47891998291015625 21.90196990966796875 3.6652021408081054688 -9999 1.3952971696853637695 2.9889366626739501953 2.7690088748931884766 4.4909806251525878906 11.236509323120117188 10.51461029052734375 9.092456817626953125 8.6515245437622070312 4.1690587997436523438 -9999 1.3163429498672485352 1.5728287696838378906 2.5383288860321044922 1.414402008056640625 1.5309495925903320312 -9999 -9999 -9999 1.8501383066177368164 -9999 -9999 -9999 -9999 -9999 -9999 -9999 -9999 -9999 -9999 -9999 -9999 -9999 
1.3531447649002075195 -9999 -9999 -9999 -9999 -9999 -9999 -9999 -9999 -9999 -9999 -9999 -9999 -9999 -9999 -9999 1.9339206218719482422 -9999 -9999 -9999 -9999 -9999 -9999 -9999 -9999 -9999 -9999 -9999 -9999 -9999 -9999 7.8256478309631347656 9.93273162841796875 9.1076755523681640625 41.64437103271484375 71.92395782470703125 67.69701385498046875 26.109264373779296875 5.7662615776062011719 -9999 1.6208431720733642578 1.6885408163070678711 1.9665009975433349609 3.7117245197296142578 4.4010386466979980469 2.8528046607971191406 6.3808207511901855469 27.729425430297851562 61.20148468017578125 62.848636627197265625 44.500728607177734375 22.48772430419921875 15.779550552368164062 5.2381839752197265625 3.2859911918640136719 2.2026364803314208984 -9999 1.6288018226623535156 3.6495561599731445312 2.5530645847320556641 3.9117424488067626953 5.1778006553649902344 10.147448539733886719 12.315411567687988281 19.679567337036132812 36.496120452880859375 76.794647216796875 93.02503204345703125 94.53600311279296875 92.26874542236328125 93.26145172119140625 81.086700439453125 39.38227081298828125 15.217419624328613281 3.4986577033996582031 3.7817354202270507812 30.605665206909179688 63.641021728515625 83.15975189208984375 93.01816558837890625 81.57293701171875 74.44335174560546875 82.794189453125 79.13080596923828125 65.16681671142578125 65.93843841552734375 48.818920135498046875 13.838030815124511719 -9999 16.546236038208007812 45.524982452392578125 49.69795989990234375 40.42020416259765625 13.257253646850585938 4.9882102012634277344 -9999 -9999 -9999 2.6399455070495605469 7.0017437934875488281 10.469586372375488281 11.008840560913085938 9.499053955078125 3.0611603260040283203 2.74236297607421875 2.1504294872283935547 1.7344422340393066406 1.7679742574691772461 -9999 1.70086669921875 -9999 -9999 -9999 -9999 -9999 -9999 -9999 -9999 -9999 -9999 -9999 -9999 -9999 -9999 -9999 -9999 -9999 
-9999 -9999 -9999 -9999 -9999 -9999 -9999 -9999 -9999 -9999 -9999 -9999 -9999 -9999 -9999 -9999 -9999 -9999 -9999 -9999 -9999 -9999 -9999 -9999 -9999 -9999 -9999 -9999 -9999 -9999 -9999 -9999 2.6883616447448730469 6.2308363914489746094 41.118900299072265625 61.499683380126953125 60.33080291748046875 38.0536651611328125 18.770235061645507812 10.83470916748046875 2.6539404392242431641 -9999 1.9661997556686401367 -9999 -9999 -9999 5.1400957107543945312 9.7798633575439453125 24.004781723022460938 19.54430389404296875 9.5789165496826171875 3.7093443870544433594 3.1802425384521484375 4.9389805793762207031 3.8513917922973632812 1.4178745746612548828 -9999 3.404266357421875 4.9273419380187988281 3.5441768169403076172 5.3666911125183105469 -9999 3.1209971904754638672 10.983635902404785156 20.11270904541015625 31.918193817138671875 75.0220794677734375 90.07770538330078125 94.33678436279296875 90.29155731201171875 83.37396240234375 61.955440521240234375 22.0687713623046875 5.98429107666015625 2.7407238483428955078 4.617153167724609375 25.732088088989257812 58.28136444091796875 84.39325714111328125 84.43473052978515625 70.19882965087890625 77.58647918701171875 75.645355224609375 64.40254974365234375 44.690860748291015625 27.794023513793945312 12.814744949340820312 2.7075610160827636719 12.469580650329589844 24.278118133544921875 32.591655731201171875 38.556171417236328125 25.938404083251953125 9.3948612213134765625 2.2794666290283203125 1.1315964460372924805 -9999 3.4433219432830810547 2.4458029270172119141 5.4066972732543945312 9.8839025497436523438 10.452546119689941406 7.5406870841979980469 7.477771759033203125 4.441593170166015625 3.9894368648529052734 2.4789581298828125 -9999 -9999 1.332213282585144043 -9999 -9999 -9999 -9999 -9999 -9999 -9999 -9999 -9999 -9999 -9999 -9999 -9999 -9999 -9999 -9999 -9999 
-9999 -9999 -9999 -9999 -9999 -9999 -9999 -9999 -9999 -9999 -9999 -9999 -9999 -9999 -9999 -9999 -9999 -9999 -9999 -9999 -9999 -9999 -9999 -9999 -9999 -9999 -9999 -9999 3.1067178249359130859 3.0766248703002929688 -9999 -9999 2.4721672534942626953 5.5398535728454589844 24.944623947143554688 28.092550277709960938 35.519229888916015625 36.41049957275390625 19.983823776245117188 7.8098211288452148438 2.8031468391418457031 2.0847840309143066406 3.2724902629852294922 6.4800534248352050781 3.7193400859832763672 2.3515717983245849609 6.8800268173217773438 7.871540069580078125 19.93050384521484375 10.205288887023925781 5.3331713676452636719 5.2235584259033203125 2.5617363452911376953 4.6009473800659179688 2.4735267162322998047 -9999 1.9971485137939453125 2.7423100471496582031 3.1097359657287597656 5.5437154769897460938 3.3090474605560302734 2.3960759639739990234 -9999 5.578983306884765625 11.817727088928222656 20.318462371826171875 39.730808258056640625 53.35028839111328125 88.2191162109375 91.73252105712890625 73.99634552001953125 31.715770721435546875 7.8057098388671875 4.4221348762512207031 12.154726028442382812 12.423223495483398438 21.584514617919921875 48.853794097900390625 72.7599334716796875 61.475269317626953125 44.50257110595703125 53.6137237548828125 59.07416534423828125 29.892255783081054688 10.220189094543457031 3.2233045101165771484 6.0643868446350097656 19.054021835327148438 37.095947265625 56.07442474365234375 41.282245635986328125 26.217571258544921875 7.453586578369140625 2.1630280017852783203 1.3539104461669921875 1.4319437742233276367 -9999 -9999 1.6590734720230102539 2.7041473388671875 7.3173890113830566406 9.8989315032958984375 4.2294354438781738281 6.2317910194396972656 4.3688745498657226562 2.7034006118774414062 2.6661670207977294922 3.6380906105041503906 7.6168241500854492188 -9999 -9999 -9999 -9999 -9999 -9999 -9999 -9999 -9999 -9999 -9999 -9999 -9999 -9999 -9999 -9999 -9999 -9999 
-9999 -9999 -9999 -9999 -9999 -9999 -9999 -9999 -9999 -9999 -9999 -9999 -9999 -9999 -9999 -9999 -9999 -9999 -9999 -9999 -9999 -9999 -9999 -9999 -9999 -9999 -9999 -9999 6.4271597862243652344 5.4601302146911621094 -9999 -9999 2.8691427707672119141 4.4410109519958496094 9.2158689498901367188 8.433872222900390625 13.908685684204101562 20.188144683837890625 12.804500579833984375 4.9114446640014648438 2.6797325611114501953 6.0129294395446777344 12.147531509399414062 13.202301979064941406 13.055178642272949219 9.7530231475830078125 4.0171422958374023438 3.0681626796722412109 3.6092321872711181641 2.3603270053863525391 5.7145733833312988281 5.22818756103515625 1.6876753568649291992 -9999 -9999 3.1905720233917236328 5.1205167770385742188 8.279296875 7.5940089225769042969 3.0670855045318603516 1.6166318655014038086 2.0793602466583251953 -9999 5.1728014945983886719 9.493389129638671875 12.906007766723632812 24.171224594116210938 51.324504852294921875 79.8345184326171875 86.1904449462890625 66.14031982421875 34.834171295166015625 6.8517346382141113281 4.9185380935668945312 10.760420799255371094 11.655941009521484375 21.484661102294921875 47.12470245361328125 42.2242584228515625 23.178018569946289062 10.804591178894042969 22.475446701049804688 33.482334136962890625 19.25417327880859375 5.583526611328125 8.945186614990234375 33.03255462646484375 55.96088409423828125 58.055881500244140625 54.807216644287109375 34.01145172119140625 8.9866228103637695312 2.0021698474884033203 1.8153666257858276367 1.9531744718551635742 2.0609924793243408203 1.8855615854263305664 -9999 2.8626585006713867188 2.6336138248443603516 3.4710414409637451172 10.853173255920410156 5.5646014213562011719 -9999 2.1164631843566894531 1.7142412662506103516 3.5581438541412353516 2.8365395069122314453 1.3868060111999511719 2.0856082439422607422 -9999 -9999 -9999 -9999 -9999 -9999 -9999 -9999 -9999 -9999 -9999 -9999 -9999 -9999 -9999 -9999 -9999 
-9999 -9999 -9999 -9999 -9999 -9999 -9999 -9999 -9999 -9999 -9999 -9999 -9999 -9999 -9999 -9999 -9999 -9999 -9999 1.6488406658172607422 -9999 -9999 -9999 -9999 -9999 -9999 -9999 -9999 3.8161785602569580078 4.4277529716491699219 -9999 1.8571736812591552734 1.596190333366394043 2.2803285121917724609 1.882541656494140625 2.7266178131103515625 11.051011085510253906 15.539651870727539062 7.7114262580871582031 4.4385366439819335938 1.9979097843170166016 4.456409454345703125 12.536708831787109375 18.945264816284179688 17.505414962768554688 16.336351394653320312 5.7893514633178710938 -9999 -9999 -9999 -9999 -9999 -9999 5.1687688827514648438 5.2347412109375 6.2924757003784179688 4.4682602882385253906 8.8524103164672851562 6.9053220748901367188 2.4857287406921386719 1.3941551446914672852 2.1124613285064697266 7.2989087104797363281 5.8938632011413574219 3.3246808052062988281 3.6696071624755859375 9.3786563873291015625 40.363826751708984375 69.79512786865234375 69.95749664306640625 34.266071319580078125 18.043117523193359375 8.0824489593505859375 11.577288627624511719 9.1246814727783203125 6.6616501808166503906 18.498411178588867188 22.465158462524414062 9.2187957763671875 2.9720520973205566406 2.2672326564788818359 12.912619590759277344 27.471857070922851562 30.7773895263671875 18.510677337646484375 27.87636566162109375 42.15044403076171875 58.105648040771484375 65.23326873779296875 29.351263046264648438 10.273897171020507812 1.9408867359161376953 1.7661687135696411133 2.1488397121429443359 1.5135521888732910156 1.5519869327545166016 2.5646901130676269531 1.6071573495864868164 3.0366873741149902344 2.8885135650634765625 2.2847113609313964844 6.34020233154296875 6.2084636688232421875 2.1624598503112792969 2.7889585494995117188 3.2275152206420898438 2.9573197364807128906 1.5214197635650634766 1.2131768465042114258 -9999 -9999 -9999 -9999 -9999 -9999 -9999 -9999 -9999 -9999 -9999 -9999 -9999 -9999 -9999 -9999 -9999 -9999 
-9999 -9999 -9999 -9999 -9999 -9999 -9999 -9999 -9999 -9999 -9999 -9999 -9999 -9999 -9999 -9999 -9999 -9999 -9999 -9999 -9999 -9999 -9999 -9999 -9999 -9999 -9999 -9999 -9999 -9999 -9999 -9999 -9999 -9999 -9999 1.9205056428909301758 5.8123002052307128906 8.4509563446044921875 6.6769280433654785156 4.2810192108154296875 1.9434059858322143555 -9999 5.4563078880310058594 7.4275240898132324219 5.7021617889404296875 7.1766943931579589844 3.4443345069885253906 -9999 -9999 -9999 -9999 1.6129537820816040039 2.6192953586578369141 5.7640542984008789062 5.0314769744873046875 3.0818614959716796875 1.6974325180053710938 2.5015869140625 2.6783921718597412109 1.9924743175506591797 1.3513571023941040039 -9999 2.9550766944885253906 2.6530971527099609375 1.6019462347030639648 -9999 2.8220732212066650391 21.908540725708007812 55.389141082763671875 58.49983978271484375 20.749128341674804688 12.503531455993652344 12.173883438110351562 8.8079090118408203125 3.3121705055236816406 4.8013010025024414062 12.276959419250488281 8.1433963775634765625 4.9075651168823242188 3.8336009979248046875 1.4302814006805419922 1.9303927421569824219 11.568158149719238281 19.185205459594726562 28.781511306762695312 54.92501068115234375 51.947521209716796875 51.673404693603515625 40.89226531982421875 10.396881103515625 2.1001443862915039062 1.7577587366104125977 2.4091527462005615234 3.0327284336090087891 3.418609619140625 -9999 3.663852691650390625 4.2467827796936035156 4.2090430259704589844 3.6812448501586914062 1.8425239324569702148 -9999 2.9157049655914306641 5.7493314743041992188 9.5936632156372070312 9.5426988601684570312 3.8060245513916015625 -9999 2.0547497272491455078 -9999 -9999 -9999 -9999 -9999 -9999 -9999 -9999 -9999 -9999 -9999 -9999 -9999 -9999 -9999 -9999 -9999 -9999 
-9999 -9999 -9999 -9999 -9999 -9999 -9999 -9999 -9999 -9999 -9999 -9999 -9999 -9999 -9999 -9999 -9999 -9999 -9999 -9999 -9999 -9999 -9999 -9999 -9999 -9999 -9999 -9999 -9999 -9999 -9999 -9999 -9999 -9999 -9999 -9999 2.2371778488159179688 3.6262845993041992188 6.0296716690063476562 3.2118191719055175781 -9999 -9999 -9999 -9999 -9999 -9999 -9999 -9999 -9999 -9999 -9999 -9999 1.5693910121917724609 2.4367482662200927734 2.1615531444549560547 -9999 -9999 1.5767107009887695312 2.0552899837493896484 1.8356462717056274414 1.7610901594161987305 -9999 -9999 -9999 -9999 1.2626655101776123047 2.2483735084533691406 15.68651580810546875 33.709209442138671875 20.227746963500976562 7.9478893280029296875 9.9898252487182617188 6.1073045730590820312 2.4978179931640625 1.4283014535903930664 3.0578732490539550781 3.9279401302337646484 2.3281736373901367188 2.7967767715454101562 3.235107421875 1.7787373065948486328 -9999 6.8616986274719238281 13.720266342163085938 31.3380584716796875 47.342388153076171875 45.267642974853515625 34.759738922119140625 8.6712579727172851562 2.5188782215118408203 2.4672863483428955078 -9999 4.2524418830871582031 -9999 3.6217844486236572266 2.2842071056365966797 5.0401244163513183594 9.48455810546875 9.6005916595458984375 10.448124885559082031 7.6531982421875 5.3663740158081054688 8.3537263870239257812 15.700076103210449219 11.854433059692382812 8.9818353652954101562 6.0714812278747558594 2.4648289680480957031 -9999 -9999 -9999 1.7340091466903686523 1.7020192146301269531 -9999 -9999 -9999 -9999 -9999 1.0382673740386962891 -9999 -9999 -9999 -9999 -9999 -9999 -9999 -9999 
-9999 -9999 -9999 -9999 -9999 -9999 -9999 -9999 -9999 -9999 -9999 -9999 -9999 -9999 -9999 -9999 -9999 -9999 -9999 -9999 -9999 -9999 -9999 -9999 -9999 -9999 -9999 -9999 -9999 -9999 1.6352405548095703125 -9999 -9999 -9999 -9999 -9999 -9999 2.0317413806915283203 3.306407928466796875 2.117359161376953125 -9999 -9999 -9999 -9999 -9999 -9999 -9999 -9999 -9999 -9999 -9999 -9999 -9999 1.8627305030822753906 -9999 -9999 -9999 -9999 -9999 -9999 -9999 1.7636485099792480469 1.5233188867568969727 1.6345994472503662109 1.4674847126007080078 -9999 2.5594375133514404297 6.0180163383483886719 5.4259290695190429688 2.8562567234039306641 4.5370845794677734375 4.702239990234375 2.0941877365112304688 1.2628747224807739258 2.0194427967071533203 4.5815224647521972656 6.8947234153747558594 4.194980621337890625 2.6720521450042724609 -9999 -9999 1.3522804975509643555 2.4684386253356933594 5.9874176979064941406 6.6885514259338378906 10.027618408203125 7.8379335403442382812 5.3359551429748535156 2.9085574150085449219 2.6528477668762207031 2.8117933273315429688 -9999 4.3649992942810058594 3.628925323486328125 3.5609316825866699219 3.1448163986206054688 5.4448757171630859375 9.9656810760498046875 10.576184272766113281 12.739525794982910156 12.796849250793457031 20.245075225830078125 22.017122268676757812 20.092191696166992188 11.081583023071289062 4.6104168891906738281 2.1901450157165527344 1.8813451528549194336 -9999 1.4009467363357543945 -9999 -9999 -9999 -9999 -9999 -9999 -9999 -9999 -9999 -9999 -9999 -9999 -9999 -9999 -9999 -9999 -9999 
-9999 -9999 -9999 -9999 -9999 -9999 -9999 -9999 -9999 -9999 -9999 -9999 -9999 -9999 -9999 -9999 -9999 -9999 -9999 -9999 -9999 -9999 -9999 -9999 -9999 -9999 -9999 -9999 -9999 -9999 -9999 -9999 -9999 -9999 -9999 -9999 -9999 -9999 -9999 -9999 -9999 -9999 -9999 -9999 -9999 -9999 -9999 -9999 -9999 -9999 -9999 -9999 -9999 -9999 -9999 -9999 -9999 -9999 -9999 -9999 -9999 1.6371290683746337891 1.5275186300277709961 1.951632380485534668 3.5589752197265625 -9999 1.7709075212478637695 4.6869025230407714844 16.44086456298828125 19.368785858154296875 22.455278396606445312 18.331838607788085938 6.020542144775390625 -9999 2.8881132602691650391 9.7374401092529296875 16.625301361083984375 7.2559876441955566406 -9999 -9999 1.7365494966506958008 1.6337554454803466797 6.0063810348510742188 21.400869369506835938 20.254503250122070312 10.702961921691894531 7.1515865325927734375 3.9174826145172119141 4.9305663108825683594 5.5482907295227050781 4.3866567611694335938 1.7135808467864990234 3.2012183666229248047 2.6514267921447753906 2.8898630142211914062 4.2962393760681152344 5.8033452033996582031 8.3155603408813476562 14.836297035217285156 13.410259246826171875 10.540289878845214844 13.665750503540039062 10.375518798828125 4.1279816627502441406 3.3989655971527099609 6.7460947036743164062 5.0800976753234863281 2.9903852939605712891 1.9584347009658813477 1.7349798679351806641 -9999 -9999 -9999 -9999 1.2352766990661621094 1.5915657281875610352 -9999 -9999 -9999 -9999 -9999 -9999 -9999 -9999 -9999 -9999 -9999 
-9999 -9999 -9999 -9999 -9999 -9999 -9999 -9999 -9999 -9999 -9999 -9999 -9999 -9999 -9999 -9999 -9999 -9999 -9999 -9999 -9999 -9999 -9999 -9999 -9999 -9999 -9999 -9999 -9999 -9999 -9999 -9999 -9999 -9999 -9999 -9999 -9999 -9999 -9999 -9999 -9999 -9999 -9999 -9999 -9999 -9999 -9999 -9999 -9999 -9999 -9999 -9999 -9999 -9999 -9999 -9999 1.3252062797546386719 -9999 -9999 -9999 -9999 1.6456719636917114258 2.6619110107421875 2.4939494132995605469 5.596897125244140625 -9999 -9999 3.9260051250457763672 12.072824478149414062 27.709417343139648438 32.4694976806640625 28.019556045532226562 10.154625892639160156 1.8491809368133544922 3.9330914020538330078 5.9333233833312988281 7.5454726219177246094 4.1187052726745605469 -9999 2.0056788921356201172 2.1837520599365234375 -9999 20.542093276977539062 50.2475738525390625 53.43407440185546875 33.16728973388671875 9.4394197463989257812 3.9768157005310058594 7.6168236732482910156 5.7608485221862792969 5.2418398857116699219 3.1077973842620849609 2.8965804576873779297 3.0817666053771972656 3.2705583572387695312 1.9024163484573364258 5.120960235595703125 4.8818235397338867188 8.8634548187255859375 13.987798690795898438 14.397055625915527344 14.37441253662109375 9.9928455352783203125 1.850812077522277832 1.7710776329040527344 6.4310383796691894531 13.035291671752929688 13.977299690246582031 6.3980708122253417969 2.3493506908416748047 1.8955681324005126953 -9999 -9999 -9999 1.6648579835891723633 2.2999887466430664062 1.7294359207153320312 -9999 -9999 -9999 -9999 1.3343404531478881836 -9999 -9999 -9999 -9999 -9999 
-9999 -9999 -9999 -9999 -9999 -9999 -9999 -9999 -9999 -9999 -9999 -9999 -9999 -9999 -9999 -9999 -9999 -9999 -9999 -9999 -9999 -9999 -9999 -9999 -9999 -9999 -9999 -9999 -9999 -9999 -9999 2.7588565349578857422 -9999 -9999 -9999 -9999 -9999 -9999 -9999 -9999 -9999 -9999 -9999 -9999 -9999 -9999 -9999 -9999 -9999 -9999 -9999 -9999 -9999 -9999 -9999 -9999 -9999 -9999 -9999 -9999 -9999 -9999 -9999 -9999 3.4557018280029296875 4.8937468528747558594 -9999 -9999 2.6288282871246337891 9.392467498779296875 15.925419807434082031 14.462900161743164062 -9999 3.0389249324798583984 8.3958635330200195312 6.0233511924743652344 3.2195005416870117188 -9999 2.2840642929077148438 2.4517366886138916016 2.7418794631958007812 3.0344965457916259766 14.704771995544433594 36.4196624755859375 43.211460113525390625 36.37908172607421875 12.414338111877441406 8.271884918212890625 13.194383621215820312 5.7182478904724121094 2.6369504928588867188 4.7942686080932617188 5.0554943084716796875 4.2733049392700195312 3.2930541038513183594 2.1731445789337158203 5.0646228790283203125 4.5128931999206542969 5.1345310211181640625 7.1148791313171386719 14.83315277099609375 15.804674148559570312 9.8488864898681640625 6.5121665000915527344 6.8492827415466308594 6.9109058380126953125 14.275761604309082031 18.192073822021484375 12.625803947448730469 4.5764975547790527344 4.1188874244689941406 3.3986122608184814453 2.2439627647399902344 2.3513484001159667969 1.5366274118423461914 1.5526678562164306641 1.4872915744781494141 2.2793805599212646484 1.7084625959396362305 -9999 1.6147185564041137695 2.0860300064086914062 -9999 -9999 -9999 1.5981725454330444336 1.4693259000778198242 
-9999 -9999 -9999 -9999 -9999 -9999 -9999 -9999 -9999 -9999 -9999 -9999 -9999 -9999 -9999 -9999 -9999 -9999 -9999 -9999 -9999 -9999 -9999 -9999 -9999 -9999 -9999 -9999 -9999 -9999 -9999 3.4779658317565917969 -9999 -9999 -9999 -9999 -9999 -9999 2.8199944496154785156 -9999 -9999 -9999 -9999 -9999 -9999 -9999 1.7472296953201293945 -9999 -9999 -9999 -9999 -9999 -9999 -9999 -9999 -9999 -9999 -9999 -9999 -9999 -9999 -9999 -9999 -9999 -9999 -9999 5.4646539688110351562 -9999 -9999 4.4958295822143554688 6.6457390785217285156 -9999 -9999 2.4667539596557617188 5.0872926712036132812 3.4910027980804443359 1.5832772254943847656 -9999 -9999 -9999 1.3444086313247680664 8.6443891525268554688 30.03890228271484375 43.277538299560546875 40.52484893798828125 33.47982025146484375 15.208112716674804688 13.431339263916015625 11.477248191833496094 11.274538040161132812 5.4571299552917480469 4.4551744461059570312 4.5180897712707519531 5.8876767158508300781 4.3559679985046386719 5.2892966270446777344 5.830074310302734375 3.0555248260498046875 4.629062652587890625 6.4116425514221191406 10.393642425537109375 6.5702700614929199219 4.5283865928649902344 19.821264266967773438 21.859159469604492188 10.902254104614257812 11.734284400939941406 12.709171295166015625 8.3945369720458984375 4.4574375152587890625 2.723979949951171875 2.9794125556945800781 3.5124971866607666016 4.7770452499389648438 3.2337126731872558594 4.4602208137512207031 3.1083462238311767578 1.9259990453720092773 1.6303615570068359375 1.7577167749404907227 1.9758667945861816406 2.0269463062286376953 1.2115446329116821289 1.3808221817016601562 1.3927732706069946289 1.7557928562164306641 -9999 
-9999 -9999 -9999 -9999 -9999 -9999 -9999 -9999 -9999 -9999 -9999 -9999 -9999 -9999 -9999 -9999 -9999 -9999 -9999 -9999 -9999 -9999 -9999 -9999 -9999 -9999 -9999 -9999 -9999 -9999 -9999 -9999 4.31383514404296875 -9999 -9999 -9999 -9999 -9999 -9999 -9999 -9999 -9999 -9999 -9999 -9999 -9999 -9999 -9999 -9999 -9999 -9999 -9999 -9999 -9999 -9999 -9999 -9999 -9999 -9999 -9999 -9999 -9999 -9999 1.0225608348846435547 1.0230562686920166016 -9999 6.744232177734375 9.3827686309814453125 4.311985015869140625 3.1430022716522216797 -9999 -9999 -9999 2.7430057525634765625 3.7668535709381103516 2.0883476734161376953 1.4288932085037231445 1.5593281984329223633 -9999 -9999 -9999 8.2983446121215820312 35.623905181884765625 41.91790771484375 35.959079742431640625 36.71160888671875 22.596971511840820312 16.879812240600585938 11.441338539123535156 12.344157218933105469 11.924608230590820312 5.4459948539733886719 2.2745187282562255859 9.0919322967529296875 21.877153396606445312 27.61208343505859375 23.632844924926757812 11.646059036254882812 7.4177961349487304688 7.3009696006774902344 5.351413726806640625 2.7324583530426025391 2.9542994499206542969 13.424253463745117188 11.838263511657714844 6.0881962776184082031 7.2180237770080566406 6.046489715576171875 3.9629142284393310547 4.8496522903442382812 3.5772807598114013672 -9999 -9999 2.2489573955535888672 4.950351715087890625 9.4627447128295898438 6.6107206344604492188 4.9435219764709472656 2.6781151294708251953 2.2527635097503662109 2.8316767215728759766 2.3429813385009765625 -9999 -9999 1.6894422769546508789 -9999 -9999 
-9999 -9999 -9999 -9999 -9999 -9999 -9999 -9999 -9999 -9999 -9999 -9999 -9999 -9999 -9999 -9999 -9999 -9999 -9999 -9999 -9999 -9999 -9999 -9999 -9999 -9999 -9999 -9999 -9999 -9999 -9999 -9999 -9999 1.8649505376815795898 1.6131911277770996094 -9999 -9999 -9999 -9999 -9999 -9999 -9999 -9999 -9999 -9999 -9999 -9999 -9999 -9999 -9999 -9999 -9999 -9999 -9999 -9999 -9999 -9999 -9999 -9999 -9999 -9999 -9999 -9999 -9999 -9999 -9999 -9999 -9999 3.4359903335571289062 2.5066790580749511719 -9999 -9999 -9999 -9999 2.4238653182983398438 2.3082559108734130859 2.4432804584503173828 -9999 -9999 -9999 -9999 5.8431501388549804688 18.749111175537109375 15.916361808776855469 11.445754051208496094 21.126394271850585938 20.045083999633789062 14.313208580017089844 12.111236572265625 14.56342315673828125 10.1962890625 3.9941804409027099609 1.8944423198699951172 11.539606094360351562 32.556072235107421875 44.160457611083984375 35.514957427978515625 19.8952178955078125 20.312519073486328125 19.33098602294921875 5.1452403068542480469 2.7722675800323486328 11.285692214965820312 23.736207962036132812 7.7329616546630859375 1.7160719633102416992 2.9319972991943359375 2.1550304889678955078 -9999 -9999 2.9855160713195800781 4.9557619094848632812 2.22609710693359375 1.9814879894256591797 2.7193827629089355469 4.7708082199096679688 3.4048883914947509766 2.5382413864135742188 3.1013238430023193359 2.3828923702239990234 3.1049964427947998047 2.0074906349182128906 -9999 -9999 -9999 -9999 -9999 
-9999 -9999 -9999 -9999 -9999 -9999 -9999 -9999 -9999 -9999 -9999 -9999 -9999 -9999 -9999 -9999 -9999 -9999 -9999 -9999 -9999 -9999 -9999 -9999 -9999 -9999 -9999 -9999 -9999 -9999 -9999 -9999 -9999 2.7661767005920410156 2.5134580135345458984 -9999 -9999 -9999 -9999 -9999 -9999 -9999 -9999 -9999 -9999 -9999 -9999 -9999 -9999 -9999 -9999 -9999 -9999 -9999 -9999 -9999 -9999 -9999 -9999 -9999 -9999 -9999 -9999 -9999 -9999 -9999 -9999 -9999 -9999 -9999 -9999 -9999 -9999 -9999 -9999 1.9718137979507446289 2.5201761722564697266 2.544116973876953125 2.2527325153350830078 -9999 1.8174779415130615234 4.7430896759033203125 7.49609375 5.0140423774719238281 6.152317047119140625 5.3376679420471191406 11.534783363342285156 12.112386703491210938 11.721036911010742188 8.97891998291015625 2.8442273139953613281 2.6134927272796630859 3.8838202953338623047 19.24254608154296875 40.41957855224609375 50.119937896728515625 47.618122100830078125 27.6879730224609375 28.010137557983398438 26.40277099609375 7.0851874351501464844 16.777105331420898438 35.566074371337890625 37.89432525634765625 13.4942169189453125 2.9959733486175537109 3.7153909206390380859 2.7329304218292236328 -9999 1.6006319522857666016 2.2665605545043945312 4.1159811019897460938 5.2552127838134765625 3.2353775501251220703 4.6477456092834472656 4.7370982170104980469 -9999 1.5938761234283447266 2.2420427799224853516 1.7500194311141967773 2.74212646484375 2.2960023880004882812 -9999 -9999 1.0239129066467285156 -9999 -9999 
-9999 -9999 -9999 -9999 -9999 -9999 -9999 -9999 -9999 -9999 -9999 -9999 -9999 -9999 -9999 -9999 -9999 -9999 -9999 -9999 -9999 -9999 -9999 -9999 -9999 -9999 -9999 -9999 -9999 -9999 -9999 -9999 -9999 1.843021392822265625 3.5420114994049072266 2.2774362564086914062 -9999 -9999 -9999 1.3312788009643554688 -9999 -9999 -9999 -9999 -9999 -9999 -9999 -9999 -9999 -9999 -9999 -9999 -9999 -9999 -9999 -9999 -9999 -9999 -9999 -9999 -9999 -9999 -9999 -9999 -9999 -9999 -9999 -9999 -9999 -9999 -9999 -9999 -9999 2.1303279399871826172 2.820362091064453125 2.1930856704711914062 2.2839896678924560547 2.5919747352600097656 -9999 1.7662649154663085938 1.9338773488998413086 2.8651413917541503906 3.9462795257568359375 3.2908196449279785156 3.6738903522491455078 2.7989468574523925781 2.0978350639343261719 4.2109217643737792969 5.0683279037475585938 1.9294838905334472656 1.2402238845825195312 1.5820019245147705078 5.4030675888061523438 26.239160537719726562 39.8193359375 54.6426849365234375 59.66934967041015625 54.0601959228515625 46.31394195556640625 36.574100494384765625 24.928163528442382812 34.368190765380859375 43.428272247314453125 37.1103363037109375 13.107174873352050781 7.4753842353820800781 4.6534800529479980469 2.6607720851898193359 1.8266960382461547852 1.8365508317947387695 1.5513738393783569336 1.7437974214553833008 5.0205936431884765625 7.4357247352600097656 5.3325123786926269531 5.2719340324401855469 2.4349956512451171875 1.4545804262161254883 1.8029013872146606445 2.0042073726654052734 2.6370942592620849609 4.7225174903869628906 2.0204458236694335938 -9999 -9999 -9999 -9999 
-9999 -9999 -9999 -9999 -9999 -9999 -9999 -9999 -9999 -9999 -9999 -9999 -9999 -9999 -9999 -9999 -9999 -9999 -9999 -9999 -9999 -9999 -9999 -9999 -9999 -9999 -9999 -9999 -9999 -9999 -9999 -9999 -9999 -9999 3.4275045394897460938 4.3079266548156738281 3.0542929172515869141 -9999 -9999 -9999 -9999 -9999 -9999 -9999 -9999 -9999 -9999 -9999 -9999 -9999 -9999 -9999 -9999 -9999 -9999 -9999 -9999 -9999 -9999 -9999 -9999 1.640000462532043457 -9999 -9999 -9999 -9999 -9999 -9999 -9999 -9999 -9999 -9999 -9999 2.0288040637969970703 4.1460242271423339844 4.3626737594604492188 3.0771477222442626953 1.6347500085830688477 1.3989311456680297852 2.4382305145263671875 3.4054028987884521484 2.3662445545196533203 1.907816767692565918 2.2259159088134765625 3.4233000278472900391 3.7808287143707275391 -9999 2.4331455230712890625 1.7289080619812011719 1.2945705652236938477 1.7970503568649291992 3.4799716472625732422 8.4016771316528320312 27.715524673461914062 37.6974945068359375 41.547893524169921875 44.912197113037109375 54.935749053955078125 49.9571990966796875 33.868045806884765625 33.1255035400390625 35.52468109130859375 26.338634490966796875 14.7501983642578125 6.8117518424987792969 8.2191114425659179688 10.035231590270996094 6.2753443717956542969 1.7684508562088012695 -9999 3.0696444511413574219 -9999 2.2622096538543701172 7.1234946250915527344 6.8445982933044433594 4.8103861808776855469 1.9615327119827270508 -9999 2.3103883266448974609 2.8522229194641113281 3.53807830810546875 4.8416500091552734375 2.5713593959808349609 -9999 -9999 -9999 -9999 
-9999 -9999 -9999 -9999 -9999 -9999 -9999 -9999 -9999 -9999 -9999 -9999 -9999 -9999 -9999 -9999 -9999 -9999 -9999 -9999 -9999 -9999 -9999 -9999 -9999 -9999 -9999 -9999 -9999 -9999 -9999 -9999 -9999 -9999 -9999 5.4597821235656738281 4.4264559745788574219 1.3927266597747802734 1.4402252435684204102 1.2491649389266967773 -9999 -9999 -9999 -9999 -9999 -9999 -9999 -9999 -9999 -9999 -9999 -9999 -9999 -9999 -9999 -9999 -9999 -9999 -9999 -9999 -9999 -9999 -9999 -9999 -9999 -9999 -9999 -9999 -9999 -9999 -9999 -9999 -9999 1.5872118473052978516 1.9409078359603881836 2.3260266780853271484 2.7927365303039550781 -9999 1.9194049835205078125 1.9674030542373657227 2.3180513381958007812 2.2377078533172607422 -9999 1.7122442722320556641 5.302490234375 6.0407662391662597656 2.2854449748992919922 -9999 3.9848611354827880859 3.2092218399047851562 1.4044659137725830078 2.6926124095916748047 7.7317862510681152344 14.3502044677734375 22.338825225830078125 22.25041961669921875 26.708404541015625 34.77001953125 25.67533111572265625 24.400560379028320312 33.353023529052734375 31.855024337768554688 28.765106201171875 10.405843734741210938 7.300533294677734375 11.359444618225097656 11.248884201049804688 7.4962658882141113281 2.8037557601928710938 -9999 -9999 -9999 1.4410526752471923828 2.6988854408264160156 4.6653299331665039062 3.7871725559234619141 2.5939505100250244141 2.8959927558898925781 -9999 -9999 -9999 1.8278508186340332031 2.1267824172973632812 3.3783144950866699219 -9999 -9999 -9999 
-9999 -9999 -9999 -9999 -9999 -9999 -9999 -9999 -9999 -9999 -9999 -9999 -9999 -9999 -9999 -9999 -9999 -9999 -9999 -9999 -9999 -9999 -9999 -9999 -9999 -9999 -9999 -9999 -9999 -9999 -9999 -9999 -9999 -9999 3.4278709888458251953 2.3627142906188964844 2.4389183521270751953 2.1779432296752929688 1.7167240381240844727 1.4042218923568725586 -9999 -9999 -9999 -9999 -9999 -9999 -9999 -9999 -9999 -9999 -9999 -9999 -9999 -9999 -9999 -9999 -9999 -9999 -9999 -9999 -9999 -9999 -9999 -9999 -9999 -9999 -9999 -9999 -9999 -9999 -9999 -9999 -9999 2.1060025691986083984 -9999 -9999 -9999 -9999 2.0223104953765869141 3.0449109077453613281 2.0346312522888183594 -9999 -9999 2.0489587783813476562 4.6081175804138183594 4.5011200904846191406 3.7861735820770263672 5.3849596977233886719 3.5863115787506103516 2.6995556354522705078 2.1221959590911865234 2.8632178306579589844 5.6393713951110839844 9.319393157958984375 13.391015052795410156 13.254940032958984375 9.5795469284057617188 17.819746017456054688 22.157316207885742188 15.366521835327148438 13.027042388916015625 10.178644180297851562 10.227179527282714844 5.9238648414611816406 3.511810302734375 3.2233989238739013672 4.27890777587890625 5.1931891441345214844 3.67580413818359375 2.0852155685424804688 1.6188004016876220703 1.5785205364227294922 1.5211597681045532227 1.3612562417984008789 -9999 4.0030612945556640625 6.5401415824890136719 6.848064422607421875 -9999 -9999 -9999 1.9401268959045410156 -9999 -9999 -9999 -9999 -9999 
-9999 -9999 -9999 -9999 -9999 -9999 -9999 -9999 -9999 -9999 -9999 -9999 -9999 -9999 -9999 -9999 -9999 -9999 -9999 -9999 -9999 -9999 -9999 -9999 -9999 -9999 -9999 -9999 -9999 -9999 -9999 -9999 -9999 -9999 1.7604957818984985352 -9999 1.8277298212051391602 2.7293276786804199219 2.6548824310302734375 -9999 1.8114594221115112305 -9999 -9999 -9999 -9999 -9999 -9999 -9999 -9999 -9999 -9999 -9999 -9999 -9999 -9999 -9999 -9999 -9999 -9999 -9999 -9999 -9999 -9999 -9999 -9999 -9999 -9999 -9999 -9999 -9999 -9999 -9999 -9999 -9999 -9999 -9999 -9999 -9999 2.1458957195281982422 4.1422100067138671875 2.8523242473602294922 -9999 -9999 -9999 2.51689910888671875 1.9969656467437744141 6.6943278312683105469 20.3826446533203125 17.7059326171875 12.208950042724609375 6.4611558914184570312 5.8867363929748535156 6.1154413223266601562 10.413020133972167969 6.0806612968444824219 15.251864433288574219 19.791675567626953125 25.1934661865234375 12.527096748352050781 2.2743380069732666016 1.8842986822128295898 2.1499385833740234375 1.6531252861022949219 5.0105328559875488281 9.51047515869140625 8.2273464202880859375 10.253743171691894531 9.8862848281860351562 3.4679241180419921875 2.67777252197265625 -9999 3.8842759132385253906 -9999 3.4288132190704345703 3.7696962356567382812 6.3803997039794921875 12.706767082214355469 11.65496826171875 -9999 2.3157565593719482422 -9999 -9999 -9999 -9999 -9999 -9999 -9999 
-9999 -9999 -9999 -9999 -9999 -9999 -9999 -9999 -9999 -9999 -9999 -9999 -9999 -9999 -9999 -9999 -9999 -9999 -9999 -9999 -9999 -9999 -9999 -9999 -9999 -9999 -9999 -9999 -9999 -9999 -9999 -9999 -9999 -9999 -9999 -9999 -9999 -9999 2.8027713298797607422 -9999 -9999 1.2686350345611572266 -9999 2.2223834991455078125 1.9978193044662475586 -9999 -9999 -9999 -9999 -9999 -9999 -9999 -9999 -9999 -9999 -9999 -9999 -9999 -9999 -9999 1.5457198619842529297 -9999 -9999 -9999 -9999 -9999 -9999 -9999 -9999 -9999 1.2206058502197265625 -9999 -9999 -9999 -9999 -9999 -9999 -9999 -9999 2.2813637256622314453 2.2087104320526123047 -9999 -9999 -9999 2.5698583126068115234 4.2641229629516601562 15.782082557678222656 24.767246246337890625 23.684419631958007812 16.458593368530273438 11.518321990966796875 17.368745803833007812 18.796230316162109375 15.631315231323242188 16.952789306640625 36.2060089111328125 37.073154449462890625 18.0798492431640625 3.9441559314727783203 2.3672549724578857422 3.1227476596832275391 4.4719166755676269531 3.5877449512481689453 11.307011604309082031 22.017255783081054688 20.506353378295898438 12.823667526245117188 7.5166277885437011719 2.6081326007843017578 -9999 5.7811064720153808594 10.842629432678222656 10.055520057678222656 6.6586790084838867188 7.9147596359252929688 10.312041282653808594 16.481626510620117188 9.6198034286499023438 1.8812510967254638672 1.845763087272644043 2.07354736328125 2.2090718746185302734 -9999 3.3924572467803955078 -9999 -9999 -9999 
-9999 -9999 -9999 -9999 -9999 -9999 -9999 -9999 -9999 -9999 -9999 -9999 -9999 -9999 -9999 -9999 -9999 -9999 -9999 -9999 -9999 -9999 -9999 -9999 -9999 -9999 -9999 -9999 -9999 -9999 -9999 -9999 -9999 -9999 -9999 -9999 -9999 -9999 -9999 -9999 -9999 -9999 -9999 2.4359192848205566406 2.3042314052581787109 -9999 -9999 -9999 -9999 -9999 -9999 -9999 -9999 -9999 -9999 -9999 -9999 -9999 -9999 -9999 -9999 -9999 -9999 -9999 -9999 -9999 -9999 -9999 -9999 -9999 -9999 -9999 -9999 -9999 -9999 -9999 -9999 -9999 -9999 -9999 -9999 1.5074547529220581055 2.5448954105377197266 -9999 1.8652616739273071289 4.2272562980651855469 10.824378013610839844 13.992006301879882812 15.378684043884277344 12.001935958862304688 13.834404945373535156 17.561328887939453125 23.3681488037109375 19.702672958374023438 33.66796875 39.98088836669921875 36.460788726806640625 14.497600555419921875 2.5297086238861083984 3.6328806877136230469 11.459146499633789062 13.88942718505859375 8.8902063369750976562 9.1092929840087890625 12.525699615478515625 11.449162483215332031 4.9504384994506835938 2.2427527904510498047 2.46550750732421875 1.8238593339920043945 2.413135528564453125 5.820232391357421875 5.5834031105041503906 3.1314244270324707031 2.5856072902679443359 3.8378899097442626953 5.8298768997192382812 3.4364941120147705078 1.4327819347381591797 1.5312066078186035156 2.3729486465454101562 1.9925827980041503906 2.8478937149047851562 3.7205343246459960938 -9999 -9999 -9999 
-9999 -9999 1.8433487415313720703 -9999 -9999 -9999 -9999 -9999 -9999 -9999 -9999 -9999 -9999 -9999 -9999 -9999 -9999 -9999 -9999 -9999 -9999 -9999 -9999 -9999 -9999 -9999 -9999 -9999 -9999 -9999 -9999 -9999 -9999 -9999 -9999 1.9561309814453125 -9999 -9999 -9999 -9999 -9999 -9999 -9999 -9999 1.7188352346420288086 1.7889149188995361328 -9999 -9999 -9999 -9999 -9999 -9999 -9999 -9999 -9999 -9999 -9999 -9999 -9999 -9999 -9999 -9999 -9999 -9999 -9999 -9999 -9999 -9999 -9999 -9999 -9999 -9999 -9999 -9999 -9999 -9999 -9999 -9999 -9999 -9999 1.875275731086730957 1.9165678024291992188 -9999 -9999 -9999 -9999 2.3850488662719726562 2.5337965488433837891 3.5700986385345458984 4.7737884521484375 7.00473785400390625 8.25505828857421875 7.36373138427734375 8.5610523223876953125 19.724761962890625 19.494817733764648438 10.932852745056152344 9.7053852081298828125 2.6975123882293701172 3.4960606098175048828 12.6414031982421875 14.077054023742675781 10.223180770874023438 7.2701845169067382812 4.264923095703125 3.6798429489135742188 3.1364252567291259766 4.5804867744445800781 4.6456494331359863281 2.2187814712524414062 -9999 -9999 -9999 -9999 -9999 1.3979260921478271484 -9999 -9999 -9999 -9999 -9999 1.7123283147811889648 2.2145693302154541016 3.2326450347900390625 -9999 -9999 -9999 
-9999 -9999 -9999 -9999 -9999 -9999 -9999 -9999 -9999 -9999 -9999 -9999 -9999 -9999 -9999 -9999 -9999 -9999 -9999 -9999 -9999 -9999 -9999 -9999 -9999 -9999 -9999 -9999 -9999 -9999 -9999 -9999 -9999 -9999 -9999 -9999 -9999 2.3413991928100585938 -9999 -9999 -9999 -9999 -9999 -9999 1.892216801643371582 3.7284805774688720703 4.0093441009521484375 2.1942181587219238281 -9999 -9999 -9999 -9999 -9999 -9999 -9999 -9999 -9999 -9999 -9999 -9999 -9999 -9999 -9999 -9999 -9999 -9999 -9999 -9999 -9999 -9999 -9999 -9999 -9999 -9999 -9999 -9999 1.975005030632019043 -9999 -9999 -9999 1.4793914556503295898 1.7479304075241088867 1.9643661975860595703 2.2032098770141601562 1.430741429328918457 -9999 -9999 1.4963066577911376953 2.2127163410186767578 2.4088046550750732422 3.9315450191497802734 7.2321858406066894531 3.5628590583801269531 2.9050660133361816406 4.1164455413818359375 5.7128329277038574219 7.6090879440307617188 10.673692703247070312 5.3103899955749511719 6.4989109039306640625 9.8201427459716796875 5.3857522010803222656 6.2125620841979980469 4.3175187110900878906 -9999 -9999 1.2452485561370849609 1.7738025188446044922 1.9920634031295776367 1.9890674352645874023 -9999 5.9690494537353515625 -9999 -9999 -9999 1.3831667900085449219 -9999 -9999 -9999 -9999 -9999 -9999 1.7216759920120239258 2.5179753303527832031 3.1954293251037597656 -9999 -9999 
-9999 -9999 -9999 -9999 -9999 -9999 -9999 -9999 -9999 -9999 -9999 -9999 -9999 -9999 -9999 -9999 -9999 -9999 -9999 -9999 -9999 -9999 -9999 -9999 -9999 -9999 -9999 -9999 -9999 -9999 -9999 -9999 -9999 -9999 -9999 2.5245053768157958984 -9999 -9999 -9999 -9999 -9999 -9999 -9999 -9999 -9999 1.9880928993225097656 2.8519487380981445312 -9999 -9999 -9999 -9999 -9999 -9999 -9999 -9999 -9999 -9999 -9999 -9999 -9999 -9999 -9999 -9999 -9999 -9999 -9999 -9999 -9999 -9999 -9999 -9999 -9999 -9999 -9999 -9999 1.6956199407577514648 -9999 -9999 -9999 -9999 -9999 1.8439627885818481445 2.023532867431640625 1.9914175271987915039 1.9439291954040527344 1.7334320545196533203 -9999 2.0605440139770507812 2.5681414604187011719 2.5262308120727539062 2.1273338794708251953 1.790112614631652832 3.3464193344116210938 3.5580694675445556641 6.5939869880676269531 6.4770922660827636719 9.47711181640625 13.030574798583984375 8.6985883712768554688 16.200595855712890625 13.621962547302246094 7.5747799873352050781 3.9065704345703125 -9999 2.5701572895050048828 -9999 -9999 1.2489933967590332031 -9999 2.1286969184875488281 3.0737056732177734375 3.0354187488555908203 -9999 -9999 1.9291652441024780273 -9999 -9999 -9999 -9999 -9999 -9999 3.027099609375 2.2519729137420654297 2.2154355049133300781 3.3481640815734863281 -9999 -9999 
-9999 -9999 -9999 -9999 -9999 -9999 -9999 -9999 -9999 -9999 -9999 -9999 -9999 -9999 -9999 -9999 -9999 -9999 -9999 -9999 -9999 -9999 -9999 -9999 -9999 -9999 -9999 -9999 -9999 -9999 -9999 -9999 -9999 -9999 -9999 -9999 -9999 -9999 -9999 -9999 -9999 -9999 -9999 -9999 -9999 -9999 -9999 -9999 -9999 -9999 -9999 -9999 -9999 -9999 -9999 -9999 -9999 -9999 -9999 -9999 -9999 -9999 -9999 1.0937139987945556641 -9999 -9999 -9999 -9999 1.0576026439666748047 -9999 -9999 -9999 -9999 -9999 -9999 -9999 -9999 -9999 -9999 -9999 2.4976990222930908203 3.1397945880889892578 1.4831520318984985352 2.1942198276519775391 2.1039834022521972656 2.2607638835906982422 1.2688521146774291992 2.5834949016571044922 2.1764965057373046875 1.2699720859527587891 1.4224746227264404297 1.4613488912582397461 2.8752534389495849609 2.4874892234802246094 2.6708180904388427734 3.0724761486053466797 4.2478432655334472656 6.6872320175170898438 15.736195564270019531 17.862277984619140625 9.3474903106689453125 2.7722208499908447266 -9999 -9999 -9999 -9999 -9999 -9999 -9999 2.2371492385864257812 3.6754388809204101562 -9999 1.7645784616470336914 1.3405464887619018555 1.9754619598388671875 -9999 -9999 -9999 -9999 -9999 -9999 -9999 2.0347270965576171875 -9999 -9999 -9999 -9999 
-9999 -9999 -9999 -9999 -9999 -9999 -9999 -9999 -9999 -9999 -9999 -9999 -9999 -9999 -9999 -9999 -9999 -9999 -9999 -9999 -9999 -9999 -9999 -9999 -9999 -9999 -9999 -9999 -9999 2.6365630626678466797 -9999 -9999 -9999 -9999 -9999 -9999 -9999 -9999 -9999 -9999 -9999 -9999 -9999 -9999 -9999 -9999 1.306659698486328125 1.5972940921783447266 -9999 -9999 -9999 -9999 -9999 -9999 -9999 -9999 -9999 -9999 -9999 -9999 -9999 -9999 -9999 -9999 -9999 -9999 -9999 -9999 -9999 -9999 -9999 -9999 -9999 -9999 -9999 -9999 -9999 -9999 -9999 -9999 1.7562493085861206055 2.6215717792510986328 1.6333565711975097656 2.6408760547637939453 2.4458436965942382812 1.5756515264511108398 -9999 -9999 -9999 3.5667827129364013672 -9999 1.8721747398376464844 2.5920672416687011719 3.4910295009613037109 5.3466124534606933594 -9999 2.2456026077270507812 2.7041325569152832031 6.9899907112121582031 6.8670582771301269531 3.7639794349670410156 1.5815278291702270508 -9999 -9999 -9999 -9999 -9999 -9999 -9999 -9999 3.84500885009765625 2.9326574802398681641 -9999 -9999 1.9075103998184204102 -9999 -9999 2.0838668346405029297 1.6324534416198730469 -9999 -9999 -9999 -9999 -9999 -9999 -9999 -9999 
-9999 -9999 -9999 -9999 -9999 -9999 -9999 -9999 -9999 -9999 -9999 -9999 -9999 -9999 -9999 -9999 -9999 -9999 -9999 -9999 -9999 -9999 -9999 -9999 -9999 -9999 -9999 -9999 -9999 -9999 -9999 -9999 -9999 -9999 -9999 -9999 -9999 -9999 -9999 -9999 -9999 -9999 -9999 -9999 -9999 -9999 -9999 -9999 -9999 1.90534210205078125 2.1555914878845214844 -9999 -9999 -9999 -9999 -9999 -9999 -9999 -9999 -9999 -9999 -9999 -9999 -9999 -9999 -9999 -9999 -9999 -9999 -9999 -9999 -9999 -9999 -9999 -9999 -9999 -9999 -9999 -9999 -9999 -9999 2.1629457473754882812 1.7914434671401977539 1.9281519651412963867 1.6857066154479980469 1.5283669233322143555 1.807519078254699707 -9999 -9999 4.1059885025024414062 5.2012500762939453125 3.9351770877838134766 -9999 3.1159260272979736328 8.1380090713500976562 -9999 3.2240123748779296875 2.5502285957336425781 2.3753566741943359375 3.0673439502716064453 2.9299457073211669922 3.0418398380279541016 -9999 -9999 -9999 -9999 -9999 -9999 -9999 -9999 2.4493613243103027344 2.4599883556365966797 -9999 -9999 -9999 -9999 -9999 -9999 -9999 -9999 -9999 -9999 -9999 -9999 -9999 -9999 -9999 
-9999 1.2613441944122314453 -9999 -9999 -9999 -9999 -9999 -9999 -9999 -9999 -9999 -9999 -9999 -9999 -9999 -9999 -9999 -9999 -9999 -9999 -9999 -9999 -9999 -9999 -9999 -9999 -9999 -9999 -9999 -9999 -9999 -9999 -9999 -9999 -9999 -9999 -9999 -9999 -9999 -9999 -9999 -9999 -9999 -9999 -9999 -9999 -9999 -9999 -9999 -9999 3.9976165294647216797 2.9279997348785400391 1.6123452186584472656 -9999 -9999 -9999 -9999 -9999 -9999 -9999 -9999 -9999 -9999 -9999 1.2182893753051757812 -9999 -9999 1.0524399280548095703 -9999 -9999 -9999 -9999 -9999 -9999 -9999 -9999 -9999 -9999 -9999 -9999 2.6406943798065185547 2.8669931888580322266 2.4846601486206054688 2.1574943065643310547 1.8290468454360961914 1.5012371540069580078 1.6412996053695678711 1.508000493049621582 1.5318961143493652344 -9999 3.7330393791198730469 3.1710517406463623047 2.6717410087585449219 2.6832430362701416016 2.8310956954956054688 2.5873272418975830078 -9999 2.2222957611083984375 2.0276143550872802734 2.7322762012481689453 5.9552559852600097656 4.8661713600158691406 1.8582727909088134766 -9999 -9999 -9999 -9999 -9999 -9999 -9999 3.7649228572845458984 -9999 -9999 -9999 -9999 -9999 -9999 -9999 -9999 -9999 -9999 -9999 -9999 -9999 -9999 -9999 -9999 
-9999 -9999 -9999 -9999 -9999 -9999 -9999 -9999 -9999 -9999 -9999 -9999 -9999 -9999 -9999 -9999 -9999 -9999 -9999 -9999 -9999 -9999 -9999 -9999 -9999 -9999 -9999 -9999 -9999 -9999 -9999 -9999 -9999 1.8178260326385498047 -9999 -9999 -9999 -9999 -9999 -9999 -9999 -9999 -9999 -9999 -9999 -9999 -9999 -9999 -9999 -9999 2.5982851982116699219 2.0356485843658447266 -9999 -9999 -9999 -9999 -9999 -9999 -9999 -9999 -9999 -9999 -9999 -9999 -9999 -9999 -9999 -9999 -9999 -9999 -9999 -9999 -9999 -9999 -9999 -9999 -9999 -9999 -9999 -9999 2.203166961669921875 2.1714620590209960938 1.6559364795684814453 1.5125583410263061523 1.6859583854675292969 1.6027501821517944336 -9999 1.7758096456527709961 1.7604105472564697266 1.6720819473266601562 2.5293457508087158203 1.4631257057189941406 -9999 1.9791574478149414062 4.0862431526184082031 3.5667967796325683594 -9999 2.8197662830352783203 3.2752690315246582031 2.75726318359375 4.966640472412109375 3.9677531719207763672 3.9835515022277832031 2.3675711154937744141 1.4656389951705932617 -9999 1.7175110578536987305 -9999 -9999 3.0619418621063232422 4.3897538185119628906 4.2528033256530761719 2.5338454246520996094 -9999 -9999 -9999 -9999 -9999 -9999 -9999 -9999 -9999 -9999 -9999 -9999 -9999 -9999 
-9999 -9999 -9999 -9999 -9999 -9999 -9999 -9999 -9999 -9999 -9999 -9999 -9999 -9999 -9999 -9999 -9999 -9999 -9999 -9999 -9999 -9999 -9999 -9999 -9999 -9999 -9999 -9999 -9999 -9999 -9999 -9999 -9999 -9999 -9999 -9999 -9999 -9999 -9999 -9999 -9999 -9999 -9999 -9999 -9999 -9999 -9999 -9999 -9999 -9999 1.9263715744018554688 -9999 1.4945350885391235352 -9999 -9999 -9999 -9999 -9999 -9999 -9999 -9999 -9999 -9999 -9999 -9999 -9999 -9999 -9999 -9999 -9999 -9999 -9999 -9999 -9999 -9999 -9999 -9999 -9999 -9999 -9999 -9999 -9999 -9999 -9999 1.5717566013336181641 1.8203451633453369141 1.7026560306549072266 1.5382477045059204102 1.3465859889984130859 -9999 -9999 -9999 1.6699414253234863281 1.9108736515045166016 -9999 2.9319221973419189453 2.6538305282592773438 2.7008290290832519531 -9999 2.8674407005310058594 3.232318878173828125 2.2416353225708007812 2.1450717449188232422 -9999 1.7624487876892089844 2.1599440574645996094 2.3726739883422851562 2.8675372600555419922 3.2358651161193847656 -9999 3.9507198333740234375 -9999 -9999 -9999 -9999 -9999 -9999 -9999 -9999 -9999 -9999 -9999 -9999 -9999 -9999 -9999 -9999 
-9999 -9999 -9999 -9999 -9999 -9999 -9999 -9999 -9999 -9999 -9999 -9999 -9999 -9999 -9999 -9999 -9999 -9999 -9999 -9999 -9999 -9999 -9999 -9999 -9999 -9999 -9999 -9999 -9999 -9999 2.3897182941436767578 1.4249680042266845703 -9999 -9999 -9999 -9999 -9999 -9999 -9999 -9999 -9999 -9999 -9999 -9999 -9999 -9999 -9999 -9999 1.5817258358001708984 -9999 -9999 -9999 -9999 1.4146682024002075195 -9999 -9999 -9999 1.0395432710647583008 -9999 -9999 -9999 -9999 -9999 -9999 -9999 1.1396034955978393555 -9999 -9999 -9999 -9999 -9999 -9999 -9999 -9999 -9999 -9999 -9999 1.3035069704055786133 -9999 -9999 -9999 -9999 -9999 -9999 -9999 1.4091088771820068359 -9999 -9999 -9999 -9999 -9999 -9999 -9999 1.8460381031036376953 2.8585245609283447266 2.9438300132751464844 2.0497663021087646484 1.8632411956787109375 2.471454620361328125 2.2716524600982666016 4.4023098945617675781 3.6817393302917480469 1.780943751335144043 2.487339019775390625 2.2874789237976074219 3.0005118846893310547 3.2829587459564208984 3.0069971084594726562 -9999 -9999 2.8631713390350341797 -9999 -9999 -9999 1.4570068120956420898 -9999 -9999 -9999 -9999 -9999 -9999 -9999 -9999 -9999 -9999 -9999 -9999 
-9999 -9999 -9999 -9999 -9999 -9999 -9999 -9999 -9999 -9999 -9999 -9999 -9999 -9999 -9999 -9999 -9999 -9999 -9999 -9999 -9999 -9999 -9999 -9999 -9999 -9999 -9999 -9999 -9999 -9999 1.8536733388900756836 -9999 -9999 -9999 -9999 -9999 -9999 -9999 -9999 -9999 -9999 -9999 -9999 -9999 -9999 -9999 -9999 -9999 -9999 -9999 -9999 -9999 -9999 -9999 -9999 -9999 -9999 -9999 1.6119080781936645508 1.2769281864166259766 -9999 -9999 -9999 -9999 -9999 -9999 -9999 -9999 -9999 -9999 -9999 -9999 -9999 -9999 -9999 -9999 -9999 -9999 -9999 -9999 -9999 -9999 -9999 -9999 -9999 1.2103639841079711914 -9999 -9999 -9999 -9999 -9999 -9999 -9999 -9999 2.35655975341796875 2.4776775836944580078 1.9076581001281738281 1.9628701210021972656 2.6468152999877929688 2.1878926753997802734 4.00672149658203125 6.4619770050048828125 5.027008056640625 2.5346417427062988281 1.8621755838394165039 6.5182065963745117188 5.5018954277038574219 2.6110596656799316406 -9999 -9999 -9999 -9999 -9999 -9999 -9999 -9999 -9999 -9999 -9999 -9999 -9999 -9999 -9999 -9999 -9999 -9999 -9999 
-9999 -9999 -9999 -9999 -9999 -9999 -9999 -9999 -9999 -9999 -9999 -9999 -9999 -9999 -9999 -9999 -9999 -9999 -9999 -9999 -9999 -9999 -9999 -9999 -9999 -9999 -9999 -9999 -9999 -9999 -9999 -9999 -9999 -9999 -9999 -9999 3.1346082687377929688 -9999 -9999 -9999 -9999 -9999 -9999 -9999 -9999 -9999 -9999 -9999 -9999 -9999 -9999 1.1565797328948974609 -9999 -9999 -9999 -9999 -9999 -9999 -9999 -9999 -9999 -9999 -9999 -9999 -9999 -9999 -9999 -9999 -9999 -9999 -9999 -9999 -9999 -9999 -9999 -9999 -9999 -9999 -9999 -9999 -9999 -9999 -9999 -9999 -9999 -9999 -9999 -9999 -9999 -9999 -9999 -9999 -9999 -9999 -9999 1.8636813163757324219 3.3715422153472900391 3.65802001953125 -9999 1.296773076057434082 1.9434477090835571289 3.7358291149139404297 5.7266750335693359375 2.5179607868194580078 3.2280848026275634766 5.3967256546020507812 -9999 -9999 -9999 -9999 -9999 -9999 -9999 -9999 -9999 -9999 1.3241630792617797852 -9999 -9999 -9999 -9999 -9999 -9999 -9999 -9999 -9999 -9999 
-9999 -9999 -9999 -9999 -9999 -9999 -9999 -9999 -9999 -9999 -9999 -9999 -9999 -9999 -9999 -9999 -9999 -9999 -9999 -9999 -9999 -9999 -9999 -9999 -9999 -9999 -9999 -9999 -9999 -9999 -9999 -9999 -9999 -9999 -9999 -9999 -9999 -9999 -9999 -9999 -9999 -9999 -9999 2.5198187828063964844 1.8329107761383056641 -9999 -9999 -9999 -9999 -9999 -9999 -9999 -9999 -9999 -9999 -9999 -9999 -9999 -9999 -9999 -9999 -9999 -9999 -9999 -9999 -9999 -9999 -9999 -9999 -9999 -9999 -9999 -9999 -9999 -9999 -9999 -9999 -9999 -9999 -9999 -9999 -9999 -9999 -9999 -9999 -9999 -9999 -9999 -9999 -9999 -9999 -9999 -9999 1.3159632682800292969 1.5831900835037231445 1.891203761100769043 1.9332298040390014648 2.5737025737762451172 2.3594269752502441406 -9999 2.1565787792205810547 3.4716713428497314453 5.0922255516052246094 4.135807037353515625 2.453784942626953125 3.2656562328338623047 3.3599314689636230469 -9999 -9999 -9999 -9999 -9999 -9999 -9999 -9999 -9999 -9999 -9999 -9999 -9999 -9999 -9999 -9999 -9999 1.2182943820953369141 -9999 -9999 
-9999 -9999 -9999 1.3694560527801513672 1.591420292854309082 -9999 -9999 -9999 -9999 -9999 -9999 -9999 -9999 -9999 -9999 -9999 -9999 -9999 -9999 -9999 -9999 -9999 -9999 -9999 -9999 -9999 -9999 -9999 -9999 -9999 -9999 -9999 -9999 -9999 -9999 1.9491637945175170898 -9999 -9999 -9999 -9999 1.3946589231491088867 -9999 1.966061711311340332 3.4350111484527587891 3.800052642822265625 3.9988121986389160156 1.5525399446487426758 1.4981726408004760742 -9999 -9999 -9999 -9999 -9999 -9999 -9999 -9999 -9999 -9999 -9999 -9999 -9999 -9999 -9999 -9999 -9999 -9999 -9999 -9999 -9999 -9999 -9999 -9999 -9999 -9999 -9999 -9999 -9999 -9999 -9999 -9999 -9999 -9999 -9999 -9999 -9999 -9999 -9999 -9999 -9999 -9999 -9999 -9999 -9999 -9999 -9999 -9999 1.3904414176940917969 1.8446518182754516602 2.1772236824035644531 1.4252325296401977539 2.0577406883239746094 3.0932319164276123047 4.0793943405151367188 8.0694408416748046875 6.3271298408508300781 8.61624908447265625 6.9891667366027832031 2.7565011978149414062 2.7571384906768798828 -9999 -9999 -9999 -9999 -9999 -9999 -9999 -9999 -9999 -9999 -9999 -9999 -9999 -9999 -9999 -9999 -9999 -9999 
-9999 -9999 -9999 -9999 -9999 -9999 -9999 -9999 -9999 -9999 -9999 -9999 -9999 -9999 -9999 -9999 -9999 -9999 -9999 -9999 -9999 -9999 -9999 -9999 -9999 -9999 -9999 -9999 -9999 -9999 -9999 -9999 -9999 -9999 -9999 -9999 -9999 -9999 -9999 -9999 2.7937331199645996094 -9999 2.7309248447418212891 3.2134571075439453125 3.1471357345581054688 6.1456847190856933594 4.6130175590515136719 3.1894207000732421875 -9999 1.2363439798355102539 -9999 -9999 -9999 -9999 -9999 -9999 -9999 -9999 -9999 -9999 -9999 -9999 -9999 -9999 1.3007241487503051758 -9999 -9999 -9999 -9999 -9999 -9999 -9999 -9999 -9999 -9999 -9999 -9999 -9999 -9999 -9999 -9999 -9999 -9999 -9999 -9999 -9999 -9999 -9999 -9999 -9999 -9999 -9999 -9999 -9999 -9999 -9999 -9999 -9999 -9999 -9999 1.8615400791168212891 2.5074133872985839844 4.4220166206359863281 9.7633523941040039062 7.0630521774291992188 5.5483717918395996094 7.8677067756652832031 4.3801083564758300781 -9999 -9999 -9999 -9999 -9999 -9999 -9999 -9999 -9999 -9999 -9999 -9999 -9999 -9999 -9999 -9999 -9999 -9999 -9999 
-9999 -9999 -9999 -9999 -9999 -9999 -9999 -9999 -9999 -9999 -9999 -9999 -9999 -9999 -9999 -9999 -9999 -9999 -9999 -9999 -9999 -9999 -9999 -9999 -9999 -9999 -9999 -9999 -9999 -9999 -9999 -9999 -9999 -9999 -9999 2.6586651802062988281 1.7889411449432373047 -9999 -9999 -9999 -9999 3.3206541538238525391 5.6419196128845214844 8.3647174835205078125 3.4273176193237304688 6.7527432441711425781 9.4579563140869140625 3.8953435420989990234 1.5879132747650146484 1.0941699743270874023 -9999 -9999 -9999 -9999 -9999 -9999 -9999 -9999 -9999 -9999 -9999 -9999 -9999 -9999 1.127137303352355957 -9999 -9999 -9999 -9999 -9999 -9999 -9999 -9999 -9999 -9999 -9999 -9999 -9999 -9999 -9999 -9999 -9999 -9999 -9999 -9999 -9999 -9999 -9999 -9999 -9999 -9999 -9999 -9999 -9999 -9999 -9999 -9999 -9999 -9999 -9999 -9999 1.5731184482574462891 3.5735406875610351562 8.9248409271240234375 9.5378980636596679688 8.2010717391967773438 16.248609542846679688 12.985991477966308594 3.4134366512298583984 -9999 -9999 -9999 1.8159284591674804688 -9999 -9999 -9999 -9999 -9999 -9999 -9999 -9999 -9999 -9999 -9999 -9999 -9999 -9999 
