ncols        127
nrows        131
xllcorner    -71.681135979344
yllcorner    -16.519694133538
cellsize     0.001836012963
NODATA_value -9999
-9999.0 -9999 -9999 -9999 -9999 -9999 -9999 -9999 -9999 -9999 -9999 1.0189136266708374023 1.0334317684173583984 -9999 -9999 1.0791412591934204102 -9999 -9999 -9999 -9999 -9999 -9999 1.0769250392913818359 1.1236947774887084961 -9999 -9999 1.2035336494445800781 -9999 -9999 -9999 -9999 -9999 1.0386130809783935547 -9999 -9999 -9999 -9999 -9999 -9999 -9999 -9999 -9999 -9999 -9999 -9999 -9999 -9999 -9999 -9999 -9999 -9999 -9999 -9999 -9999 -9999 -9999 -9999 -9999 -9999 -9999 -9999 -9999 -9999 -9999 -9999 -9999 -9999 -9999 -9999 -9999 -9999 -9999 -9999 -9999 -9999 -9999 -9999 -9999 -9999 -9999 -9999 -9999 -9999 -9999 -9999 -9999 -9999 -9999 -9999 -9999 -9999 -9999 -9999 -9999 -9999 -9999 -9999 -9999 -9999 -9999 -9999 -9999 -9999 -9999 -9999 -9999 -9999 -9999 -9999 -9999 -9999 -9999 -9999 -9999 -9999 -9999 -9999 -9999 -9999 -9999 -9999 -9999 -9999 -9999 -9999 -9999 -9999 
-9999 -9999 -9999 -9999 -9999 -9999 -9999 -9999 -9999 -9999 -9999 1.0351622104644775391 1.0565972328186035156 -9999 -9999 -9999 -9999 -9999 -9999 -9999 -9999 -9999 1.0941128730773925781 1.1116821765899658203 1.0370144844055175781 1.0912108421325683594 1.1197875738143920898 1.0526870489120483398 1.1432999372482299805 -9999 -9999 1.0823597908020019531 -9999 -9999 -9999 -9999 -9999 -9999 -9999 -9999 -9999 -9999 -9999 -9999 -9999 -9999 -9999 -9999 -9999 -9999 -9999 -9999 -9999 -9999 -9999 -9999 -9999 -9999 -9999 -9999 -9999 -9999 -9999 -9999 -9999 -9999 -9999 -9999 -9999 1.0079848766326904297 -9999 -9999 -9999 -9999 1.0018093585968017578 1.0014421939849853516 -9999 -9999 -9999 -9999 -9999 -9999 -9999 -9999 -9999 -9999 -9999 -9999 -9999 -9999 -9999 1.0120563507080078125 1.0090602636337280273 -9999 -9999 -9999 -9999 -9999 -9999 -9999 -9999 -9999 -9999 -9999 -9999 -9999 -9999 -9999 -9999 -9999 -9999 -9999 -9999 1.0426137447357177734 -9999 -9999 -9999 -9999 -9999 -9999 -9999 -9999 -9999 -9999 -9999 -9999 -9999 
-9999 -9999 -9999 -9999 -9999 -9999 -9999 -9999 -9999 -9999 1.045818328857421875 1.0754433870315551758 1.1348774433135986328 1.1261831521987915039 1.0719807147979736328 1.0220751762390136719 -9999 -9999 -9999 -9999 -9999 -9999 1.1158814430236816406 1.1437987089157104492 1.0446716547012329102 1.0385996103286743164 1.0436283349990844727 -9999 1.2412177324295043945 -9999 -9999 1.0985224246978759766 -9999 -9999 -9999 -9999 -9999 -9999 -9999 -9999 -9999 -9999 -9999 -9999 -9999 -9999 -9999 -9999 -9999 -9999 -9999 -9999 -9999 -9999 -9999 -9999 -9999 -9999 -9999 -9999 -9999 -9999 -9999 -9999 -9999 -9999 -9999 -9999 -9999 1.0299926996231079102 1.0306686162948608398 -9999 -9999 -9999 1.0329654216766357422 -9999 -9999 -9999 -9999 -9999 1.001590728759765625 -9999 -9999 -9999 -9999 -9999 -9999 -9999 -9999 -9999 -9999 -9999 -9999 -9999 -9999 -9999 -9999 -9999 -9999 -9999 -9999 -9999 -9999 -9999 -9999 -9999 -9999 -9999 -9999 -9999 -9999 -9999 -9999 -9999 -9999 -9999 -9999 -9999 -9999 -9999 1.0242409706115722656 -9999 -9999 -9999 -9999 -9999 -9999 
1.0722075700759887695 -9999 -9999 -9999 -9999 -9999 -9999 -9999 -9999 1.0765260457992553711 -9999 1.056676030158996582 1.2154635190963745117 1.2854154109954833984 1.1471447944641113281 1.1071797609329223633 1.1774046421051025391 -9999 -9999 -9999 1.2160203456878662109 1.1554684638977050781 1.2888811826705932617 1.2002938985824584961 1.1172277927398681641 1.2309820652008056641 1.1312859058380126953 -9999 1.508504033088684082 -9999 1.4212900400161743164 -9999 -9999 -9999 -9999 -9999 -9999 -9999 -9999 -9999 -9999 -9999 -9999 -9999 -9999 -9999 1.0248224735260009766 -9999 -9999 -9999 -9999 -9999 -9999 -9999 -9999 -9999 -9999 -9999 -9999 -9999 -9999 -9999 -9999 -9999 -9999 -9999 -9999 -9999 -9999 1.0602018833160400391 1.1118366718292236328 1.1042777299880981445 1.1438481807708740234 1.3043800592422485352 1.1627266407012939453 -9999 -9999 1.0073121786117553711 1.0174500942230224609 -9999 -9999 -9999 -9999 -9999 -9999 -9999 -9999 -9999 1.0370957851409912109 -9999 -9999 -9999 -9999 -9999 -9999 -9999 -9999 -9999 -9999 -9999 -9999 -9999 -9999 -9999 -9999 -9999 -9999 -9999 -9999 -9999 -9999 -9999 -9999 -9999 -9999 -9999 -9999 1.0312634706497192383 -9999 -9999 1.0288771390914916992 -9999 -9999 -9999 -9999 -9999 -9999 
-9999 -9999 -9999 -9999 -9999 -9999 -9999 -9999 -9999 -9999 1.032479405403137207 1.0610623359680175781 1.2128963470458984375 1.3768242597579956055 1.2984756231307983398 1.3033913373947143555 1.2417885065078735352 -9999 -9999 -9999 1.1772370338439941406 1.4044378995895385742 1.5522919893264770508 1.3363767862319946289 1.1460003852844238281 1.2573795318603515625 1.19256591796875 1.3926448822021484375 1.3948056697845458984 1.3113272190093994141 1.2947915792465209961 -9999 -9999 -9999 -9999 -9999 -9999 -9999 -9999 -9999 -9999 -9999 -9999 -9999 -9999 -9999 -9999 -9999 -9999 -9999 1.0461399555206298828 -9999 -9999 -9999 -9999 -9999 -9999 -9999 -9999 -9999 -9999 -9999 -9999 -9999 -9999 -9999 -9999 -9999 1.049973607063293457 1.103091120719909668 1.1445288658142089844 1.158589482307434082 1.2580069303512573242 1.3996567726135253906 1.2487707138061523438 1.3546972274780273438 1.1818099021911621094 1.0663897991180419922 1.009876251220703125 -9999 -9999 -9999 -9999 -9999 -9999 -9999 -9999 1.0198230743408203125 1.0159419775009155273 1.0652053356170654297 -9999 -9999 -9999 1.0587632656097412109 1.0906229019165039062 -9999 1.0304681062698364258 -9999 -9999 -9999 -9999 -9999 -9999 -9999 -9999 -9999 -9999 -9999 -9999 -9999 -9999 -9999 -9999 -9999 -9999 -9999 -9999 -9999 -9999 -9999 -9999 -9999 -9999 -9999 -9999 -9999 -9999 
-9999 -9999 -9999 -9999 -9999 -9999 -9999 1.0805816650390625 1.1199293136596679688 1.0773977041244506836 1.037054896354675293 1.0615123510360717773 1.0893313884735107422 1.2471017837524414062 1.3985520601272583008 1.5539190769195556641 1.335821986198425293 -9999 -9999 -9999 1.2859880924224853516 1.7325985431671142578 1.7950483560562133789 1.4790604114532470703 1.2320201396942138672 1.376114964485168457 1.6549142599105834961 1.6395473480224609375 1.8427232503890991211 1.5839811563491821289 1.4923734664916992188 -9999 -9999 -9999 -9999 -9999 -9999 -9999 -9999 -9999 -9999 -9999 -9999 -9999 -9999 -9999 -9999 -9999 1.0313525199890136719 -9999 -9999 -9999 -9999 -9999 -9999 -9999 -9999 -9999 -9999 -9999 -9999 -9999 -9999 -9999 -9999 -9999 -9999 -9999 1.0336291790008544922 1.063304901123046875 1.1946848630905151367 1.216149449348449707 1.2329088449478149414 1.4069534540176391602 1.5194746255874633789 1.5760595798492431641 1.1932549476623535156 1.1134699583053588867 1.0159052610397338867 1.0509510040283203125 -9999 -9999 -9999 1.0250489711761474609 1.0140919685363769531 -9999 1.0250545740127563477 1.0908693075180053711 1.0244774818420410156 1.0028444528579711914 1.0280530452728271484 -9999 -9999 -9999 -9999 -9999 -9999 -9999 -9999 -9999 -9999 -9999 -9999 -9999 -9999 -9999 -9999 -9999 -9999 -9999 -9999 -9999 -9999 -9999 -9999 -9999 -9999 -9999 -9999 -9999 -9999 -9999 -9999 -9999 -9999 -9999 -9999 
-9999 -9999 -9999 -9999 -9999 -9999 -9999 1.0524729490280151367 1.0907458066940307617 1.0554872751235961914 1.0534145832061767578 1.0546939373016357422 1.0988719463348388672 1.2427419424057006836 1.4152288436889648438 1.5316519737243652344 1.2639474868774414062 -9999 -9999 1.0846964120864868164 1.3138611316680908203 1.5351637601852416992 1.5067303180694580078 1.796197056770324707 2.0930533409118652344 2.3842754364013671875 2.6969897747039794922 2.0532615184783935547 2.4075326919555664062 1.7362092733383178711 1.2222861051559448242 -9999 -9999 -9999 -9999 -9999 -9999 1.0702203512191772461 -9999 -9999 -9999 -9999 -9999 -9999 -9999 -9999 -9999 -9999 -9999 -9999 -9999 -9999 -9999 -9999 1.0299838781356811523 -9999 -9999 -9999 -9999 -9999 -9999 -9999 -9999 -9999 -9999 -9999 -9999 -9999 -9999 -9999 1.0927617549896240234 1.182726740837097168 1.2428529262542724609 1.5640720129013061523 1.6389088630676269531 1.404644012451171875 1.0427458286285400391 1.0211703777313232422 -9999 -9999 -9999 1.0305347442626953125 1.0366333723068237305 1.0550518035888671875 1.0213847160339355469 -9999 1.1090576648712158203 1.3123503923416137695 1.0770403146743774414 1.0407445430755615234 1.0619986057281494141 1.0511704683303833008 1.0315436124801635742 1.0092070102691650391 -9999 -9999 -9999 -9999 -9999 -9999 -9999 -9999 -9999 -9999 -9999 -9999 -9999 -9999 -9999 -9999 -9999 -9999 1.2013883590698242188 1.0850298404693603516 -9999 -9999 -9999 -9999 -9999 -9999 -9999 -9999 -9999 -9999 -9999 -9999 -9999 
-9999 -9999 -9999 -9999 -9999 1.0511528253555297852 -9999 1.0442517995834350586 1.0905355215072631836 1.0554261207580566406 1.0855897665023803711 1.0950959920883178711 1.1857527494430541992 1.3000954389572143555 1.1689229011535644531 1.1636888980865478516 1.1154772043228149414 -9999 1.0225679874420166016 1.1126829385757446289 1.5332179069519042969 1.3318120241165161133 1.0985784530639648438 1.6583666801452636719 3.3073029518127441406 4.5108366012573242188 3.2644207477569580078 2.6597778797149658203 3.4287776947021484375 2.661190032958984375 2.0040514469146728516 1.7737042903900146484 1.4140498638153076172 -9999 -9999 -9999 -9999 1.0490154027938842773 -9999 -9999 -9999 -9999 -9999 -9999 -9999 -9999 -9999 -9999 -9999 -9999 -9999 -9999 -9999 -9999 -9999 -9999 -9999 -9999 -9999 -9999 -9999 -9999 -9999 -9999 -9999 -9999 -9999 -9999 -9999 -9999 -9999 1.0878469944000244141 1.3871849775314331055 1.7952886819839477539 1.7688974142074584961 1.1699318885803222656 1.0177315473556518555 -9999 -9999 1.0740454196929931641 1.0493936538696289062 1.0627793073654174805 1.189291834831237793 1.2929909229278564453 1.1225506067276000977 1.0635874271392822266 1.1567525863647460938 1.3588370084762573242 1.1917785406112670898 1.0938190221786499023 1.0749833583831787109 1.075214385986328125 1.0491342544555664062 1.0168416500091552734 -9999 -9999 -9999 -9999 -9999 -9999 -9999 -9999 -9999 -9999 -9999 -9999 -9999 -9999 -9999 -9999 -9999 1.0527189970016479492 1.1313984394073486328 -9999 -9999 -9999 -9999 -9999 -9999 -9999 -9999 -9999 -9999 -9999 -9999 -9999 -9999 
-9999 -9999 -9999 -9999 1.0480608940124511719 -9999 -9999 1.0272834300994873047 1.0353486537933349609 1.062668919563293457 -9999 1.1205959320068359375 1.2054877281188964844 1.1262952089309692383 1.0444521903991699219 -9999 -9999 -9999 -9999 1.0988545417785644531 1.2757430076599121094 1.2673668861389160156 -9999 1.8559877872467041016 3.1712121963500976562 3.9444110393524169922 3.1271140575408935547 2.7472112178802490234 3.3945384025573730469 4.5487627983093261719 5.1158328056335449219 3.9089815616607666016 1.858379364013671875 -9999 -9999 -9999 -9999 -9999 -9999 -9999 -9999 -9999 -9999 -9999 -9999 -9999 -9999 -9999 -9999 -9999 -9999 -9999 -9999 -9999 -9999 -9999 -9999 -9999 -9999 -9999 -9999 -9999 -9999 -9999 -9999 -9999 -9999 -9999 -9999 -9999 -9999 1.1425426006317138672 1.4842703342437744141 1.913386225700378418 1.5024682283401489258 1.1053682565689086914 1.0247043371200561523 -9999 -9999 1.0517711639404296875 1.0387997627258300781 1.0792802572250366211 1.3948301076889038086 1.5381319522857666016 1.3021842241287231445 1.2612156867980957031 1.4362881183624267578 1.3837296962738037109 1.4753490686416625977 1.1508297920227050781 1.1630631685256958008 1.1714216470718383789 1.0678383111953735352 -9999 -9999 -9999 -9999 -9999 -9999 -9999 -9999 -9999 -9999 -9999 -9999 -9999 -9999 -9999 -9999 -9999 -9999 -9999 -9999 -9999 -9999 -9999 -9999 -9999 -9999 -9999 -9999 -9999 -9999 -9999 -9999 -9999 -9999 
-9999 -9999 -9999 -9999 -9999 -9999 -9999 1.0472279787063598633 1.0444135665893554688 1.0569887161254882812 1.0561314821243286133 1.0878876447677612305 1.1995702981948852539 1.176997065544128418 1.0302965641021728516 -9999 -9999 -9999 1.0902985334396362305 1.1387045383453369141 1.2562354803085327148 -9999 1.1273931264877319336 1.5467059612274169922 1.9542102813720703125 1.7694246768951416016 2.7575719356536865234 3.3895573616027832031 3.6938343048095703125 6.7040915489196777344 8.0311594009399414062 6.2197098731994628906 2.7799544334411621094 1.2296694517135620117 1.2621922492980957031 1.0718909502029418945 -9999 -9999 -9999 -9999 -9999 -9999 -9999 -9999 -9999 -9999 -9999 -9999 1.0485783815383911133 -9999 -9999 -9999 -9999 -9999 -9999 -9999 -9999 -9999 -9999 -9999 -9999 -9999 -9999 -9999 -9999 -9999 -9999 -9999 -9999 -9999 -9999 1.1837949752807617188 1.412774205207824707 1.4138835668563842773 1.2047836780548095703 -9999 -9999 -9999 1.0850245952606201172 1.0627446174621582031 1.0595918893814086914 1.1236101388931274414 1.4542316198348999023 1.5597077608108520508 1.4889540672302246094 1.8116903305053710938 2.0848994255065917969 1.5307728052139282227 1.5973149538040161133 1.1892968416213989258 1.2364104986190795898 1.1553269624710083008 1.0679488182067871094 -9999 -9999 -9999 -9999 -9999 -9999 -9999 -9999 -9999 -9999 -9999 -9999 -9999 -9999 -9999 -9999 -9999 -9999 -9999 -9999 -9999 -9999 -9999 -9999 -9999 -9999 -9999 -9999 -9999 -9999 -9999 -9999 -9999 -9999 
-9999 -9999 -9999 1.0332847833633422852 -9999 -9999 1.0208956003189086914 1.0709044933319091797 1.0730352401733398438 1.0456383228302001953 1.055319666862487793 1.0615352392196655273 1.0807297229766845703 -9999 -9999 -9999 -9999 -9999 -9999 1.6560804843902587891 2.4668262004852294922 1.8632637262344360352 1.1548284292221069336 1.2938511371612548828 1.5867880582809448242 2.1315557956695556641 3.1645116806030273438 3.8927800655364990234 6.1672801971435546875 8.044647216796875 7.9350867271423339844 6.9888052940368652344 4.4620766639709472656 1.5543428659439086914 1.1821020841598510742 1.167466282844543457 1.1521506309509277344 -9999 -9999 -9999 -9999 -9999 -9999 -9999 -9999 -9999 -9999 -9999 -9999 -9999 -9999 -9999 -9999 -9999 -9999 -9999 -9999 -9999 -9999 -9999 -9999 -9999 -9999 -9999 1.03835296630859375 -9999 -9999 -9999 -9999 -9999 -9999 -9999 1.3024300336837768555 1.2529616355895996094 1.1032216548919677734 1.0358611345291137695 -9999 -9999 -9999 -9999 1.0593239068984985352 1.1503109931945800781 1.3942643404006958008 1.7408837080001831055 1.6102135181427001953 2.2271113395690917969 2.4306960105895996094 1.512032628059387207 1.3131427764892578125 1.181672215461730957 1.2311816215515136719 1.1524583101272583008 1.0521271228790283203 -9999 -9999 -9999 -9999 -9999 -9999 -9999 -9999 -9999 -9999 -9999 -9999 -9999 -9999 -9999 -9999 -9999 -9999 -9999 -9999 -9999 -9999 -9999 -9999 -9999 -9999 -9999 -9999 -9999 -9999 -9999 -9999 -9999 -9999 
-9999 1.1125074625015258789 1.100344538688659668 1.0583356618881225586 1.0331517457962036133 1.051499485969543457 1.050944209098815918 1.1535381078720092773 1.218607783317565918 1.0955083370208740234 1.0704649686813354492 1.0859431028366088867 1.0489342212677001953 -9999 -9999 -9999 -9999 -9999 -9999 -9999 -9999 1.2847667932510375977 1.3109164237976074219 1.2992951869964599609 1.5237078666687011719 1.8677210807800292969 2.1502766609191894531 3.3743717670440673828 6.1976709365844726562 8.7918872833251953125 8.6545305252075195312 6.6659264564514160156 4.9328608512878417969 2.6738569736480712891 1.884685516357421875 1.9814912080764770508 1.6144399642944335938 -9999 -9999 -9999 -9999 -9999 -9999 -9999 -9999 -9999 -9999 -9999 -9999 -9999 -9999 -9999 -9999 -9999 -9999 -9999 -9999 -9999 -9999 -9999 -9999 -9999 -9999 -9999 -9999 -9999 -9999 -9999 -9999 -9999 -9999 -9999 1.2434602975845336914 1.2471212148666381836 1.3415354490280151367 1.0943238735198974609 -9999 -9999 -9999 -9999 1.2278087139129638672 1.3603111505508422852 1.5641269683837890625 1.6716430187225341797 1.6904815435409545898 2.6949992179870605469 2.6424219608306884766 1.4007705450057983398 1.152821660041809082 1.1027632951736450195 1.1424480676651000977 1.1198039054870605469 -9999 -9999 -9999 -9999 -9999 -9999 -9999 -9999 -9999 -9999 -9999 -9999 -9999 -9999 -9999 -9999 1.002735137939453125 -9999 -9999 -9999 -9999 -9999 -9999 -9999 -9999 -9999 -9999 -9999 -9999 -9999 -9999 -9999 -9999 -9999 -9999 
1.0904859304428100586 1.0923523902893066406 1.0747039318084716797 1.0617005825042724609 -9999 -9999 1.1479238271713256836 1.2127125263214111328 1.1412498950958251953 1.0855085849761962891 1.0515602827072143555 1.0584734678268432617 1.0487433671951293945 -9999 -9999 -9999 -9999 -9999 -9999 -9999 -9999 1.1537154912948608398 1.4559524059295654297 1.2663092613220214844 1.2904747724533081055 1.5150067806243896484 1.8237760066986083984 2.6001114845275878906 3.316753387451171875 6.2361159324645996094 7.8680033683776855469 5.66355133056640625 4.5306115150451660156 4.8526949882507324219 4.505756378173828125 3.7759344577789306641 2.2024948596954345703 1.10886383056640625 -9999 -9999 -9999 -9999 -9999 -9999 -9999 -9999 -9999 -9999 -9999 -9999 -9999 -9999 -9999 -9999 -9999 -9999 -9999 -9999 -9999 -9999 -9999 -9999 -9999 -9999 -9999 -9999 -9999 -9999 -9999 -9999 -9999 -9999 1.1661715507507324219 1.2993894815444946289 1.2424389123916625977 1.0924154520034790039 -9999 -9999 1.0105013847351074219 1.1454257965087890625 1.4695256948471069336 1.8458806276321411133 2.2950489521026611328 2.3333437442779541016 1.6905606985092163086 2.6082818508148193359 2.9559075832366943359 1.6984589099884033203 1.5725328922271728516 1.2506492137908935547 -9999 1.0295100212097167969 -9999 -9999 -9999 -9999 -9999 -9999 -9999 -9999 -9999 -9999 -9999 -9999 -9999 -9999 -9999 -9999 -9999 -9999 -9999 -9999 -9999 -9999 -9999 -9999 -9999 -9999 -9999 -9999 -9999 -9999 -9999 -9999 -9999 -9999 -9999 
1.0877839326858520508 1.0668647289276123047 1.0591757297515869141 1.0583531856536865234 -9999 -9999 1.280327916145324707 1.2680188417434692383 1.1726915836334228516 1.1108982563018798828 1.0625798702239990234 1.0799713134765625 1.0229810476303100586 -9999 -9999 1.0565763711929321289 1.0363701581954956055 1.0248808860778808594 1.0425280332565307617 -9999 -9999 1.1566045284271240234 1.4015843868255615234 1.3414199352264404297 1.3385721445083618164 1.3234279155731201172 1.8640099763870239258 2.8260865211486816406 2.7111318111419677734 3.9817922115325927734 6.8504710197448730469 5.2826247215270996094 4.7239890098571777344 6.5393900871276855469 7.2176046371459960938 6.1608495712280273438 4.0622549057006835938 1.8280893564224243164 -9999 -9999 -9999 -9999 -9999 -9999 -9999 -9999 -9999 -9999 -9999 -9999 -9999 -9999 -9999 -9999 -9999 -9999 1.0343685150146484375 1.0155494213104248047 -9999 -9999 -9999 -9999 -9999 -9999 -9999 -9999 -9999 -9999 -9999 -9999 -9999 1.1800693273544311523 1.3543291091918945312 1.4884334802627563477 1.2001687288284301758 1.0551992654800415039 -9999 -9999 1.0389841794967651367 1.3922548294067382812 2.1391668319702148438 2.5734045505523681641 3.0427930355072021484 2.4023842811584472656 2.7019422054290771484 3.7930784225463867188 3.1612303256988525391 1.7478225231170654297 1.4684013128280639648 1.2605527639389038086 -9999 1.0385681390762329102 1.0178556442260742188 -9999 -9999 -9999 -9999 -9999 -9999 -9999 -9999 -9999 -9999 -9999 1.1029219627380371094 -9999 -9999 -9999 -9999 -9999 -9999 -9999 -9999 -9999 -9999 -9999 -9999 -9999 -9999 -9999 -9999 -9999 -9999 -9999 -9999 -9999 -9999 
1.0269376039505004883 1.0488904714584350586 1.0647110939025878906 1.067286372184753418 1.0494774580001831055 1.1388809680938720703 1.2358702421188354492 1.1994413137435913086 1.1867235898971557617 1.1084874868392944336 1.0531495809555053711 1.0546410083770751953 -9999 -9999 1.1284787654876708984 1.2371088266372680664 1.2120790481567382812 1.066593170166015625 1.2534556388854980469 -9999 1.1522960662841796875 1.3300642967224121094 1.6076922416687011719 1.8669286966323852539 1.4625351428985595703 1.5939517021179199219 2.1703989505767822266 2.8325183391571044922 2.7606945037841796875 3.3946783542633056641 4.3122239112854003906 2.832370758056640625 3.4746663570404052734 6.6656317710876464844 8.0784921646118164062 7.0137009620666503906 6.2780938148498535156 4.0838322639465332031 2.2061777114868164062 1.6894859075546264648 1.583432316780090332 -9999 -9999 -9999 -9999 -9999 -9999 -9999 -9999 -9999 -9999 -9999 1.0031869411468505859 1.0048292875289916992 -9999 1.1921263933181762695 1.047230839729309082 -9999 -9999 -9999 -9999 -9999 -9999 -9999 -9999 -9999 -9999 -9999 -9999 -9999 1.8069196939468383789 2.5900197029113769531 2.4528222084045410156 1.8041754961013793945 1.2100386619567871094 1.0287237167358398438 -9999 -9999 1.2647194862365722656 2.4299635887145996094 3.5608530044555664062 3.6625692844390869141 4.2527298927307128906 2.8572068214416503906 4.4857797622680664062 4.5502033233642578125 2.8611819744110107422 1.3161851167678833008 1.172276616096496582 1.1410907506942749023 -9999 1.0771058797836303711 1.040327906608581543 -9999 -9999 -9999 -9999 -9999 -9999 -9999 -9999 -9999 -9999 -9999 -9999 -9999 -9999 -9999 -9999 -9999 -9999 -9999 -9999 -9999 -9999 -9999 -9999 -9999 -9999 -9999 -9999 -9999 -9999 -9999 -9999 -9999 -9999 
1.0346837043762207031 1.0090725421905517578 -9999 -9999 1.1028572320938110352 1.1483211517333984375 1.1960271596908569336 1.2036762237548828125 1.1069080829620361328 1.0553525686264038086 1.049715876579284668 1.0318944454193115234 -9999 -9999 1.1654845476150512695 1.2361341714859008789 1.1830148696899414062 1.1280189752578735352 1.3410069942474365234 1.4867987632751464844 1.4909476041793823242 1.7025719881057739258 1.7094492912292480469 2.2008984088897705078 1.7424552440643310547 1.5353447198867797852 1.6056500673294067383 2.5986311435699462891 3.7116115093231201172 5.0679569244384765625 2.7359378337860107422 1.7627146244049072266 3.3069751262664794922 5.8609094619750976562 8.2051572799682617188 7.7077465057373046875 7.4736318588256835938 6.8459520339965820312 5.3472433090209960938 3.9193401336669921875 2.7170119285583496094 1.3810230493545532227 -9999 -9999 -9999 -9999 -9999 -9999 -9999 -9999 -9999 -9999 -9999 -9999 1.2151612043380737305 1.476813197135925293 1.1343476772308349609 1.0621964931488037109 1.1043043136596679688 1.0404112339019775391 -9999 1.1205198764801025391 -9999 -9999 -9999 -9999 1.2882186174392700195 1.4346369504928588867 1.7623053789138793945 2.4838020801544189453 4.3903875350952148438 5.1321806907653808594 4.1062703132629394531 4.0010304450988769531 1.7753663063049316406 1.0497032403945922852 1.0541625022888183594 1.0722390413284301758 1.6572872400283813477 3.1421806812286376953 2.9807932376861572266 3.2220034599304199219 5.3574843406677246094 3.5080509185791015625 5.3838853836059570312 4.5411481857299804688 2.1043784618377685547 -9999 1.1179492473602294922 -9999 1.0631014108657836914 1.1384831666946411133 1.0555387735366821289 -9999 -9999 -9999 -9999 -9999 -9999 -9999 -9999 -9999 -9999 -9999 -9999 -9999 -9999 -9999 -9999 -9999 -9999 -9999 -9999 -9999 -9999 -9999 -9999 -9999 -9999 -9999 -9999 -9999 -9999 -9999 -9999 -9999 -9999 
1.0104678869247436523 1.0039393901824951172 -9999 1.1279263496398925781 1.0686719417572021484 1.0711922645568847656 1.084499359130859375 1.1450933218002319336 1.1322253942489624023 1.1045813560485839844 1.0428348779678344727 -9999 1.2879263162612915039 1.1487102508544921875 1.2119755744934082031 1.1331053972244262695 1.1020473241806030273 1.2677756547927856445 1.4280500411987304688 1.5976520776748657227 1.6441744565963745117 1.6064013242721557617 1.6394870281219482422 1.9267314672470092773 2.1424288749694824219 2.0515377521514892578 2.1121337413787841797 2.3015062808990478516 2.7731847763061523438 3.9708473682403564453 2.1027760505676269531 3.2305011749267578125 4.663829803466796875 4.9820704460144042969 7.9341797828674316406 9.4161891937255859375 8.7863721847534179688 7.0929379463195800781 6.5667853355407714844 5.5963759422302246094 4.1111598014831542969 3.0164213180541992188 1.7743886709213256836 -9999 -9999 -9999 -9999 -9999 -9999 -9999 -9999 1.1724729537963867188 1.3838487863540649414 1.3021529912948608398 1.4290068149566650391 1.4331821203231811523 -9999 1.1700395345687866211 1.3123968839645385742 1.1713854074478149414 -9999 -9999 1.1016550064086914062 -9999 -9999 1.2771258354187011719 1.8994470834732055664 2.0023646354675292969 2.6933104991912841797 3.6804573535919189453 5.8199138641357421875 7.4074988365173339844 7.6949267387390136719 5.9364709854125976562 2.4992783069610595703 1.8513990640640258789 1.4081412553787231445 1.2656869888305664062 2.3590636253356933594 3.5855748653411865234 2.8777725696563720703 4.1211223602294921875 5.2325387001037597656 3.8961966037750244141 4.6743636131286621094 4.1216864585876464844 1.7538290023803710938 1.0444948673248291016 1.0929198265075683594 -9999 1.0451616048812866211 1.1472685337066650391 1.0449641942977905273 -9999 -9999 -9999 -9999 -9999 -9999 -9999 -9999 -9999 1.1392776966094970703 -9999 -9999 -9999 -9999 -9999 -9999 -9999 -9999 -9999 -9999 -9999 -9999 -9999 -9999 -9999 -9999 -9999 -9999 -9999 -9999 -9999 -9999 -9999 -9999 
-9999 1.0566562414169311523 1.0365658998489379883 1.0243675708770751953 1.0519541501998901367 -9999 -9999 1.0931088924407958984 1.0918174982070922852 1.0570957660675048828 -9999 -9999 1.2404265403747558594 1.158105015754699707 1.1751612424850463867 1.1862025260925292969 1.2853184938430786133 1.5252631902694702148 1.4270076751708984375 1.4064939022064208984 1.4813098907470703125 1.6094106435775756836 1.6992330551147460938 1.6824314594268798828 2.5186636447906494141 2.6564161777496337891 2.9239683151245117188 3.0452029705047607422 2.4889123439788818359 2.194000244140625 1.3157794475555419922 2.3976738452911376953 3.7363369464874267578 4.4598608016967773438 6.3675374984741210938 9.1133480072021484375 10.322336196899414062 8.5330648422241210938 6.9255356788635253906 6.6135506629943847656 6.7682042121887207031 6.8008813858032226562 4.1310567855834960938 1.8044799566268920898 1.1171530485153198242 1.0663020610809326172 -9999 -9999 -9999 1.4908709526062011719 2.0317234992980957031 2.6022355556488037109 3.0528168678283691406 2.3574786186218261719 2.4110224246978759766 1.7212804555892944336 1.1147260665893554688 1.1916961669921875 1.3326482772827148438 1.1850121021270751953 -9999 -9999 -9999 -9999 -9999 1.3903698921203613281 1.9214626550674438477 2.1096546649932861328 3.8305563926696777344 4.3763570785522460938 6.2249588966369628906 8.701114654541015625 8.4221134185791015625 6.2038393020629882812 4.0380725860595703125 4.2479844093322753906 3.5554304122924804688 2.5604183673858642578 3.6641371250152587891 3.8443176746368408203 3.4165203571319580078 3.6382200717926025391 3.2630481719970703125 4.9709110260009765625 5.1432657241821289062 3.9264645576477050781 1.6543635129928588867 1.0243860483169555664 -9999 -9999 -9999 -9999 -9999 -9999 -9999 -9999 -9999 1.0511560440063476562 1.0838410854339599609 1.0926429033279418945 -9999 1.048733830451965332 -9999 -9999 -9999 -9999 -9999 -9999 -9999 -9999 -9999 -9999 -9999 -9999 -9999 -9999 -9999 -9999 -9999 -9999 -9999 -9999 -9999 -9999 -9999 -9999 -9999 
-9999 1.090008854866027832 1.0318888425827026367 1.0091195106506347656 -9999 -9999 -9999 1.0945640802383422852 1.0806027650833129883 1.0187587738037109375 -9999 -9999 1.1121811866760253906 1.2546151876449584961 1.2828838825225830078 1.2268580198287963867 1.2844527959823608398 1.2754365205764770508 1.1667573451995849609 1.2500535249710083008 1.3150101900100708008 1.6747585535049438477 1.8005161285400390625 1.9949810504913330078 1.9794359207153320312 1.4826990365982055664 2.0308868885040283203 3.0628256797790527344 2.2346398830413818359 1.3446465730667114258 1.2608057260513305664 1.3473579883575439453 1.5040363073348999023 2.3959546089172363281 2.5092439651489257812 5.3112158775329589844 7.8990931510925292969 6.4207630157470703125 6.6806287765502929688 6.4895925521850585938 7.9993562698364257812 7.2665657997131347656 6.6177678108215332031 5.0650544166564941406 2.4591572284698486328 1.3002316951751708984 1.2549611330032348633 2.11383056640625 2.4864969253540039062 3.5627472400665283203 4.8935484886169433594 5.1073555946350097656 3.98021697998046875 3.0313701629638671875 3.0867259502410888672 1.5528223514556884766 1.1353046894073486328 1.1174230575561523438 1.1097699403762817383 -9999 -9999 -9999 -9999 -9999 -9999 -9999 1.3958971500396728516 3.1800603866577148438 6.8612003326416015625 7.8212261199951171875 8.6752681732177734375 9.1181287765502929688 7.5011453628540039062 5.7487797737121582031 6.2499237060546875 6.6270437240600585938 5.7885990142822265625 4.5032486915588378906 3.3929572105407714844 2.7689244747161865234 4.1009211540222167969 3.1242995262145996094 1.8386017084121704102 3.7002263069152832031 5.2578153610229492188 3.1883933544158935547 1.2447189092636108398 1.0099329948425292969 -9999 -9999 -9999 -9999 -9999 -9999 -9999 1.0777521133422851562 1.0330005884170532227 -9999 -9999 -9999 -9999 -9999 -9999 -9999 -9999 -9999 -9999 -9999 -9999 -9999 -9999 -9999 -9999 -9999 -9999 -9999 -9999 -9999 -9999 -9999 -9999 -9999 -9999 -9999 -9999 -9999 -9999 
-9999 -9999 -9999 -9999 -9999 1.01911163330078125 -9999 1.049508213996887207 -9999 -9999 -9999 -9999 1.0910526514053344727 1.2727674245834350586 1.3710442781448364258 1.3475916385650634766 1.2789901494979858398 1.2183706760406494141 1.1249660253524780273 1.2215613126754760742 1.4037020206451416016 1.5244858264923095703 1.3681683540344238281 1.5029597282409667969 1.3296904563903808594 1.1288889646530151367 1.4674620628356933594 1.948914647102355957 2.0212180614471435547 1.3216083049774169922 1.1602466106414794922 -9999 1.2315709590911865234 1.5914326906204223633 1.3305144309997558594 2.2853569984436035156 3.1360416412353515625 3.7166652679443359375 6.2994661331176757812 6.7833499908447265625 6.3151540756225585938 6.9204854965209960938 8.3585405349731445312 7.6755814552307128906 4.6934185028076171875 2.229267120361328125 2.1867139339447021484 4.2743501663208007812 5.1953158378601074219 6.2971501350402832031 5.8740787506103515625 5.4526576995849609375 2.9396619796752929688 4.0314760208129882812 3.4712567329406738281 1.5808770656585693359 1.081745147705078125 1.0533039569854736328 -9999 1.0439672470092773438 -9999 -9999 -9999 -9999 -9999 -9999 1.974587559700012207 5.5543866157531738281 8.1239976882934570312 8.9664506912231445312 9.6684846878051757812 9.374355316162109375 8.218738555908203125 5.1581974029541015625 5.7518115043640136719 6.3960623741149902344 4.9038076400756835938 4.0071592330932617188 3.4024331569671630859 3.5526189804077148438 3.3570294380187988281 1.9570801258087158203 1.8453600406646728516 3.6645412445068359375 4.3359417915344238281 2.3183193206787109375 -9999 -9999 -9999 -9999 -9999 1.0337239503860473633 1.0171827077865600586 -9999 -9999 -9999 -9999 -9999 -9999 -9999 -9999 -9999 -9999 -9999 -9999 -9999 -9999 -9999 -9999 -9999 -9999 -9999 -9999 -9999 -9999 -9999 -9999 -9999 -9999 -9999 -9999 -9999 -9999 -9999 -9999 -9999 -9999 
-9999 -9999 -9999 1.0505050420761108398 1.0865273475646972656 1.0391466617584228516 1.0205360651016235352 1.0672985315322875977 1.0257076025009155273 -9999 -9999 1.1406759023666381836 1.1027226448059082031 1.2236183881759643555 1.3618185520172119141 1.2706972360610961914 1.227114558219909668 1.2185146808624267578 1.1129620075225830078 1.3049228191375732422 1.547786712646484375 1.3531569242477416992 1.175258636474609375 -9999 -9999 -9999 1.0714873075485229492 1.5437453985214233398 2.265911102294921875 1.4526305198669433594 1.1880630254745483398 1.2798924446105957031 1.3505311012268066406 1.5583111047744750977 1.2536257505416870117 1.2302949428558349609 1.6322057247161865234 2.8819398880004882812 4.5692005157470703125 6.2904696464538574219 5.8630976676940917969 6.6471276283264160156 8.6463947296142578125 8.4933910369873046875 5.89824676513671875 3.5228121280670166016 3.7750091552734375 7.1391301155090332031 8.5136919021606445312 8.883983612060546875 7.8630275726318359375 6.5110425949096679688 4.2208027839660644531 6.29181671142578125 3.5720005035400390625 2.3650908470153808594 1.2169462442398071289 -9999 1.1176397800445556641 1.0670505762100219727 1.3810589313507080078 2.3530402183532714844 1.8915412425994873047 1.1271176338195800781 1.1911709308624267578 1.9618306159973144531 4.1741271018981933594 6.7840867042541503906 7.0043163299560546875 9.4230403900146484375 9.000492095947265625 7.0033845901489257812 6.8445577621459960938 4.2354550361633300781 4.4789834022521972656 5.5609259605407714844 3.0894222259521484375 2.9086427688598632812 5.2614426612854003906 5.5888438224792480469 2.6311712265014648438 1.7926882505416870117 2.4448797702789306641 3.031768798828125 2.7496900558471679688 -9999 -9999 -9999 -9999 -9999 -9999 1.0524412393569946289 1.0473713874816894531 -9999 -9999 -9999 -9999 -9999 -9999 -9999 -9999 -9999 -9999 -9999 -9999 -9999 -9999 -9999 -9999 -9999 -9999 -9999 -9999 -9999 -9999 -9999 -9999 -9999 -9999 -9999 -9999 -9999 -9999 -9999 -9999 -9999 -9999 
-9999 -9999 -9999 1.0784204006195068359 1.0871006250381469727 1.0594507455825805664 1.0256400108337402344 -9999 -9999 -9999 1.1674492359161376953 1.1269911527633666992 1.065715789794921875 1.1009783744812011719 1.2452690601348876953 1.2259880304336547852 1.2256398200988769531 1.2241337299346923828 1.2082543373107910156 1.3444809913635253906 1.4895818233489990234 1.4023027420043945312 1.2783833742141723633 -9999 1.2316172122955322266 -9999 1.287639617919921875 2.1474192142486572266 2.2350027561187744141 1.3104631900787353516 1.1868022680282592773 1.4091501235961914062 1.8779034614562988281 1.7538697719573974609 1.9074753522872924805 1.4385223388671875 1.2887285947799682617 1.7564136981964111328 3.3191192150115966797 3.5567333698272705078 3.9092018604278564453 4.820068359375 5.1243886947631835938 7.2854895591735839844 6.4577040672302246094 5.0364804267883300781 5.9881815910339355469 8.6731805801391601562 10.283503532409667969 10.486471176147460938 10.081167221069335938 7.2075886726379394531 5.4632825851440429688 6.3712825775146484375 5.1623783111572265625 3.3496468067169189453 1.9599677324295043945 -9999 -9999 -9999 1.4775928258895874023 3.8304817676544189453 4.3559899330139160156 2.4445562362670898438 2.3164703845977783203 4.8709926605224609375 7.4645948410034179688 8.1978664398193359375 7.2884082794189453125 9.1845235824584960938 8.5380764007568359375 6.7341794967651367188 7.3365368843078613281 4.5401844978332519531 4.5096898078918457031 5.1356940269470214844 2.2337021827697753906 3.3482136726379394531 6.4805498123168945312 5.1940817832946777344 2.2541668415069580078 1.5437639951705932617 1.658083796501159668 1.3026746511459350586 1.1240146160125732422 -9999 -9999 -9999 -9999 -9999 -9999 1.0771424770355224609 1.0668866634368896484 -9999 -9999 -9999 -9999 -9999 -9999 -9999 -9999 -9999 -9999 -9999 -9999 -9999 -9999 -9999 -9999 -9999 -9999 -9999 -9999 -9999 -9999 -9999 -9999 -9999 -9999 -9999 -9999 -9999 -9999 -9999 -9999 -9999 -9999 
-9999 -9999 -9999 1.0748914480209350586 1.0567042827606201172 1.0410925149917602539 1.0388125181198120117 -9999 -9999 -9999 1.0471285581588745117 1.0457128286361694336 1.0520535707473754883 1.0395770072937011719 1.1072185039520263672 1.1149066686630249023 1.2169249057769775391 1.2301857471466064453 1.2531418800354003906 1.3341872692108154297 1.3677687644958496094 1.3319667577743530273 1.2016704082489013672 -9999 -9999 -9999 1.3251785039901733398 2.1439175605773925781 1.8994834423065185547 1.3623139858245849609 1.5019870996475219727 2.1048197746276855469 2.2656002044677734375 1.649359583854675293 1.5686513185501098633 1.3401035070419311523 1.5120207071304321289 1.7682604789733886719 2.0350816249847412109 2.8392810821533203125 2.6327912807464599609 2.5156350135803222656 2.9493670463562011719 3.6978719234466552734 4.7450070381164550781 4.467617034912109375 6.8490571975708007812 9.5093851089477539062 10.356076240539550781 10.602759361267089844 9.8638410568237304688 7.0147490501403808594 3.8610110282897949219 5.2890520095825195312 5.585948944091796875 3.3006749153137207031 1.8911663293838500977 1.2284113168716430664 1.2660884857177734375 1.245386958122253418 -9999 3.8029077053070068359 4.9564995765686035156 3.713710784912109375 4.6928572654724121094 6.1181273460388183594 6.9482827186584472656 7.9954791069030761719 8.33979034423828125 6.98053741455078125 6.2685456275939941406 5.7106442451477050781 5.2649178504943847656 3.5420994758605957031 5.0952935218811035156 4.5137681961059570312 2.0407652854919433594 2.3750441074371337891 4.0861005783081054688 3.3089756965637207031 2.8081648349761962891 1.829407811164855957 1.1918598413467407227 -9999 1.0033102035522460938 -9999 -9999 1.281628727912902832 1.4300332069396972656 -9999 -9999 -9999 -9999 -9999 -9999 -9999 -9999 -9999 -9999 -9999 -9999 -9999 -9999 -9999 -9999 -9999 -9999 -9999 -9999 -9999 -9999 -9999 -9999 -9999 -9999 -9999 -9999 -9999 -9999 -9999 -9999 -9999 -9999 -9999 -9999 -9999 -9999 
-9999 -9999 1.0539058446884155273 -9999 1.0444452762603759766 1.0288540124893188477 1.0186492204666137695 -9999 -9999 1.0651135444641113281 1.0552532672882080078 1.0634472370147705078 -9999 1.0660306215286254883 1.163393855094909668 1.1088197231292724609 1.1526396274566650391 1.1514959335327148438 1.2606093883514404297 1.2345510721206665039 1.1912074089050292969 1.1726622581481933594 1.0721848011016845703 -9999 -9999 -9999 1.398820042610168457 1.4929491281509399414 1.3286647796630859375 1.2134133577346801758 1.7012857198715209961 2.6364076137542724609 2.32825469970703125 1.9748578071594238281 1.4617459774017333984 1.5617510080337524414 1.5732598304748535156 1.9064866304397583008 2.2899901866912841797 2.0426585674285888672 1.7267566919326782227 2.0482075214385986328 2.356754302978515625 2.3797638416290283203 5.31636810302734375 6.3638210296630859375 7.8338274955749511719 10.350583076477050781 9.6661443710327148438 10.849543571472167969 10.353740692138671875 7.9089026451110839844 4.6024980545043945312 7.0956125259399414062 5.1611676216125488281 3.7727320194244384766 2.3655829429626464844 2.6623792648315429688 3.4659276008605957031 3.1844289302825927734 2.7569193840026855469 4.4617619514465332031 6.3680443763732910156 7.0065455436706542969 7.739215850830078125 6.109554290771484375 6.4976916313171386719 9.118396759033203125 8.86934661865234375 8.6754846572875976562 6.455410003662109375 5.1843438148498535156 4.37651824951171875 5.2953886985778808594 5.8579659461975097656 3.4381496906280517578 4.4081530570983886719 5.2567701339721679688 3.5688812732696533203 3.2505154609680175781 2.7569332122802734375 1.5636866092681884766 -9999 1.0778708457946777344 1.0735129117965698242 -9999 -9999 1.195116877555847168 1.277090907096862793 -9999 -9999 -9999 -9999 -9999 -9999 -9999 -9999 1.0502436161041259766 -9999 -9999 -9999 -9999 -9999 -9999 -9999 -9999 -9999 -9999 -9999 -9999 -9999 -9999 -9999 -9999 -9999 -9999 -9999 -9999 -9999 -9999 -9999 -9999 -9999 -9999 -9999 -9999 -9999 
-9999 -9999 -9999 1.0257308483123779297 1.0373740196228027344 -9999 -9999 -9999 1.0731872320175170898 1.0595313310623168945 1.0639115571975708008 1.0835187435150146484 1.2155854701995849609 1.1624029874801635742 1.1503692865371704102 -9999 -9999 1.0882334709167480469 1.1031473875045776367 1.1216710805892944336 1.2076632976531982422 1.1780318021774291992 1.1037926673889160156 -9999 -9999 1.4817588329315185547 1.4119083881378173828 1.4237864017486572266 -9999 1.4213895797729492188 1.8108309507369995117 2.2719583511352539062 2.061115264892578125 1.4028209447860717773 1.4002630710601806641 1.4097959995269775391 1.7016729116439819336 2.8860960006713867188 4.1063356399536132812 2.9279506206512451172 2.7570140361785888672 2.2788174152374267578 2.16968536376953125 2.0803444385528564453 3.5622148513793945312 6.3066763877868652344 6.9572973251342773438 10.302905082702636719 9.935333251953125 10.712773323059082031 10.923987388610839844 8.1506748199462890625 7.0155935287475585938 8.5443820953369140625 6.0481357574462890625 5.1172537803649902344 4.2577772140502929688 5.1308865547180175781 6.4504151344299316406 6.2839021682739257812 5.9271874427795410156 7.813892364501953125 8.4197549819946289062 8.8947725296020507812 10.035064697265625 9.1709451675415039062 9.3945751190185546875 10.628729820251464844 10.693392753601074219 10.671694755554199219 8.5231685638427734375 6.6330051422119140625 6.2019300460815429688 6.7590126991271972656 5.5516724586486816406 4.9291605949401855469 7.6286225318908691406 7.7121648788452148438 5.5442352294921875 4.8974223136901855469 2.6005795001983642578 1.3212172985076904297 1.0837078094482421875 1.1199753284454345703 1.0700862407684326172 1.2010583877563476562 1.1194525957107543945 -9999 -9999 -9999 -9999 -9999 -9999 -9999 -9999 -9999 -9999 -9999 -9999 -9999 -9999 -9999 -9999 -9999 -9999 -9999 -9999 -9999 -9999 -9999 -9999 -9999 -9999 -9999 -9999 -9999 -9999 -9999 -9999 -9999 -9999 -9999 -9999 -9999 -9999 -9999 -9999 
-9999 -9999 1.0430169105529785156 -9999 -9999 -9999 -9999 -9999 -9999 1.0621443986892700195 -9999 1.0437800884246826172 -9999 1.1240314245223999023 1.1186501979827880859 1.0635933876037597656 1.077164769172668457 1.108418583869934082 1.163817286491394043 1.1942342519760131836 1.1161550283432006836 -9999 -9999 -9999 1.1898052692413330078 1.2562737464904785156 -9999 1.6927583217620849609 1.3625932931900024414 1.3476884365081787109 1.6493765115737915039 2.0388643741607666016 1.7865239381790161133 1.3154526948928833008 1.3022545576095581055 1.8399945497512817383 2.9346845149993896484 4.1477003097534179688 4.6857428550720214844 4.0133938789367675781 4.0447850227355957031 2.3438580036163330078 1.8983839750289916992 2.7189443111419677734 3.5810465812683105469 5.702251434326171875 8.1843900680541992188 9.6662311553955078125 10.537694931030273438 9.5334081649780273438 8.0453977584838867188 7.2271633148193359375 9.163875579833984375 8.6326227188110351562 7.6885075569152832031 6.5593051910400390625 6.1995120048522949219 7.1616616249084472656 6.2179994583129882812 6.9407401084899902344 8.7270765304565429688 9.6399583816528320312 9.2339630126953125 9.707065582275390625 10.097090721130371094 8.0377216339111328125 9.2406835556030273438 9.2552537918090820312 8.969684600830078125 9.1955108642578125 6.6172056198120117188 6.2700924873352050781 8.2280139923095703125 7.546672821044921875 5.9089756011962890625 6.8019728660583496094 8.68935394287109375 7.2952942848205566406 5.5829272270202636719 4.9552702903747558594 1.9201555252075195312 1.1863461732864379883 1.1937129497528076172 -9999 -9999 -9999 1.0530699491500854492 1.1272736787796020508 1.1007301807403564453 -9999 -9999 -9999 -9999 -9999 -9999 -9999 -9999 -9999 -9999 -9999 -9999 -9999 -9999 -9999 -9999 -9999 -9999 -9999 -9999 -9999 -9999 -9999 -9999 -9999 -9999 -9999 -9999 -9999 -9999 -9999 -9999 -9999 -9999 -9999 -9999 -9999 -9999 
-9999 -9999 1.0832436084747314453 -9999 -9999 -9999 -9999 -9999 -9999 1.088603973388671875 -9999 1.0512812137603759766 -9999 1.044361114501953125 1.1152217388153076172 1.0822547674179077148 1.1814147233963012695 1.1431070566177368164 1.1581248044967651367 1.129181981086730957 -9999 1.1515654325485229492 -9999 -9999 -9999 1.2636315822601318359 -9999 1.1244791746139526367 1.0926030874252319336 1.1473300457000732422 1.7350759506225585938 2.0209183692932128906 1.5961230993270874023 1.3006798028945922852 1.2858686447143554688 2.4260640144348144531 2.9518945217132568359 4.1490025520324707031 3.5386502742767333984 4.3008189201354980469 4.3605580329895019531 2.6316061019897460938 2.9883711338043212891 2.6991093158721923828 3.6979281902313232422 4.7993330955505371094 8.8032808303833007812 9.235157012939453125 9.7727985382080078125 7.2059226036071777344 3.885272979736328125 8.0799045562744140625 10.263943672180175781 9.6152744293212890625 8.2725067138671875 7.9169335365295410156 8.1620473861694335938 6.9792909622192382812 4.978900909423828125 8.4411153793334960938 10.135434150695800781 9.9938898086547851562 9.4525051116943359375 9.9794797897338867188 10.164454460144042969 7.3467946052551269531 8.665561676025390625 7.9890546798706054688 8.2297344207763671875 7.0739927291870117188 5.1214823722839355469 8.9875364303588867188 7.7700018882751464844 7.1171317100524902344 8.442596435546875 8.5795240402221679688 9.6149425506591796875 6.3466882705688476562 5.7712435722351074219 3.0010497570037841797 1.3421434164047241211 1.1809307336807250977 1.1429132223129272461 -9999 -9999 -9999 1.0835078954696655273 1.160546422004699707 -9999 -9999 -9999 -9999 -9999 -9999 -9999 -9999 -9999 -9999 -9999 -9999 -9999 -9999 -9999 -9999 -9999 -9999 -9999 -9999 -9999 -9999 -9999 -9999 -9999 -9999 -9999 -9999 -9999 -9999 -9999 -9999 -9999 -9999 -9999 -9999 -9999 -9999 -9999 
-9999 -9999 -9999 1.087984919548034668 -9999 -9999 -9999 -9999 -9999 -9999 1.0563013553619384766 1.0324459075927734375 1.0331804752349853516 1.0197259187698364258 1.0706455707550048828 1.1453381776809692383 1.1898586750030517578 1.1737637519836425781 1.0951166152954101562 1.0587612390518188477 -9999 1.0544080734252929688 -9999 -9999 -9999 -9999 -9999 -9999 1.0987421274185180664 1.1540660858154296875 1.3115723133087158203 1.3824616670608520508 1.9149483442306518555 1.7507352828979492188 1.5709241628646850586 1.5987837314605712891 1.5288902521133422852 2.9168713092803955078 3.8637032508850097656 5.4854722023010253906 4.8081355094909667969 3.9097800254821777344 3.9551205635070800781 3.7727141380310058594 6.5754971504211425781 6.9388451576232910156 8.3437986373901367188 8.8373546600341796875 9.0410823822021484375 5.1775960922241210938 4.3607311248779296875 9.2293462753295898438 10.408960342407226562 9.5538196563720703125 7.7544369697570800781 7.5089039802551269531 7.6400995254516601562 6.1379833221435546875 7.6333270072937011719 8.470294952392578125 7.4758539199829101562 8.3408107757568359375 7.0406160354614257812 7.7956027984619140625 9.1473875045776367188 7.8124403953552246094 8.6337080001831054688 8.9701490402221679688 9.5736560821533203125 8.1579828262329101562 6.3850541114807128906 7.0435686111450195312 6.1536860466003417969 9.6794614791870117188 8.8007574081420898438 8.80881500244140625 9.5642499923706054688 7.9244670867919921875 4.8896012306213378906 1.9117146730422973633 1.4847408533096313477 1.2117999792098999023 -9999 -9999 -9999 -9999 1.0234005451202392578 -9999 -9999 -9999 -9999 -9999 -9999 -9999 -9999 -9999 -9999 -9999 -9999 -9999 -9999 -9999 -9999 -9999 -9999 -9999 -9999 -9999 -9999 -9999 -9999 -9999 -9999 -9999 -9999 -9999 -9999 -9999 -9999 -9999 -9999 -9999 -9999 -9999 -9999 -9999 -9999 
-9999 -9999 -9999 -9999 -9999 -9999 -9999 -9999 -9999 1.0537627935409545898 1.0722379684448242188 1.0745958089828491211 1.0741845369338989258 1.0611935853958129883 1.1167697906494140625 1.1146711111068725586 1.1494989395141601562 1.1141105890274047852 1.065152287483215332 -9999 -9999 -9999 -9999 -9999 -9999 -9999 -9999 -9999 1.1527829170227050781 1.1951601505279541016 -9999 1.1904442310333251953 1.7638938426971435547 1.7073242664337158203 1.826287388801574707 1.6899398565292358398 2.4904668331146240234 4.1931104660034179688 4.8654427528381347656 5.4287581443786621094 3.7020022869110107422 5.0867114067077636719 4.7679042816162109375 5.1562952995300292969 8.486423492431640625 7.3985738754272460938 7.1608753204345703125 6.4267477989196777344 6.08243560791015625 3.9413666725158691406 6.8308978080749511719 9.4201259613037109375 9.9850673675537109375 9.19600677490234375 7.8877162933349609375 7.4424586296081542969 4.7548151016235351562 6.1729707717895507812 7.5164470672607421875 7.09601593017578125 6.7875609397888183594 7.0374698638916015625 6.6926317214965820312 6.8036928176879882812 7.0464606285095214844 7.0657029151916503906 8.0528879165649414062 8.6470966339111328125 9.3873729705810546875 8.5957937240600585938 7.3860630989074707031 7.6769227981567382812 10.211233139038085938 10.429510116577148438 7.0922341346740722656 6.6902079582214355469 9.6590452194213867188 8.3798675537109375 4.0716814994812011719 1.2607022523880004883 1.1166312694549560547 -9999 -9999 -9999 -9999 -9999 1.0280495882034301758 1.0285604000091552734 -9999 -9999 -9999 -9999 -9999 -9999 -9999 -9999 -9999 -9999 -9999 -9999 -9999 -9999 -9999 -9999 -9999 -9999 -9999 -9999 -9999 -9999 -9999 -9999 -9999 -9999 -9999 -9999 -9999 -9999 -9999 -9999 -9999 -9999 -9999 -9999 -9999 -9999 -9999 
-9999 -9999 -9999 -9999 -9999 -9999 1.1325089931488037109 -9999 -9999 1.0485584735870361328 1.0574905872344970703 1.0674192905426025391 1.0924478769302368164 1.1297214031219482422 1.1147255897521972656 1.112130284309387207 1.1647208929061889648 1.0853435993194580078 -9999 -9999 -9999 -9999 -9999 -9999 -9999 -9999 1.1195321083068847656 1.0930389165878295898 1.1285651922225952148 -9999 1.0908472537994384766 1.1684874296188354492 1.713822484016418457 2.0266726016998291016 2.9452297687530517578 3.5688042640686035156 4.4385952949523925781 4.550662994384765625 4.7424602508544921875 4.3538317680358886719 3.5134718418121337891 4.731723785400390625 3.4251847267150878906 4.5169744491577148438 8.63147735595703125 7.4211783409118652344 7.8108935356140136719 7.2367024421691894531 4.677623748779296875 4.8661680221557617188 7.7051291465759277344 9.7873563766479492188 8.8583927154541015625 7.2677168846130371094 7.7344040870666503906 6.2091207504272460938 3.4239521026611328125 3.0597968101501464844 2.9802761077880859375 2.6774849891662597656 2.6077756881713867188 2.4872562885284423828 2.4731626510620117188 2.6716856956481933594 2.6818561553955078125 3.4529223442077636719 6.1749525070190429688 7.6074275970458984375 8.5542430877685546875 7.4375057220458984375 8.199432373046875 9.7767667770385742188 10.676424026489257812 10.189459800720214844 9.3753309249877929688 9.9490079879760742188 9.9145641326904296875 7.1493945121765136719 2.9091100692749023438 1.1361418962478637695 1.0725356340408325195 -9999 -9999 -9999 -9999 -9999 -9999 -9999 -9999 -9999 -9999 1.0327378511428833008 1.0619980096817016602 1.0170407295227050781 -9999 -9999 -9999 -9999 -9999 -9999 -9999 -9999 -9999 -9999 -9999 -9999 -9999 -9999 -9999 -9999 -9999 -9999 -9999 -9999 -9999 -9999 -9999 -9999 -9999 -9999 -9999 -9999 -9999 -9999 -9999 -9999 -9999 
-9999 -9999 -9999 -9999 -9999 -9999 -9999 1.0546206235885620117 -9999 1.0260220766067504883 1.03525543212890625 1.0642970800399780273 1.0991154909133911133 1.0985442399978637695 1.14820098876953125 1.1563566923141479492 1.0983304977416992188 1.0775524377822875977 1.1935516595840454102 1.3236958980560302734 1.2283353805541992188 1.1020214557647705078 -9999 -9999 -9999 -9999 -9999 1.113732457160949707 1.1136063337326049805 1.135603785514831543 1.2194628715515136719 1.3342911005020141602 2.5500390529632568359 2.9889771938323974609 2.8386051654815673828 4.4746842384338378906 5.6442732810974121094 4.8647532463073730469 4.4468388557434082031 4.5078587532043457031 4.2315273284912109375 4.2398467063903808594 4.4274225234985351562 5.336498260498046875 7.4035177230834960938 6.2672185897827148438 7.2134580612182617188 7.4281978607177734375 5.890533447265625 9.2531595230102539062 9.0252943038940429688 10.369367599487304688 9.0242815017700195312 8.2095346450805664062 6.7998952865600585938 3.5679447650909423828 1.6738141775131225586 -9999 -9999 -9999 -9999 -9999 -9999 1.1000187397003173828 -9999 1.3308699131011962891 2.4401414394378662109 4.6101841926574707031 7.415660858154296875 7.5720171928405761719 9.4831829071044921875 9.8118696212768554688 8.8935327529907226562 8.6424503326416015625 10.420666694641113281 10.542081832885742188 9.4263448715209960938 4.9778809547424316406 1.7501350641250610352 1.2016512155532836914 1.0714322328567504883 -9999 -9999 -9999 -9999 -9999 -9999 -9999 -9999 -9999 1.0943019390106201172 1.122700810432434082 1.2121392488479614258 1.0763313770294189453 -9999 -9999 -9999 -9999 -9999 -9999 -9999 -9999 -9999 -9999 -9999 -9999 -9999 -9999 -9999 -9999 -9999 -9999 -9999 -9999 -9999 -9999 -9999 -9999 -9999 -9999 -9999 -9999 -9999 -9999 -9999 -9999 -9999 
-9999 -9999 -9999 -9999 -9999 -9999 -9999 -9999 -9999 1.0523858070373535156 -9999 1.1266149282455444336 1.1488045454025268555 1.151018977165222168 1.1943916082382202148 1.2829550504684448242 1.1545796394348144531 1.4809693098068237305 1.6797641515731811523 1.7944089174270629883 1.4100472927093505859 -9999 -9999 -9999 -9999 1.112547755241394043 1.1143108606338500977 1.1494624614715576172 1.1188296079635620117 1.2528413534164428711 1.5129451751708984375 1.7865471839904785156 3.1450560092926025391 2.6271586418151855469 3.2086756229400634766 5.4309792518615722656 6.1184544563293457031 4.7323756217956542969 5.0683693885803222656 5.4097323417663574219 5.7066798210144042969 5.0377721786499023438 3.8140306472778320312 5.7800469398498535156 5.0468797683715820312 3.0293056964874267578 4.2732548713684082031 5.7493438720703125 6.0482206344604492188 8.7104234695434570312 9.6566019058227539062 9.8531360626220703125 8.1243810653686523438 7.0339493751525878906 3.8246934413909912109 1.4543384313583374023 -9999 -9999 -9999 -9999 -9999 -9999 -9999 -9999 -9999 -9999 -9999 1.9341866970062255859 5.4177374839782714844 7.1073145866394042969 8.0922651290893554688 9.6551113128662109375 7.3432984352111816406 8.4132947921752929688 10.129792213439941406 10.679849624633789062 9.035400390625 4.7188086509704589844 1.4246106147766113281 1.0603231191635131836 -9999 -9999 -9999 -9999 -9999 -9999 -9999 1.0124061107635498047 -9999 1.1214786767959594727 1.0859140157699584961 1.1786963939666748047 1.2890654802322387695 1.0909051895141601562 -9999 -9999 -9999 -9999 -9999 -9999 -9999 -9999 -9999 -9999 -9999 -9999 -9999 -9999 -9999 -9999 -9999 -9999 -9999 -9999 -9999 -9999 -9999 -9999 -9999 -9999 1.0019218921661376953 -9999 -9999 -9999 -9999 -9999 -9999 
-9999 -9999 -9999 -9999 -9999 -9999 -9999 1.132106781005859375 1.1174758672714233398 1.0760660171508789062 1.0692048072814941406 1.1108993291854858398 1.2492934465408325195 1.1490767002105712891 1.1642731428146362305 1.1993995904922485352 1.3915659189224243164 1.7956827878952026367 1.772549748420715332 1.9275531768798828125 1.337145686149597168 1.0751057863235473633 1.0525958538055419922 -9999 1.1123180389404296875 -9999 -9999 1.1499499082565307617 1.1728166341781616211 1.325009465217590332 1.3544306755065917969 1.8166044950485229492 2.6311259269714355469 2.9037625789642333984 5.4298319816589355469 6.4469714164733886719 5.3902478218078613281 5.6368727684020996094 5.8018546104431152344 5.6817779541015625 7.9846301078796386719 5.9219045639038085938 3.7291235923767089844 4.5763845443725585938 2.062458038330078125 1.300174713134765625 2.1967337131500244141 3.8590285778045654297 5.4539875984191894531 5.2719941139221191406 4.6282677650451660156 3.8382999897003173828 3.0943474769592285156 2.5665628910064697266 1.4285933971405029297 -9999 -9999 -9999 -9999 -9999 -9999 -9999 -9999 -9999 -9999 -9999 -9999 1.4094574451446533203 4.4031462669372558594 7.9077920913696289062 8.5975980758666992188 9.157505035400390625 8.25505828857421875 9.5459661483764648438 10.463269233703613281 10.643446922302246094 8.2214021682739257812 4.0283708572387695312 1.2298729419708251953 1.0236898660659790039 -9999 -9999 -9999 -9999 -9999 -9999 1.1559172868728637695 1.1756708621978759766 1.3878142833709716797 1.5745368003845214844 1.5021653175354003906 1.3213114738464355469 1.1947823762893676758 1.0444583892822265625 -9999 -9999 -9999 -9999 -9999 -9999 -9999 -9999 -9999 -9999 -9999 -9999 -9999 -9999 -9999 -9999 -9999 -9999 -9999 -9999 -9999 -9999 -9999 -9999 -9999 -9999 -9999 -9999 -9999 -9999 -9999 -9999 -9999 
-9999 -9999 -9999 -9999 -9999 -9999 -9999 -9999 -9999 -9999 1.0440397262573242188 1.1010531187057495117 1.1681377887725830078 1.095837712287902832 1.1215579509735107422 1.3472318649291992188 2.1264693737030029297 1.9889703989028930664 1.6001365184783935547 1.5162343978881835938 1.1240159273147583008 1.1140512228012084961 -9999 -9999 1.1436555385589599609 -9999 -9999 1.1157127618789672852 1.6019176244735717773 1.8987635374069213867 2.297882080078125 2.5392739772796630859 1.9442501068115234375 3.1680111885070800781 5.6412787437438964844 5.2342858314514160156 5.6616005897521972656 6.9184546470642089844 6.6495747566223144531 5.216136932373046875 5.9431300163269042969 3.9185013771057128906 3.5952994823455810547 2.6243927478790283203 -9999 2.9295802116394042969 3.8350973129272460938 6.2793889045715332031 7.1609511375427246094 7.139545440673828125 4.0649242401123046875 2.0753257274627685547 1.7327185869216918945 1.3973609209060668945 1.2689200639724731445 -9999 -9999 -9999 -9999 -9999 1.0357048511505126953 1.0308626890182495117 1.0792796611785888672 1.2456127405166625977 1.0461770296096801758 1.0318791866302490234 -9999 1.2367012500762939453 2.7166082859039306641 5.3589673042297363281 9.1766300201416015625 10.084608078002929688 10.35736083984375 9.4994726181030273438 10.3517303466796875 10.733937263488769531 8.651172637939453125 3.5238897800445556641 1.2245441675186157227 -9999 -9999 -9999 -9999 -9999 -9999 1.075589299201965332 1.4313614368438720703 1.3737441301345825195 1.3615006208419799805 1.5910507440567016602 1.6261678934097290039 1.5204964876174926758 1.2434389591217041016 -9999 -9999 -9999 -9999 -9999 -9999 -9999 -9999 -9999 -9999 -9999 -9999 -9999 -9999 -9999 -9999 -9999 -9999 -9999 -9999 -9999 -9999 -9999 -9999 -9999 -9999 -9999 -9999 -9999 -9999 -9999 -9999 -9999 -9999 
-9999 -9999 -9999 -9999 -9999 1.0216419696807861328 -9999 -9999 -9999 1.0360523462295532227 1.0497689247131347656 1.1628187894821166992 1.1876112222671508789 1.1464165449142456055 1.3108295202255249023 1.7218040227890014648 1.8477121591567993164 1.5268038511276245117 1.529805302619934082 1.277209162712097168 1.1958621740341186523 -9999 -9999 1.1106865406036376953 -9999 1.1177489757537841797 1.1483590602874755859 1.3746629953384399414 1.7884789705276489258 2.0727665424346923828 3.2287814617156982422 2.3365252017974853516 1.3045260906219482422 1.8651590347290039062 2.7574963569641113281 4.4214239120483398438 6.1422023773193359375 7.2772765159606933594 6.7996501922607421875 5.025226593017578125 5.4177646636962890625 3.7276611328125 3.7404112815856933594 4.0246634483337402344 4.0385975837707519531 4.3110508918762207031 5.5288062095642089844 8.741847991943359375 9.0504941940307617188 7.6529898643493652344 8.3881206512451171875 7.173877716064453125 5.6650748252868652344 4.0770387649536132812 2.5806369781494140625 2.2445807456970214844 1.9881410598754882812 1.4109817743301391602 1.0999414920806884766 1.1129735708236694336 1.068722844123840332 1.1915211677551269531 -9999 -9999 -9999 1.0566321611404418945 1.2965520620346069336 2.0770263671875 3.4339983463287353516 5.2035646438598632812 8.9934625625610351562 10.355824470520019531 10.16484832763671875 9.995883941650390625 10.591226577758789062 10.063299179077148438 8.4550085067749023438 4.1298427581787109375 1.2464444637298583984 1.0666431188583374023 -9999 -9999 -9999 1.6633810997009277344 1.7012869119644165039 1.2517045736312866211 2.1452736854553222656 1.8399068117141723633 1.1971541643142700195 1.4763303995132446289 1.6801369190216064453 1.5077691078186035156 1.2511386871337890625 1.1207497119903564453 -9999 -9999 -9999 -9999 -9999 -9999 -9999 -9999 -9999 -9999 -9999 -9999 -9999 -9999 -9999 -9999 -9999 -9999 -9999 -9999 -9999 -9999 -9999 -9999 -9999 -9999 -9999 -9999 -9999 -9999 -9999 -9999 -9999 
-9999 -9999 -9999 -9999 -9999 -9999 1.0505218505859375 -9999 1.0308535099029541016 1.0271499156951904297 1.0887411832809448242 1.2382616996765136719 1.3080470561981201172 1.3195291757583618164 1.719168543815612793 1.7073800563812255859 1.3336073160171508789 1.3721754550933837891 1.3929787874221801758 1.2062194347381591797 1.139556884765625 -9999 1.2013523578643798828 1.224086761474609375 1.1820589303970336914 -9999 1.1713232994079589844 1.7387677431106567383 2.4426577091217041016 2.7889924049377441406 2.3482179641723632812 1.4257111549377441406 1.3961074352264404297 1.8957650661468505859 4.1083407402038574219 6.2310857772827148438 6.6085205078125 5.6726016998291015625 5.0864806175231933594 4.6448001861572265625 6.4046759605407714844 4.7493443489074707031 3.1820464134216308594 3.3876192569732666016 4.43918609619140625 5.9265141487121582031 7.7859568595886230469 8.6474132537841796875 8.0920686721801757812 4.9121804237365722656 6.0465626716613769531 9.8971033096313476562 9.0722484588623046875 7.3109369277954101562 4.1019883155822753906 3.5677187442779541016 2.4778871536254882812 1.8966634273529052734 1.2125018835067749023 1.061199188232421875 1.3341242074966430664 1.8934799432754516602 1.931011199951171875 1.3250877857208251953 -9999 1.8379729986190795898 4.077304840087890625 5.5937991142272949219 7.2196059226989746094 8.8639612197875976562 9.9479589462280273438 10.020528793334960938 9.834819793701171875 10.544079780578613281 10.510378837585449219 9.056491851806640625 7.5833749771118164062 3.4507875442504882812 1.3454766273498535156 1.0879801511764526367 -9999 -9999 -9999 2.0521810054779052734 2.3903522491455078125 1.8410103321075439453 3.6981122493743896484 3.8390550613403320312 1.8813320398330688477 1.4218440055847167969 1.959231257438659668 1.5655297040939331055 1.4775556325912475586 1.5598791837692260742 1.2522554397583007812 -9999 -9999 -9999 -9999 -9999 -9999 -9999 -9999 -9999 -9999 -9999 -9999 -9999 -9999 -9999 -9999 -9999 -9999 -9999 -9999 1.0717504024505615234 -9999 -9999 -9999 -9999 -9999 -9999 -9999 -9999 -9999 -9999 -9999 
-9999 -9999 -9999 -9999 -9999 -9999 -9999 -9999 1.0684797763824462891 1.0842380523681640625 1.1698832511901855469 1.3092926740646362305 1.3900436162948608398 1.3494045734405517578 1.5915167331695556641 1.4513856172561645508 1.1596962213516235352 1.1351447105407714844 1.1746389865875244141 1.0835645198822021484 1.0718888044357299805 1.0380694866180419922 1.12496185302734375 1.2001581192016601562 1.2494350671768188477 1.1907306909561157227 1.1892985105514526367 1.6212449073791503906 2.6883893013000488281 2.7355937957763671875 1.7784477472305297852 1.5223357677459716797 1.8771589994430541992 2.9855697154998779297 5.6945652961730957031 6.6949267387390136719 5.4023375511169433594 3.9121882915496826172 4.8207988739013671875 5.4508047103881835938 6.1294469833374023438 4.9612965583801269531 3.9984142780303955078 5.8965563774108886719 7.809810638427734375 8.2717428207397460938 8.3958148956298828125 7.5702419281005859375 7.6135487556457519531 7.7617359161376953125 8.0161714553833007812 9.0149927139282226562 7.3041219711303710938 7.5619969367980957031 5.681713104248046875 4.1905856132507324219 2.8311862945556640625 2.7149965763092041016 1.2871258258819580078 -9999 1.1819372177124023438 1.6893782615661621094 1.5605742931365966797 1.2910634279251098633 2.2459638118743896484 5.1163959503173828125 7.3322777748107910156 7.2904462814331054688 8.2153711318969726562 9.4641218185424804688 9.9563341140747070312 10.091116905212402344 10.253927230834960938 10.606690406799316406 9.9351472854614257812 8.2095422744750976562 6.8771519660949707031 2.293796539306640625 1.112628936767578125 -9999 -9999 -9999 1.2371133565902709961 1.9359886646270751953 2.5593097209930419922 3.0810840129852294922 5.1648545265197753906 4.3711371421813964844 1.8086268901824951172 2.1773495674133300781 2.9748177528381347656 1.9192996025085449219 1.666286468505859375 1.6509722471237182617 1.1660959720611572266 -9999 -9999 -9999 -9999 -9999 -9999 -9999 -9999 -9999 -9999 -9999 -9999 -9999 -9999 -9999 -9999 -9999 -9999 -9999 -9999 -9999 -9999 -9999 -9999 -9999 -9999 -9999 -9999 -9999 -9999 -9999 -9999 
-9999 -9999 -9999 -9999 1.03212738037109375 -9999 -9999 1.0439504384994506836 1.0605986118316650391 1.2794350385665893555 1.3908957242965698242 1.535930633544921875 1.2468105554580688477 1.2623564004898071289 1.2784972190856933594 1.2770879268646240234 1.1247345209121704102 1.0996106863021850586 1.1425746679306030273 1.0778831243515014648 1.0685346126556396484 1.0632882118225097656 1.1224470138549804688 1.2215063571929931641 1.2097530364990234375 1.0801770687103271484 1.1090599298477172852 1.4849114418029785156 2.5270099639892578125 1.5748856067657470703 1.2592825889587402344 1.364659428596496582 2.6013927459716796875 3.3986799716949462891 5.40308380126953125 4.4847302436828613281 4.3262543678283691406 3.0397999286651611328 3.5853850841522216797 4.8454279899597167969 5.0485405921936035156 3.3602344989776611328 5.9572534561157226562 7.6623921394348144531 9.053859710693359375 8.9500532150268554688 7.3825888633728027344 6.9859766960144042969 6.4166088104248046875 5.9471907615661621094 5.4021115303039550781 6.0075974464416503906 6.7943158149719238281 6.5374083518981933594 6.0986342430114746094 6.1774249076843261719 3.7818388938903808594 3.6770513057708740234 3.2876551151275634766 1.6814676523208618164 1.1387053728103637695 1.5097646713256835938 1.7517833709716796875 3.2138473987579345703 6.2382297515869140625 7.7734804153442382812 8.0969409942626953125 8.2181644439697265625 9.3549890518188476562 9.6432275772094726562 10.144539833068847656 10.400068283081054688 10.479509353637695312 10.441891670227050781 8.9162139892578125 7.8859882354736328125 6.8406424522399902344 2.3263256549835205078 -9999 -9999 -9999 -9999 1.1752077341079711914 1.8158733844757080078 2.0804417133331298828 4.0906271934509277344 7.3287825584411621094 6.4324083328247070312 3.4126007556915283203 2.3342168331146240234 3.1350245475769042969 2.1358859539031982422 1.3612484931945800781 1.1703207492828369141 1.0751618146896362305 -9999 -9999 -9999 -9999 -9999 -9999 -9999 -9999 -9999 -9999 -9999 -9999 -9999 -9999 -9999 -9999 -9999 -9999 -9999 -9999 -9999 -9999 -9999 -9999 -9999 -9999 -9999 -9999 -9999 -9999 -9999 -9999 
-9999 -9999 -9999 1.0357459783554077148 -9999 -9999 -9999 1.0465641021728515625 1.1184227466583251953 1.1249446868896484375 1.201296687126159668 1.3173371553421020508 1.1634651422500610352 1.1905988454818725586 1.1493438482284545898 1.0919270515441894531 1.1017084121704101562 1.1130173206329345703 1.1492090225219726562 1.1096684932708740234 -9999 1.2254983186721801758 1.1688861846923828125 1.1484779119491577148 1.1663929224014282227 1.0979562997817993164 1.2587996721267700195 1.7448312044143676758 2.1108534336090087891 1.6226240396499633789 1.6207411289215087891 2.3440973758697509766 3.6875765323638916016 4.5010256767272949219 4.2147464752197265625 3.1293826103210449219 3.1075727939605712891 3.2322030067443847656 3.3697156906127929688 2.9217987060546875 3.8737380504608154297 5.3487758636474609375 5.9005961418151855469 5.0624489784240722656 7.7691850662231445312 7.3965449333190917969 6.3345837593078613281 4.9955115318298339844 6.607830047607421875 4.6529612541198730469 5.0252437591552734375 3.46346282958984375 4.7250537872314453125 4.3779377937316894531 4.0017189979553222656 5.3534970283508300781 5.1809201240539550781 6.0070352554321289062 7.2131285667419433594 4.5748105049133300781 2.2450299263000488281 2.6659746170043945312 4.17876434326171875 7.6775774955749511719 8.47708892822265625 7.5119409561157226562 8.7436227798461914062 9.4030332565307617188 9.8763799667358398438 8.9033031463623046875 9.7226152420043945312 10.377205848693847656 10.347834587097167969 9.9981260299682617188 6.99859619140625 7.6891808509826660156 6.3930726051330566406 2.0869431495666503906 -9999 -9999 -9999 -9999 1.1374872922897338867 1.9035439491271972656 1.9668307304382324219 4.2565121650695800781 7.6765041351318359375 7.0194578170776367188 4.491474151611328125 3.1295485496520996094 3.1844365596771240234 2.0284874439239501953 2.0199837684631347656 1.622248530387878418 1.2692743539810180664 -9999 -9999 -9999 -9999 -9999 1.0465589761734008789 -9999 -9999 -9999 -9999 -9999 -9999 -9999 -9999 -9999 -9999 -9999 -9999 -9999 -9999 -9999 -9999 -9999 -9999 -9999 -9999 -9999 -9999 -9999 -9999 -9999 -9999 
-9999 -9999 -9999 -9999 -9999 1.0410016775131225586 1.0828605890274047852 1.1254820823669433594 1.0971968173980712891 -9999 -9999 1.1942250728607177734 1.1072583198547363281 1.1251446008682250977 1.1213686466217041016 1.1435897350311279297 1.1214492321014404297 1.1697552204132080078 1.099679112434387207 1.0552009344100952148 1.0947163105010986328 1.1661648750305175781 1.1325674057006835938 1.0842686891555786133 1.1060122251510620117 1.1886023283004760742 1.6040401458740234375 1.9448763132095336914 1.3096107244491577148 1.2136528491973876953 1.6195486783981323242 3.073558807373046875 3.9999866485595703125 4.1463871002197265625 3.7677702903747558594 2.2183849811553955078 2.6152927875518798828 3.6682384014129638672 2.5785465240478515625 1.614505767822265625 2.2949991226196289062 4.1806864738464355469 5.9501299858093261719 5.8351030349731445312 6.5543322563171386719 7.184345245361328125 5.0879573822021484375 6.2850055694580078125 8.6018095016479492188 6.6420035362243652344 4.5338168144226074219 2.1828534603118896484 2.1294507980346679688 2.2075479030609130859 2.8319363594055175781 2.8541116714477539062 3.3348293304443359375 4.00713348388671875 5.862239837646484375 6.9175710678100585938 5.3329219818115234375 5.5115222930908203125 7.7351808547973632812 9.9903154373168945312 9.4753046035766601562 8.39507293701171875 9.2493124008178710938 6.7469329833984375 7.9099802970886230469 9.510227203369140625 10.350882530212402344 10.114984512329101562 9.104267120361328125 7.7358536720275878906 7.0334067344665527344 7.1136417388916015625 4.7553820610046386719 1.5588343143463134766 1.136519312858581543 1.1040023565292358398 1.0542107820510864258 1.0557361841201782227 1.2324450016021728516 1.3926233053207397461 1.5637685060501098633 4.5154781341552734375 6.9948334693908691406 5.1038560867309570312 4.7946095466613769531 3.0914921760559082031 2.1907458305358886719 1.9076148271560668945 2.2051839828491210938 1.9272520542144775391 1.6632134914398193359 1.1521598100662231445 -9999 -9999 -9999 -9999 -9999 -9999 -9999 -9999 -9999 -9999 -9999 -9999 -9999 -9999 -9999 -9999 -9999 -9999 -9999 -9999 -9999 -9999 -9999 -9999 -9999 -9999 -9999 -9999 -9999 -9999 -9999 
-9999 -9999 -9999 -9999 -9999 1.0612572431564331055 1.1230756044387817383 1.1663240194320678711 1.0901376008987426758 -9999 -9999 1.0365566015243530273 1.0652712583541870117 1.0699783563613891602 1.0671625137329101562 1.0962749719619750977 1.0940086841583251953 1.0986123085021972656 1.0794740915298461914 1.1219046115875244141 1.0717558860778808594 1.1580830812454223633 1.0886499881744384766 1.1046320199966430664 1.0693609714508056641 -9999 1.4513419866561889648 1.4437270164489746094 1.1954516172409057617 1.3802765607833862305 2.2884376049041748047 3.2243814468383789062 3.6287424564361572266 2.9145419597625732422 2.7562849521636962891 2.4081220626831054688 2.5706102848052978516 2.2152154445648193359 1.8163431882858276367 1.6389855146408081055 1.5426925420761108398 1.7132880687713623047 3.0755343437194824219 4.199588775634765625 5.8261609077453613281 5.7837982177734375 5.13105010986328125 8.3230762481689453125 8.0420427322387695312 4.1929864883422851562 2.1850335597991943359 -9999 -9999 1.3266766071319580078 2.8300464153289794922 2.594829559326171875 1.3771637678146362305 1.6871488094329833984 2.8312747478485107422 3.867397308349609375 6.7124943733215332031 8.3030567169189453125 9.8983526229858398438 9.7135906219482421875 9.05560302734375 8.5929346084594726562 7.7262845039367675781 5.2691998481750488281 4.8772611618041992188 6.3776822090148925781 9.5068149566650390625 8.8877305984497070312 4.5613756179809570312 5.4892129898071289062 8.7977161407470703125 7.9492669105529785156 3.9510364532470703125 1.2380529642105102539 -9999 -9999 -9999 -9999 1.6181762218475341797 1.8582401275634765625 1.3991971015930175781 3.5323963165283203125 6.1398711204528808594 5.3922739028930664062 4.5669260025024414062 2.5739698410034179688 1.2003026008605957031 1.6349096298217773438 2.4289765357971191406 1.8289395570755004883 1.5242629051208496094 1.1020634174346923828 -9999 -9999 -9999 -9999 -9999 -9999 -9999 -9999 -9999 -9999 -9999 -9999 -9999 -9999 -9999 1.0782177448272705078 1.0713818073272705078 -9999 -9999 -9999 -9999 -9999 -9999 -9999 -9999 -9999 -9999 -9999 -9999 -9999 -9999 
-9999 -9999 -9999 -9999 -9999 1.0873763561248779297 1.1399068832397460938 1.1407288312911987305 1.061713099479675293 -9999 1.0287777185440063477 1.080983281135559082 1.0637518167495727539 1.0253843069076538086 -9999 1.0408353805541992188 1.0596783161163330078 1.0957034826278686523 1.0449236631393432617 1.0433298349380493164 1.1000815629959106445 1.2115389108657836914 1.1812556982040405273 1.1257773637771606445 1.0469547510147094727 1.1422786712646484375 1.5741697549819946289 1.5365966558456420898 1.3843499422073364258 1.7368700504302978516 2.2529292106628417969 2.1060833930969238281 2.3293244838714599609 2.2112953662872314453 2.1771941184997558594 2.5015420913696289062 2.7219390869140625 2.0198032855987548828 1.6048282384872436523 1.5327707529067993164 1.3172653913497924805 1.3904743194580078125 1.4613579511642456055 2.2570383548736572266 4.0187382698059082031 4.0278601646423339844 4.9650940895080566406 6.0420260429382324219 4.4000992774963378906 1.8095803260803222656 1.1902540922164916992 1.1184511184692382812 -9999 1.349597930908203125 2.9058332443237304688 3.0687091350555419922 1.3994957208633422852 1.5896872282028198242 1.7969106435775756836 1.6884745359420776367 2.4667696952819824219 3.5919339656829833984 6.3276395797729492188 5.7876515388488769531 5.251377105712890625 4.2882719039916992188 3.6436250209808349609 3.1881840229034423828 2.0545680522918701172 2.6794154644012451172 7.0104060173034667969 5.9035983085632324219 3.6133151054382324219 8.934185028076171875 9.6027097702026367188 7.8430476188659667969 3.8724691867828369141 -9999 1.1486210823059082031 1.1498737335205078125 -9999 1.1930484771728515625 1.8944517374038696289 2.2643001079559326172 1.8405992984771728516 3.2294938564300537109 4.3004512786865234375 3.0744674205780029297 2.8609337806701660156 2.5764007568359375 2.3961682319641113281 2.6159577369689941406 2.5803742408752441406 1.5022377967834472656 1.0658473968505859375 1.0467276573181152344 1.061520695686340332 1.1227364540100097656 -9999 -9999 -9999 -9999 -9999 -9999 -9999 -9999 -9999 -9999 -9999 -9999 -9999 -9999 -9999 -9999 -9999 -9999 -9999 -9999 -9999 -9999 -9999 -9999 -9999 -9999 -9999 -9999 -9999 
-9999 -9999 -9999 -9999 1.0241746902465820312 1.0637426376342773438 1.0504984855651855469 1.0791686773300170898 1.0818822383880615234 1.0682443380355834961 1.0678184032440185547 1.0798529386520385742 1.0430647134780883789 1.0348011255264282227 1.0628383159637451172 1.1070107221603393555 1.1402586698532104492 1.1623218059539794922 1.0847959518432617188 1.0564316511154174805 1.2472666501998901367 1.2342267036437988281 1.2526289224624633789 1.2024954557418823242 1.0583032369613647461 1.2045345306396484375 1.5102852582931518555 1.5601930618286132812 1.5491560697555541992 1.6809403896331787109 1.8304718732833862305 1.4697458744049072266 1.8691916465759277344 2.6730594635009765625 2.4250576496124267578 2.8812661170959472656 2.5090007781982421875 1.6059491634368896484 1.2151846885681152344 1.2156243324279785156 1.1398996114730834961 1.0952620506286621094 1.1800694465637207031 1.9293558597564697266 2.5783684253692626953 2.7757935523986816406 3.4483129978179931641 2.8294870853424072266 1.3866201639175415039 1.1837972402572631836 1.1621145009994506836 1.2221517562866210938 1.2059623003005981445 1.4781945943832397461 2.1194541454315185547 2.5799753665924072266 1.4881592988967895508 1.112284541130065918 1.5189739465713500977 1.5419406890869140625 1.3836630582809448242 1.9847006797790527344 3.2715537548065185547 2.4715797901153564453 1.5105504989624023438 1.265778660774230957 -9999 1.1217306852340698242 1.2537322044372558594 2.0769984722137451172 4.0283522605895996094 1.9523545503616333008 5.3794450759887695312 10.202617645263671875 9.6766920089721679688 8.1693325042724609375 4.6084523200988769531 1.4634243249893188477 1.1944049596786499023 1.3042576313018798828 -9999 1.2585110664367675781 2.0829360485076904297 2.9113993644714355469 4.2209334373474121094 3.9596626758575439453 2.0695812702178955078 2.0739197731018066406 2.9943075180053710938 3.7498843669891357422 3.4720473289489746094 2.2107927799224853516 -9999 1.6024332046508789062 1.8491026163101196289 1.7669909000396728516 1.4510443210601806641 1.1882063150405883789 1.1922025680541992188 1.119963526725769043 -9999 1.014582514762878418 -9999 -9999 -9999 -9999 -9999 -9999 -9999 1.1576112508773803711 -9999 -9999 -9999 -9999 -9999 -9999 -9999 -9999 -9999 -9999 -9999 -9999 -9999 -9999 -9999 -9999 -9999 
-9999 -9999 -9999 -9999 1.0395981073379516602 1.074240565299987793 1.058266758918762207 1.1154228448867797852 1.108219146728515625 1.0689581632614135742 1.0525022745132446289 1.0186399221420288086 1.0473434925079345703 1.0533835887908935547 -9999 -9999 1.1270738840103149414 1.1943507194519042969 1.1082663536071777344 1.0696297883987426758 1.2378393411636352539 1.1773405075073242188 1.1934697628021240234 1.1559541225433349609 1.0938910245895385742 1.3866201639175415039 1.6272919178009033203 1.5118585824966430664 1.6011953353881835938 1.898667454719543457 1.9714657068252563477 1.5574765205383300781 1.9722729921340942383 2.8300735950469970703 2.6985402107238769531 2.2408623695373535156 1.9808948040008544922 1.3122155666351318359 1.0596662759780883789 1.1059160232543945312 1.059773564338684082 1.0587502717971801758 1.3685494661331176758 2.3053479194641113281 2.7149851322174072266 2.0910708904266357422 1.5108051300048828125 1.2583316564559936523 1.1530218124389648438 1.1365276575088500977 -9999 -9999 1.1138573884963989258 1.3632173538208007812 1.651798248291015625 1.5585504770278930664 1.3192650079727172852 1.2512291669845581055 2.1295311450958251953 1.8780266046524047852 1.3727285861968994141 2.1490092277526855469 2.3684597015380859375 2.7231130599975585938 2.0494611263275146484 1.6201155185699462891 1.709181666374206543 1.2980911731719970703 1.2801766395568847656 2.0710086822509765625 2.0624420642852783203 1.7703393697738647461 7.2246336936950683594 10.275145530700683594 9.7109546661376953125 8.2542266845703125 5.7273960113525390625 1.6609934568405151367 1.1293053627014160156 -9999 -9999 1.214934229850769043 1.5614458322525024414 2.4123620986938476562 4.8515672683715820312 3.947391510009765625 1.9260308742523193359 1.9927335977554321289 1.9524365663528442383 2.7935285568237304688 2.9571530818939208984 2.9074304103851318359 4.1740536689758300781 3.9441399574279785156 3.7876620292663574219 2.8143689632415771484 1.8162009716033935547 1.3518990278244018555 1.2050693035125732422 1.0825974941253662109 1.1352297067642211914 1.0835653543472290039 -9999 -9999 -9999 -9999 -9999 -9999 -9999 -9999 -9999 -9999 -9999 -9999 -9999 -9999 -9999 -9999 -9999 -9999 -9999 -9999 -9999 -9999 -9999 -9999 -9999 
-9999 -9999 -9999 1.0309467315673828125 -9999 -9999 1.0701197385787963867 1.0558961629867553711 1.0457546710968017578 1.0470067262649536133 1.0286649465560913086 1.06752777099609375 1.0539553165435791016 1.0482605695724487305 1.0499385595321655273 1.0815922021865844727 1.1391379833221435547 1.0885846614837646484 1.0687611103057861328 1.1066132783889770508 1.1013097763061523438 1.1280627250671386719 1.1935602426528930664 1.1088953018188476562 1.193141937255859375 1.4521337747573852539 1.5301724672317504883 1.5343328714370727539 1.8314406871795654297 1.8410208225250244141 1.8345476388931274414 1.5332393646240234375 1.8069415092468261719 2.897663116455078125 2.6756227016448974609 1.9115852117538452148 1.5706583261489868164 1.1583354473114013672 1.1265978813171386719 1.1160734891891479492 -9999 1.1208437681198120117 1.5183058977127075195 2.1535394191741943359 2.0375792980194091797 1.5235818624496459961 -9999 1.0449081659317016602 -9999 1.3097652196884155273 1.2344237565994262695 1.0643211603164672852 1.0753922462463378906 1.1933990716934204102 1.1553455591201782227 1.3723752498626708984 1.679438471794128418 1.2246763706207275391 1.5939774513244628906 1.6059348583221435547 1.5560790300369262695 1.7202951908111572266 1.648585200309753418 2.385982513427734375 2.77016448974609375 2.9860992431640625 2.5437221527099609375 1.3676078319549560547 1.1632578372955322266 1.4257255792617797852 1.3898955583572387695 1.9231253862380981445 6.3380503654479980469 9.9655771255493164062 9.704769134521484375 7.6105580329895019531 6.1562023162841796875 1.9452726840972900391 -9999 1.0660398006439208984 1.025906682014465332 1.1572800874710083008 1.2732541561126708984 2.6951184272766113281 4.7854619026184082031 3.4718801975250244141 1.9649605751037597656 2.4627287387847900391 4.4196233749389648438 7.1746430397033691406 6.85346221923828125 6.9829778671264648438 5.6416249275207519531 3.3315434455871582031 2.7884118556976318359 2.2592587471008300781 2.2864732742309570312 1.9085167646408081055 1.4322115182876586914 1.4029692411422729492 1.3602439165115356445 1.1256982088088989258 -9999 1.0089246034622192383 -9999 -9999 -9999 -9999 -9999 -9999 -9999 -9999 -9999 -9999 -9999 -9999 -9999 -9999 -9999 -9999 -9999 -9999 -9999 -9999 -9999 -9999 -9999 
-9999 -9999 -9999 -9999 -9999 -9999 1.1155734062194824219 -9999 1.050289154052734375 1.0525859594345092773 1.074332118034362793 1.152104496955871582 1.0599792003631591797 1.031702876091003418 1.1045851707458496094 1.1331796646118164062 1.0455852746963500977 1.0763022899627685547 1.1161268949508666992 1.0936810970306396484 1.1291487216949462891 1.1805504560470581055 1.1939911842346191406 1.1121848821640014648 1.3237382173538208008 1.5815924406051635742 1.6341253519058227539 1.6274374723434448242 1.8231997489929199219 1.4139804840087890625 1.4992871284484863281 -9999 1.5294766426086425781 3.0080981254577636719 3.4345138072967529297 2.3873050212860107422 1.2737749814987182617 1.2016228437423706055 1.1346687078475952148 -9999 1.0432565212249755859 1.0688261985778808594 1.3143585920333862305 1.9845443964004516602 1.4053223133087158203 -9999 -9999 -9999 1.2586922645568847656 1.4337174892425537109 1.1216121912002563477 1.2064459323883056641 1.2465168237686157227 1.2629746198654174805 1.1288430690765380859 1.3019655942916870117 1.4340748786926269531 1.4585853815078735352 1.3035203218460083008 1.2591700553894042969 1.4796195030212402344 1.5930677652359008789 1.6956310272216796875 1.9383641481399536133 3.2851765155792236328 2.9598989486694335938 1.7539616823196411133 1.3607084751129150391 1.4662522077560424805 1.4215455055236816406 1.430119633674621582 1.4425793886184692383 4.0930657386779785156 8.9129552841186523438 8.263530731201171875 8.5668478012084960938 6.6287150382995605469 2.2121317386627197266 -9999 1.1213201284408569336 1.0539128780364990234 1.4474488496780395508 2.0716013908386230469 4.0554418563842773438 4.2849092483520507812 3.4378252029418945312 4.6757855415344238281 7.6106734275817871094 8.752468109130859375 8.6849451065063476562 8.0131006240844726562 5.9897184371948242188 3.4824850559234619141 2.4012730121612548828 1.7902624607086181641 2.8130004405975341797 3.7310571670532226562 2.4716150760650634766 1.4484943151473999023 1.7396149635314941406 1.2963401079177856445 1.0373533964157104492 1.0739904642105102539 1.09902191162109375 -9999 -9999 -9999 -9999 -9999 -9999 -9999 -9999 -9999 -9999 -9999 -9999 -9999 -9999 -9999 -9999 -9999 -9999 -9999 -9999 -9999 -9999 -9999 
-9999 1.0081042051315307617 -9999 -9999 -9999 1.0745780467987060547 -9999 -9999 -9999 -9999 1.0483760833740234375 1.0625162124633789062 1.0479061603546142578 1.0468122959136962891 1.0911533832550048828 1.0766484737396240234 1.0909204483032226562 1.2014636993408203125 1.1849581003189086914 1.1392738819122314453 1.2429381608963012695 1.3015922307968139648 1.274294734001159668 1.1344559192657470703 1.3501621484756469727 1.3536515235900878906 1.3958735466003417969 1.4862890243530273438 1.6863573789596557617 1.404725193977355957 1.2750647068023681641 -9999 1.7037928104400634766 2.4570789337158203125 2.9114027023315429688 2.0855801105499267578 1.3139718770980834961 1.151078343391418457 1.0706564188003540039 1.0302860736846923828 1.0385140180587768555 1.1472704410552978516 1.3765745162963867188 1.5886316299438476562 1.3158056735992431641 1.1453689336776733398 -9999 -9999 1.2732921838760375977 1.1730635166168212891 1.0661042928695678711 1.0709024667739868164 1.0997105836868286133 1.1138080358505249023 1.1491621732711791992 1.2941801548004150391 1.346096038818359375 1.4216682910919189453 1.2894310951232910156 -9999 -9999 1.3666418790817260742 1.880453944206237793 4.7052059173583984375 6.8200159072875976562 4.5979228019714355469 2.9400026798248291016 3.07822418212890625 2.4534504413604736328 1.7964230775833129883 1.1380208730697631836 1.5535814762115478516 5.5320267677307128906 9.320850372314453125 9.398303985595703125 8.1562128067016601562 5.12856292724609375 1.7987276315689086914 1.2172882556915283203 1.5833038091659545898 1.3856256008148193359 3.0153930187225341797 4.5089936256408691406 3.5192692279815673828 3.4296436309814453125 7.4344601631164550781 8.5998382568359375 8.6999912261962890625 9.1514797210693359375 9.4349422454833984375 7.8856825828552246094 3.5536131858825683594 2.3811388015747070312 2.3611583709716796875 2.2892251014709472656 2.7321748733520507812 3.2679319381713867188 2.2588679790496826172 2.2346675395965576172 2.6891252994537353516 1.6699192523956298828 1.2491971254348754883 1.220297694206237793 1.12122344970703125 -9999 -9999 -9999 -9999 -9999 -9999 -9999 1.0577340126037597656 -9999 -9999 -9999 -9999 -9999 -9999 -9999 -9999 -9999 -9999 -9999 -9999 -9999 -9999 -9999 
1.0168704986572265625 -9999 -9999 -9999 -9999 -9999 -9999 -9999 -9999 -9999 -9999 1.0290061235427856445 1.0527857542037963867 1.0697258710861206055 1.0592778921127319336 1.0822610855102539062 1.1148244142532348633 1.3271231651306152344 1.2811371088027954102 1.1671900749206542969 1.226389765739440918 1.2536929845809936523 1.2951368093490600586 1.2200433015823364258 1.4069972038269042969 1.2900797128677368164 1.2960908412933349609 1.7262176275253295898 1.5683838129043579102 1.1814205646514892578 -9999 1.1815448999404907227 1.9555199146270751953 2.3000681400299072266 1.6627937555313110352 1.4780292510986328125 1.8757655620574951172 1.3049091100692749023 1.1703025102615356445 1.1595586538314819336 1.1625772714614868164 1.2983721494674682617 1.4279860258102416992 1.3284299373626708984 1.251080632209777832 1.0807359218597412109 -9999 1.0732479095458984375 1.1126675605773925781 1.1077742576599121094 1.1054462194442749023 1.0655707120895385742 1.0460889339447021484 1.068587183952331543 1.1107659339904785156 1.2273622751235961914 1.7403764724731445312 1.5431795120239257812 -9999 -9999 1.1377534866333007812 1.45062255859375 2.0903966426849365234 5.9838051795959472656 7.3278832435607910156 5.6465468406677246094 4.1610159873962402344 3.3929293155670166016 2.0115900039672851562 1.655385136604309082 1.25536346435546875 1.6564512252807617188 3.3500580787658691406 5.4483160972595214844 7.0013403892517089844 4.2337741851806640625 2.8936114311218261719 2.1349167823791503906 1.6881543397903442383 2.1894738674163818359 1.9080270528793334961 3.1709458827972412109 4.5392374992370605469 4.9472146034240722656 7.8600258827209472656 8.8966884613037109375 7.8856630325317382812 9.3899164199829101562 10.001074790954589844 9.0126791000366210938 6.5049414634704589844 3.5670778751373291016 2.2411031723022460938 2.8690674304962158203 5.1024785041809082031 5.3506522178649902344 5.2990617752075195312 4.5821695327758789062 4.1947603225708007812 3.4017236232757568359 2.1995398998260498047 1.9734654426574707031 1.3036730289459228516 1.1749181747436523438 1.2636543512344360352 1.077574610710144043 -9999 -9999 -9999 -9999 -9999 -9999 -9999 -9999 -9999 -9999 -9999 -9999 -9999 -9999 -9999 -9999 -9999 -9999 -9999 -9999 -9999 
1.0179667472839355469 -9999 -9999 -9999 -9999 -9999 -9999 -9999 -9999 -9999 -9999 1.0936231613159179688 1.1004291772842407227 1.1616321802139282227 1.0986328125 1.0985227823257446289 1.1124296188354492188 1.2159962654113769531 1.2227209806442260742 1.1309525966644287109 1.1312409639358520508 1.2293525934219360352 1.3850713968276977539 1.2120370864868164062 1.2897343635559082031 1.3343091011047363281 1.3092162609100341797 1.3329900503158569336 1.4945806264877319336 1.2076586484909057617 -9999 1.226296544075012207 1.6632175445556640625 1.529440760612487793 1.4260067939758300781 1.457508087158203125 1.5578601360321044922 1.2757432460784912109 1.1719517707824707031 1.2272111177444458008 1.1400169134140014648 1.2499768733978271484 1.347880244255065918 1.1527191400527954102 1.1070683002471923828 1.0991290807723999023 1.1497015953063964844 1.1023744344711303711 1.0579206943511962891 1.0780309438705444336 1.102152705192565918 1.0926473140716552734 1.0363240242004394531 -9999 1.0589897632598876953 1.2599545717239379883 2.0824315547943115234 1.7629098892211914062 1.2745316028594970703 1.2273696660995483398 -9999 1.4068638086318969727 2.5134603977203369141 3.008190155029296875 2.6685912609100341797 3.3936586380004882812 3.5516645908355712891 2.5990619659423828125 2.8814144134521484375 1.8721613883972167969 1.4494123458862304688 1.9370787143707275391 2.0585308074951171875 2.3973760604858398438 3.7521810531616210938 2.3904635906219482422 1.9928402900695800781 2.6455302238464355469 2.142864227294921875 1.5339461565017700195 1.5900430679321289062 1.8652633428573608398 5.1042323112487792969 8.7914257049560546875 10.198149681091308594 9.1559267044067382812 9.2456264495849609375 9.1154727935791015625 9.3269634246826171875 6.0670928955078125 2.3840651512145996094 2.8675913810729980469 4.1665997505187988281 6.9819636344909667969 9.638927459716796875 9.5813465118408203125 8.675685882568359375 6.4135599136352539062 3.5317530632019042969 2.6903643608093261719 2.2294390201568603516 1.805530548095703125 1.3657835721969604492 1.6189830303192138672 1.3581912517547607422 1.0798071622848510742 -9999 -9999 -9999 -9999 1.0231910943984985352 -9999 -9999 -9999 -9999 -9999 -9999 -9999 -9999 -9999 -9999 -9999 -9999 -9999 -9999 -9999 -9999 
-9999 -9999 -9999 -9999 -9999 -9999 -9999 -9999 -9999 1.0207079648971557617 -9999 1.1986409425735473633 1.060649871826171875 1.0945730209350585938 1.0950971841812133789 1.110434412956237793 1.1141119003295898438 1.1221899986267089844 1.3847731351852416992 1.3616772890090942383 1.1854661703109741211 1.2287185192108154297 1.2126049995422363281 1.1549848318099975586 1.207274317741394043 1.2345654964447021484 1.1165293455123901367 1.1279947757720947266 1.2517545223236083984 1.0493394136428833008 1.0165557861328125 1.1286480426788330078 1.3320578336715698242 1.4583898782730102539 1.5424551963806152344 1.4021475315093994141 1.2630099058151245117 1.149777531623840332 1.1139566898345947266 1.0720461606979370117 1.0891423225402832031 1.1329016685485839844 1.1211808919906616211 -9999 -9999 1.3182913064956665039 1.2072075605392456055 1.0653400421142578125 1.0911020040512084961 1.0528588294982910156 1.1450382471084594727 1.1171669960021972656 1.0569623708724975586 1.0785135030746459961 1.1233805418014526367 -9999 1.7322845458984375 1.6324874162673950195 1.4389480352401733398 1.342190861701965332 1.5232001543045043945 2.1876661777496337891 5.0846943855285644531 3.6310794353485107422 3.5063567161560058594 4.435329437255859375 3.9287168979644775391 4.8476467132568359375 6.0685162544250488281 3.0627069473266601562 2.8674311637878417969 1.9304332733154296875 2.4116024971008300781 4.4372196197509765625 5.8094272613525390625 2.8372261524200439453 1.4901137351989746094 2.0706949234008789062 2.1717002391815185547 2.3506534099578857422 2.0428340435028076172 2.6900007724761962891 7.7997593879699707031 10.056928634643554688 10.364477157592773438 9.39067840576171875 7.2182621955871582031 5.4625754356384277344 5.9368910789489746094 5.3065485954284667969 4.3818821907043457031 6.5621337890625 8.7330684661865234375 8.8192615509033203125 10.297367095947265625 10.133397102355957031 9.3294744491577148438 6.8943772315979003906 5.3096723556518554688 4.5321898460388183594 3.0380053520202636719 2.8568551540374755859 2.1267237663269042969 1.8556959629058837891 1.1790727376937866211 1.1016793251037597656 1.0579240322113037109 1.0469336509704589844 -9999 1.0465468168258666992 1.0612084865570068359 -9999 -9999 -9999 -9999 -9999 -9999 -9999 -9999 -9999 -9999 -9999 -9999 -9999 -9999 -9999 -9999 
-9999 -9999 1.0363329648971557617 -9999 -9999 -9999 -9999 -9999 -9999 -9999 1.2089600563049316406 1.2674430608749389648 1.0863212347030639648 1.1061693429946899414 1.1057997941970825195 1.1136198043823242188 1.1611301898956298828 1.2931773662567138672 1.7959679365158081055 1.7083410024642944336 1.2326853275299072266 1.0820213556289672852 1.1358885765075683594 1.1620738506317138672 1.2555534839630126953 1.1741464138031005859 1.2113720178604125977 1.2376595735549926758 1.1646275520324707031 1.1049990653991699219 1.0600495338439941406 1.2211023569107055664 1.4514679908752441406 1.467985987663269043 1.2082393169403076172 1.1436055898666381836 1.1081521511077880859 1.0653725862503051758 1.1601204872131347656 -9999 1.1303725242614746094 1.127888798713684082 1.0665153264999389648 -9999 -9999 1.2665171623229980469 1.1536084413528442383 1.121577143669128418 1.1204967498779296875 -9999 1.3953741788864135742 1.3241965770721435547 1.0669730901718139648 1.1069830656051635742 1.2044259309768676758 1.8282163143157958984 1.5735207796096801758 2.0212442874908447266 1.5963718891143798828 -9999 1.204108119010925293 2.6052420139312744141 4.3050441741943359375 4.7334733009338378906 8.1695384979248046875 9.1135244369506835938 8.4546184539794921875 9.5634717941284179688 8.7949018478393554688 5.9163517951965332031 4.8621797561645507812 3.2376840114593505859 5.8013296127319335938 8.1288690567016601562 6.6775031089782714844 2.2382454872131347656 1.2163585424423217773 2.5276014804840087891 2.8596069812774658203 2.3321638107299804688 1.6792274713516235352 1.9202414751052856445 6.9172039031982421875 10.045119285583496094 9.7395343780517578125 7.5156154632568359375 5.7013540267944335938 5.8946962356567382812 7.2101521492004394531 8.8113117218017578125 8.0620594024658203125 9.463939666748046875 10.321276664733886719 10.359572410583496094 10.391472816467285156 10.031316757202148438 9.5449914932250976562 9.44150543212890625 9.215084075927734375 7.3936142921447753906 5.3755774497985839844 4.0484666824340820312 2.4712672233581542969 1.5041928291320800781 1.1885998249053955078 1.2999304533004760742 1.0975053310394287109 -9999 -9999 -9999 1.1890265941619873047 1.2164914608001708984 -9999 -9999 -9999 -9999 -9999 -9999 -9999 1.0445132255554199219 1.080012202262878418 -9999 -9999 -9999 -9999 -9999 -9999 
-9999 -9999 -9999 -9999 -9999 -9999 -9999 -9999 -9999 -9999 1.1728714704513549805 1.1422176361083984375 1.0674040317535400391 1.0979554653167724609 1.0887162685394287109 1.1365379095077514648 1.2574225664138793945 1.3257381916046142578 1.3940296173095703125 1.3875561952590942383 1.1232191324234008789 1.0517263412475585938 1.1351220607757568359 1.1624511480331420898 1.2875829935073852539 1.2157653570175170898 1.2029687166213989258 1.3409498929977416992 1.3914085626602172852 1.1459875106811523438 1.1194883584976196289 1.3546670675277709961 1.3145234584808349609 1.1388083696365356445 1.0786055326461791992 1.1605316400527954102 1.1733729839324951172 1.1344884634017944336 -9999 -9999 -9999 1.0598052740097045898 1.0061256885528564453 -9999 1.0247048139572143555 1.1385006904602050781 -9999 -9999 -9999 -9999 -9999 1.1004182100296020508 1.0579646825790405273 1.0522897243499755859 -9999 2.6990716457366943359 1.5766044855117797852 2.2905609607696533203 1.7436527013778686523 1.2899106740951538086 2.3941140174865722656 4.726589202880859375 4.7314200401306152344 6.4563035964965820312 10.195504188537597656 10.526326179504394531 8.4191913604736328125 7.7156581878662109375 6.3433294296264648438 8.9176130294799804688 5.403472900390625 2.5802521705627441406 4.529571533203125 8.6201581954956054688 8.203289031982421875 2.8447208404541015625 1.2793047428131103516 2.7492685317993164062 2.9684898853302001953 1.3958563804626464844 1.3353459835052490234 2.5161988735198974609 3.5526959896087646484 6.1398754119873046875 8.444721221923828125 8.818119049072265625 9.0978231430053710938 9.65137481689453125 10.279488563537597656 10.39775848388671875 10.208397865295410156 10.242398262023925781 10.38324737548828125 10.237399101257324219 9.761829376220703125 10.04940032958984375 10.370939254760742188 9.6736440658569335938 7.6576623916625976562 7.112213134765625 5.4008564949035644531 4.1441388130187988281 1.7473038434982299805 1.1050573587417602539 1.2893624305725097656 1.2807899713516235352 -9999 1.4677315950393676758 -9999 -9999 1.0983197689056396484 1.2111699581146240234 -9999 -9999 -9999 1.1548647880554199219 -9999 -9999 1.0163682699203491211 -9999 1.0747933387756347656 -9999 -9999 -9999 -9999 -9999 -9999 
-9999 -9999 -9999 -9999 -9999 -9999 -9999 -9999 1.1380800008773803711 1.1286467313766479492 -9999 1.0438534021377563477 1.0806376934051513672 1.0689103603363037109 1.0511240959167480469 1.1948006153106689453 1.2255994081497192383 1.1857913732528686523 -9999 -9999 1.0980238914489746094 1.1279276609420776367 1.149731755256652832 1.1070158481597900391 1.1503816843032836914 1.2129342555999755859 1.2042467594146728516 1.3161244392395019531 1.6079518795013427734 1.2919212579727172852 1.2085089683532714844 1.1692993640899658203 1.0986216068267822266 1.068739771842956543 1.0366671085357666016 1.1196665763854980469 1.2458821535110473633 1.1985417604446411133 1.2936168909072875977 1.2298094034194946289 1.1431046724319458008 1.0691158771514892578 1.0017131567001342773 -9999 -9999 1.0784671306610107422 -9999 -9999 -9999 1.1107404232025146484 -9999 -9999 -9999 -9999 -9999 1.1792256832122802734 1.2898344993591308594 1.8936270475387573242 1.816080927848815918 3.1153709888458251953 6.2369132041931152344 7.1562404632568359375 5.1286382675170898438 5.5047636032104492188 9.5955562591552734375 10.167783737182617188 7.9585595130920410156 5.8156018257141113281 6.7091698646545410156 9.4405040740966796875 6.3774356842041015625 2.5673589706420898438 2.0257093906402587891 5.8813104629516601562 8.751529693603515625 3.7397868633270263672 1.6485248804092407227 1.3374212980270385742 1.3420326709747314453 1.1484524011611938477 1.5182453393936157227 2.9430756568908691406 4.7524404525756835938 7.2989091873168945312 9.293598175048828125 9.7524089813232421875 10.036085128784179688 10.35300445556640625 10.3811187744140625 10.493765830993652344 10.5552978515625 10.461716651916503906 9.804347991943359375 9.7242250442504882812 10.375917434692382812 10.6259307861328125 10.230779647827148438 7.3271627426147460938 6.9186115264892578125 6.1015238761901855469 3.329349517822265625 2.9818599224090576172 1.8204326629638671875 1.3087807893753051758 1.3195816278457641602 1.1525487899780273438 1.4280545711517333984 1.4301363229751586914 -9999 1.1430993080139160156 1.1818573474884033203 1.1117613315582275391 1.2913861274719238281 -9999 1.0634930133819580078 -9999 -9999 -9999 -9999 1.1379703283309936523 1.1016094684600830078 -9999 -9999 -9999 -9999 -9999 -9999 
-9999 -9999 -9999 -9999 -9999 -9999 -9999 -9999 1.2644065618515014648 1.093297123908996582 -9999 1.0872589349746704102 1.0855554342269897461 1.041634678840637207 1.0734236240386962891 1.1005914211273193359 1.119541168212890625 1.0882991552352905273 -9999 -9999 1.1229050159454345703 1.09228515625 1.0966627597808837891 1.1086760759353637695 1.0607880353927612305 1.162011265754699707 1.260605931282043457 1.4858057498931884766 1.7468776702880859375 1.5527269840240478516 1.507195591926574707 1.2245100736618041992 1.0937659740447998047 1.0678164958953857422 1.1087077856063842773 1.218771815299987793 1.3156611919403076172 1.2465012073516845703 1.4479728937149047852 1.1570631265640258789 1.0781335830688476562 -9999 -9999 -9999 -9999 1.0602835416793823242 -9999 -9999 1.0997991561889648438 1.0295822620391845703 -9999 -9999 -9999 -9999 2.7635245323181152344 1.8252112865447998047 1.672839045524597168 2.0769197940826416016 3.6894602775573730469 7.1142773628234863281 8.4334955215454101562 7.7468304634094238281 2.9564254283905029297 2.9389979839324951172 8.3145694732666015625 9.536106109619140625 8.3943653106689453125 9.236431121826171875 9.753376007080078125 8.7446699142456054688 6.5407872200012207031 3.18033599853515625 1.8012437820434570312 6.5628085136413574219 8.1599092483520507812 2.6547746658325195312 1.3282283544540405273 1.2294030189514160156 1.1991624832153320312 1.1099030971527099609 1.4990143775939941406 5.0912456512451171875 9.0519418716430664062 10.043203353881835938 10.053472518920898438 10.3595733642578125 10.376900672912597656 10.378190040588378906 10.400360107421875 10.569029808044433594 10.556718826293945312 9.6629505157470703125 9.3048734664916992188 10.455965042114257812 10.596905708312988281 10.344004631042480469 7.8487248420715332031 3.6321885585784912109 3.8590350151062011719 4.1478681564331054688 2.6777124404907226562 3.4254117012023925781 2.2708387374877929688 1.6905953884124755859 1.4938884973526000977 1.2040256261825561523 1.1572529077529907227 1.0609334707260131836 -9999 1.1361877918243408203 1.1289327144622802734 1.0912928581237792969 1.1997041702270507812 -9999 -9999 -9999 -9999 -9999 -9999 -9999 -9999 -9999 -9999 -9999 -9999 -9999 -9999 
-9999 -9999 -9999 -9999 -9999 -9999 -9999 -9999 -9999 -9999 -9999 -9999 1.0965507030487060547 1.0848907232284545898 -9999 -9999 -9999 -9999 -9999 1.2417739629745483398 1.2008581161499023438 1.0481646060943603516 -9999 1.2167966365814208984 1.0864741802215576172 1.1256365776062011719 1.3398385047912597656 1.6531785726547241211 1.5477187633514404297 1.4705725908279418945 1.5369604825973510742 1.3243885040283203125 1.1055953502655029297 1.0551217794418334961 1.1370031833648681641 1.1226137876510620117 1.1510933637619018555 1.2065049409866333008 1.212256312370300293 1.0533399581909179688 1.0340596437454223633 -9999 -9999 -9999 -9999 -9999 -9999 -9999 -9999 -9999 1.0434002876281738281 1.0321575403213500977 1.1244720220565795898 -9999 1.6087687015533447266 2.0571560859680175781 2.7962563037872314453 3.7901139259338378906 8.1251211166381835938 9.0402803421020507812 9.548458099365234375 9.3336400985717773438 4.5750370025634765625 3.2194426059722900391 8.21593475341796875 9.9462022781372070312 9.928119659423828125 9.7714939117431640625 10.319186210632324219 10.1533966064453125 8.01342010498046875 5.8185849189758300781 5.5277791023254394531 8.2645368576049804688 8.7875757217407226562 4.2874174118041992188 2.0750665664672851562 2.410152435302734375 1.9179408550262451172 1.5417857170104980469 1.8516230583190917969 6.2774515151977539062 9.8649721145629882812 10.373042106628417969 10.336663246154785156 10.348773956298828125 10.404564857482910156 9.8806142807006835938 10.516719818115234375 10.635369300842285156 9.3883724212646484375 9.4895477294921875 10.368587493896484375 9.7578868865966796875 8.5948686599731445312 7.6570811271667480469 3.8559327125549316406 4.1339330673217773438 4.3434824943542480469 3.1712298393249511719 3.1529710292816162109 3.8788077831268310547 2.9528484344482421875 2.0737633705139160156 1.7602095603942871094 1.5504783391952514648 1.1673287153244018555 1.0291078090667724609 1.0213425159454345703 -9999 1.0661725997924804688 1.0407391786575317383 -9999 -9999 -9999 -9999 -9999 -9999 1.1735593080520629883 1.2805473804473876953 1.3272482156753540039 -9999 -9999 -9999 -9999 -9999 -9999 
-9999 -9999 -9999 -9999 -9999 -9999 -9999 -9999 -9999 -9999 -9999 1.0534614324569702148 1.0957622528076171875 1.0904939174652099609 -9999 -9999 -9999 1.0511105060577392578 -9999 1.1928473711013793945 1.1263693571090698242 -9999 -9999 -9999 -9999 1.1985303163528442383 1.1871075630187988281 1.479565739631652832 1.5734086036682128906 1.7399353981018066406 1.4752584695816040039 1.32846832275390625 1.1369121074676513672 1.049120783805847168 1.1474159955978393555 1.15106201171875 1.2939471006393432617 1.4585103988647460938 1.2545354366302490234 1.1020965576171875 1.0728992223739624023 -9999 -9999 -9999 1.0615342855453491211 -9999 -9999 -9999 1.0527056455612182617 1.1319124698638916016 1.1229567527770996094 1.0737383365631103516 1.267781376838684082 1.121949315071105957 1.2688828706741333008 2.838253021240234375 4.4953622817993164062 7.2707462310791015625 8.8422956466674804688 9.6658430099487304688 9.7576265335083007812 8.7117338180541992188 4.6478853225708007812 2.4028394222259521484 6.2092380523681640625 8.428058624267578125 9.6398830413818359375 8.0233392715454101562 9.6818437576293945312 9.6881361007690429688 8.3260288238525390625 9.0131425857543945312 9.6033582687377929688 9.8405208587646484375 9.4965305328369140625 8.616748809814453125 6.8330445289611816406 4.6056466102600097656 3.3353846073150634766 3.0446584224700927734 2.3322548866271972656 5.5608315467834472656 7.8568544387817382812 7.9810047149658203125 9.4014921188354492188 10.274427413940429688 10.341120719909667969 10.335994720458984375 10.590886116027832031 10.67417144775390625 10.317113876342773438 10.514444351196289062 10.301857948303222656 9.085811614990234375 8.0572328567504882812 7.2671437263488769531 5.4534549713134765625 6.3295803070068359375 5.0724644660949707031 2.0798742771148681641 1.8961390256881713867 1.8439935445785522461 1.6454420089721679688 2.1661956310272216797 2.0750737190246582031 1.5382866859436035156 1.142613530158996582 -9999 -9999 -9999 1.083308100700378418 1.0808537006378173828 -9999 -9999 -9999 -9999 1.2054066658020019531 1.338055729866027832 1.201073765754699707 -9999 1.2324092388153076172 -9999 -9999 -9999 -9999 -9999 -9999 
-9999 -9999 -9999 -9999 -9999 -9999 -9999 -9999 1.0423055887222290039 -9999 -9999 -9999 1.105044245719909668 1.0544544458389282227 -9999 1.1047013998031616211 -9999 -9999 -9999 -9999 -9999 -9999 -9999 1.0601557493209838867 1.0890175104141235352 1.1552261114120483398 1.1304460763931274414 1.1711244583129882812 1.3150135278701782227 1.6248610019683837891 1.4752016067504882812 1.3323937654495239258 1.1860437393188476562 1.3015894889831542969 1.3194668292999267578 1.3526494503021240234 1.2096066474914550781 1.2233208417892456055 1.1111487150192260742 1.0713701248168945312 1.1194132566452026367 1.0650855302810668945 -9999 -9999 1.0787997245788574219 -9999 -9999 -9999 -9999 1.2453759908676147461 1.3139202594757080078 1.0839048624038696289 1.0777555704116821289 1.3736733198165893555 1.7282114028930664062 2.9897317886352539062 5.3456583023071289062 8.1060152053833007812 7.8616876602172851562 10.35626983642578125 9.6253519058227539062 8.2398395538330078125 3.9632403850555419922 1.6503050327301025391 4.0589466094970703125 6.9811377525329589844 8.8610162734985351562 8.1653757095336914062 9.4969577789306640625 8.8691339492797851562 7.7060351371765136719 9.402744293212890625 9.252773284912109375 9.9012699127197265625 10.203271865844726562 10.027604103088378906 10.205634117126464844 9.3385667800903320312 8.0613584518432617188 4.8216338157653808594 2.4122583866119384766 2.39376068115234375 2.0877335071563720703 2.3709795475006103516 6.7060937881469726562 9.9875707626342773438 10.303092002868652344 10.439564704895019531 10.608076095581054688 10.741800308227539062 10.876046180725097656 10.42303466796875 9.2994565963745117188 8.4753665924072265625 7.629817962646484375 5.7585744857788085938 3.9494969844818115234 4.3528990745544433594 2.5385303497314453125 1.1504952907562255859 -9999 -9999 1.1660889387130737305 1.5637469291687011719 1.4023810625076293945 1.2490222454071044922 -9999 -9999 -9999 -9999 1.37435150146484375 1.343195796012878418 1.0648957490921020508 -9999 -9999 1.0260447263717651367 -9999 -9999 1.1225500106811523438 -9999 -9999 -9999 -9999 1.1591144800186157227 -9999 -9999 -9999 
-9999 -9999 -9999 -9999 1.0331354141235351562 -9999 -9999 -9999 1.0870920419692993164 -9999 1.0691494941711425781 1.0997550487518310547 -9999 1.0431282520294189453 -9999 1.1218267679214477539 -9999 -9999 -9999 1.0583319664001464844 -9999 -9999 1.0352817773818969727 1.0646468400955200195 1.1120538711547851562 1.1406360864639282227 1.0816382169723510742 -9999 1.0985035896301269531 1.1493940353393554688 1.2299469709396362305 1.3310201168060302734 1.2391703128814697266 1.7168158292770385742 1.5761878490447998047 1.2907259464263916016 1.1270153522491455078 1.1517215967178344727 -9999 1.0771976709365844727 1.1236439943313598633 1.063467860221862793 1.0887049436569213867 1.1548851728439331055 1.1606740951538085938 1.046015620231628418 -9999 1.1084654331207275391 1.6450018882751464844 1.9003717899322509766 1.3019063472747802734 1.0328582525253295898 1.0810207128524780273 1.4316217899322509766 2.0521976947784423828 4.1905584335327148438 7.9279475212097167969 9.154659271240234375 9.7869024276733398438 10.003246307373046875 9.23252105712890625 8.092823028564453125 3.7771019935607910156 1.5518261194229125977 2.5626316070556640625 5.2506170272827148438 5.71422576904296875 6.142147064208984375 9.4649991989135742188 8.9083194732666015625 8.5794172286987304688 9.8773193359375 9.879863739013671875 10.105848312377929688 10.499709129333496094 10.439799308776855469 10.432412147521972656 10.316153526306152344 8.1339597702026367188 3.2993764877319335938 1.895335078239440918 2.9861710071563720703 2.3905866146087646484 4.0653090476989746094 8.7562465667724609375 10.417423248291015625 10.400376319885253906 10.420382499694824219 10.558696746826171875 10.637232780456542969 10.852777481079101562 9.7697124481201171875 8.3463878631591796875 6.7359561920166015625 4.0839719772338867188 2.039134979248046875 1.2833833694458007812 1.4640369415283203125 -9999 -9999 -9999 1.0952037572860717773 1.6703444719314575195 1.7874463796615600586 1.5837501287460327148 1.2042210102081298828 -9999 -9999 1.2405318021774291992 1.559051513671875 1.7450702190399169922 1.5893201828002929688 1.1956528425216674805 -9999 -9999 1.0725405216217041016 1.0987303256988525391 1.0935902595520019531 1.0238482952117919922 -9999 -9999 -9999 1.160490870475769043 -9999 -9999 -9999 -9999 
-9999 -9999 -9999 -9999 -9999 -9999 -9999 1.0459979772567749023 1.0715612173080444336 1.1247184276580810547 1.0736008882522583008 -9999 1.0611553192138671875 -9999 -9999 1.0590301752090454102 -9999 -9999 -9999 -9999 -9999 -9999 -9999 -9999 -9999 -9999 -9999 -9999 -9999 -9999 1.198365330696105957 1.2119134664535522461 1.4798127412796020508 1.6038898229598999023 1.2682783603668212891 1.0695921182632446289 -9999 -9999 1.0711570978164672852 1.089136958122253418 1.1108936071395874023 1.047388911247253418 1.0781643390655517578 1.1405283212661743164 1.1377105712890625 1.0415828227996826172 -9999 1.0955812931060791016 1.3265902996063232422 1.5154634714126586914 1.1449081897735595703 1.0409705638885498047 1.2414795160293579102 1.7705519199371337891 1.7022973299026489258 2.8510873317718505859 8.1023969650268554688 8.8496189117431640625 8.96280670166015625 9.7493524551391601562 9.5262317657470703125 8.5889978408813476562 6.3086442947387695312 4.4542036056518554688 4.1456027030944824219 5.3129420280456542969 3.2078039646148681641 3.4266932010650634766 8.500797271728515625 9.0464181900024414062 9.1257686614990234375 9.9550304412841796875 10.213802337646484375 10.319133758544921875 10.491987228393554688 10.389355659484863281 10.504703521728515625 9.7937917709350585938 5.1824178695678710938 2.5012874603271484375 3.4753375053405761719 6.2061972618103027344 4.4497590065002441406 7.8866100311279296875 10.314391136169433594 10.511636734008789062 10.397495269775390625 10.132299423217773438 10.614358901977539062 10.467093467712402344 10.56063079833984375 9.3951520919799804688 6.4424982070922851562 3.0866768360137939453 1.5691027641296386719 -9999 -9999 -9999 -9999 -9999 -9999 1.3587996959686279297 2.6344125270843505859 2.8704183101654052734 2.1737778186798095703 1.4754778146743774414 1.3191080093383789062 1.2161713838577270508 1.4107626676559448242 1.8788429498672485352 1.8546993732452392578 1.6290715932846069336 1.2630428075790405273 -9999 -9999 1.0788568258285522461 1.2408517599105834961 1.1795853376388549805 1.0342519283294677734 1.1253262758255004883 -9999 -9999 -9999 -9999 -9999 -9999 -9999 
-9999 -9999 1.0296796560287475586 1.0886925458908081055 -9999 1.0887660980224609375 1.0926862955093383789 1.0349345207214355469 1.0397220849990844727 -9999 -9999 -9999 1.0593729019165039062 -9999 -9999 -9999 -9999 -9999 -9999 -9999 1.0487095117568969727 -9999 -9999 -9999 -9999 1.0425205230712890625 1.0371265411376953125 1.0626800060272216797 1.1597273349761962891 1.4540445804595947266 1.2831183671951293945 1.4248218536376953125 2.0878686904907226562 1.616492152214050293 1.089539647102355957 1.0994056463241577148 1.1158210039138793945 1.0675290822982788086 -9999 -9999 1.1094231605529785156 1.0499520301818847656 1.0279124975204467773 1.0737056732177734375 1.0664232969284057617 1.14305877685546875 1.0582444667816162109 1.1158195734024047852 1.1194758415222167969 1.1246087551116943359 1.1566737890243530273 1.2287397384643554688 1.7317426204681396484 2.9549372196197509766 3.5316157341003417969 4.4698491096496582031 7.9335188865661621094 8.2912645339965820312 9.938365936279296875 10.303120613098144531 9.7509126663208007812 8.4237680435180664062 8.0263700485229492188 6.790554046630859375 4.1901764869689941406 4.4832105636596679688 3.7594079971313476562 3.9849646091461181641 8.445789337158203125 10.227020263671875 9.7999782562255859375 9.1316061019897460938 10.203635215759277344 10.493977546691894531 10.606340408325195312 10.417608261108398438 10.470391273498535156 8.5581483840942382812 4.86252593994140625 3.2589955329895019531 4.2464771270751953125 6.5781888961791992188 7.8889102935791015625 9.7501192092895507812 10.398547172546386719 10.476790428161621094 10.508497238159179688 10.538927078247070312 10.765769004821777344 10.779068946838378906 10.249513626098632812 9.0458583831787109375 5.0332074165344238281 1.6190410852432250977 -9999 -9999 -9999 -9999 -9999 -9999 1.4237893819808959961 2.3298985958099365234 4.2787413597106933594 3.7309427261352539062 2.6796703338623046875 1.9774473905563354492 2.0348784923553466797 1.6042909622192382812 1.4737569093704223633 1.7848199605941772461 1.8798968791961669922 1.7368314266204833984 1.1937854290008544922 -9999 -9999 1.0815092325210571289 1.2255448102951049805 1.0862694978713989258 1.0266784429550170898 1.0908411741256713867 1.1186785697937011719 1.1282845735549926758 -9999 -9999 -9999 -9999 -9999 
-9999 -9999 1.0265690088272094727 1.0693004131317138672 -9999 1.0681345462799072266 1.08673858642578125 1.0548704862594604492 -9999 -9999 -9999 -9999 1.0641118288040161133 -9999 1.0255570411682128906 -9999 -9999 -9999 -9999 -9999 -9999 -9999 1.0630514621734619141 -9999 1.0118796825408935547 1.0256813764572143555 1.0735379457473754883 1.2390016317367553711 1.2269116640090942383 1.5521811246871948242 1.3431286811828613281 1.5840356349945068359 1.5580390691757202148 1.1889612674713134766 -9999 1.2113031148910522461 1.1553285121917724609 1.06314849853515625 1.0960086584091186523 -9999 1.0313193798065185547 1.1067023277282714844 1.1131480932235717773 1.1058031320571899414 1.0679253339767456055 1.1456367969512939453 1.0985559225082397461 -9999 1.1248964071273803711 1.1689727306365966797 1.1413800716400146484 1.3297673463821411133 2.6637036800384521484 3.9582853317260742188 6.0645909309387207031 8.633270263671875 9.5277452468872070312 9.4242105484008789062 10.27144622802734375 10.3604583740234375 10.28460693359375 9.9158792495727539062 9.4705286026000976562 7.0329890251159667969 5.1915502548217773438 5.1778283119201660156 3.9629681110382080078 3.9118409156799316406 7.6090855598449707031 10.190636634826660156 9.5358877182006835938 8.5547275543212890625 9.294460296630859375 9.0934953689575195312 10.30673980712890625 10.396854400634765625 10.46768951416015625 6.9017162322998046875 4.8886384963989257812 6.0879244804382324219 4.868648529052734375 5.5279116630554199219 8.2939233779907226562 9.5485324859619140625 10.34995269775390625 10.5271148681640625 10.557636260986328125 10.71457672119140625 10.613537788391113281 10.594720840454101562 9.9935655593872070312 8.661472320556640625 4.48537445068359375 1.5652252435684204102 -9999 -9999 1.372340083122253418 1.328065037727355957 -9999 1.4942640066146850586 1.9153026342391967773 2.7594935894012451172 4.5276212692260742188 3.7440786361694335938 2.2421631813049316406 1.5626627206802368164 2.1757237911224365234 2.1639058589935302734 1.6137852668762207031 1.8116941452026367188 2.4560236930847167969 1.8878924846649169922 1.1327098608016967773 -9999 -9999 1.301326751708984375 1.4097958803176879883 1.1000523567199707031 1.0682083368301391602 1.0541276931762695312 1.1836795806884765625 1.1074335575103759766 -9999 -9999 -9999 -9999 -9999 
-9999 -9999 -9999 -9999 -9999 -9999 -9999 -9999 -9999 -9999 -9999 -9999 -9999 -9999 -9999 -9999 1.0476478338241577148 -9999 -9999 -9999 -9999 -9999 -9999 1.0672208070755004883 1.0920547246932983398 1.0425957441329956055 1.1403181552886962891 1.2006076574325561523 1.1099268198013305664 1.1942844390869140625 1.4415769577026367188 1.3847634792327880859 1.1083521842956542969 -9999 1.5562053918838500977 1.4787093400955200195 1.1165301799774169922 -9999 1.0310610532760620117 1.0885188579559326172 1.1173810958862304688 -9999 -9999 1.0300130844116210938 1.0625456571578979492 1.0712944269180297852 1.0682327747344970703 -9999 -9999 1.0592868328094482422 1.0636619329452514648 1.4159722328186035156 3.8199026584625244141 5.8898177146911621094 8.440799713134765625 9.9766683578491210938 10.178576469421386719 9.337818145751953125 6.49724578857421875 9.2395477294921875 10.22902679443359375 10.500974655151367188 10.330965042114257812 8.4361066818237304688 8.0523138046264648438 7.0208177566528320312 5.1042304039001464844 5.6241116523742675781 6.5003986358642578125 9.9267177581787109375 10.040471076965332031 10.174131393432617188 9.6765642166137695312 9.3056440353393554688 9.9784021377563476562 9.7163267135620117188 8.8278722763061523438 5.7014818191528320312 7.3744964599609375 9.2150354385375976562 8.603900909423828125 8.1166162490844726562 8.9424848556518554688 10.312103271484375 10.78694915771484375 10.574042320251464844 10.493808746337890625 10.531573295593261719 10.485402107238769531 10.545609474182128906 10.038417816162109375 8.7301549911499023438 5.7617444992065429688 3.7653446197509765625 2.4853076934814453125 1.4162367582321166992 2.9149825572967529297 2.9663522243499755859 2.1365401744842529297 2.3561239242553710938 2.6406643390655517578 2.7030246257781982422 4.7430157661437988281 4.4079699516296386719 1.6680895090103149414 1.4509491920471191406 3.3142180442810058594 4.0273108482360839844 2.7373113632202148438 2.7745525836944580078 2.3829202651977539062 1.8438236713409423828 1.1213867664337158203 -9999 1.2899547815322875977 1.7776583433151245117 1.6021094322204589844 1.1540873050689697266 -9999 1.0229624509811401367 1.1231677532196044922 -9999 -9999 1.0386250019073486328 -9999 -9999 -9999 
-9999 1.0822075605392456055 1.1054879426956176758 1.0591073036193847656 -9999 -9999 -9999 -9999 -9999 -9999 -9999 -9999 1.0532456636428833008 -9999 -9999 -9999 -9999 -9999 -9999 -9999 -9999 1.0462628602981567383 1.0387901067733764648 1.074084162712097168 1.1164495944976806641 1.0971952676773071289 1.1222251653671264648 1.1734881401062011719 1.1195703744888305664 1.1484575271606445312 1.2380397319793701172 1.1003479957580566406 1.0729829072952270508 1.0797526836395263672 1.3263859748840332031 1.4936710596084594727 1.1883704662322998047 1.0739296674728393555 -9999 1.1092237234115600586 1.1022810935974121094 -9999 -9999 -9999 1.1841238737106323242 1.1482168436050415039 1.0804202556610107422 1.0289977788925170898 -9999 -9999 1.0741508007049560547 1.428807377815246582 2.5514833927154541016 7.1491265296936035156 10.334795951843261719 10.09283447265625 9.6768779754638671875 10.154867172241210938 7.9349699020385742188 9.3087596893310546875 10.210532188415527344 10.065995216369628906 8.3817491531372070312 4.9861311912536621094 5.1408452987670898438 6.8030600547790527344 4.5618815422058105469 4.7428655624389648438 6.2394289970397949219 9.2327013015747070312 9.2237977981567382812 10.3988037109375 10.474370956420898438 10.55805206298828125 10.350157737731933594 9.657909393310546875 6.077667236328125 5.6809015274047851562 9.1377019882202148438 10.417764663696289062 10.555573463439941406 10.084614753723144531 9.2467851638793945312 10.5943145751953125 10.583879470825195312 10.484859466552734375 10.157708168029785156 10.397032737731933594 10.486767768859863281 10.540204048156738281 9.3241014480590820312 8.7637729644775390625 6.4908232688903808594 6.2492833137512207031 6.0518879890441894531 4.1093358993530273438 3.4848115444183349609 4.5131049156188964844 3.9225707054138183594 3.9819173812866210938 3.4640448093414306641 4.2478957176208496094 5.388454437255859375 5.564846038818359375 3.5937676429748535156 3.4525330066680908203 5.2083082199096679688 4.6212644577026367188 4.3134517669677734375 3.5770463943481445312 2.5943212509155273438 1.7469277381896972656 1.1711401939392089844 1.0745126008987426758 1.4787031412124633789 1.9244195222854614258 1.6727232933044433594 1.1367509365081787109 1.0370714664459228516 1.05503082275390625 1.0362209081649780273 -9999 -9999 1.0213981866836547852 -9999 -9999 1.0363438129425048828 
1.0541398525238037109 1.0409313440322875977 1.0473097562789916992 -9999 -9999 -9999 -9999 -9999 -9999 -9999 1.0296626091003417969 1.0138393640518188477 1.0381729602813720703 1.0537008047103881836 1.0602984428405761719 -9999 -9999 -9999 -9999 1.0307809114456176758 1.0348420143127441406 1.0619629621505737305 1.0524941682815551758 1.067850947380065918 1.1325967311859130859 1.1722341775894165039 1.1239844560623168945 1.1520287990570068359 1.0925519466400146484 1.0835373401641845703 1.0998783111572265625 1.0850327014923095703 1.1166795492172241211 1.0368713140487670898 1.2428081035614013672 1.4555387496948242188 1.4471706151962280273 1.3296538591384887695 -9999 -9999 -9999 1.0531711578369140625 -9999 -9999 1.0630718469619750977 1.1564600467681884766 1.0713328123092651367 -9999 -9999 -9999 1.5322664976119995117 2.2650780677795410156 2.5040612220764160156 7.5427837371826171875 10.095312118530273438 9.7281484603881835938 9.4423542022705078125 10.445431709289550781 9.9970140457153320312 10.2896881103515625 10.18534088134765625 8.930683135986328125 3.4910368919372558594 1.9044210910797119141 2.2183363437652587891 4.3639192581176757812 3.7280957698822021484 7.623500823974609375 9.379222869873046875 9.9294462203979492188 8.47332000732421875 10.224353790283203125 10.060599327087402344 10.505033493041992188 10.095419883728027344 9.3055543899536132812 4.6499528884887695312 8.5106878280639648438 10.769189834594726562 10.724644660949707031 10.578218460083007812 10.322933197021484375 9.5775575637817382812 10.635683059692382812 10.673625946044921875 10.399830818176269531 10.273952484130859375 10.452022552490234375 10.481884002685546875 9.917194366455078125 7.93466949462890625 6.7108945846557617188 7.4164681434631347656 8.574832916259765625 8.8471393585205078125 8.3916940689086914062 6.3564605712890625 5.6837201118469238281 6.5910811424255371094 6.3090691566467285156 4.0438518524169921875 4.6945281028747558594 5.4026951789855957031 5.1593942642211914062 6.7280783653259277344 5.265842437744140625 4.3806595802307128906 3.2109696865081787109 3.8083281517028808594 3.4669144153594970703 3.0658657550811767578 1.6553385257720947266 -9999 1.3943276405334472656 1.8072971105575561523 1.7985464334487915039 1.5162836313247680664 1.2060415744781494141 1.1850697994232177734 -9999 1.2435128688812255859 -9999 -9999 -9999 -9999 -9999 -9999 
-9999 -9999 -9999 -9999 -9999 -9999 -9999 -9999 1.0322719812393188477 -9999 -9999 1.0301102399826049805 -9999 -9999 -9999 -9999 1.2802501916885375977 -9999 -9999 -9999 1.0338202714920043945 1.074132084846496582 1.1116442680358886719 1.1141573190689086914 1.1621369123458862305 1.1549091339111328125 1.1073430776596069336 1.1405766010284423828 1.0972421169281005859 1.0683437585830688477 -9999 1.1257748603820800781 1.4065661430358886719 -9999 1.528370976448059082 1.8936767578125 1.5557940006256103516 1.2232978343963623047 1.0665804147720336914 -9999 1.0366864204406738281 -9999 -9999 1.1188355684280395508 1.19045257568359375 1.1470949649810791016 1.0913364887237548828 1.0511373281478881836 -9999 -9999 1.583108067512512207 1.8969287872314453125 2.900241851806640625 8.471637725830078125 9.409069061279296875 9.6245250701904296875 9.7571268081665039062 10.404392242431640625 10.240185737609863281 10.19420623779296875 9.9958543777465820312 8.1125917434692382812 2.5344579219818115234 1.1931108236312866211 1.2514057159423828125 1.9048070907592773438 2.4784080982208251953 6.04036712646484375 6.5706648826599121094 9.03849029541015625 10.325695991516113281 10.3776702880859375 10.223669052124023438 9.6429805755615234375 9.2134561538696289062 8.2163419723510742188 7.8938908576965332031 10.480051994323730469 10.028365135192871094 10.481195449829101562 10.618298530578613281 10.733224868774414062 10.552338600158691406 10.144069671630859375 10.426115989685058594 10.308349609375 10.27143096923828125 10.500449180603027344 10.469321250915527344 9.05113983154296875 6.0595431327819824219 4.1644105911254882812 7.8801050186157226562 10.283151626586914062 10.264265060424804688 10.132160186767578125 9.941623687744140625 9.5774021148681640625 10.139520645141601562 8.1006689071655273438 6.5268845558166503906 6.7816877365112304688 6.6793723106384277344 7.9889674186706542969 8.4356822967529296875 4.6252369880676269531 3.8301999568939208984 4.1327452659606933594 3.2723078727722167969 2.7169902324676513672 2.4979999065399169922 1.4069188833236694336 1.2498368024826049805 1.8737157583236694336 1.9471299648284912109 1.7588874101638793945 1.3294368982315063477 1.4925349950790405273 1.2001754045486450195 1.0362877845764160156 -9999 -9999 -9999 -9999 -9999 -9999 -9999 
-9999 -9999 -9999 -9999 -9999 -9999 -9999 -9999 1.0077267885208129883 -9999 -9999 -9999 -9999 -9999 1.0461000204086303711 -9999 -9999 -9999 -9999 -9999 -9999 1.0583859682083129883 1.1231985092163085938 1.1179890632629394531 1.1494681835174560547 1.1376520395278930664 1.2151931524276733398 -9999 1.119416356086730957 1.1152173280715942383 1.0672821998596191406 1.129893183708190918 1.3762947320938110352 1.3671926259994506836 1.2723491191864013672 1.4581844806671142578 1.3604562282562255859 1.1081209182739257812 1.0585575103759765625 1.1801478862762451172 1.0654670000076293945 1.1131628751754760742 1.0907673835754394531 1.1388620138168334961 1.1712229251861572266 1.1957911252975463867 1.4038591384887695312 1.1379933357238769531 1.0393891334533691406 1.0650535821914672852 1.2962944507598876953 2.3248951435089111328 4.63745880126953125 9.3447513580322265625 9.24777984619140625 9.5297536849975585938 9.881946563720703125 9.88123321533203125 10.055733680725097656 9.776111602783203125 10.0251922607421875 8.5074338912963867188 3.5547442436218261719 1.209485173225402832 1.0904977321624755859 1.1119283437728881836 1.2573550939559936523 2.0878345966339111328 3.4106676578521728516 7.1837053298950195312 10.322954177856445312 10.472764015197753906 10.297057151794433594 8.4841909408569335938 8.2717657089233398438 6.8215732574462890625 9.802398681640625 10.73276519775390625 9.3293514251708984375 9.7909059524536132812 10.709948539733886719 10.365180015563964844 10.409750938415527344 10.497620582580566406 9.7834300994873046875 8.855167388916015625 9.4473924636840820312 10.034871101379394531 10.459436416625976562 9.9667158126831054688 8.4911165237426757812 7.1664099693298339844 8.698638916015625 10.641405105590820312 10.721230506896972656 10.567523956298828125 10.687518119812011719 10.123785018920898438 10.520571708679199219 9.9979581832885742188 9.8493862152099609375 10.049371719360351562 9.056285858154296875 10.13581085205078125 10.165109634399414062 7.2757372856140136719 5.8194537162780761719 5.1440706253051757812 2.9898276329040527344 2.6524806022644042969 2.925670623779296875 1.4623984098434448242 1.4327578544616699219 1.5718238353729248047 1.3180255889892578125 1.2193355560302734375 1.2898873090744018555 1.2715420722961425781 1.0373884439468383789 -9999 -9999 1.1666165590286254883 -9999 -9999 1.0534671545028686523 -9999 -9999 
-9999 -9999 -9999 -9999 -9999 1.0485465526580810547 -9999 -9999 -9999 -9999 -9999 -9999 -9999 -9999 -9999 -9999 -9999 -9999 -9999 -9999 -9999 1.1269930601119995117 1.1975916624069213867 -9999 1.1891655921936035156 1.288966059684753418 1.2700588703155517578 1.1045536994934082031 1.1902329921722412109 1.1765366792678833008 1.1642663478851318359 -9999 1.0869585275650024414 -9999 1.0511592626571655273 1.2263317108154296875 1.2680786848068237305 1.1201835870742797852 1.109040379524230957 1.1688094139099121094 -9999 1.1324394941329956055 1.1211609840393066406 1.3658205270767211914 1.4386414289474487305 1.3746466636657714844 1.4414889812469482422 1.1279569864273071289 1.1246635913848876953 1.2384704351425170898 1.7692141532897949219 2.8020520210266113281 3.7080817222595214844 6.9452147483825683594 9.6217594146728515625 9.8009042739868164062 9.9370317459106445312 9.808444976806640625 9.78017425537109375 8.0330915451049804688 9.6789884567260742188 8.6350393295288085938 4.8319225311279296875 1.4311352968215942383 -9999 1.3234598636627197266 1.9332479238510131836 3.2323007583618164062 5.6529164314270019531 7.401653289794921875 9.9062957763671875 10.442583084106445312 10.517695426940917969 10.332938194274902344 7.9027743339538574219 7.2924747467041015625 10.550827980041503906 10.573414802551269531 9.8081159591674804688 9.165287017822265625 10.540927886962890625 10.305851936340332031 10.381937980651855469 10.214793205261230469 8.9484710693359375 7.8099617958068847656 9.3943510055541992188 9.7818536758422851562 10.079976081848144531 8.6325750350952148438 7.0288796424865722656 9.9918355941772460938 9.1775388717651367188 10.534387588500976562 10.797400474548339844 10.892251968383789062 10.981865882873535156 10.774001121520996094 10.68012237548828125 10.727332115173339844 10.77463531494140625 10.941875457763671875 10.556936264038085938 9.7276315689086914062 10.283127784729003906 8.70482635498046875 6.365253448486328125 5.1136388778686523438 3.3139092922210693359 2.8463239669799804688 1.9235849380493164062 1.3632423877716064453 1.571997523307800293 1.405835270881652832 1.4480578899383544922 1.4209977388381958008 1.2405190467834472656 1.1736503839492797852 1.0506520271301269531 -9999 1.084099888801574707 1.0599293708801269531 -9999 -9999 -9999 -9999 -9999 
-9999 -9999 -9999 -9999 -9999 -9999 -9999 -9999 -9999 -9999 1.0307484865188598633 1.0378297567367553711 -9999 -9999 1.1161910295486450195 -9999 -9999 1.1043686866760253906 1.0818867683410644531 1.1031131744384765625 1.1334021091461181641 1.1295093297958374023 1.1911439895629882812 1.3363852500915527344 1.1505995988845825195 1.1149957180023193359 1.2048738002777099609 1.2137218713760375977 1.1519858837127685547 1.1011114120483398438 1.107432246208190918 1.1612820625305175781 1.1049491167068481445 -9999 -9999 1.1344251632690429688 1.1193082332611083984 1.0892374515533447266 1.1690477132797241211 1.1151218414306640625 1.203370213508605957 1.1680732965469360352 1.3368265628814697266 1.9138691425323486328 1.9512526988983154297 1.7469419240951538086 1.4554891586303710938 1.2904363870620727539 1.473482966423034668 2.2766451835632324219 2.4926955699920654297 2.8852992057800292969 3.421108245849609375 5.0837450027465820312 6.8926439285278320312 8.50638580322265625 7.8217101097106933594 7.93556976318359375 8.5655269622802734375 6.2361631393432617188 8.1668863296508789062 7.1974368095397949219 3.5941452980041503906 1.6454674005508422852 2.0421228408813476562 2.3619103431701660156 2.4377288818359375 4.4146265983581542969 5.3002419471740722656 5.4011797904968261719 8.8111515045166015625 10.374735832214355469 9.9112300872802734375 9.7089443206787109375 5.3911352157592773438 8.1680812835693359375 10.571887016296386719 10.833586692810058594 9.0811176300048828125 7.2598519325256347656 8.1903219223022460938 10.144147872924804688 10.235533714294433594 9.10503387451171875 5.7509698867797851562 5.3266654014587402344 8.903903961181640625 9.7861499786376953125 9.5499792098999023438 9.5754642486572265625 9.4413194656372070312 10.43271636962890625 10.414403915405273438 10.726780891418457031 10.851490020751953125 10.951549530029296875 10.909582138061523438 10.865700721740722656 10.702999114990234375 10.676534652709960938 10.789447784423828125 10.872247695922851562 10.564248085021972656 9.7494592666625976562 10.1505126953125 7.9120392799377441406 5.1141204833984375 5.2299504280090332031 4.6475820541381835938 4.9652318954467773438 4.6589770317077636719 5.0558567047119140625 4.1456394195556640625 3.1057267189025878906 2.3499219417572021484 2.2502779960632324219 2.3412086963653564453 2.0897843837738037109 1.2369675636291503906 -9999 -9999 -9999 1.1501457691192626953 -9999 -9999 -9999 -9999 
-9999 -9999 -9999 -9999 -9999 -9999 -9999 -9999 -9999 1.0561110973358154297 1.068838953971862793 1.0529048442840576172 -9999 -9999 -9999 1.1020921468734741211 -9999 1.13034820556640625 1.111035466194152832 1.1643633842468261719 1.2301552295684814453 1.2274813652038574219 1.1739591360092163086 1.2306255102157592773 1.2141098976135253906 1.2130826711654663086 1.16999053955078125 1.1227189302444458008 -9999 -9999 1.2183194160461425781 1.2581371068954467773 -9999 -9999 1.2188409566879272461 1.1179155111312866211 -9999 -9999 1.0886214971542358398 1.126595616340637207 1.1725572347640991211 1.2188143730163574219 1.4835895299911499023 2.3686242103576660156 2.4604592323303222656 2.7281262874603271484 2.6125137805938720703 2.3428807258605957031 2.116565704345703125 3.7906193733215332031 3.4317965507507324219 2.7435915470123291016 4.2424535751342773438 4.2188582420349121094 4.1304516792297363281 4.8765993118286132812 3.8420171737670898438 4.0799460411071777344 4.9427804946899414062 4.6164331436157226562 6.3683385848999023438 5.0407314300537109375 3.9254293441772460938 2.5961728096008300781 3.0757129192352294922 1.9048458337783813477 1.4798909425735473633 3.8607463836669921875 5.8722600936889648438 8.02622222900390625 9.4863567352294921875 9.7120876312255859375 9.2187395095825195312 7.2878680229187011719 6.4444980621337890625 10.058739662170410156 10.530388832092285156 10.872941970825195312 10.384988784790039062 9.7970600128173828125 9.103488922119140625 9.9579515457153320312 9.4928274154663085938 9.8027935028076171875 7.4356627464294433594 5.9668073654174804688 7.72217559814453125 7.8704376220703125 9.4108781814575195312 9.52483367919921875 9.9019594192504882812 10.329482078552246094 10.4671630859375 10.550954818725585938 10.549039840698242188 10.695341110229492188 10.668370246887207031 10.773585319519042969 10.63080596923828125 10.651910781860351562 10.694072723388671875 10.7408599853515625 10.65459442138671875 10.405483245849609375 10.726785659790039062 9.4744234085083007812 8.7142515182495117188 9.1156663894653320312 9.7752676010131835938 10.063958168029785156 9.7373514175415039062 9.7458276748657226562 8.3654327392578125 6.8421044349670410156 5.5627837181091308594 4.2569341659545898438 2.8752841949462890625 2.2643058300018310547 1.2741392850875854492 1.1391471624374389648 -9999 -9999 -9999 -9999 -9999 -9999 -9999 
-9999 1.0386073589324951172 -9999 -9999 -9999 -9999 -9999 -9999 -9999 -9999 1.0403587818145751953 -9999 -9999 1.0806128978729248047 -9999 -9999 1.1736789941787719727 1.1252673864364624023 1.1022200584411621094 1.1688863039016723633 1.1430284976959228516 1.1281325817108154297 1.1754453182220458984 1.3139679431915283203 1.3617194890975952148 1.2563215494155883789 1.3258434534072875977 1.2460416555404663086 1.0962280035018920898 1.1073894500732421875 1.1330620050430297852 -9999 1.2282873392105102539 1.1859046220779418945 1.2167900800704956055 1.0936250686645507812 1.102904200553894043 1.2412540912628173828 1.1631014347076416016 1.2361378669738769531 1.3527704477310180664 1.6089452505111694336 1.7234129905700683594 2.0650093555450439453 2.8403232097625732422 2.6058707237243652344 2.1374452114105224609 2.2316973209381103516 2.2218770980834960938 1.9229639768600463867 2.1529903411865234375 2.6493554115295410156 3.5849857330322265625 3.7206945419311523438 3.2832314968109130859 3.2641932964324951172 2.0940415859222412109 2.3582956790924072266 1.7554056644439697266 1.9894804954528808594 5.8729214668273925781 5.3992877006530761719 5.4557023048400878906 4.0600428581237792969 3.7179703712463378906 3.2127752304077148438 2.7296290397644042969 6.0280160903930664062 8.7939825057983398438 9.8078508377075195312 8.348522186279296875 7.9499959945678710938 7.2319650650024414062 3.9733622074127197266 8.356563568115234375 10.212365150451660156 10.117543220520019531 10.3963470458984375 10.663727760314941406 10.184688568115234375 10.710453987121582031 10.600917816162109375 9.6471576690673828125 9.8174943923950195312 9.2859392166137695312 8.0088548660278320312 8.198963165283203125 4.6079287528991699219 7.6398282051086425781 9.573764801025390625 9.9418697357177734375 10.014071464538574219 10.434325218200683594 10.740764617919921875 10.59877777099609375 10.468745231628417969 10.279294013977050781 10.721941947937011719 10.805450439453125 10.738293647766113281 10.6963958740234375 10.741910934448242188 10.605189323425292969 9.5984182357788085938 10.201832771301269531 10.382116317749023438 10.387479782104492188 10.618844985961914062 10.507570266723632812 10.283928871154785156 9.8165006637573242188 10.079318046569824219 9.6962823867797851562 7.9899106025695800781 5.9836950302124023438 4.3501729965209960938 1.7388255596160888672 1.2241824865341186523 1.1496506929397583008 1.2612825632095336914 1.1336793899536132812 1.0349042415618896484 1.0539374351501464844 -9999 -9999 -9999 -9999 
1.0652936697006225586 -9999 -9999 -9999 -9999 -9999 -9999 -9999 -9999 -9999 -9999 -9999 -9999 -9999 -9999 -9999 1.2146652936935424805 1.1585792303085327148 -9999 1.0902596712112426758 -9999 1.1050395965576171875 1.2141376733779907227 1.4684406518936157227 1.4891668558120727539 1.1314760446548461914 1.2145721912384033203 1.2067588567733764648 1.153695225715637207 1.2239291667938232422 1.2390236854553222656 1.1186577081680297852 1.3282819986343383789 1.5169912576675415039 1.398736119270324707 1.1702399253845214844 1.1627277135848999023 1.2339167594909667969 1.1118226051330566406 1.2343199253082275391 1.6943500041961669922 2.00042724609375 1.8042703866958618164 1.4223974943161010742 1.7444933652877807617 1.4526410102844238281 1.2564446926116943359 1.3491977453231811523 1.2566714286804199219 -9999 1.4064034223556518555 2.0326535701751708984 2.8542797565460205078 1.8624645471572875977 2.0668361186981201172 1.7629331350326538086 -9999 1.3800055980682373047 1.545161128044128418 3.1880774497985839844 5.7791190147399902344 7.3142690658569335938 5.3239350318908691406 3.2131192684173583984 2.5321354866027832031 3.3137502670288085938 3.1890282630920410156 3.3655731678009033203 5.2490582466125488281 5.1155753135681152344 6.6093440055847167969 7.8697838783264160156 4.1448245048522949219 5.4455494880676269531 9.5467815399169921875 7.9122953414916992188 6.9383101463317871094 9.3549365997314453125 10.099506378173828125 6.9958925247192382812 9.661468505859375 7.82977294921875 9.367282867431640625 9.7700643539428710938 9.0610179901123046875 9.7786893844604492188 9.4376220703125 6.7708253860473632812 7.7499756813049316406 9.9341259002685546875 10.204867362976074219 9.0297021865844726562 9.8327484130859375 10.795026779174804688 10.841343879699707031 10.317930221557617188 10.175652503967285156 10.867418289184570312 10.899176597595214844 10.798954010009765625 10.66178131103515625 9.9462919235229492188 10.609385490417480469 10.366286277770996094 10.185869216918945312 9.75262451171875 9.1660203933715820312 9.295806884765625 10.489986419677734375 10.225459098815917969 9.360111236572265625 9.7338504791259765625 8.6389751434326171875 5.6131339073181152344 4.1300096511840820312 2.6536934375762939453 1.2100403308868408203 -9999 -9999 1.140706181526184082 1.1168344020843505859 1.023085474967956543 -9999 -9999 -9999 -9999 -9999 
-9999 -9999 -9999 -9999 -9999 -9999 -9999 -9999 -9999 1.0706756114959716797 -9999 -9999 -9999 -9999 -9999 1.0864431858062744141 1.0839154720306396484 -9999 1.0480883121490478516 1.1513767242431640625 1.2735296487808227539 1.2191115617752075195 1.6076997518539428711 1.483807682991027832 1.278315424919128418 1.1856871843338012695 1.1439642906188964844 1.4365718364715576172 1.6166086196899414062 1.6729404926300048828 1.5961917638778686523 1.5056126117706298828 1.5847240686416625977 1.8707681894302368164 1.2491085529327392578 1.1694334745407104492 1.1366173028945922852 1.2443014383316040039 1.2396967411041259766 1.2286310195922851562 1.2977851629257202148 1.2126051187515258789 1.3906133174896240234 1.2565788030624389648 1.3394324779510498047 1.5141085386276245117 1.2951608896255493164 1.2008720636367797852 1.1466536521911621094 1.1579835414886474609 1.1509578227996826172 1.6032369136810302734 2.0781054496765136719 1.3642296791076660156 1.8383361101150512695 2.0264291763305664062 1.4524680376052856445 1.3057177066802978516 2.433391571044921875 4.887004852294921875 7.0562276840209960938 7.3315687179565429688 4.2486438751220703125 1.6689089536666870117 1.2582334280014038086 2.5995726585388183594 3.8129808902740478516 3.5637083053588867188 3.5890004634857177734 3.9895837306976318359 5.4648981094360351562 4.5792818069458007812 3.8541519641876220703 8.490299224853515625 8.9428586959838867188 5.2993655204772949219 4.8442578315734863281 9.6738128662109375 10.696724891662597656 9.1589708328247070312 8.8507337570190429688 9.2624425888061523438 10.19147491455078125 10.320216178894042969 10.409539222717285156 9.682403564453125 8.0550098419189453125 6.2948751449584960938 6.7718687057495117188 9.486392974853515625 10.228254318237304688 9.4415826797485351562 10.214531898498535156 10.7065887451171875 10.772615432739257812 10.441110610961914062 10.394141197204589844 10.948251724243164062 11 10.868139266967773438 10.311388969421386719 9.7119073867797851562 10.606900215148925781 10.214794158935546875 8.7909688949584960938 7.6431679725646972656 9.186923980712890625 9.2923183441162109375 8.3916883468627929688 9.6095724105834960938 6.7891297340393066406 4.7510447502136230469 3.4737927913665771484 1.8829722404479980469 1.4257417917251586914 1.4972788095474243164 1.3383400440216064453 1.2849175930023193359 1.2013213634490966797 1.057719111442565918 1.0246993303298950195 1.0276585817337036133 1.0066925287246704102 -9999 -9999 -9999 1.0310589075088500977 
1.0107918977737426758 -9999 -9999 -9999 -9999 -9999 -9999 -9999 -9999 -9999 -9999 1.0750447511672973633 1.0921725034713745117 -9999 1.1056492328643798828 1.0868831872940063477 1.0735776424407958984 -9999 -9999 1.191155552864074707 1.4395426511764526367 1.2880119085311889648 1.5251349210739135742 1.5266807079315185547 1.2116967439651489258 1.2098822593688964844 1.2430053949356079102 1.5349658727645874023 1.8145511150360107422 1.6539977788925170898 1.6426347494125366211 1.4588876962661743164 1.3439475297927856445 1.3631455898284912109 1.1812012195587158203 1.2400906085968017578 1.0915588140487670898 1.2111338376998901367 1.2858220338821411133 1.1414796113967895508 1.1266582012176513672 1.1717833280563354492 1.0985190868377685547 1.0956841707229614258 1.5197907686233520508 2.6299316883087158203 2.7024610042572021484 2.3011465072631835938 1.4963403940200805664 1.1906182765960693359 -9999 1.0867714881896972656 -9999 1.7385584115982055664 3.8666303157806396484 4.9474663734436035156 3.9992685317993164062 3.6462383270263671875 5.241703033447265625 4.5881342887878417969 4.7433271408081054688 4.3910655975341796875 1.6487618684768676758 -9999 1.1434202194213867188 2.1073708534240722656 2.2071063518524169922 2.3865575790405273438 3.1258456707000732422 4.0109219551086425781 2.7989597320556640625 1.6922036409378051758 4.9649443626403808594 8.9578685760498046875 6.5136084556579589844 4.3491334915161132812 7.9570479393005371094 10.448185920715332031 10.54677581787109375 7.13957977294921875 7.4930515289306640625 9.7821712493896484375 9.7946100234985351562 9.7376775741577148438 7.8192696571350097656 4.4786224365234375 2.9880330562591552734 5.5713186264038085938 9.3106203079223632812 10.471478462219238281 10.584772109985351562 10.371196746826171875 10.502911567687988281 10.730038642883300781 10.656912803649902344 10.818634986877441406 10.9430694580078125 10.9500579833984375 10.883255958557128906 10.854195594787597656 10.581498146057128906 10.513401031494140625 10.606374740600585938 9.2767019271850585938 8.0012226104736328125 9.7175607681274414062 9.8740720748901367188 8.2153224945068359375 7.7718024253845214844 6.3392300605773925781 4.1688938140869140625 3.4978334903717041016 2.9560201168060302734 2.6194007396697998047 2.876934051513671875 4.0016636848449707031 2.9910588264465332031 2.3033964633941650391 1.7582801580429077148 1.1882382631301879883 1.041154026985168457 1.0953894853591918945 -9999 -9999 1.0438550710678100586 1.0903252363204956055 1.0682967901229858398 
-9999 -9999 -9999 -9999 -9999 1.0084071159362792969 -9999 -9999 -9999 -9999 -9999 -9999 1.083685755729675293 -9999 1.2023695707321166992 1.1712354421615600586 -9999 1.1105208396911621094 1.0750396251678466797 1.1158331632614135742 1.1569936275482177734 1.3313225507736206055 1.4332822561264038086 1.3935410976409912109 1.2876502275466918945 1.1400705575942993164 1.1170827150344848633 1.2982084751129150391 1.4185290336608886719 1.1846568584442138672 1.0862921476364135742 1.0568610429763793945 1.2136242389678955078 1.2061916589736938477 1.1890405416488647461 1.1544672250747680664 -9999 1.1067826747894287109 1.2634425163269042969 1.1006456613540649414 1.2397093772888183594 1.3092939853668212891 1.0927208662033081055 1.3123288154602050781 1.7320677042007446289 2.1055309772491455078 2.9803028106689453125 3.4715135097503662109 1.7196812629699707031 -9999 -9999 1.0618939399719238281 1.6846827268600463867 3.8774480819702148438 5.6308341026306152344 6.7171115875244140625 5.2386655807495117188 3.845249176025390625 3.6352143287658691406 2.122852325439453125 1.4434145689010620117 1.6062533855438232422 1.1719439029693603516 -9999 1.2338178157806396484 1.7048484086990356445 1.3164973258972167969 1.2267100811004638672 1.6848503351211547852 2.1968641281127929688 1.6710239648818969727 1.3463995456695556641 4.4472813606262207031 8.126415252685546875 6.0777344703674316406 6.6641740798950195312 9.9374399185180664062 10.728896141052246094 10.69677734375 8.946506500244140625 8.2826108932495117188 8.2431955337524414062 8.0887441635131835938 7.4436182975769042969 2.6983914375305175781 1.3930915594100952148 2.7635827064514160156 6.4514784812927246094 8.2034397125244140625 9.9119739532470703125 10.275322914123535156 10.34590911865234375 10.437060356140136719 10.620432853698730469 10.756341934204101562 10.958256721496582031 10.967370033264160156 10.669030189514160156 10.532541275024414062 10.725727081298828125 10.716350555419921875 10.704363822937011719 10.644280433654785156 10.482573509216308594 10.224505424499511719 10.505879402160644531 9.8639173507690429688 7.982421875 9.4710636138916015625 9.5340719223022460938 7.289310455322265625 3.3615701198577880859 2.8033583164215087891 4.954929351806640625 5.0368900299072265625 5.1735310554504394531 3.8135876655578613281 2.4600455760955810547 1.5250415802001953125 1.1775072813034057617 1.1032133102416992188 1.0822808742523193359 -9999 1.0133657455444335938 1.0461393594741821289 1.0534734725952148438 1.093639373779296875 
-9999 -9999 -9999 -9999 -9999 -9999 -9999 -9999 -9999 1.0635179281234741211 -9999 1.0507584810256958008 1.062176823616027832 1.1214184761047363281 1.1692141294479370117 1.1138896942138671875 1.1204198598861694336 1.1487144231796264648 1.1764258146286010742 1.2233321666717529297 1.1119304895401000977 1.2358467578887939453 1.2641630172729492188 1.282421112060546875 -9999 -9999 1.0345832109451293945 -9999 -9999 -9999 1.1512074470520019531 1.1307728290557861328 1.3103356361389160156 1.2691391706466674805 1.1189289093017578125 1.1358897686004638672 1.0618082284927368164 1.0407378673553466797 1.0958416461944580078 -9999 1.1239259243011474609 1.1209293603897094727 1.0694310665130615234 1.2174562215805053711 1.4675469398498535156 1.6890881061553955078 2.7561106681823730469 3.4812705516815185547 1.7797790765762329102 1.0638723373413085938 1.0728453397750854492 1.0769269466400146484 2.0386981964111328125 4.5609588623046875 3.6409165859222412109 2.9347991943359375 1.9298043251037597656 -9999 1.3019564151763916016 1.2055314779281616211 -9999 1.1253930330276489258 -9999 1.1763797998428344727 1.2859025001525878906 1.4093023538589477539 1.2293307781219482422 1.2716197967529296875 -9999 1.856777191162109375 2.2939388751983642578 3.3077845573425292969 4.8314361572265625 4.8678388595581054688 4.2290072441101074219 8.0411672592163085938 10.225544929504394531 10.803005218505859375 10.795667648315429688 9.9300184249877929688 7.2156915664672851562 7.9191823005676269531 9.3467655181884765625 8.9260416030883789062 3.6746447086334228516 1.7609075307846069336 3.7905509471893310547 6.3208131790161132812 6.6724538803100585938 8.85107421875 7.1866426467895507812 7.9447479248046875 10.2238006591796875 10.258639335632324219 10.364656448364257812 10.658206939697265625 10.774389266967773438 10.52524566650390625 10.246709823608398438 10.604290008544921875 10.692408561706542969 10.711160659790039062 10.646344184875488281 10.665349006652832031 10.633722305297851562 10.434438705444335938 9.3371486663818359375 8.5043621063232421875 10.29457855224609375 9.9861078262329101562 8.5521345138549804688 4.8163557052612304688 5.2302451133728027344 7.011951446533203125 5.572723388671875 4.1528148651123046875 2.6648876667022705078 1.6169244050979614258 1.4108804464340209961 1.2279249429702758789 1.194975733757019043 1.1623926162719726562 1.0844023227691650391 1.0354256629943847656 1.004689335823059082 1.0181720256805419922 1.0502164363861083984 
-9999 -9999 -9999 -9999 -9999 -9999 -9999 1.125088810920715332 1.0999209880828857422 -9999 1.2496651411056518555 1.2390699386596679688 1.0969583988189697266 1.1332908868789672852 1.2551518678665161133 1.2568336725234985352 1.1279027462005615234 1.2134070396423339844 1.5764366388320922852 1.4835108518600463867 1.2547156810760498047 1.1038053035736083984 1.178049921989440918 1.1411417722702026367 1.1823954582214355469 1.1041274070739746094 1.0725038051605224609 1.0763717889785766602 1.1431447267532348633 1.0775092840194702148 1.1814229488372802734 1.2573349475860595703 1.2814780473709106445 1.4045413732528686523 1.1996395587921142578 -9999 1.1774661540985107422 1.102608799934387207 1.0555156469345092773 1.1720091104507446289 1.1842805147171020508 1.1059828996658325195 1.1184396743774414062 1.1189862489700317383 1.1217380762100219727 1.1872879266738891602 1.7865648269653320312 2.7749612331390380859 2.1754040718078613281 1.1300013065338134766 -9999 1.2379548549652099609 2.5648095607757568359 4.1750435829162597656 1.9237802028656005859 1.1560912132263183594 -9999 1.089062809944152832 1.0673851966857910156 1.1189562082290649414 1.8422267436981201172 1.6416556835174560547 -9999 1.2378940582275390625 1.6519085168838500977 1.4993628263473510742 1.499398350715637207 1.9875757694244384766 1.1352237462997436523 1.4727153778076171875 2.4951250553131103516 4.1971240043640136719 5.5906767845153808594 5.1923618316650390625 5.4056115150451660156 8.8019781112670898438 10.352740287780761719 10.575512886047363281 10.5535430908203125 7.7023711204528808594 6.9115099906921386719 9.5873117446899414062 10.37255859375 9.4851226806640625 5.9394359588623046875 2.8688194751739501953 1.9575377702713012695 4.5736255645751953125 7.2516036033630371094 8.2510042190551757812 4.2373051643371582031 6.0378394126892089844 10.120065689086914062 8.9004144668579101562 9.0760059356689453125 10.111742973327636719 10.625822067260742188 10.710360527038574219 10.676253318786621094 10.620997428894042969 10.555582046508789062 10.669852256774902344 10.706271171569824219 10.720895767211914062 10.070687294006347656 9.899013519287109375 9.0320539474487304688 9.5111951828002929688 9.764102935791015625 5.190517425537109375 3.8957374095916748047 4.0286107063293457031 7.7248549461364746094 7.83699798583984375 5.9404344558715820312 3.0887596607208251953 1.999203801155090332 1.2476263046264648438 1.2447016239166259766 1.1808152198791503906 1.255030512809753418 1.2781379222869873047 1.2299214601516723633 1.1167868375778198242 1.0086351633071899414 1.0324431657791137695 1.0692846775054931641 
-9999 -9999 -9999 -9999 -9999 -9999 1.1711102724075317383 1.3475617170333862305 1.1600347757339477539 1.1055735349655151367 1.3379873037338256836 1.2781059741973876953 1.1262620687484741211 1.1636230945587158203 1.1970298290252685547 1.132880091667175293 1.1630179882049560547 1.2853475809097290039 1.4242060184478759766 1.1875344514846801758 1.1268124580383300781 1.2559467554092407227 1.5070168972015380859 -9999 1.2019098997116088867 1.1723955869674682617 -9999 1.1901003122329711914 1.2776486873626708984 -9999 1.0752284526824951172 1.1848250627517700195 1.1293505430221557617 1.2075554132461547852 1.1892386674880981445 1.3095684051513671875 1.1736063957214355469 1.0912065505981445312 1.0863698720932006836 1.1545834541320800781 1.2141690254211425781 1.128754734992980957 1.0548641681671142578 1.1189240217208862305 1.1678470373153686523 1.0468916893005371094 1.088563084602355957 1.4238810539245605469 1.5415177345275878906 1.1984007358551025391 1.2434365749359130859 1.3780572414398193359 1.9241983890533447266 2.3389112949371337891 1.4790128469467163086 -9999 -9999 1.1081677675247192383 1.0898538827896118164 1.6878389120101928711 4.0493330955505371094 2.9230182170867919922 1.1376574039459228516 1.4202557802200317383 1.6576952934265136719 2.3645653724670410156 2.8344910144805908203 2.0276465415954589844 1.4611403942108154297 2.3486530780792236328 3.9468088150024414062 5.9524598121643066406 5.3029522895812988281 4.5491919517517089844 6.6530628204345703125 7.9435329437255859375 8.92627716064453125 9.34368133544921875 7.5289821624755859375 2.7888965606689453125 3.1980040073394775391 7.7783513069152832031 10.179193496704101562 9.5842370986938476562 7.0936770439147949219 3.4313194751739501953 1.5343958139419555664 3.192386627197265625 6.4555835723876953125 7.4182620048522949219 7.1839194297790527344 8.9430389404296875 9.9911012649536132812 9.7311010360717773438 10.035085678100585938 9.7033758163452148438 10.422350883483886719 10.31329345703125 10.462942123413085938 10.444288253784179688 10.448431015014648438 10.650381088256835938 10.615675926208496094 10.197484016418457031 9.0325908660888671875 9.809619903564453125 8.6254978179931640625 8.1998004913330078125 6.0658993721008300781 2.1863355636596679688 2.2022316455841064453 4.5524950027465820312 6.4987783432006835938 6.5535712242126464844 4.9008498191833496094 4.0864834785461425781 3.4282815456390380859 1.7914035320281982422 1.1457154750823974609 1.047488093376159668 1.139451146125793457 1.1992866992950439453 1.1317845582962036133 1.0976566076278686523 -9999 -9999 -9999 
1.1204450130462646484 -9999 -9999 1.0959503650665283203 1.1219637393951416016 1.263356328010559082 1.1806050539016723633 1.2203322649002075195 1.1783167123794555664 1.1313037872314453125 1.1841573715209960938 1.131541132926940918 1.147894740104675293 1.0846093893051147461 1.0961802005767822266 1.1594493389129638672 1.416157841682434082 1.7081731557846069336 1.3484717607498168945 1.1431927680969238281 -9999 1.1234253644943237305 1.2783056497573852539 1.1372884511947631836 1.4649091958999633789 1.3426060676574707031 -9999 1.313574671745300293 -9999 -9999 1.1541234254837036133 1.136019587516784668 -9999 1.1803815364837646484 1.1290050745010375977 1.2779600620269775391 1.2011579275131225586 1.1044471263885498047 1.0638536214828491211 1.1194243431091308594 1.2588697671890258789 -9999 1.0843926668167114258 1.1624037027359008789 1.1706203222274780273 1.0400507450103759766 -9999 1.0878810882568359375 -9999 1.6437332630157470703 2.2199473381042480469 1.9815070629119873047 -9999 -9999 -9999 -9999 -9999 -9999 -9999 1.7175575494766235352 4.2819538116455078125 2.9958178997039794922 1.2924541234970092773 1.9387127161026000977 1.9383388757705688477 2.4685046672821044922 2.1022975444793701172 1.7683172225952148438 2.6715614795684814453 4.6422648429870605469 7.33228302001953125 7.2032017707824707031 5.6527757644653320312 5.063854217529296875 5.0063796043395996094 5.4425892829895019531 4.2859182357788085938 5.7051839828491210938 5.91185760498046875 4.0431513786315917969 3.868526458740234375 7.8989405632019042969 10.466670989990234375 10.018098831176757812 8.1359891891479492188 3.6100530624389648438 2.0403225421905517578 2.6156871318817138672 4.819759368896484375 7.6961956024169921875 9.6661205291748046875 10.257795333862304688 10.102873802185058594 9.72670745849609375 8.5624914169311523438 8.1968326568603515625 10.077877044677734375 10.471262931823730469 10.339635848999023438 10.230849266052246094 10.090954780578613281 9.3640966415405273438 8.8367929458618164062 9.6280059814453125 9.8342599868774414062 9.3050537109375 6.4645562171936035156 3.3034315109252929688 1.9413801431655883789 2.1718118190765380859 3.9395706653594970703 5.3038411140441894531 5.5396389961242675781 6.1152787208557128906 5.9292511940002441406 6.0575084686279296875 4.0960288047790527344 2.0077955722808837891 1.3725793361663818359 1.0836416482925415039 -9999 -9999 1.0689365863800048828 -9999 -9999 -9999 -9999 
1.1061761379241943359 1.0640358924865722656 -9999 1.1877167224884033203 1.6852800846099853516 2.5453386306762695312 1.6768336296081542969 1.1980698108673095703 1.3041156530380249023 -9999 1.5865137577056884766 1.3267220258712768555 1.1060651540756225586 -9999 1.1402431726455688477 1.2280811071395874023 1.4609595537185668945 1.5969085693359375 1.537136077880859375 1.3433375358581542969 1.1116920709609985352 1.0304057598114013672 1.1163710355758666992 1.2416809797286987305 2.7716414928436279297 2.6690325736999511719 1.3870153427124023438 1.2214280366897583008 1.0119185447692871094 -9999 1.0916150808334350586 1.067279815673828125 1.1172014474868774414 1.1203368902206420898 1.145539402961730957 1.106615900993347168 1.1226121187210083008 1.1485787630081176758 1.0935366153717041016 1.0742604732513427734 1.1224374771118164062 1.1360912322998046875 1.1348375082015991211 1.0879143476486206055 1.1987644433975219727 1.1234449148178100586 -9999 -9999 -9999 1.3528590202331542969 2.4710881710052490234 2.4358005523681640625 -9999 -9999 -9999 -9999 -9999 -9999 1.6018388271331787109 2.3213801383972167969 4.2753415107727050781 3.0780632495880126953 3.3580121994018554688 2.7644402980804443359 1.9838235378265380859 1.4751451015472412109 1.3382979631423950195 2.6099121570587158203 4.8748917579650878906 4.1243863105773925781 6.0625333786010742188 7.3065476417541503906 4.7885661125183105469 4.73603057861328125 5.5070409774780273438 6.4043545722961425781 4.2732143402099609375 5.3155045509338378906 4.8276824951171875 6.674335479736328125 7.5866818428039550781 9.4127244949340820312 10.369676589965820312 10.253464698791503906 9.7596101760864257812 7.1292238235473632812 5.5028409957885742188 5.8752160072326660156 8.1832017898559570312 10.01763153076171875 10.131545066833496094 10.127149581909179688 10.296301841735839844 9.2376432418823242188 7.7509531974792480469 9.252849578857421875 10.245501518249511719 10.319515228271484375 10.021854400634765625 10.096459388732910156 10.033220291137695312 8.2003421783447265625 8.15453338623046875 9.6672983169555664062 8.5820684432983398438 5.6455140113830566406 2.9253010749816894531 1.5533556938171386719 1.8345391750335693359 2.7550702095031738281 5.4456930160522460938 4.0486207008361816406 3.6081423759460449219 3.2710869312286376953 3.7413930892944335938 4.0724706649780273438 3.6725227832794189453 2.5539445877075195312 1.6417396068572998047 1.1207882165908813477 -9999 -9999 -9999 -9999 -9999 -9999 -9999 
1.0969872474670410156 1.1347467899322509766 1.1888644695281982422 1.5609540939331054688 2.7958586215972900391 3.5887191295623779297 2.4385981559753417969 1.6063588857650756836 1.7901451587677001953 1.8806517124176025391 1.9658008813858032227 1.5489705801010131836 1.1357188224792480469 1.113041996955871582 1.1466159820556640625 1.0966489315032958984 1.2605245113372802734 1.2265542745590209961 1.588451385498046875 1.2394899129867553711 -9999 1.0202758312225341797 -9999 1.2473728656768798828 2.8469486236572265625 3.8230929374694824219 1.8997124433517456055 1.1535340547561645508 -9999 -9999 1.0777550935745239258 1.0444837808609008789 1.2177525758743286133 1.129992365837097168 1.4185765981674194336 1.2906304597854614258 1.1176105737686157227 1.0754820108413696289 1.0773468017578125 1.036067962646484375 1.0790170431137084961 1.1018365621566772461 1.12053680419921875 1.2251515388488769531 1.216199040412902832 1.2736059427261352539 1.0786814689636230469 1.0237537622451782227 -9999 -9999 2.2603883743286132812 2.4689700603485107422 2.4806818962097167969 1.5804361104965209961 -9999 -9999 1.4012305736541748047 1.9713820219039916992 3.9273517131805419922 4.5216059684753417969 3.40460205078125 5.6671390533447265625 7.4182066917419433594 5.2758049964904785156 2.0965273380279541016 1.5726389884948730469 1.9376342296600341797 2.8090765476226806641 4.2131075859069824219 3.6761763095855712891 3.7874152660369873047 3.871673583984375 2.5267555713653564453 4.0621929168701171875 8.375499725341796875 8.5465021133422851562 6.9189901351928710938 5.6328954696655273438 4.8389382362365722656 8.3950481414794921875 8.8332767486572265625 8.9090681076049804688 8.031642913818359375 8.8677120208740234375 9.0233469009399414062 8.9030046463012695312 9.59468841552734375 9.8424587249755859375 9.9311580657958984375 10.103148460388183594 9.7477321624755859375 9.5044708251953125 10.124624252319335938 9.4153699874877929688 7.6409463882446289062 9.238201141357421875 10.2791595458984375 10.2686004638671875 9.926570892333984375 10.268117904663085938 10.427074432373046875 10.074420928955078125 10.022625923156738281 9.7986602783203125 6.2322139739990234375 4.1875634193420410156 3.7375159263610839844 2.2323882579803466797 2.9762792587280273438 4.1445851325988769531 4.0961794853210449219 2.6032242774963378906 2.3084287643432617188 1.9714531898498535156 2.2123150825500488281 2.1446216106414794922 1.7868916988372802734 2.3300025463104248047 1.7257109880447387695 1.1311547756195068359 -9999 -9999 -9999 -9999 -9999 -9999 -9999 
-9999 -9999 1.1178388595581054688 1.4394884109497070312 1.6581777334213256836 1.7504135370254516602 1.7321856021881103516 1.5983623266220092773 1.3233002424240112305 1.4290202856063842773 1.3381208181381225586 1.2107640504837036133 1.0994803905487060547 1.0523592233657836914 1.0741134881973266602 -9999 -9999 1.1726386547088623047 1.4840630292892456055 1.2025432586669921875 1.0642726421356201172 -9999 -9999 -9999 1.4628359079360961914 2.2549419403076171875 1.870777130126953125 1.2114259004592895508 1.1698615550994873047 1.0769865512847900391 1.1184799671173095703 -9999 -9999 1.1075863838195800781 1.2975367307662963867 1.2043542861938476562 1.2328562736511230469 -9999 1.0462909936904907227 1.1701371669769287109 1.2415375709533691406 1.17699432373046875 1.4230890274047851562 1.3511387109756469727 1.2480949163436889648 1.352885127067565918 1.1243660449981689453 1.1408009529113769531 1.0658829212188720703 1.215119481086730957 2.0227484703063964844 2.4564800262451171875 2.9856524467468261719 2.4383785724639892578 1.402252197265625 -9999 2.0546491146087646484 3.2732775211334228516 4.2937641143798828125 6.216495513916015625 5.5360836982727050781 7.9513540267944335938 8.441265106201171875 6.3717751502990722656 3.5992338657379150391 3.3806960582733154297 3.9598622322082519531 5.4025220870971679688 3.2550480365753173828 1.6317077875137329102 1.5770905017852783203 1.6705242395401000977 2.5195500850677490234 7.0250573158264160156 9.9059734344482421875 9.2344865798950195312 5.5971035957336425781 5.6269669532775878906 6.7432169914245605469 9.6457614898681640625 9.6847944259643554688 8.5854129791259765625 5.448284149169921875 9.203083038330078125 9.7983732223510742188 9.635021209716796875 10.210854530334472656 10.049962043762207031 9.0999126434326171875 8.8943777084350585938 9.3428287506103515625 9.6910839080810546875 8.7199764251708984375 8.1705226898193359375 5.21260833740234375 4.9057931900024414062 7.5782694816589355469 8.6547336578369140625 8.9379987716674804688 10.145375251770019531 10.275116920471191406 10.365799903869628906 10.040461540222167969 9.2868700027465820312 6.4649658203125 5.555362701416015625 5.1904339790344238281 3.6870787143707275391 3.4609832763671875 4.6150088310241699219 3.2009599208831787109 2.7996842861175537109 2.1718349456787109375 2.4539155960083007812 2.1597678661346435547 1.5000202655792236328 1.1746337413787841797 1.4916014671325683594 1.4201312065124511719 1.059380650520324707 -9999 -9999 -9999 -9999 -9999 -9999 1.0993803739547729492 
-9999 -9999 -9999 1.0967319011688232422 1.4929412603378295898 1.9345216751098632812 1.8793747425079345703 1.2173364162445068359 -9999 -9999 -9999 1.0608401298522949219 1.0261354446411132812 1.0543855428695678711 1.1093274354934692383 1.0917022228240966797 -9999 1.047171473503112793 1.0841536521911621094 1.1211239099502563477 1.0805673599243164062 -9999 -9999 -9999 -9999 1.2293807268142700195 1.7342106103897094727 1.3516352176666259766 1.0839716196060180664 1.0449680089950561523 1.0737144947052001953 1.0634677410125732422 1.2442177534103393555 1.3636671304702758789 1.1630017757415771484 1.1196640729904174805 1.1233742237091064453 -9999 1.1677910089492797852 1.4886564016342163086 1.1691341400146484375 1.1596393585205078125 1.6578860282897949219 2.8424022197723388672 1.7151051759719848633 1.1075861454010009766 1.210841059684753418 1.2880851030349731445 1.154384613037109375 1.1330705881118774414 1.5100682973861694336 2.4870336055755615234 3.0491850376129150391 2.8906488418579101562 1.8696607351303100586 -9999 1.9556578397750854492 2.2614958286285400391 3.1296825408935546875 4.8630652427673339844 7.158603668212890625 7.6774067878723144531 5.9209184646606445312 3.6760618686676025391 3.2949631214141845703 5.900463104248046875 5.6313567161560058594 5.3557519912719726562 2.4877960681915283203 1.2348635196685791016 2.7091321945190429688 2.6688508987426757812 3.5586729049682617188 8.591876983642578125 9.96485137939453125 9.7738399505615234375 7.2387022972106933594 7.067943572998046875 9.4020681381225585938 9.6250982284545898438 9.7903165817260742188 9.4415740966796875 7.7208905220031738281 10.317485809326171875 10.394267082214355469 9.5569105148315429688 9.5708465576171875 10.073560714721679688 9.6729669570922851562 8.8701686859130859375 8.354885101318359375 8.9558954238891601562 6.5901875495910644531 4.2655401229858398438 2.0500175952911376953 1.8873554468154907227 3.7009780406951904297 8.2569818496704101562 9.90712738037109375 10.010896682739257812 8.8779783248901367188 7.5611138343811035156 8.1078653335571289062 8.2925329208374023438 6.8072199821472167969 3.9954476356506347656 3.2794179916381835938 4.2797412872314453125 4.6299457550048828125 4.5206246376037597656 2.3948276042938232422 2.3068196773529052734 1.7602065801620483398 1.9601774215698242188 1.8283063173294067383 1.4239478111267089844 1.1025242805480957031 1.2419127225875854492 1.3380850553512573242 1.0921466350555419922 -9999 -9999 -9999 -9999 -9999 -9999 -9999 
-9999 -9999 -9999 1.1889061927795410156 1.6755924224853515625 2.2200064659118652344 2.2449386119842529297 1.5432657003402709961 1.2448494434356689453 1.1905895471572875977 -9999 -9999 1.0303897857666015625 1.0189654827117919922 1.0339545011520385742 1.0367078781127929688 1.0758527517318725586 -9999 -9999 -9999 -9999 -9999 -9999 -9999 -9999 -9999 -9999 1.1073505878448486328 1.1344414949417114258 1.0577139854431152344 1.0692905187606811523 -9999 1.2853641510009765625 1.2738622426986694336 -9999 1.1774480342864990234 1.1512975692749023438 -9999 1.095364689826965332 1.1622104644775390625 1.0412943363189697266 1.0504394769668579102 1.7478456497192382812 3.0915746688842773438 2.8156685829162597656 1.5997899770736694336 1.5922112464904785156 2.2017917633056640625 1.5083774328231811523 -9999 1.7048740386962890625 2.2328832149505615234 3.0785014629364013672 3.2930514812469482422 2.05091094970703125 -9999 1.3031178712844848633 1.6189854145050048828 1.7825607061386108398 2.2813067436218261719 5.6695399284362792969 6.2217116355895996094 4.7560100555419921875 4.2899861335754394531 5.874156951904296875 5.7757778167724609375 3.2269594669342041016 2.2085490226745605469 1.5864648818969726562 1.1871829032897949219 2.3508057594299316406 2.1951787471771240234 3.6861884593963623047 4.9172511100769042969 6.7975625991821289062 7.1491250991821289062 5.0409650802612304688 6.4710302352905273438 9.4091243743896484375 8.207714080810546875 8.1082010269165039062 10.059783935546875 9.838871002197265625 10.617044448852539062 10.424983024597167969 10.142668724060058594 9.800609588623046875 10.200489044189453125 9.07701873779296875 8.5940561294555664062 7.8582491874694824219 8.621631622314453125 8.7084150314331054688 6.2701849937438964844 2.0132353305816650391 1.4608041048049926758 2.8029146194458007812 5.1445260047912597656 7.7692809104919433594 7.5996494293212890625 4.2167363166809082031 1.9028631448745727539 2.9810383319854736328 5.9410462379455566406 6.5677232742309570312 4.5481252670288085938 3.5818228721618652344 3.4646925926208496094 3.9875645637512207031 4.6341433525085449219 1.9776591062545776367 1.2241075038909912109 1.3356573581695556641 1.3993135690689086914 1.1861373186111450195 1.1006810665130615234 1.0345082283020019531 1.2395380735397338867 1.3228042125701904297 1.1696598529815673828 1.0533933639526367188 -9999 -9999 -9999 -9999 -9999 -9999 
-9999 1.1312681436538696289 -9999 1.0802654027938842773 1.3008010387420654297 1.6758795976638793945 1.8825056552886962891 1.672749638557434082 1.552641749382019043 1.4266663789749145508 1.156308293342590332 1.1269651651382446289 1.1455606222152709961 -9999 -9999 1.0420932769775390625 -9999 1.051568150520324707 -9999 -9999 -9999 -9999 -9999 -9999 -9999 -9999 -9999 -9999 1.1597867012023925781 1.1035201549530029297 1.0690377950668334961 -9999 1.1266148090362548828 1.1598771810531616211 1.084277033805847168 1.122073054313659668 -9999 1.0557713508605957031 1.1138904094696044922 1.0555045604705810547 1.0231078863143920898 1.0189905166625976562 1.1819363832473754883 2.2439284324645996094 4.2188816070556640625 2.5921626091003417969 2.1157674789428710938 2.4406869411468505859 1.444431304931640625 1.2760376930236816406 2.2004079818725585938 2.0509490966796875 2.0139157772064208984 2.9088110923767089844 1.9151163101196289062 1.2411661148071289062 1.1314070224761962891 1.227151036262512207 1.2210223674774169922 1.7764884233474731445 2.5833988189697265625 5.4032959938049316406 4.0176463127136230469 4.4646611213684082031 5.8455452919006347656 3.7678554058074951172 2.2705621719360351562 1.3249361515045166016 1.0656530857086181641 1.3683837652206420898 2.2739908695220947266 1.6465709209442138672 1.8994324207305908203 2.8965973854064941406 3.6116707324981689453 2.7715375423431396484 2.9924628734588623047 6.7026653289794921875 9.8719043731689453125 8.3298587799072265625 7.9624619483947753906 10.503497123718261719 10.635812759399414062 10.272343635559082031 10.514919281005859375 10.570908546447753906 10.147256851196289062 10.2459259033203125 9.6042699813842773438 8.4413690567016601562 7.8911228179931640625 7.6758637428283691406 6.7710018157958984375 5.1074919700622558594 2.5262129306793212891 2.7497372627258300781 3.7722787857055664062 3.0860261917114257812 2.9380662441253662109 4.1669745445251464844 3.7288949489593505859 1.7546315193176269531 3.5463528633117675781 5.4913954734802246094 6.2110257148742675781 5.3804068565368652344 5.0028319358825683594 5.2764430046081542969 4.6937069892883300781 3.9958689212799072266 2.1150009632110595703 1.283519744873046875 1.2179311513900756836 1.1297657489776611328 1.0276383161544799805 -9999 1.1368770599365234375 1.4487504959106445312 1.3599590063095092773 1.1032096147537231445 -9999 -9999 -9999 -9999 -9999 -9999 -9999 
-9999 -9999 -9999 -9999 1.0965238809585571289 1.3555015325546264648 1.533060908317565918 1.5528982877731323242 1.5957398414611816406 1.4314374923706054688 1.2230715751647949219 1.1090955734252929688 1.1897752285003662109 1.0584967136383056641 -9999 -9999 -9999 -9999 1.1696541309356689453 1.4143373966217041016 1.1110317707061767578 -9999 -9999 -9999 -9999 -9999 -9999 -9999 1.1218428611755371094 1.107809901237487793 -9999 -9999 1.0988938808441162109 1.1480506658554077148 1.1832345724105834961 1.1435457468032836914 -9999 1.0546740293502807617 1.1012402772903442383 -9999 1.0109198093414306641 1.0207912921905517578 1.118603825569152832 1.8333290815353393555 4.1643567085266113281 2.8892307281494140625 1.7321311235427856445 1.5745441913604736328 -9999 1.7745145559310913086 2.4545433521270751953 2.3174152374267578125 1.2746661901473999023 2.2843554019927978516 2.4969785213470458984 1.3703417778015136719 -9999 1.0511146783828735352 1.7907692193984985352 3.191074371337890625 2.750507354736328125 4.3683409690856933594 2.8941302299499511719 4.5786118507385253906 4.0030059814453125 2.2511749267578125 1.6505585908889770508 1.1877802610397338867 -9999 1.5201478004455566406 2.7012174129486083984 1.660313725471496582 1.1695799827575683594 2.5989179611206054688 3.0766439437866210938 1.9779585599899291992 3.6892802715301513672 9.2162141799926757812 10.098771095275878906 8.415676116943359375 8.9970254898071289062 10.413118362426757812 10.702716827392578125 10.591155052185058594 10.709771156311035156 10.691206932067871094 10.095289230346679688 8.68834686279296875 8.8627023696899414062 8.25592803955078125 5.4895520210266113281 3.4788672924041748047 3.5423402786254882812 3.2116320133209228516 2.7200808525085449219 2.4741201400756835938 2.5855159759521484375 2.6107685565948486328 1.8742979764938354492 1.692248225212097168 1.6594544649124145508 1.4483588933944702148 3.2619178295135498047 5.1294713020324707031 5.1173229217529296875 4.8665752410888671875 4.1723718643188476562 4.945911407470703125 3.9487965106964111328 3.5456109046936035156 2.3318808078765869141 1.8494907617568969727 1.8114399909973144531 1.4901173114776611328 1.0707840919494628906 1.0470601320266723633 1.1686116456985473633 1.2477737665176391602 1.1181830167770385742 -9999 -9999 -9999 -9999 -9999 -9999 -9999 -9999 
-9999 -9999 -9999 -9999 -9999 -9999 1.2875065803527832031 1.3251820802688598633 1.3552275896072387695 1.4456237554550170898 1.3434413671493530273 1.1359956264495849609 1.238801121711730957 1.1191121339797973633 -9999 -9999 -9999 -9999 1.1913959980010986328 1.3330004215240478516 -9999 -9999 -9999 -9999 -9999 -9999 -9999 -9999 1.1173485517501831055 1.1165069341659545898 1.32903289794921875 -9999 -9999 -9999 1.213738560676574707 1.2330776453018188477 1.0233269929885864258 1.0514291524887084961 -9999 -9999 1.0413421392440795898 1.0651066303253173828 1.114224553108215332 1.4852323532104492188 3.6606738567352294922 3.7974369525909423828 1.5530234575271606445 1.1608928442001342773 1.3353857994079589844 2.8161091804504394531 2.5696816444396972656 1.9229602813720703125 -9999 2.0395967960357666016 3.4415264129638671875 1.8853081464767456055 -9999 1.1596547365188598633 1.6745405197143554688 2.7261872291564941406 3.7210147380828857422 3.0895929336547851562 1.5337398052215576172 3.3802194595336914062 4.5847067832946777344 4.4618268013000488281 2.524295806884765625 1.6060631275177001953 1.7221316099166870117 1.4730550050735473633 1.643292546272277832 1.6594353914260864258 1.3272246122360229492 2.4058668613433837891 2.6025059223175048828 2.2585558891296386719 4.2611541748046875 8.7168426513671875 9.43126678466796875 8.6402597427368164062 8.09587860107421875 9.8553266525268554688 10.464702606201171875 10.668453216552734375 10.72377777099609375 10.687564849853515625 9.8484020233154296875 6.551723480224609375 7.1079072952270507812 6.2495288848876953125 2.7679433822631835938 -9999 1.4057294130325317383 1.7726713418960571289 2.3232779502868652344 1.4297075271606445312 1.3890680074691772461 1.7418929338455200195 2.0561397075653076172 1.6214957237243652344 1.1863849163055419922 1.0867274999618530273 2.2979333400726318359 4.7836704254150390625 3.823486328125 3.8155589103698730469 3.4893753528594970703 3.0017921924591064453 1.9705576896667480469 2.1681389808654785156 1.6694116592407226562 1.45318603515625 1.6042441129684448242 1.2827299833297729492 1.0420058965682983398 1.0166451930999755859 -9999 -9999 -9999 -9999 -9999 -9999 -9999 -9999 -9999 -9999 -9999 
-9999 -9999 -9999 -9999 -9999 -9999 -9999 1.1993520259857177734 1.4293326139450073242 1.4170607328414916992 1.2882646322250366211 1.1514010429382324219 1.1676822900772094727 1.1200145483016967773 -9999 -9999 -9999 -9999 -9999 -9999 -9999 -9999 1.1026148796081542969 -9999 -9999 -9999 -9999 -9999 -9999 1.3081473112106323242 1.656991124153137207 1.3142868280410766602 -9999 -9999 1.1482295989990234375 1.111302495002746582 -9999 -9999 1.1877623796463012695 1.1057310104370117188 1.2036916017532348633 1.2766423225402832031 1.3289521932601928711 1.9807019233703613281 4.7275986671447753906 5.5457425117492675781 3.3758287429809570312 1.9948377609252929688 1.8177535533905029297 3.8799774646759033203 3.7957773208618164062 1.8449014425277709961 1.358646392822265625 2.1939823627471923828 3.3879883289337158203 2.1096749305725097656 1.2665463685989379883 1.5654238462448120117 1.2110294103622436523 2.4173314571380615234 3.2292046546936035156 1.9295079708099365234 1.5497139692306518555 2.5411889553070068359 4.1618561744689941406 6.6204400062561035156 6.7448291778564453125 6.0644998550415039062 5.9463376998901367188 4.2246685028076171875 2.6022026538848876953 2.8493273258209228516 2.1447989940643310547 3.0877337455749511719 2.4464292526245117188 3.5156738758087158203 5.51988983154296875 4.060680389404296875 4.2256731986999511719 6.155609130859375 9.513454437255859375 10.418251991271972656 10.411080360412597656 10.437766075134277344 10.475482940673828125 10.487947463989257812 10.402721405029296875 7.2448072433471679688 3.2345879077911376953 1.9536079168319702148 1.5062623023986816406 1.185216069221496582 -9999 2.3617331981658935547 3.5025656223297119141 2.4800789356231689453 1.2479381561279296875 1.1510462760925292969 1.2392152547836303711 1.3464782238006591797 1.595644831657409668 1.4684615135192871094 1.7497656345367431641 2.4900298118591308594 1.480632781982421875 1.5921130180358886719 1.5561954975128173828 1.2949891090393066406 -9999 -9999 1.1199698448181152344 -9999 1.1992067098617553711 1.1069877147674560547 -9999 -9999 -9999 -9999 -9999 -9999 -9999 -9999 -9999 -9999 -9999 -9999 -9999 
-9999 -9999 -9999 -9999 -9999 -9999 -9999 1.092438817024230957 1.1631522178649902344 1.2294088602066040039 1.1763899326324462891 1.154118657112121582 1.0898267030715942383 1.0324735641479492188 -9999 -9999 -9999 -9999 -9999 -9999 -9999 1.0699357986450195312 1.1186540126800537109 1.1023035049438476562 1.0437215566635131836 -9999 -9999 -9999 -9999 1.4921932220458984375 2.9455866813659667969 3.1242513656616210938 1.8273630142211914062 -9999 1.0459531545639038086 1.0360790491104125977 1.1795200109481811523 1.5245059728622436523 1.4833797216415405273 1.1273065805435180664 1.6161512136459350586 1.8551166057586669922 1.9920189380645751953 3.0498752593994140625 4.7382535934448242188 4.6741971969604492188 3.7495656013488769531 3.8394861221313476562 3.4427397251129150391 4.5323071479797363281 4.2495017051696777344 3.4577398300170898438 2.4324872493743896484 2.0936126708984375 3.4360492229461669922 3.0631022453308105469 1.97714996337890625 1.2789417505264282227 1.3604654073715209961 3.2703566551208496094 2.4035155773162841797 1.2891629934310913086 1.819745182991027832 2.0662417411804199219 4.2861161231994628906 8.22487640380859375 8.4160852432250976562 8.5039606094360351562 8.2775468826293945312 7.2036013603210449219 5.6244153976440429688 3.7171268463134765625 3.7190754413604736328 4.7894277572631835938 2.2695620059967041016 2.6873862743377685547 3.8812556266784667969 2.4025406837463378906 1.747902989387512207 6.4167623519897460938 10.005407333374023438 10.173259735107421875 10.19971466064453125 10.437790870666503906 10.506982803344726562 10.544645309448242188 10.533713340759277344 8.4941558837890625 2.7905189990997314453 1.3527721166610717773 1.6676062345504760742 1.7095121145248413086 1.6606044769287109375 2.3218007087707519531 2.3629081249237060547 2.4859898090362548828 1.5190087556838989258 1.0943601131439208984 -9999 1.0909414291381835938 1.3354434967041015625 1.6009356975555419922 1.2224748134613037109 1.2317023277282714844 1.0945013761520385742 -9999 -9999 1.1570113897323608398 1.0519740581512451172 -9999 -9999 -9999 -9999 -9999 -9999 -9999 -9999 -9999 -9999 -9999 -9999 -9999 -9999 -9999 -9999 -9999 -9999 
-9999 -9999 -9999 -9999 -9999 -9999 -9999 -9999 1.0682859420776367188 1.0842752456665039062 1.0401842594146728516 1.096552729606628418 1.0632600784301757812 1.0544415712356567383 -9999 -9999 1.0526597499847412109 -9999 -9999 -9999 -9999 -9999 -9999 -9999 -9999 1.0334579944610595703 -9999 -9999 -9999 1.9707643985748291016 5.2523808479309082031 5.7366738319396972656 3.13306427001953125 1.5924707651138305664 -9999 -9999 1.1895300149917602539 1.8722677230834960938 2.1810915470123291016 1.2022585868835449219 1.2987194061279296875 2.0944910049438476562 3.0599360466003417969 4.1744379997253417969 4.1606602668762207031 3.0629413127899169922 2.3693907260894775391 3.299045562744140625 3.4568209648132324219 4.3136701583862304688 3.5795977115631103516 3.2893319129943847656 1.8524484634399414062 2.2030375003814697266 3.4521071910858154297 3.9866173267364501953 2.7931494712829589844 -9999 1.6911119222640991211 1.9686235189437866211 1.3721526861190795898 1.2882912158966064453 2.0997762680053710938 1.6644452810287475586 3.6431665420532226562 8.7864046096801757812 9.7038106918334960938 9.6010112762451171875 9.1929407119750976562 8.45655059814453125 4.8118119239807128906 2.1648900508880615234 3.7153859138488769531 3.2479329109191894531 1.9013943672180175781 1.7269874811172485352 1.6675904989242553711 1.5337336063385009766 1.8689101934432983398 6.2064042091369628906 9.7770290374755859375 10.183341026306152344 10.226266860961914062 10.375799179077148438 10.452040672302246094 9.8548212051391601562 9.5350055694580078125 9.5895595550537109375 6.6588296890258789062 4.4598894119262695312 3.8409290313720703125 3.1223206520080566406 2.6838254928588867188 2.8053803443908691406 2.1964700222015380859 2.3880426883697509766 2.2720410823822021484 1.3231223821640014648 -9999 -9999 1.1374069452285766602 1.1378269195556640625 1.1183228492736816406 1.1379094123840332031 1.063823699951171875 -9999 1.1566010713577270508 1.5831054449081420898 1.1658105850219726562 -9999 -9999 -9999 -9999 -9999 -9999 -9999 -9999 -9999 -9999 -9999 -9999 -9999 -9999 -9999 -9999 -9999 -9999 
-9999 -9999 -9999 -9999 -9999 -9999 -9999 -9999 -9999 -9999 -9999 -9999 -9999 -9999 -9999 -9999 -9999 -9999 -9999 -9999 -9999 -9999 -9999 -9999 -9999 -9999 -9999 -9999 1.1980268955230712891 2.2037911415100097656 5.494976043701171875 6.7521295547485351562 5.6433877944946289062 4.7114157676696777344 1.9850915670394897461 1.1176093816757202148 -9999 1.3700186014175415039 1.8514171838760375977 1.2512136697769165039 1.1348605155944824219 1.6171265840530395508 2.1965963840484619141 2.3819811344146728516 3.3956148624420166016 2.8921644687652587891 2.0978634357452392578 2.3967654705047607422 2.6506521701812744141 1.9356232881546020508 1.9712499380111694336 2.1707608699798583984 1.1952813863754272461 1.698014378547668457 2.94280242919921875 3.1032075881958007812 3.2227685451507568359 1.7988190650939941406 1.672351837158203125 1.2736616134643554688 1.0609856843948364258 1.3141208887100219727 2.2199747562408447266 1.8029483556747436523 2.313228607177734375 6.1974425315856933594 9.3345613479614257812 10.230846405029296875 10.233197212219238281 10.048065185546875 8.8870754241943359375 6.5194401741027832031 7.1117491722106933594 2.7040095329284667969 1.8897842168807983398 1.3705831766128540039 1.1160544157028198242 1.6642637252807617188 3.5086693763732910156 8.1762599945068359375 8.6344442367553710938 9.6448965072631835938 10.087055206298828125 9.6007375717163085938 9.2153987884521484375 8.899730682373046875 9.4629278182983398438 9.717555999755859375 9.4867048263549804688 9.3975458145141601562 7.7256388664245605469 6.5036115646362304688 6.8774766921997070312 6.6740555763244628906 5.3977727890014648438 2.9693601131439208984 2.3981227874755859375 1.6719087362289428711 1.0813171863555908203 1.121002197265625 1.6301507949829101562 1.7208759784698486328 1.1718003749847412109 1.0678368806838989258 1.0333820581436157227 -9999 1.3331592082977294922 1.8095726966857910156 1.1754961013793945312 1.0895001888275146484 -9999 -9999 -9999 -9999 -9999 -9999 -9999 -9999 -9999 -9999 1.0350892543792724609 -9999 -9999 -9999 -9999 -9999 -9999 
-9999 -9999 -9999 -9999 -9999 -9999 -9999 -9999 -9999 -9999 -9999 -9999 -9999 -9999 -9999 -9999 -9999 -9999 -9999 -9999 -9999 -9999 -9999 -9999 -9999 -9999 -9999 -9999 -9999 1.3252290487289428711 2.2181487083435058594 4.1202979087829589844 5.8687915802001953125 7.0619153976440429688 5.317058563232421875 2.0256581306457519531 -9999 -9999 1.1005170345306396484 1.1633836030960083008 1.3332773447036743164 1.4470598697662353516 1.4171285629272460938 1.7130426168441772461 1.8321970701217651367 2.2365307807922363281 1.8380690813064575195 1.7741674184799194336 2.2343225479125976562 4.7701535224914550781 4.9163613319396972656 2.3097579479217529297 -9999 1.339732050895690918 2.2062411308288574219 2.4806184768676757812 3.7413361072540283203 2.6121897697448730469 1.4211045503616333008 1.0807194709777832031 1.3249475955963134766 1.6513472795486450195 3.0985093116760253906 4.8763322830200195312 3.9034986495971679688 3.3955214023590087891 7.0645313262939453125 9.9958391189575195312 10.282901763916015625 10.307985305786132812 9.9584035873413085938 9.9091806411743164062 8.2119035720825195312 2.3957822322845458984 1.2213637828826904297 1.3443011045455932617 1.2688437700271606445 1.8766707181930541992 3.4929144382476806641 7.1850347518920898438 9.5110454559326171875 10.091642379760742188 9.880352020263671875 8.6680536270141601562 9.1487483978271484375 9.8853282928466796875 9.6014499664306640625 9.2033033370971679688 9.0086431503295898438 9.0487842559814453125 8.3122968673706054688 6.9432396888732910156 5.7141718864440917969 4.595592498779296875 3.5740113258361816406 2.4381003379821777344 2.1292207241058349609 1.6758457422256469727 1.4536751508712768555 1.5378167629241943359 2.6342966556549072266 1.98709869384765625 1.1757273674011230469 1.0444579124450683594 1.0173740386962890625 1.0716791152954101562 1.4463264942169189453 1.6206525564193725586 1.188720703125 1.1262930631637573242 -9999 -9999 -9999 1.0601575374603271484 -9999 -9999 -9999 -9999 -9999 -9999 -9999 -9999 -9999 -9999 -9999 -9999 -9999 
1.0932296514511108398 -9999 -9999 -9999 -9999 -9999 -9999 -9999 -9999 -9999 -9999 -9999 -9999 -9999 -9999 -9999 -9999 -9999 -9999 -9999 -9999 -9999 -9999 -9999 -9999 -9999 -9999 -9999 -9999 -9999 1.0984483957290649414 2.0772104263305664062 3.7839856147766113281 5.5762166976928710938 6.5378499031066894531 3.6877889633178710938 2.28124237060546875 1.3819979429244995117 -9999 1.0425406694412231445 -9999 -9999 -9999 1.4532420635223388672 1.8571311235427856445 2.3272659778594970703 2.8475561141967773438 4.1228199005126953125 6.7204480171203613281 9.1573028564453125 6.3319225311279296875 2.5602214336395263672 2.4786248207092285156 2.0393185615539550781 1.6938676834106445312 2.0370013713836669922 1.9444737434387207031 1.6104018688201904297 -9999 1.1095180511474609375 1.371336817741394043 2.3385844230651855469 4.9267106056213378906 4.8650088310241699219 5.6824440956115722656 5.847686767578125 7.5551505088806152344 9.940906524658203125 10.348987579345703125 10.025723457336425781 8.8890886306762695312 9.9238920211791992188 8.0303497314453125 3.1758432388305664062 2.0090930461883544922 2.557491302490234375 2.5113840103149414062 3.9019815921783447266 7.1073017120361328125 9.785655975341796875 9.7442884445190429688 8.7743024826049804688 8.4448881149291992188 9.1544399261474609375 10.113041877746582031 9.5615930557250976562 8.695346832275390625 7.7939467430114746094 6.4620308876037597656 6.9288301467895507812 7.916046142578125 5.7514395713806152344 2.113018035888671875 1.3993086814880371094 1.2511805295944213867 1.1370424032211303711 1.6010340452194213867 1.4968082904815673828 1.7417789697647094727 2.3789842128753662109 2.4262719154357910156 1.636393427848815918 1.5157455205917358398 1.1424262523651123047 -9999 1.0858662128448486328 1.2769899368286132812 1.1793088912963867188 1.0419945716857910156 1.0755659341812133789 1.0329301357269287109 -9999 -9999 1.0669771432876586914 -9999 -9999 -9999 -9999 -9999 -9999 -9999 -9999 -9999 -9999 -9999 -9999 -9999 
-9999 -9999 -9999 -9999 -9999 -9999 -9999 -9999 -9999 -9999 -9999 -9999 -9999 -9999 -9999 -9999 -9999 -9999 -9999 -9999 -9999 -9999 -9999 1.0024673938751220703 -9999 1.0806211233139038086 -9999 -9999 -9999 -9999 -9999 1.9134235382080078125 3.0839171409606933594 3.7759523391723632812 6.4919447898864746094 5.6384534835815429688 4.9568233489990234375 2.2155537605285644531 1.0339691638946533203 -9999 -9999 1.0873676538467407227 1.1547425985336303711 1.6061282157897949219 1.5305715799331665039 1.3134226799011230469 1.6438506841659545898 4.2303032875061035156 9.1511392593383789062 10.031717300415039062 7.6646661758422851562 5.26529693603515625 4.8244900703430175781 2.8347506523132324219 1.42932891845703125 1.7016923427581787109 1.2889753580093383789 1.2486456632614135742 -9999 -9999 -9999 2.0472326278686523438 3.641269683837890625 2.5597314834594726562 3.1099531650543212891 5.0963864326477050781 7.8838963508605957031 9.9748716354370117188 10.443327903747558594 10.202701568603515625 10.301203727722167969 9.8953008651733398438 7.7066073417663574219 4.8700761795043945312 2.3018860816955566406 2.135944366455078125 3.3098366260528564453 6.8268651962280273438 9.3438291549682617188 10.245177268981933594 9.59869384765625 7.7278103828430175781 9.1827106475830078125 9.76245880126953125 9.493885040283203125 8.7864475250244140625 7.9443221092224121094 5.1050548553466796875 2.2643132209777832031 3.9568984508514404297 7.237064361572265625 6.8478918075561523438 3.0901970863342285156 1.2665202617645263672 -9999 1.0395296812057495117 1.1988936662673950195 1.1769008636474609375 1.3490980863571166992 2.0236508846282958984 1.9514610767364501953 1.8092457056045532227 1.7651524543762207031 1.3169058561325073242 -9999 1.0316343307495117188 1.0572829246520996094 1.1538329124450683594 1.0414402484893798828 1.0530949831008911133 -9999 -9999 -9999 1.0850138664245605469 -9999 -9999 -9999 -9999 -9999 -9999 -9999 -9999 -9999 -9999 -9999 -9999 -9999 
1.0353144407272338867 -9999 -9999 -9999 -9999 -9999 -9999 -9999 -9999 -9999 -9999 -9999 -9999 -9999 -9999 -9999 1.0933920145034790039 -9999 -9999 -9999 -9999 -9999 -9999 -9999 -9999 -9999 -9999 -9999 -9999 -9999 -9999 1.682564854621887207 1.8932731151580810547 1.8107675313949584961 5.0644369125366210938 8.092395782470703125 7.6697015762329101562 3.5109264850616455078 1.4766261577606201172 -9999 1.0620843172073364258 1.0688540935516357422 1.0966501235961914062 1.2711724042892456055 1.3401038646697998047 1.1852804422378540039 1.538082122802734375 3.6729426383972167969 7.0201482772827148438 7.1848635673522949219 5.3500728607177734375 3.1487724781036376953 2.4779551029205322266 1.4238184690475463867 1.2285990715026855469 1.1202636957168579102 -9999 1.0628801584243774414 1.2649556398391723633 1.1553064584732055664 1.2911742925643920898 1.4177800416946411133 1.9147448539733886719 2.1315412521362304688 2.8679566383361816406 4.5496120452880859375 8.5794649124145507812 10.202503204345703125 10.353600502014160156 10.126873970031738281 10.226145744323730469 9.0086698532104492188 4.8382272720336914062 2.4217419624328613281 1.2498657703399658203 1.2781735658645629883 3.9605665206909179688 7.2641019821166992188 9.2159748077392578125 10.201816558837890625 9.0572938919067382812 8.3443355560302734375 9.1794195175170898438 8.8130807876586914062 7.4166817665100097656 7.4938435554504394531 5.7818918228149414062 2.2838032245635986328 -9999 2.5546236038208007812 5.4524984359741210938 5.8697957992553710938 4.942020416259765625 2.2257254123687744141 1.3988209962844848633 -9999 -9999 -9999 1.1639945507049560547 1.6001743078231811523 1.9469586610794067383 2.0008840560913085938 1.8499053716659545898 1.2061160802841186523 1.174236297607421875 1.1150429248809814453 1.0734442472457885742 1.0767974853515625 -9999 1.0700867176055908203 -9999 -9999 -9999 -9999 -9999 -9999 -9999 -9999 -9999 -9999 -9999 -9999 -9999 -9999 -9999 -9999 -9999 
-9999 -9999 -9999 -9999 -9999 -9999 -9999 -9999 -9999 -9999 -9999 -9999 -9999 -9999 -9999 -9999 -9999 -9999 -9999 -9999 -9999 -9999 -9999 -9999 -9999 -9999 -9999 -9999 -9999 -9999 -9999 -9999 1.1688361167907714844 1.5230835676193237305 5.011890411376953125 7.0499682426452636719 6.9330801963806152344 4.7053666114807128906 2.7770235538482666016 1.983470916748046875 1.1653940677642822266 -9999 1.0966199636459350586 -9999 -9999 -9999 1.4140095710754394531 1.8779864311218261719 3.3004782199859619141 2.8544304370880126953 1.8578916788101196289 1.2709344625473022461 1.2180242538452148438 1.39389801025390625 1.2851392030715942383 1.0417875051498413086 -9999 1.2404266595840454102 1.3927341699600219727 1.2544176578521728516 1.4366691112518310547 -9999 1.2120996713638305664 1.9983636140823364258 2.9112708568572998047 4.0918192863464355469 8.4022073745727539062 9.9077701568603515625 10.333678245544433594 9.9291553497314453125 9.237396240234375 7.0955438613891601562 3.1068770885467529297 1.4984290599822998047 1.1740723848342895508 1.3617153167724609375 3.4732086658477783203 6.7281365394592285156 9.3393259048461914062 9.3434724807739257812 7.9198827743530273438 8.6586475372314453125 8.464534759521484375 7.3402547836303710938 5.3690857887268066406 3.6794023513793945312 2.1814744472503662109 1.1707561016082763672 2.1469581127166748047 3.3278117179870605469 4.1591653823852539062 4.7556171417236328125 3.4938402175903320312 1.8394861221313476562 1.1279466152191162109 1.013159632682800293 -9999 1.2443321943283081055 1.1445802450180053711 1.4406697750091552734 1.8883903026580810547 1.9452546834945678711 1.6540687084197998047 1.6477771997451782227 1.3441593647003173828 1.298943638801574707 1.14789581298828125 -9999 -9999 1.0332213640213012695 -9999 -9999 -9999 -9999 -9999 -9999 -9999 -9999 -9999 -9999 -9999 -9999 -9999 -9999 -9999 -9999 -9999 
-9999 -9999 -9999 -9999 -9999 -9999 -9999 -9999 -9999 -9999 -9999 -9999 -9999 -9999 -9999 -9999 -9999 -9999 -9999 -9999 -9999 -9999 -9999 -9999 -9999 -9999 -9999 -9999 1.2106717824935913086 1.2076624631881713867 -9999 -9999 1.1472166776657104492 1.4539853334426879883 3.3944623470306396484 3.7092549800872802734 4.4519228935241699219 4.541049957275390625 2.8983824253082275391 1.6809821128845214844 1.1803146600723266602 1.1084784269332885742 1.2272490262985229492 1.5480053424835205078 1.2719340324401855469 1.1351572275161743164 1.5880026817321777344 1.6871540546417236328 2.8930501937866210938 1.9205288887023925781 1.4333171844482421875 1.4223558902740478516 1.1561735868453979492 1.3600946664810180664 1.1473526954650878906 -9999 1.0997148752212524414 1.1742310523986816406 1.2109736204147338867 1.4543715715408325195 1.230904698371887207 1.139607548713684082 -9999 1.457898259162902832 2.0817728042602539062 2.9318461418151855469 4.8730807304382324219 6.2350292205810546875 9.7219114303588867188 10.073252677917480469 8.2996349334716796875 4.0715770721435546875 1.6805709600448608398 1.3422135114669799805 2.1154725551605224609 2.1423223018646240234 3.0584514141082763672 5.7853794097900390625 8.1759929656982421875 7.047527313232421875 5.3502569198608398438 6.2613725662231445312 6.8074164390563964844 3.8892254829406738281 1.922018885612487793 1.2223304510116577148 1.5064387321472167969 2.8054020404815673828 4.6095948219299316406 6.507442474365234375 5.0282244682312011719 3.5217571258544921875 1.6453586816787719727 1.1163028478622436523 1.0353910923004150391 1.0431944131851196289 -9999 -9999 1.0659073591232299805 1.1704146862030029297 1.6317389011383056641 1.8898931741714477539 1.322943568229675293 1.5231790542602539062 1.3368874788284301758 1.1703400611877441406 1.1666166782379150391 1.2638090848922729492 1.6616823673248291016 -9999 -9999 -9999 -9999 -9999 -9999 -9999 -9999 -9999 -9999 -9999 -9999 -9999 -9999 -9999 -9999 -9999 -9999 
-9999 -9999 -9999 -9999 -9999 -9999 -9999 -9999 -9999 -9999 -9999 -9999 -9999 -9999 -9999 -9999 -9999 -9999 -9999 -9999 -9999 -9999 -9999 -9999 -9999 -9999 -9999 -9999 1.5427160263061523438 1.4460130929946899414 -9999 -9999 1.1869143247604370117 1.3441010713577270508 1.8215868473052978516 1.7433872222900390625 2.2908685207366943359 2.9188144207000732422 2.1804499626159667969 1.3911443948745727539 1.1679732799530029297 1.5012929439544677734 2.1147532463073730469 2.2202301025390625 2.2055180072784423828 1.8753023147583007812 1.3017141819000244141 1.2068163156509399414 1.2609232664108276367 1.1360327005386352539 1.471457362174987793 1.4228187799453735352 1.068767547607421875 -9999 -9999 1.2190572023391723633 1.4120516777038574219 1.7279297113418579102 1.6594008207321166992 1.2067085504531860352 1.0616631507873535156 1.1079360246658325195 -9999 1.4172801971435546875 1.8493388891220092773 2.1906008720397949219 3.3171224594116210938 6.0324506759643554688 8.8834514617919921875 9.5190448760986328125 7.5140318870544433594 4.3834171295166015625 1.585173487663269043 1.3918538093566894531 1.9760421514511108398 2.0655941963195800781 3.0484659671783447266 5.6124701499938964844 5.1224260330200195312 3.2178018093109130859 1.9804590940475463867 3.1475446224212646484 4.2482333183288574219 2.8254172801971435547 1.4583526849746704102 1.7945187091827392578 4.2032556533813476562 6.4960885047912597656 6.7055883407592773438 6.3807215690612792969 4.3011450767517089844 1.7986623048782348633 1.100216984748840332 1.0815366506576538086 1.0953174829483032227 1.106099247932434082 1.0885561704635620117 -9999 1.1862658262252807617 1.1633614301681518555 1.2471041679382324219 1.9853173494338989258 1.456460118293762207 -9999 1.1116462945938110352 1.0714241266250610352 1.2558144330978393555 1.1836539506912231445 1.0386805534362792969 1.1085608005523681641 -9999 -9999 -9999 -9999 -9999 -9999 -9999 -9999 -9999 -9999 -9999 -9999 -9999 -9999 -9999 -9999 -9999 
-9999 -9999 -9999 -9999 -9999 -9999 -9999 -9999 -9999 -9999 -9999 -9999 -9999 -9999 -9999 -9999 -9999 -9999 -9999 1.0648840665817260742 -9999 -9999 -9999 -9999 -9999 -9999 -9999 -9999 1.2816178798675537109 1.3427753448486328125 -9999 1.085717320442199707 1.0596190690994262695 1.1280328035354614258 1.0882542133331298828 1.1726617813110351562 2.0051009654998779297 2.4539651870727539062 1.6711426973342895508 1.3438537120819091797 1.0997909307479858398 1.3456408977508544922 2.1536710262298583984 2.7945263385772705078 2.6505415439605712891 2.5336351394653320312 1.4789351224899291992 -9999 -9999 -9999 -9999 -9999 -9999 1.4168769121170043945 1.4234740734100341797 1.5292475223541259766 1.3468260765075683594 1.7852411270141601562 1.5905321836471557617 1.1485729217529296875 1.0394154787063598633 1.1112461090087890625 1.6298907995223999023 1.4893863201141357422 1.2324681282043457031 1.2669607400894165039 1.8378657102584838867 4.9363827705383300781 7.879512786865234375 7.8957495689392089844 4.3266072273254394531 2.7043118476867675781 1.7082449197769165039 2.0577290058135986328 1.8124681711196899414 1.5661649703979492188 2.7498412132263183594 3.1465158462524414062 1.8218795061111450195 1.1972051858901977539 1.1267232894897460938 2.1912620067596435547 3.6471855640411376953 3.9777388572692871094 2.7510676383972167969 3.6876366138458251953 5.1150445938110351562 6.7105646133422851562 7.4233269691467285156 3.8351263999938964844 1.9273897409439086914 1.0940886735916137695 1.0766168832778930664 1.1148840188980102539 1.0513552427291870117 1.05519866943359375 1.1564689874649047852 1.060715794563293457 1.2036687135696411133 1.1888513565063476562 1.1284711360931396484 1.5340201854705810547 1.5208463668823242188 1.1162459850311279297 1.1788958311080932617 1.2227514982223510742 1.1957319974899291992 1.052142024040222168 1.0213177204132080078 -9999 -9999 -9999 -9999 -9999 -9999 -9999 -9999 -9999 -9999 -9999 -9999 -9999 -9999 -9999 -9999 -9999 -9999 
-9999 -9999 -9999 -9999 -9999 -9999 -9999 -9999 -9999 -9999 -9999 -9999 -9999 -9999 -9999 -9999 -9999 -9999 -9999 -9999 -9999 -9999 -9999 -9999 -9999 -9999 -9999 -9999 -9999 -9999 -9999 -9999 -9999 -9999 -9999 1.0920505523681640625 1.4812300205230712891 1.7450956106185913086 1.5676927566528320312 1.3281018733978271484 1.0943405628204345703 -9999 1.4456307888031005859 1.6427524089813232422 1.4702161550521850586 1.6176694631576538086 1.2444334030151367188 -9999 -9999 -9999 -9999 1.0612953901290893555 1.1619294881820678711 1.4764053821563720703 1.4031476974487304688 1.2081861495971679688 1.0697432756423950195 1.1501586437225341797 1.1678391695022583008 1.0992474555969238281 1.0351357460021972656 -9999 1.1955076456069946289 1.1653096675872802734 1.0601946115493774414 -9999 1.1822073459625244141 3.0908541679382324219 6.4389138221740722656 6.7499837875366210938 2.9749128818511962891 2.1503531932830810547 2.1173882484436035156 1.7807908058166503906 1.2312170267105102539 1.3801300525665283203 2.1276960372924804688 1.7143396139144897461 1.3907564878463745117 1.2833601236343383789 1.0430281162261962891 1.0930392742156982422 2.0568158626556396484 2.8185205459594726562 3.7781512737274169922 6.3925008773803710938 6.0947523117065429688 6.0673403739929199219 4.9892263412475585938 1.9396880865097045898 1.1100144386291503906 1.0757758617401123047 1.1409152746200561523 1.2032728195190429688 1.2418609857559204102 -9999 1.2663853168487548828 1.3246783018112182617 1.3209042549133300781 1.2681244611740112305 1.0842523574829101562 -9999 1.1915705204010009766 1.4749331474304199219 1.859366297721862793 1.854269862174987793 1.2806024551391601562 -9999 1.1054749488830566406 -9999 -9999 -9999 -9999 -9999 -9999 -9999 -9999 -9999 -9999 -9999 -9999 -9999 -9999 -9999 -9999 -9999 -9999 
-9999 -9999 -9999 -9999 -9999 -9999 -9999 -9999 -9999 -9999 -9999 -9999 -9999 -9999 -9999 -9999 -9999 -9999 -9999 -9999 -9999 -9999 -9999 -9999 -9999 -9999 -9999 -9999 -9999 -9999 -9999 -9999 -9999 -9999 -9999 -9999 1.1237177848815917969 1.2626284360885620117 1.5029672384262084961 1.2211818695068359375 -9999 -9999 -9999 -9999 -9999 -9999 -9999 -9999 -9999 -9999 -9999 -9999 1.0569391250610351562 1.1436748504638671875 1.1161552667617797852 -9999 -9999 1.0576710700988769531 1.1055289506912231445 1.0835646390914916992 1.0761090517044067383 -9999 -9999 -9999 -9999 1.0262665748596191406 1.1248373985290527344 2.4686515331268310547 4.2709207534790039062 2.9227747917175292969 1.6947889328002929688 1.8989825248718261719 1.5107305049896240234 1.1497818231582641602 1.0428301095962524414 1.2057873010635375977 1.2927939891815185547 1.132817387580871582 1.1796777248382568359 1.2235107421875 1.0778737068176269531 -9999 1.5861698389053344727 2.2720265388488769531 4.03380584716796875 5.6342387199401855469 5.4267640113830566406 4.3759741783142089844 1.7671258449554443359 1.1518877744674682617 1.1467286348342895508 -9999 1.3252441883087158203 -9999 1.2621784210205078125 1.128420710563659668 1.4040124416351318359 1.8484557867050170898 1.8600591421127319336 1.9448124170303344727 1.6653198003768920898 1.4366374015808105469 1.7353726625442504883 2.4700076580047607422 2.0854432582855224609 1.7981835603713989258 1.5071481466293334961 1.1464829444885253906 -9999 -9999 -9999 1.0734008550643920898 1.070201873779296875 -9999 -9999 -9999 -9999 -9999 1.0038267374038696289 -9999 -9999 -9999 -9999 -9999 -9999 -9999 -9999 
-9999 -9999 -9999 -9999 -9999 -9999 -9999 -9999 -9999 -9999 -9999 -9999 -9999 -9999 -9999 -9999 -9999 -9999 -9999 -9999 -9999 -9999 -9999 -9999 -9999 -9999 -9999 -9999 -9999 -9999 1.0635240077972412109 -9999 -9999 -9999 -9999 -9999 -9999 1.1031740903854370117 1.2306407690048217773 1.1117359399795532227 -9999 -9999 -9999 -9999 -9999 -9999 -9999 -9999 -9999 -9999 -9999 -9999 -9999 1.0862730741500854492 -9999 -9999 -9999 -9999 -9999 -9999 -9999 1.0763648748397827148 1.0523319244384765625 1.0634599924087524414 1.0467485189437866211 -9999 1.155943751335144043 1.501801609992980957 1.4425929784774780273 1.1856256723403930664 1.3537085056304931641 1.3702239990234375 1.1094187498092651367 1.0262874364852905273 1.1019443273544311523 1.3581522703170776367 1.5894722938537597656 1.3194980621337890625 1.1672052145004272461 -9999 -9999 1.0352280139923095703 1.1468439102172851562 1.4987417459487915039 1.5688551664352416992 1.9027618169784545898 1.6837933063507080078 1.4335955381393432617 1.1908557415008544922 1.1652847528457641602 1.1811792850494384766 -9999 1.3364999294281005859 1.2628924846649169922 1.256093144416809082 1.2144815921783447266 1.4444875717163085938 1.8965680599212646484 1.9576184749603271484 2.1739525794982910156 2.1796848773956298828 2.9245076179504394531 3.1017122268676757812 2.9092190265655517578 2.0081582069396972656 1.3610416650772094727 1.1190145015716552734 1.0881345272064208984 -9999 1.0400947332382202148 -9999 -9999 -9999 -9999 -9999 -9999 -9999 -9999 -9999 -9999 -9999 -9999 -9999 -9999 -9999 -9999 -9999 
-9999 -9999 -9999 -9999 -9999 -9999 -9999 -9999 -9999 -9999 -9999 -9999 -9999 -9999 -9999 -9999 -9999 -9999 -9999 -9999 -9999 -9999 -9999 -9999 -9999 -9999 -9999 -9999 -9999 -9999 -9999 -9999 -9999 -9999 -9999 -9999 -9999 -9999 -9999 -9999 -9999 -9999 -9999 -9999 -9999 -9999 -9999 -9999 -9999 -9999 -9999 -9999 -9999 -9999 -9999 -9999 -9999 -9999 -9999 -9999 -9999 1.0637129545211791992 1.0527518987655639648 1.0951632261276245117 1.25589752197265625 -9999 1.0770907402038574219 1.3686902523040771484 2.544086456298828125 2.8368785381317138672 3.1455278396606445312 2.7331838607788085938 1.5020542144775390625 -9999 1.1888113021850585938 1.8737440109252929688 2.5625300407409667969 1.6255987882614135742 -9999 -9999 1.0736548900604248047 1.0633755922317504883 1.500638127326965332 3.0400867462158203125 2.9254503250122070312 1.9702962636947631836 1.6151586771011352539 1.2917482852935791016 1.3930566310882568359 1.454829096794128418 1.3386656045913696289 1.0713580846786499023 1.2201218605041503906 1.1651426553726196289 1.1889863014221191406 1.3296239376068115234 1.4803345203399658203 1.7315560579299926758 2.3836297988891601562 2.2410259246826171875 1.9540289640426635742 2.2665750980377197266 1.9375518560409545898 1.3127981424331665039 1.2398965358734130859 1.5746095180511474609 1.4080097675323486328 1.1990385055541992188 1.0958434343338012695 1.0734980106353759766 -9999 -9999 -9999 -9999 1.0235276222229003906 1.0591565370559692383 -9999 -9999 -9999 -9999 -9999 -9999 -9999 -9999 -9999 -9999 -9999 
-9999 -9999 -9999 -9999 -9999 -9999 -9999 -9999 -9999 -9999 -9999 -9999 -9999 -9999 -9999 -9999 -9999 -9999 -9999 -9999 -9999 -9999 -9999 -9999 -9999 -9999 -9999 -9999 -9999 -9999 -9999 -9999 -9999 -9999 -9999 -9999 -9999 -9999 -9999 -9999 -9999 -9999 -9999 -9999 -9999 -9999 -9999 -9999 -9999 -9999 -9999 -9999 -9999 -9999 -9999 -9999 1.0325206518173217773 -9999 -9999 -9999 -9999 1.0645672082901000977 1.16619110107421875 1.149394989013671875 1.4596897363662719727 -9999 -9999 1.2926005125045776367 2.1072824001312255859 3.6709415912628173828 4.14694976806640625 3.7019555568695068359 1.9154626131057739258 1.0849181413650512695 1.2933090925216674805 1.4933323860168457031 1.6545472145080566406 1.3118704557418823242 -9999 1.100567936897277832 1.1183751821517944336 -9999 2.9542093276977539062 5.9247574806213378906 6.2434072494506835938 4.2167291641235351562 1.8439419269561767578 1.2976815700531005859 1.6616823673248291016 1.4760848283767700195 1.424183964729309082 1.2107797861099243164 1.189658045768737793 1.2081766128540039062 1.2270557880401611328 1.0902416706085205078 1.4120960235595703125 1.3881822824478149414 1.7863454818725585938 2.2987797260284423828 2.3397054672241210938 2.3374412059783935547 1.8992846012115478516 1.0850812196731567383 1.0771077871322631836 1.5431038141250610352 2.2035291194915771484 2.2977299690246582031 1.5398070812225341797 1.1349350214004516602 1.0895568132400512695 -9999 -9999 -9999 1.0664857625961303711 1.1299989223480224609 1.072943568229675293 -9999 -9999 -9999 -9999 1.0334340333938598633 -9999 -9999 -9999 -9999 -9999 
-9999 -9999 -9999 -9999 -9999 -9999 -9999 -9999 -9999 -9999 -9999 -9999 -9999 -9999 -9999 -9999 -9999 -9999 -9999 -9999 -9999 -9999 -9999 -9999 -9999 -9999 -9999 -9999 -9999 -9999 -9999 1.1758856773376464844 -9999 -9999 -9999 -9999 -9999 -9999 -9999 -9999 -9999 -9999 -9999 -9999 -9999 -9999 -9999 -9999 -9999 -9999 -9999 -9999 -9999 -9999 -9999 -9999 -9999 -9999 -9999 -9999 -9999 -9999 -9999 -9999 1.2455701828002929688 1.3893747329711914062 -9999 -9999 1.1628828048706054688 1.8392467498779296875 2.4925420284271240234 2.3462898731231689453 -9999 1.2038924694061279297 1.7395863533020019531 1.5023350715637207031 1.2219500541687011719 -9999 1.1284064054489135742 1.1451736688613891602 1.1741878986358642578 1.2034496068954467773 2.3704771995544433594 4.5419659614562988281 5.2211461067199707031 4.5379080772399902344 2.1414337158203125 1.7271884679794311523 2.2194383144378662109 1.4718247652053833008 1.1636950969696044922 1.3794268369674682617 1.4055494070053100586 1.327330470085144043 1.2293053865432739258 1.117314457893371582 1.4064623117446899414 1.3512893915176391602 1.4134531021118164062 1.6114878654479980469 2.3833153247833251953 2.4804675579071044922 1.8848886489868164062 1.5512166023254394531 1.5849282741546630859 1.5910905599594116211 2.3275761604309082031 2.7192072868347167969 2.1625804901123046875 1.3576498031616210938 1.3118886947631835938 1.2398612499237060547 1.1243963241577148438 1.1351348161697387695 1.0536627769470214844 1.0552667379379272461 1.0487291812896728516 1.1279380321502685547 1.0708463191986083984 -9999 1.0614718198776245117 1.1086030006408691406 -9999 -9999 -9999 1.059817194938659668 1.0469325780868530273 
-9999 -9999 -9999 -9999 -9999 -9999 -9999 -9999 -9999 -9999 -9999 -9999 -9999 -9999 -9999 -9999 -9999 -9999 -9999 -9999 -9999 -9999 -9999 -9999 -9999 -9999 -9999 -9999 -9999 -9999 -9999 1.2477965354919433594 -9999 -9999 -9999 -9999 -9999 -9999 1.1819994449615478516 -9999 -9999 -9999 -9999 -9999 -9999 -9999 1.0747230052947998047 -9999 -9999 -9999 -9999 -9999 -9999 -9999 -9999 -9999 -9999 -9999 -9999 -9999 -9999 -9999 -9999 -9999 -9999 -9999 1.4464653730392456055 -9999 -9999 1.3495829105377197266 1.5645738840103149414 -9999 -9999 1.1466753482818603516 1.4087293148040771484 1.2491003274917602539 1.0583276748657226562 -9999 -9999 -9999 1.0344408750534057617 1.7644388675689697266 3.9038901329040527344 5.2277541160583496094 4.9524846076965332031 4.247982025146484375 2.4208114147186279297 2.2431340217590332031 2.0477247238159179688 2.0274538993835449219 1.445713043212890625 1.3455173969268798828 1.3518090248107910156 1.4887676239013671875 1.3355967998504638672 1.4289296865463256836 1.4830074310302734375 1.2055524587631225586 1.3629062175750732422 1.5411642789840698242 1.9393641948699951172 1.557026982307434082 1.3528386354446411133 2.8821263313293457031 3.0859160423278808594 1.9902254343032836914 2.0734283924102783203 2.1709172725677490234 1.7394536733627319336 1.3457437753677368164 1.1723979711532592773 1.1979413032531738281 1.2512496709823608398 1.3777045011520385742 1.2233712673187255859 1.3460221290588378906 1.2108346223831176758 1.0925998687744140625 1.0630362033843994141 1.0757716894149780273 1.0975866317749023438 1.1026946306228637695 1.0211544036865234375 1.0380822420120239258 1.0392773151397705078 1.0755792856216430664 -9999 
-9999 -9999 -9999 -9999 -9999 -9999 -9999 -9999 -9999 -9999 -9999 -9999 -9999 -9999 -9999 -9999 -9999 -9999 -9999 -9999 -9999 -9999 -9999 -9999 -9999 -9999 -9999 -9999 -9999 -9999 -9999 -9999 1.3313834667205810547 -9999 -9999 -9999 -9999 -9999 -9999 -9999 -9999 -9999 -9999 -9999 -9999 -9999 -9999 -9999 -9999 -9999 -9999 -9999 -9999 -9999 -9999 -9999 -9999 -9999 -9999 -9999 -9999 -9999 -9999 1.0022560358047485352 1.0023056268692016602 -9999 1.5744231939315795898 1.8382768630981445312 1.3311984539031982422 1.2143002748489379883 -9999 -9999 -9999 1.1743005514144897461 1.2766853570938110352 1.1088347434997558594 1.0428893566131591797 1.0559327602386474609 -9999 -9999 -9999 1.729834437370300293 4.4623904228210449219 5.0917906761169433594 4.4959077835083007812 4.5711607933044433594 3.1596970558166503906 2.5879812240600585938 2.0441339015960693359 2.1344158649444580078 2.0924608707427978516 1.4445995092391967773 1.1274518966674804688 1.8091932535171508789 3.0877153873443603516 3.6612083911895751953 3.2632846832275390625 2.0646059513092041016 1.6417796611785888672 1.6300969123840332031 1.435141444206237793 1.1732457876205444336 1.1954299211502075195 2.2424254417419433594 2.0838263034820556641 1.508819580078125 1.6218024492263793945 1.5046489238739013672 1.2962914705276489258 1.3849651813507080078 1.2577280998229980469 -9999 -9999 1.1248956918716430664 1.3950351476669311523 1.8462743759155273438 1.5610719919204711914 1.3943521976470947266 1.1678115129470825195 1.1252763271331787109 1.1831676959991455078 1.1342980861663818359 -9999 -9999 1.0689442157745361328 -9999 -9999 
-9999 -9999 -9999 -9999 -9999 -9999 -9999 -9999 -9999 -9999 -9999 -9999 -9999 -9999 -9999 -9999 -9999 -9999 -9999 -9999 -9999 -9999 -9999 -9999 -9999 -9999 -9999 -9999 -9999 -9999 -9999 -9999 -9999 1.0864950418472290039 1.0613191127777099609 -9999 -9999 -9999 -9999 -9999 -9999 -9999 -9999 -9999 -9999 -9999 -9999 -9999 -9999 -9999 -9999 -9999 -9999 -9999 -9999 -9999 -9999 -9999 -9999 -9999 -9999 -9999 -9999 -9999 -9999 -9999 -9999 -9999 1.2435990571975708008 1.1506679058074951172 -9999 -9999 -9999 -9999 1.1423865556716918945 1.1308256387710571289 1.144327998161315918 -9999 -9999 -9999 -9999 1.484315037727355957 2.7749111652374267578 2.4916362762451171875 2.0445754528045654297 3.0126395225524902344 2.9045083522796630859 2.3313207626342773438 2.1111235618591308594 2.356342315673828125 1.9196288585662841797 1.2994180917739868164 1.089444279670715332 2.0539605617523193359 4.1556072235107421875 5.3160457611083984375 4.4514956474304199219 2.8895218372344970703 2.9312520027160644531 2.8330986499786376953 1.414524078369140625 1.1772267818450927734 2.0285692214965820312 3.2736208438873291016 1.6732962131500244141 1.0716072320938110352 1.1931997537612915039 1.1155030727386474609 -9999 -9999 1.1985516548156738281 1.3955761194229125977 1.1226097345352172852 1.0981488227844238281 1.1719383001327514648 1.3770807981491088867 1.240488886833190918 1.1538240909576416016 1.2101323604583740234 1.1382892131805419922 1.2104996442794799805 1.1007490158081054688 -9999 -9999 -9999 -9999 -9999 
-9999 -9999 -9999 -9999 -9999 -9999 -9999 -9999 -9999 -9999 -9999 -9999 -9999 -9999 -9999 -9999 -9999 -9999 -9999 -9999 -9999 -9999 -9999 -9999 -9999 -9999 -9999 -9999 -9999 -9999 -9999 -9999 -9999 1.1766176223754882812 1.1513458490371704102 -9999 -9999 -9999 -9999 -9999 -9999 -9999 -9999 -9999 -9999 -9999 -9999 -9999 -9999 -9999 -9999 -9999 -9999 -9999 -9999 -9999 -9999 -9999 -9999 -9999 -9999 -9999 -9999 -9999 -9999 -9999 -9999 -9999 -9999 -9999 -9999 -9999 -9999 -9999 -9999 1.0971813201904296875 1.1520175933837890625 1.1544116735458374023 1.1252732276916503906 -9999 1.0817477703094482422 1.3743089437484741211 1.6496093273162841797 1.401404261589050293 1.5152317285537719727 1.4337668418884277344 2.053478240966796875 2.1112387180328369141 2.0721037387847900391 1.7978919744491577148 1.1844227313995361328 1.1613492965698242188 1.2883820533752441406 2.8242545127868652344 4.9419579505920410156 5.9119939804077148438 5.6618123054504394531 3.6687972545623779297 3.7010138034820556641 3.5402770042419433594 1.6085187196731567383 2.5777106285095214844 4.4566073417663574219 4.6894326210021972656 2.2494215965270996094 1.1995973587036132812 1.2715390920639038086 1.173292994499206543 -9999 1.0600632429122924805 1.1266560554504394531 1.3115980625152587891 1.4255212545394897461 1.2235378026962280273 1.3647745847702026367 1.3737097978591918945 -9999 1.0593875646591186523 1.1242042779922485352 1.0750019550323486328 1.1742126941680908203 1.1296002864837646484 -9999 -9999 1.0023913383483886719 -9999 -9999 
-9999 -9999 -9999 -9999 -9999 -9999 -9999 -9999 -9999 -9999 -9999 -9999 -9999 -9999 -9999 -9999 -9999 -9999 -9999 -9999 -9999 -9999 -9999 -9999 -9999 -9999 -9999 -9999 -9999 -9999 -9999 -9999 -9999 1.0843021869659423828 1.2542011737823486328 1.1277436017990112305 -9999 -9999 -9999 1.033127903938293457 -9999 -9999 -9999 -9999 -9999 -9999 -9999 -9999 -9999 -9999 -9999 -9999 -9999 -9999 -9999 -9999 -9999 -9999 -9999 -9999 -9999 -9999 -9999 -9999 -9999 -9999 -9999 -9999 -9999 -9999 -9999 -9999 -9999 1.1130328178405761719 1.1820361614227294922 1.1193085908889770508 1.1283990144729614258 1.1591974496841430664 -9999 1.0766265392303466797 1.0933877229690551758 1.1865141391754150391 1.2946279048919677734 1.2290819883346557617 1.2673890590667724609 1.1798946857452392578 1.1097835302352905273 1.3210922479629516602 1.4068328142166137695 1.0929484367370605469 1.0240223407745361328 1.0582002401351928711 1.4403067827224731445 3.5239160060882568359 4.8819336891174316406 6.3642687797546386719 6.8669352531433105469 6.3060197830200195312 5.5313940048217773438 4.5574097633361816406 3.3928163051605224609 4.3368191719055175781 5.2428274154663085938 4.6110334396362304688 2.2107174396514892578 1.6475384235382080078 1.3653479814529418945 1.1660772562026977539 1.0826696157455444336 1.0836551189422607422 1.0551373958587646484 1.0743798017501831055 1.4020594358444213867 1.6435724496841430664 1.4332512617111206055 1.4271934032440185547 1.1434996128082275391 1.0454580783843994141 1.0802900791168212891 1.1004207134246826172 1.1637094020843505859 1.3722517490386962891 1.1020445823669433594 -9999 -9999 -9999 -9999 
-9999 -9999 -9999 -9999 -9999 -9999 -9999 -9999 -9999 -9999 -9999 -9999 -9999 -9999 -9999 -9999 -9999 -9999 -9999 -9999 -9999 -9999 -9999 -9999 -9999 -9999 -9999 -9999 -9999 -9999 -9999 -9999 -9999 -9999 1.2427504062652587891 1.3307926654815673828 1.2054293155670166016 -9999 -9999 -9999 -9999 -9999 -9999 -9999 -9999 -9999 -9999 -9999 -9999 -9999 -9999 -9999 -9999 -9999 -9999 -9999 -9999 -9999 -9999 -9999 -9999 1.0640000104904174805 -9999 -9999 -9999 -9999 -9999 -9999 -9999 -9999 -9999 -9999 -9999 1.1028803586959838867 1.3146023750305175781 1.3362673521041870117 1.2077147960662841797 1.0634750127792358398 1.0398931503295898438 1.1438230276107788086 1.2405402660369873047 1.136624455451965332 1.0907816886901855469 1.1225916147232055664 1.2423299551010131836 1.2780828475952148438 -9999 1.1433145999908447266 1.0728907585144042969 1.02945709228515625 1.0797049999237060547 1.2479971647262573242 1.7401677370071411133 3.6715524196624755859 4.6697492599487304688 5.0547890663146972656 5.3912196159362792969 6.3935751914978027344 5.8957200050354003906 4.2868046760559082031 4.2125506401062011719 4.4524683952331542969 3.5338635444641113281 2.3750197887420654297 1.5811752080917358398 1.7219111919403076172 1.9035230875015258789 1.52753448486328125 1.0768450498580932617 -9999 1.2069644927978515625 -9999 1.1262209415435791016 1.6123495101928710938 1.5844597816467285156 1.381038665771484375 1.09615325927734375 -9999 1.1310387849807739258 1.1852222681045532227 1.2538077831268310547 1.3841649293899536133 1.1571359634399414062 -9999 -9999 -9999 -9999 
-9999 -9999 -9999 -9999 -9999 -9999 -9999 -9999 -9999 -9999 -9999 -9999 -9999 -9999 -9999 -9999 -9999 -9999 -9999 -9999 -9999 -9999 -9999 -9999 -9999 -9999 -9999 -9999 -9999 -9999 -9999 -9999 -9999 -9999 -9999 1.4459782838821411133 1.3426456451416015625 1.0392726659774780273 1.0440225601196289062 1.024916529655456543 -9999 -9999 -9999 -9999 -9999 -9999 -9999 -9999 -9999 -9999 -9999 -9999 -9999 -9999 -9999 -9999 -9999 -9999 -9999 -9999 -9999 -9999 -9999 -9999 -9999 -9999 -9999 -9999 -9999 -9999 -9999 -9999 -9999 1.0587211847305297852 1.0940908193588256836 1.132602691650390625 1.1792736053466796875 -9999 1.0919405221939086914 1.0967403650283813477 1.1318051815032958984 1.1237708330154418945 -9999 1.0712244510650634766 1.4302489757537841797 1.5040766000747680664 1.1285444498062133789 -9999 1.2984861135482788086 1.2209222316741943359 1.0404466390609741211 1.1692612171173095703 1.6731786727905273438 2.3350205421447753906 3.1338825225830078125 3.125041961669921875 3.5708405971527099609 4.3770022392272949219 3.467533111572265625 3.3400559425354003906 4.235301971435546875 4.08550262451171875 3.7765104770660400391 1.9405843019485473633 1.6300532817840576172 2.0359444618225097656 2.0248885154724121094 1.649626612663269043 1.1803755760192871094 -9999 -9999 -9999 1.0441052913665771484 1.1698884963989257812 1.3665329217910766602 1.2787172794342041016 1.1593950986862182617 1.1895992755889892578 -9999 -9999 -9999 1.0827851295471191406 1.1126782894134521484 1.2378314733505249023 -9999 -9999 -9999 
-9999 -9999 -9999 -9999 -9999 -9999 -9999 -9999 -9999 -9999 -9999 -9999 -9999 -9999 -9999 -9999 -9999 -9999 -9999 -9999 -9999 -9999 -9999 -9999 -9999 -9999 -9999 -9999 -9999 -9999 -9999 -9999 -9999 -9999 1.2427871227264404297 1.1362714767456054688 1.1438918113708496094 1.1177942752838134766 1.0716724395751953125 1.0404222011566162109 -9999 -9999 -9999 -9999 -9999 -9999 -9999 -9999 -9999 -9999 -9999 -9999 -9999 -9999 -9999 -9999 -9999 -9999 -9999 -9999 -9999 -9999 -9999 -9999 -9999 -9999 -9999 -9999 -9999 -9999 -9999 -9999 -9999 1.1106002330780029297 -9999 -9999 -9999 -9999 1.1022310256958007812 1.2044911384582519531 1.1034631729125976562 -9999 -9999 1.1048958301544189453 1.3608117103576660156 1.3501119613647460938 1.2786173820495605469 1.4384959936141967773 1.2586311101913452148 1.1699556112289428711 1.1122195720672607422 1.1863217353820800781 1.4639371633529663086 1.8319393396377563477 2.239101409912109375 2.2254939079284667969 1.8579546213150024414 2.6819746494293212891 3.1157314777374267578 2.4366521835327148438 2.2027041912078857422 1.9178644418716430664 1.9227179288864135742 1.4923864603042602539 1.2511810064315795898 1.2223398685455322266 1.3278907537460327148 1.4193189144134521484 1.2675803899765014648 1.108521580696105957 1.0618799924850463867 1.0578520298004150391 1.0521159172058105469 1.0361256599426269531 -9999 1.3003060817718505859 1.5540142059326171875 1.5848064422607421875 -9999 -9999 -9999 1.0940127372741699219 -9999 -9999 -9999 -9999 -9999 
-9999 -9999 -9999 -9999 -9999 -9999 -9999 -9999 -9999 -9999 -9999 -9999 -9999 -9999 -9999 -9999 -9999 -9999 -9999 -9999 -9999 -9999 -9999 -9999 -9999 -9999 -9999 -9999 -9999 -9999 -9999 -9999 -9999 -9999 1.0760495662689208984 -9999 1.0827729701995849609 1.172932744026184082 1.1654882431030273438 -9999 1.0811460018157958984 -9999 -9999 -9999 -9999 -9999 -9999 -9999 -9999 -9999 -9999 -9999 -9999 -9999 -9999 -9999 -9999 -9999 -9999 -9999 -9999 -9999 -9999 -9999 -9999 -9999 -9999 -9999 -9999 -9999 -9999 -9999 -9999 -9999 -9999 -9999 -9999 -9999 1.1145895719528198242 1.3142210245132446289 1.1852324008941650391 -9999 -9999 -9999 1.1516898870468139648 1.0996965169906616211 1.5694327354431152344 2.9382646083831787109 2.67059326171875 2.1208949089050292969 1.5461155176162719727 1.4886735677719116211 1.5115441083908081055 1.9413020610809326172 1.5080660581588745117 2.4251863956451416016 2.8791675567626953125 3.4193465709686279297 2.1527097225189208984 1.12743377685546875 1.0884299278259277344 1.1149938106536865234 1.065312504768371582 1.401053309440612793 1.851047515869140625 1.7227345705032348633 1.9253743886947631836 1.8886284828186035156 1.2467924356460571289 1.1677772998809814453 -9999 1.2884275913238525391 -9999 1.2428812980651855469 1.2769696712493896484 1.5380399227142333984 2.1706767082214355469 2.0654969215393066406 -9999 1.1315757036209106445 -9999 -9999 -9999 -9999 -9999 -9999 -9999 
-9999 -9999 -9999 -9999 -9999 -9999 -9999 -9999 -9999 -9999 -9999 -9999 -9999 -9999 -9999 -9999 -9999 -9999 -9999 -9999 -9999 -9999 -9999 -9999 -9999 -9999 -9999 -9999 -9999 -9999 -9999 -9999 -9999 -9999 -9999 -9999 -9999 -9999 1.1802771091461181641 -9999 -9999 1.0268634557723999023 -9999 1.1222383975982666016 1.0997819900512695312 -9999 -9999 -9999 -9999 -9999 -9999 -9999 -9999 -9999 -9999 -9999 -9999 -9999 -9999 -9999 1.054571986198425293 -9999 -9999 -9999 -9999 -9999 -9999 -9999 -9999 -9999 1.0220606327056884766 -9999 -9999 -9999 -9999 -9999 -9999 -9999 -9999 1.1281363964080810547 1.1208710670471191406 -9999 -9999 -9999 1.1569858789443969727 1.3264123201370239258 2.4782083034515380859 3.3767247200012207031 3.2684419155120849609 2.5458593368530273438 2.0518321990966796875 2.6368746757507324219 2.7796230316162109375 2.4631316661834716797 2.5952789783477783203 4.5206007957458496094 4.6073150634765625 2.70798492431640625 1.294415593147277832 1.1367255449295043945 1.2122747898101806641 1.3471916913986206055 1.2587745189666748047 2.0307011604309082031 3.1017255783081054688 2.9506351947784423828 2.1823668479919433594 1.6516628265380859375 1.1608132123947143555 -9999 1.4781106710433959961 1.9842629432678222656 1.9055520296096801758 1.5658679008483886719 1.691475987434387207 1.9312041997909545898 2.5481624603271484375 1.8619803190231323242 1.0881251096725463867 1.0845762491226196289 1.1073547601699829102 1.1209071874618530273 -9999 1.2392457723617553711 -9999 -9999 -9999 
-9999 -9999 -9999 -9999 -9999 -9999 -9999 -9999 -9999 -9999 -9999 -9999 -9999 -9999 -9999 -9999 -9999 -9999 -9999 -9999 -9999 -9999 -9999 -9999 -9999 -9999 -9999 -9999 -9999 -9999 -9999 -9999 -9999 -9999 -9999 -9999 -9999 -9999 -9999 -9999 -9999 -9999 -9999 1.1435918807983398438 1.1304231882095336914 -9999 -9999 -9999 -9999 -9999 -9999 -9999 -9999 -9999 -9999 -9999 -9999 -9999 -9999 -9999 -9999 -9999 -9999 -9999 -9999 -9999 -9999 -9999 -9999 -9999 -9999 -9999 -9999 -9999 -9999 -9999 -9999 -9999 -9999 -9999 -9999 1.0507454872131347656 1.1544895172119140625 -9999 1.0865261554718017578 1.3227256536483764648 1.9824378490447998047 2.2992005348205566406 2.4378683567047119141 2.1001935005187988281 2.2834405899047851562 2.6561329364776611328 3.2368149757385253906 2.8702671527862548828 4.2667970657348632812 4.8980889320373535156 4.5460791587829589844 2.3497600555419921875 1.1529709100723266602 1.2632880210876464844 2.0459146499633789062 2.2889428138732910156 1.7890206575393676758 1.8109292984008789062 2.1525700092315673828 2.0449163913726806641 1.3950438499450683594 1.1242753267288208008 1.1465507745742797852 1.0823858976364135742 1.1413135528564453125 1.4820232391357421875 1.4583402872085571289 1.21314239501953125 1.1585607528686523438 1.2837890386581420898 1.4829877614974975586 1.2436493635177612305 1.0432782173156738281 1.0531206130981445312 1.1372948884963989258 1.0992583036422729492 1.1847894191741943359 1.2720534801483154297 -9999 -9999 -9999 
-9999 -9999 1.0843348503112792969 -9999 -9999 -9999 -9999 -9999 -9999 -9999 -9999 -9999 -9999 -9999 -9999 -9999 -9999 -9999 -9999 -9999 -9999 -9999 -9999 -9999 -9999 -9999 -9999 -9999 -9999 -9999 -9999 -9999 -9999 -9999 -9999 1.0956131219863891602 -9999 -9999 -9999 -9999 -9999 -9999 -9999 -9999 1.0718835592269897461 1.0788915157318115234 -9999 -9999 -9999 -9999 -9999 -9999 -9999 -9999 -9999 -9999 -9999 -9999 -9999 -9999 -9999 -9999 -9999 -9999 -9999 -9999 -9999 -9999 -9999 -9999 -9999 -9999 -9999 -9999 -9999 -9999 -9999 -9999 -9999 -9999 1.0875275135040283203 1.091656804084777832 -9999 -9999 -9999 -9999 1.1385048627853393555 1.1533796787261962891 1.2570098638534545898 1.3773788213729858398 1.6004737615585327148 1.725505828857421875 1.6363731622695922852 1.7561051845550537109 2.8724763393402099609 2.8494818210601806641 1.9932852983474731445 1.8705384731292724609 1.169751286506652832 1.249606013298034668 2.1641404628753662109 2.3077054023742675781 1.9223181009292602539 1.6270184516906738281 1.3264923095703125 1.2679842710494995117 1.2136424779891967773 1.3580486774444580078 1.3645650148391723633 1.1218781471252441406 -9999 -9999 -9999 -9999 -9999 1.0397926568984985352 -9999 -9999 -9999 -9999 -9999 1.0712327957153320312 1.1214569807052612305 1.2232644557952880859 -9999 -9999 -9999 
-9999 -9999 -9999 -9999 -9999 -9999 -9999 -9999 -9999 -9999 -9999 -9999 -9999 -9999 -9999 -9999 -9999 -9999 -9999 -9999 -9999 -9999 -9999 -9999 -9999 -9999 -9999 -9999 -9999 -9999 -9999 -9999 -9999 -9999 -9999 -9999 -9999 1.1341398954391479492 -9999 -9999 -9999 -9999 -9999 -9999 1.0892217159271240234 1.2728480100631713867 1.3009344339370727539 1.119421839714050293 -9999 -9999 -9999 -9999 -9999 -9999 -9999 -9999 -9999 -9999 -9999 -9999 -9999 -9999 -9999 -9999 -9999 -9999 -9999 -9999 -9999 -9999 -9999 -9999 -9999 -9999 -9999 -9999 1.0975005626678466797 -9999 -9999 -9999 1.0479391813278198242 1.0747929811477661133 1.096436619758605957 1.1203210353851318359 1.0430741310119628906 -9999 -9999 1.0496306419372558594 1.1212716102600097656 1.1408804655075073242 1.2931544780731201172 1.623218536376953125 1.2562859058380126953 1.1905065774917602539 1.3116445541381835938 1.4712833166122436523 1.660908818244934082 1.9673693180084228516 1.431038975715637207 1.5498911142349243164 1.8820142745971679688 1.4385752677917480469 1.5212562084197998047 1.3317518234252929688 -9999 -9999 1.0245248079299926758 1.0773802995681762695 1.0992063283920288086 1.0989067554473876953 -9999 1.4969049692153930664 -9999 -9999 -9999 1.0383167266845703125 -9999 -9999 -9999 -9999 -9999 -9999 1.0721676349639892578 1.1517975330352783203 1.2195429801940917969 -9999 -9999 
-9999 -9999 -9999 -9999 -9999 -9999 -9999 -9999 -9999 -9999 -9999 -9999 -9999 -9999 -9999 -9999 -9999 -9999 -9999 -9999 -9999 -9999 -9999 -9999 -9999 -9999 -9999 -9999 -9999 -9999 -9999 -9999 -9999 -9999 -9999 1.1524505615234375 -9999 -9999 -9999 -9999 -9999 -9999 -9999 -9999 -9999 1.0988092422485351562 1.185194849967956543 -9999 -9999 -9999 -9999 -9999 -9999 -9999 -9999 -9999 -9999 -9999 -9999 -9999 -9999 -9999 -9999 -9999 -9999 -9999 -9999 -9999 -9999 -9999 -9999 -9999 -9999 -9999 -9999 1.0695619583129882812 -9999 -9999 -9999 -9999 -9999 1.0843962430953979492 1.1023533344268798828 1.0991417169570922852 1.0943928956985473633 1.0733431577682495117 -9999 1.1060544252395629883 1.1568140983581542969 1.1526230573654174805 1.1127333641052246094 1.0790112018585205078 1.2346419095993041992 1.2558069229125976562 1.559398651123046875 1.5477092266082763672 1.8477112054824829102 2.2030575275421142578 1.7698588371276855469 2.5200595855712890625 2.2621963024139404297 1.6574779748916625977 1.29065704345703125 -9999 1.157015681266784668 -9999 -9999 1.0248993635177612305 -9999 1.1128697395324707031 1.2073705196380615234 1.203541874885559082 -9999 -9999 1.0929164886474609375 -9999 -9999 -9999 -9999 -9999 -9999 1.2027099132537841797 1.125197291374206543 1.1215435266494750977 1.234816431999206543 -9999 -9999 
-9999 -9999 -9999 -9999 -9999 -9999 -9999 -9999 -9999 -9999 -9999 -9999 -9999 -9999 -9999 -9999 -9999 -9999 -9999 -9999 -9999 -9999 -9999 -9999 -9999 -9999 -9999 -9999 -9999 -9999 -9999 -9999 -9999 -9999 -9999 -9999 -9999 -9999 -9999 -9999 -9999 -9999 -9999 -9999 -9999 -9999 -9999 -9999 -9999 -9999 -9999 -9999 -9999 -9999 -9999 -9999 -9999 -9999 -9999 -9999 -9999 -9999 -9999 1.0093713998794555664 -9999 -9999 -9999 -9999 1.0057603120803833008 -9999 -9999 -9999 -9999 -9999 -9999 -9999 -9999 -9999 -9999 -9999 1.149769902229309082 1.2139794826507568359 1.0483151674270629883 1.1194219589233398438 1.1103982925415039062 1.1260763406753540039 1.0268851518630981445 1.1583495140075683594 1.1176496744155883789 1.0269972085952758789 1.0422474145889282227 1.0461348295211791992 1.1875253915786743164 1.1487488746643066406 1.1670818328857421875 1.207247614860534668 1.3247842788696289062 1.5687232017517089844 2.4736196994781494141 2.6862277984619140625 1.8347491025924682617 1.177222132682800293 -9999 -9999 -9999 -9999 -9999 -9999 -9999 1.1237149238586425781 1.2675439119338989258 -9999 1.0764578580856323242 1.0340546369552612305 1.0975462198257446289 -9999 -9999 -9999 -9999 -9999 -9999 -9999 1.1034727096557617188 -9999 -9999 -9999 -9999 
-9999 -9999 -9999 -9999 -9999 -9999 -9999 -9999 -9999 -9999 -9999 -9999 -9999 -9999 -9999 -9999 -9999 -9999 -9999 -9999 -9999 -9999 -9999 -9999 -9999 -9999 -9999 -9999 -9999 1.1636563539505004883 -9999 -9999 -9999 -9999 -9999 -9999 -9999 -9999 -9999 -9999 -9999 -9999 -9999 -9999 -9999 -9999 1.0306659936904907227 1.059729456901550293 -9999 -9999 -9999 -9999 -9999 -9999 -9999 -9999 -9999 -9999 -9999 -9999 -9999 -9999 -9999 -9999 -9999 -9999 -9999 -9999 -9999 -9999 -9999 -9999 -9999 -9999 -9999 -9999 -9999 -9999 -9999 -9999 1.0756249427795410156 1.1621571779251098633 1.0633356571197509766 1.1640876531600952148 1.1445844173431396484 1.0575650930404663086 -9999 -9999 -9999 1.2566782236099243164 -9999 1.0872174501419067383 1.1592067480087280273 1.2491029500961303711 1.4346612691879272461 -9999 1.124560236930847168 1.1704132556915283203 1.5989991426467895508 1.5867058038711547852 1.2763979434967041016 1.0581527948379516602 -9999 -9999 -9999 -9999 -9999 -9999 -9999 -9999 1.2845008373260498047 1.1932657957077026367 -9999 -9999 1.0907510519027709961 -9999 -9999 1.1083866357803344727 1.0632452964782714844 -9999 -9999 -9999 -9999 -9999 -9999 -9999 -9999 
-9999 -9999 -9999 -9999 -9999 -9999 -9999 -9999 -9999 -9999 -9999 -9999 -9999 -9999 -9999 -9999 -9999 -9999 -9999 -9999 -9999 -9999 -9999 -9999 -9999 -9999 -9999 -9999 -9999 -9999 -9999 -9999 -9999 -9999 -9999 -9999 -9999 -9999 -9999 -9999 -9999 -9999 -9999 -9999 -9999 -9999 -9999 -9999 -9999 1.090534210205078125 1.1155591011047363281 -9999 -9999 -9999 -9999 -9999 -9999 -9999 -9999 -9999 -9999 -9999 -9999 -9999 -9999 -9999 -9999 -9999 -9999 -9999 -9999 -9999 -9999 -9999 -9999 -9999 -9999 -9999 -9999 -9999 -9999 1.1162946224212646484 1.0791443586349487305 1.0928151607513427734 1.0685706138610839844 1.0528366565704345703 1.0807518959045410156 -9999 -9999 1.3105988502502441406 1.4201250076293945312 1.2935177087783813477 -9999 1.211592555046081543 1.7138009071350097656 -9999 1.2224012613296508789 1.1550228595733642578 1.1375356912612915039 1.2067344188690185547 1.1929945945739746094 1.2041839361190795898 -9999 -9999 -9999 -9999 -9999 -9999 -9999 -9999 1.1449360847473144531 1.145998835563659668 -9999 -9999 -9999 -9999 -9999 -9999 -9999 -9999 -9999 -9999 -9999 -9999 -9999 -9999 -9999 
-9999 1.0261343717575073242 -9999 -9999 -9999 -9999 -9999 -9999 -9999 -9999 -9999 -9999 -9999 -9999 -9999 -9999 -9999 -9999 -9999 -9999 -9999 -9999 -9999 -9999 -9999 -9999 -9999 -9999 -9999 -9999 -9999 -9999 -9999 -9999 -9999 -9999 -9999 -9999 -9999 -9999 -9999 -9999 -9999 -9999 -9999 -9999 -9999 -9999 -9999 -9999 1.299761652946472168 1.1927999258041381836 1.0612344741821289062 -9999 -9999 -9999 -9999 -9999 -9999 -9999 -9999 -9999 -9999 -9999 1.0218288898468017578 -9999 -9999 1.0052440166473388672 -9999 -9999 -9999 -9999 -9999 -9999 -9999 -9999 -9999 -9999 -9999 -9999 1.1640694141387939453 1.1866992712020874023 1.1484659910202026367 1.1157494783401489258 1.0829046964645385742 1.0501236915588378906 1.064129948616027832 1.0508000850677490234 1.0531896352767944336 -9999 1.273303985595703125 1.2171051502227783203 1.1671741008758544922 1.1683243513107299805 1.1831095218658447266 1.1587327718734741211 -9999 1.1222295761108398438 1.102761387825012207 1.1732276678085327148 1.4955255985260009766 1.3866170644760131836 1.0858272314071655273 -9999 -9999 -9999 -9999 -9999 -9999 -9999 1.2764922380447387695 -9999 -9999 -9999 -9999 -9999 -9999 -9999 -9999 -9999 -9999 -9999 -9999 -9999 -9999 -9999 -9999 
-9999 -9999 -9999 -9999 -9999 -9999 -9999 -9999 -9999 -9999 -9999 -9999 -9999 -9999 -9999 -9999 -9999 -9999 -9999 -9999 -9999 -9999 -9999 -9999 -9999 -9999 -9999 -9999 -9999 -9999 -9999 -9999 -9999 1.0817825794219970703 -9999 -9999 -9999 -9999 -9999 -9999 -9999 -9999 -9999 -9999 -9999 -9999 -9999 -9999 -9999 -9999 1.1598285436630249023 1.1035648584365844727 -9999 -9999 -9999 -9999 -9999 -9999 -9999 -9999 -9999 -9999 -9999 -9999 -9999 -9999 -9999 -9999 -9999 -9999 -9999 -9999 -9999 -9999 -9999 -9999 -9999 -9999 -9999 -9999 1.1203167438507080078 1.1171462535858154297 1.0655936002731323242 1.0512558221817016602 1.06859588623046875 1.0602750778198242188 -9999 1.0775809288024902344 1.076041102409362793 1.0672081708908081055 1.1529345512390136719 1.0463125705718994141 -9999 1.0979157686233520508 1.3086243867874145508 1.2566796541213989258 -9999 1.1819766759872436523 1.2275269031524658203 1.1757262945175170898 1.3966640233993530273 1.2967753410339355469 1.2983551025390625 1.1367571353912353516 1.0465638637542724609 -9999 1.0717511177062988281 -9999 -9999 1.2061941623687744141 1.3389753103256225586 1.325280308723449707 1.1533845663070678711 -9999 -9999 -9999 -9999 -9999 -9999 -9999 -9999 -9999 -9999 -9999 -9999 -9999 -9999 
-9999 -9999 -9999 -9999 -9999 -9999 -9999 -9999 -9999 -9999 -9999 -9999 -9999 -9999 -9999 -9999 -9999 -9999 -9999 -9999 -9999 -9999 -9999 -9999 -9999 -9999 -9999 -9999 -9999 -9999 -9999 -9999 -9999 -9999 -9999 -9999 -9999 -9999 -9999 -9999 -9999 -9999 -9999 -9999 -9999 -9999 -9999 -9999 -9999 -9999 1.092637181282043457 -9999 1.0494534969329833984 -9999 -9999 -9999 -9999 -9999 -9999 -9999 -9999 -9999 -9999 -9999 -9999 -9999 -9999 -9999 -9999 -9999 -9999 -9999 -9999 -9999 -9999 -9999 -9999 -9999 -9999 -9999 -9999 -9999 -9999 -9999 1.0571756362915039062 1.0820344686508178711 1.070265650749206543 1.0538247823715209961 1.0346585512161254883 -9999 -9999 -9999 1.0669941902160644531 1.09108734130859375 -9999 1.1931922435760498047 1.1653831005096435547 1.1700829267501831055 -9999 1.1867440938949584961 1.2232319116592407227 1.124163508415222168 1.1145071983337402344 -9999 1.0762448310852050781 1.1159944534301757812 1.1372673511505126953 1.1867537498474121094 1.2235865592956542969 -9999 1.2950719594955444336 -9999 -9999 -9999 -9999 -9999 -9999 -9999 -9999 -9999 -9999 -9999 -9999 -9999 -9999 -9999 -9999 
-9999 -9999 -9999 -9999 -9999 -9999 -9999 -9999 -9999 -9999 -9999 -9999 -9999 -9999 -9999 -9999 -9999 -9999 -9999 -9999 -9999 -9999 -9999 -9999 -9999 -9999 -9999 -9999 -9999 -9999 1.1389718055725097656 1.042496800422668457 -9999 -9999 -9999 -9999 -9999 -9999 -9999 -9999 -9999 -9999 -9999 -9999 -9999 -9999 -9999 -9999 1.0581725835800170898 -9999 -9999 -9999 -9999 1.041466832160949707 -9999 -9999 -9999 1.0039542913436889648 -9999 -9999 -9999 -9999 -9999 -9999 -9999 1.0139603614807128906 -9999 -9999 -9999 -9999 -9999 -9999 -9999 -9999 -9999 -9999 -9999 1.0303506851196289062 -9999 -9999 -9999 -9999 -9999 -9999 -9999 1.0409108400344848633 -9999 -9999 -9999 -9999 -9999 -9999 -9999 1.0846037864685058594 1.1858524084091186523 1.1943830251693725586 1.104976654052734375 1.0863240957260131836 1.1471455097198486328 1.1271651983261108398 1.3402310609817504883 1.2681739330291748047 1.0780943632125854492 1.1487338542938232422 1.1287479400634765625 1.2000511884689331055 1.2282959222793579102 1.2006996870040893555 -9999 -9999 1.1863170862197875977 -9999 -9999 -9999 1.0457006692886352539 -9999 -9999 -9999 -9999 -9999 -9999 -9999 -9999 -9999 -9999 -9999 -9999 
-9999 -9999 -9999 -9999 -9999 -9999 -9999 -9999 -9999 -9999 -9999 -9999 -9999 -9999 -9999 -9999 -9999 -9999 -9999 -9999 -9999 -9999 -9999 -9999 -9999 -9999 -9999 -9999 -9999 -9999 1.0853673219680786133 -9999 -9999 -9999 -9999 -9999 -9999 -9999 -9999 -9999 -9999 -9999 -9999 -9999 -9999 -9999 -9999 -9999 -9999 -9999 -9999 -9999 -9999 -9999 -9999 -9999 -9999 -9999 1.0611908435821533203 1.0276927947998046875 -9999 -9999 -9999 -9999 -9999 -9999 -9999 -9999 -9999 -9999 -9999 -9999 -9999 -9999 -9999 -9999 -9999 -9999 -9999 -9999 -9999 -9999 -9999 -9999 -9999 1.0210363864898681641 -9999 -9999 -9999 -9999 -9999 -9999 -9999 -9999 1.1356559991836547852 1.1477677822113037109 1.090765833854675293 1.0962870121002197266 1.164681553840637207 1.1187893152236938477 1.3006721735000610352 1.5461976528167724609 1.4027007818222045898 1.153464198112487793 1.0862175226211547852 1.5518206357955932617 1.4501895904541015625 1.1611059904098510742 -9999 -9999 -9999 -9999 -9999 -9999 -9999 -9999 -9999 -9999 -9999 -9999 -9999 -9999 -9999 -9999 -9999 -9999 -9999 
-9999 -9999 -9999 -9999 -9999 -9999 -9999 -9999 -9999 -9999 -9999 -9999 -9999 -9999 -9999 -9999 -9999 -9999 -9999 -9999 -9999 -9999 -9999 -9999 -9999 -9999 -9999 -9999 -9999 -9999 -9999 -9999 -9999 -9999 -9999 -9999 1.2134608030319213867 -9999 -9999 -9999 -9999 -9999 -9999 -9999 -9999 -9999 -9999 -9999 -9999 -9999 -9999 1.0156580209732055664 -9999 -9999 -9999 -9999 -9999 -9999 -9999 -9999 -9999 -9999 -9999 -9999 -9999 -9999 -9999 -9999 -9999 -9999 -9999 -9999 -9999 -9999 -9999 -9999 -9999 -9999 -9999 -9999 -9999 -9999 -9999 -9999 -9999 -9999 -9999 -9999 -9999 -9999 -9999 -9999 -9999 -9999 -9999 1.0863680839538574219 1.2371542453765869141 1.2658020257949829102 -9999 1.029677271842956543 1.0943447351455688477 1.2735829353332519531 1.4726674556732177734 1.1517961025238037109 1.2228084802627563477 1.4396725893020629883 -9999 -9999 -9999 -9999 -9999 -9999 -9999 -9999 -9999 -9999 1.0324163436889648438 -9999 -9999 -9999 -9999 -9999 -9999 -9999 -9999 -9999 -9999 
-9999 -9999 -9999 -9999 -9999 -9999 -9999 -9999 -9999 -9999 -9999 -9999 -9999 -9999 -9999 -9999 -9999 -9999 -9999 -9999 -9999 -9999 -9999 -9999 -9999 -9999 -9999 -9999 -9999 -9999 -9999 -9999 -9999 -9999 -9999 -9999 -9999 -9999 -9999 -9999 -9999 -9999 -9999 1.1519818305969238281 1.0832910537719726562 -9999 -9999 -9999 -9999 -9999 -9999 -9999 -9999 -9999 -9999 -9999 -9999 -9999 -9999 -9999 -9999 -9999 -9999 -9999 -9999 -9999 -9999 -9999 -9999 -9999 -9999 -9999 -9999 -9999 -9999 -9999 -9999 -9999 -9999 -9999 -9999 -9999 -9999 -9999 -9999 -9999 -9999 -9999 -9999 -9999 -9999 -9999 -9999 1.0315963029861450195 1.0583189725875854492 1.0891203880310058594 1.0933229923248291016 1.1573702096939086914 1.1359426975250244141 -9999 1.1156579256057739258 1.2471671104431152344 1.4092226028442382812 1.313580632209777832 1.1453784704208374023 1.2265655994415283203 1.2359931468963623047 -9999 -9999 -9999 -9999 -9999 -9999 -9999 -9999 -9999 -9999 -9999 -9999 -9999 -9999 -9999 -9999 -9999 1.0218294858932495117 -9999 -9999 
-9999 -9999 -9999 1.0369455814361572266 1.059141993522644043 -9999 -9999 -9999 -9999 -9999 -9999 -9999 -9999 -9999 -9999 -9999 -9999 -9999 -9999 -9999 -9999 -9999 -9999 -9999 -9999 -9999 -9999 -9999 -9999 -9999 -9999 -9999 -9999 -9999 -9999 1.0949163436889648438 -9999 -9999 -9999 -9999 1.0394659042358398438 -9999 1.096606135368347168 1.2435010671615600586 1.2800052165985107422 1.2998812198638916016 1.0552539825439453125 1.0498173236846923828 -9999 -9999 -9999 -9999 -9999 -9999 -9999 -9999 -9999 -9999 -9999 -9999 -9999 -9999 -9999 -9999 -9999 -9999 -9999 -9999 -9999 -9999 -9999 -9999 -9999 -9999 -9999 -9999 -9999 -9999 -9999 -9999 -9999 -9999 -9999 -9999 -9999 -9999 -9999 -9999 -9999 -9999 -9999 -9999 -9999 -9999 -9999 -9999 1.0390441417694091797 1.0844651460647583008 1.1177223920822143555 1.0425232648849487305 1.1057740449905395508 1.2093231678009033203 1.3079394102096557617 1.7069441080093383789 1.5327130556106567383 1.7616249322891235352 1.5989166498184204102 1.1756501197814941406 1.1757138967514038086 -9999 -9999 -9999 -9999 -9999 -9999 -9999 -9999 -9999 -9999 -9999 -9999 -9999 -9999 -9999 -9999 -9999 -9999 
-9999 -9999 -9999 -9999 -9999 -9999 -9999 -9999 -9999 -9999 -9999 -9999 -9999 -9999 -9999 -9999 -9999 -9999 -9999 -9999 -9999 -9999 -9999 -9999 -9999 -9999 -9999 -9999 -9999 -9999 -9999 -9999 -9999 -9999 -9999 -9999 -9999 -9999 -9999 -9999 1.1793732643127441406 -9999 1.1730924844741821289 1.2213456630706787109 1.2147135734558105469 1.5145684480667114258 1.3613017797470092773 1.2189420461654663086 -9999 1.0236344337463378906 -9999 -9999 -9999 -9999 -9999 -9999 -9999 -9999 -9999 -9999 -9999 -9999 -9999 -9999 1.0300724506378173828 -9999 -9999 -9999 -9999 -9999 -9999 -9999 -9999 -9999 -9999 -9999 -9999 -9999 -9999 -9999 -9999 -9999 -9999 -9999 -9999 -9999 -9999 -9999 -9999 -9999 -9999 -9999 -9999 -9999 -9999 -9999 -9999 -9999 -9999 -9999 1.0861539840698242188 1.1507413387298583984 1.3422015905380249023 1.8763352632522583008 1.606305241584777832 1.4548372030258178711 1.6867706775665283203 1.3380109071731567383 -9999 -9999 -9999 -9999 -9999 -9999 -9999 -9999 -9999 -9999 -9999 -9999 -9999 -9999 -9999 -9999 -9999 -9999 -9999 
-9999 -9999 -9999 -9999 -9999 -9999 -9999 -9999 -9999 -9999 -9999 -9999 -9999 -9999 -9999 -9999 -9999 -9999 -9999 -9999 -9999 -9999 -9999 -9999 -9999 -9999 -9999 -9999 -9999 -9999 -9999 -9999 -9999 -9999 -9999 1.1658664941787719727 1.0788941383361816406 -9999 -9999 -9999 -9999 1.2320654392242431641 1.4641920328140258789 1.7364717721939086914 1.2427318096160888672 1.575274348258972168 1.8457956314086914062 1.2895343303680419922 1.0587912797927856445 1.0094169378280639648 -9999 -9999 -9999 -9999 -9999 -9999 -9999 -9999 -9999 -9999 -9999 -9999 -9999 -9999 1.0127136707305908203 -9999 -9999 -9999 -9999 -9999 -9999 -9999 -9999 -9999 -9999 -9999 -9999 -9999 -9999 -9999 -9999 -9999 -9999 -9999 -9999 -9999 -9999 -9999 -9999 -9999 -9999 -9999 -9999 -9999 -9999 -9999 -9999 -9999 -9999 -9999 -9999 1.0573118925094604492 1.2573540210723876953 1.7924841642379760742 1.8537898063659667969 1.7201071977615356445 2.5248608589172363281 2.1985991001129150391 1.2413436174392700195 -9999 -9999 -9999 1.0815927982330322266 -9999 -9999 -9999 -9999 -9999 -9999 -9999 -9999 -9999 -9999 -9999 -9999 -9999 -9999 
