ncols        127
nrows        131
xllcorner    -71.681135979344
yllcorner    -16.519694133538
cellsize     0.001836012963
NODATA_value -9999
-9999.0 -9999 -9999 -9999 -9999 -9999 -9999 -9999 -9999 -9999 -9999 1.0184954404830932617 1.0324312448501586914 -9999 -9999 1.0781425237655639648 -9999 -9999 -9999 -9999 -9999 -9999 1.0761437416076660156 1.1225116252899169922 -9999 -9999 1.2041438817977905273 -9999 -9999 -9999 -9999 -9999 1.0382300615310668945 -9999 -9999 -9999 -9999 -9999 -9999 -9999 -9999 -9999 -9999 -9999 -9999 -9999 -9999 -9999 -9999 -9999 -9999 -9999 -9999 -9999 -9999 -9999 -9999 -9999 -9999 -9999 -9999 -9999 -9999 -9999 -9999 -9999 -9999 -9999 -9999 -9999 -9999 -9999 -9999 -9999 -9999 -9999 -9999 -9999 -9999 -9999 -9999 -9999 -9999 -9999 -9999 -9999 -9999 -9999 -9999 -9999 -9999 -9999 -9999 -9999 -9999 -9999 -9999 -9999 -9999 -9999 -9999 -9999 -9999 -9999 -9999 -9999 -9999 -9999 -9999 -9999 -9999 -9999 -9999 -9999 -9999 -9999 -9999 -9999 -9999 -9999 -9999 -9999 -9999 -9999 -9999 -9999 -9999 
-9999 -9999 -9999 -9999 -9999 -9999 -9999 -9999 -9999 -9999 -9999 1.0349181890487670898 1.0556046962738037109 -9999 -9999 -9999 -9999 -9999 -9999 -9999 -9999 -9999 1.0923858880996704102 1.1103098392486572266 1.0371612310409545898 1.0906734466552734375 1.1196280717849731445 1.0526823997497558594 1.1419309377670288086 -9999 -9999 1.0817668437957763672 -9999 -9999 -9999 -9999 -9999 -9999 -9999 -9999 -9999 -9999 -9999 -9999 -9999 -9999 -9999 -9999 -9999 -9999 -9999 -9999 -9999 -9999 -9999 -9999 -9999 -9999 -9999 -9999 -9999 -9999 -9999 -9999 -9999 -9999 -9999 -9999 -9999 1.0080988407135009766 -9999 -9999 -9999 -9999 1.0018316507339477539 1.0013163089752197266 -9999 -9999 -9999 -9999 -9999 -9999 -9999 -9999 -9999 -9999 -9999 -9999 -9999 -9999 -9999 1.0120216608047485352 1.0090401172637939453 -9999 -9999 -9999 -9999 -9999 -9999 -9999 -9999 -9999 -9999 -9999 -9999 -9999 -9999 -9999 -9999 -9999 -9999 -9999 -9999 1.0421098470687866211 -9999 -9999 -9999 -9999 -9999 -9999 -9999 -9999 -9999 -9999 -9999 -9999 -9999 
-9999 -9999 -9999 -9999 -9999 -9999 -9999 -9999 -9999 -9999 1.0464438199996948242 1.0759168863296508789 1.1339154243469238281 1.1235576868057250977 1.0708982944488525391 1.0217564105987548828 -9999 -9999 -9999 -9999 -9999 -9999 1.1171513795852661133 1.143332362174987793 1.0448225736618041992 1.0397697687149047852 1.0452063083648681641 -9999 1.2430194616317749023 -9999 -9999 1.0992227792739868164 -9999 -9999 -9999 -9999 -9999 -9999 -9999 -9999 -9999 -9999 -9999 -9999 -9999 -9999 -9999 -9999 -9999 -9999 -9999 -9999 -9999 -9999 -9999 -9999 -9999 -9999 -9999 -9999 -9999 -9999 -9999 -9999 -9999 -9999 -9999 -9999 -9999 1.0300722122192382812 1.0301756858825683594 -9999 -9999 -9999 1.0319963693618774414 -9999 -9999 -9999 -9999 -9999 1.0016139745712280273 -9999 -9999 -9999 -9999 -9999 -9999 -9999 -9999 -9999 -9999 -9999 -9999 -9999 -9999 -9999 -9999 -9999 -9999 -9999 -9999 -9999 -9999 -9999 -9999 -9999 -9999 -9999 -9999 -9999 -9999 -9999 -9999 -9999 -9999 -9999 -9999 -9999 -9999 -9999 1.0242339372634887695 -9999 -9999 -9999 -9999 -9999 -9999 
1.0727901458740234375 -9999 -9999 -9999 -9999 -9999 -9999 -9999 -9999 1.0771238803863525391 -9999 1.0563507080078125 1.2079167366027832031 1.275048375129699707 1.1437654495239257812 1.1000019311904907227 1.1745142936706542969 -9999 -9999 -9999 1.2153109312057495117 1.1565840244293212891 1.2924470901489257812 1.2068399190902709961 1.1208361387252807617 1.2377966642379760742 1.1355309486389160156 -9999 1.5232195854187011719 -9999 1.4237614870071411133 -9999 -9999 -9999 -9999 -9999 -9999 -9999 -9999 -9999 -9999 -9999 -9999 -9999 -9999 -9999 1.0236659049987792969 -9999 -9999 -9999 -9999 -9999 -9999 -9999 -9999 -9999 -9999 -9999 -9999 -9999 -9999 -9999 -9999 -9999 -9999 -9999 -9999 -9999 -9999 1.059735417366027832 1.1105765104293823242 1.1022754907608032227 1.1409600973129272461 1.2828409671783447266 1.153530120849609375 -9999 -9999 1.0070736408233642578 1.0172420740127563477 -9999 -9999 -9999 -9999 -9999 -9999 -9999 -9999 -9999 1.0367888212203979492 -9999 -9999 -9999 -9999 -9999 -9999 -9999 -9999 -9999 -9999 -9999 -9999 -9999 -9999 -9999 -9999 -9999 -9999 -9999 -9999 -9999 -9999 -9999 -9999 -9999 -9999 -9999 -9999 1.0306037664413452148 -9999 -9999 1.0287798643112182617 -9999 -9999 -9999 -9999 -9999 -9999 
-9999 -9999 -9999 -9999 -9999 -9999 -9999 -9999 -9999 -9999 1.0323389768600463867 1.0600486993789672852 1.2052805423736572266 1.3581590652465820312 1.2829545736312866211 1.2830098867416381836 1.2343719005584716797 -9999 -9999 -9999 1.1787182092666625977 1.4136797189712524414 1.5601004362106323242 1.3400740623474121094 1.1504865884780883789 1.2668812274932861328 1.1978626251220703125 1.3913099765777587891 1.3987351655960083008 1.3106095790863037109 1.2888529300689697266 -9999 -9999 -9999 -9999 -9999 -9999 -9999 -9999 -9999 -9999 -9999 -9999 -9999 -9999 -9999 -9999 -9999 -9999 -9999 1.0435442924499511719 -9999 -9999 -9999 -9999 -9999 -9999 -9999 -9999 -9999 -9999 -9999 -9999 -9999 -9999 -9999 -9999 -9999 1.0494734048843383789 1.1017524003982543945 1.1426862478256225586 1.1569321155548095703 1.246247410774230957 1.3794296979904174805 1.2390599250793457031 1.3266737461090087891 1.1692560911178588867 1.0615670680999755859 1.0097342729568481445 -9999 -9999 -9999 -9999 -9999 -9999 -9999 -9999 1.0192894935607910156 1.0158153772354125977 1.0656112432479858398 -9999 -9999 -9999 1.0583938360214233398 1.0895901918411254883 -9999 1.0293545722961425781 -9999 -9999 -9999 -9999 -9999 -9999 -9999 -9999 -9999 -9999 -9999 -9999 -9999 -9999 -9999 -9999 -9999 -9999 -9999 -9999 -9999 -9999 -9999 -9999 -9999 -9999 -9999 -9999 -9999 -9999 
-9999 -9999 -9999 -9999 -9999 -9999 -9999 1.0789098739624023438 1.1172209978103637695 1.0773454904556274414 1.0370543003082275391 1.0607981681823730469 1.0876934528350830078 1.2381284236907958984 1.3764672279357910156 1.5241960287094116211 1.3272396326065063477 -9999 -9999 -9999 1.2938213348388671875 1.7514493465423583984 1.8065353631973266602 1.4906083345413208008 1.2373777627944946289 1.3861101865768432617 1.6745011806488037109 1.6551513671875 1.8491474390029907227 1.5772849321365356445 1.4807814359664916992 -9999 -9999 -9999 -9999 -9999 -9999 -9999 -9999 -9999 -9999 -9999 -9999 -9999 -9999 -9999 -9999 -9999 1.0308136940002441406 -9999 -9999 -9999 -9999 -9999 -9999 -9999 -9999 -9999 -9999 -9999 -9999 -9999 -9999 -9999 -9999 -9999 -9999 -9999 1.0331571102142333984 1.0624316930770874023 1.1960203647613525391 1.2168463468551635742 1.2194530963897705078 1.3946591615676879883 1.4875415563583374023 1.530024409294128418 1.1814544200897216797 1.1063572168350219727 1.0154882669448852539 1.0500751733779907227 -9999 -9999 -9999 1.0243628025054931641 1.0137239694595336914 -9999 1.0242192745208740234 1.0882929563522338867 1.0254737138748168945 1.0030514001846313477 1.0279088020324707031 -9999 -9999 -9999 -9999 -9999 -9999 -9999 -9999 -9999 -9999 -9999 -9999 -9999 -9999 -9999 -9999 -9999 -9999 -9999 -9999 -9999 -9999 -9999 -9999 -9999 -9999 -9999 -9999 -9999 -9999 -9999 -9999 -9999 -9999 -9999 -9999 
-9999 -9999 -9999 -9999 -9999 -9999 -9999 1.0513565540313720703 1.088675379753112793 1.0548365116119384766 1.0532871484756469727 1.0537406206130981445 1.0963417291641235352 1.2268903255462646484 1.384631037712097168 1.4971216917037963867 1.2548956871032714844 -9999 -9999 1.0854446887969970703 1.3180459737777709961 1.5478665828704833984 1.5177056789398193359 1.8131517171859741211 2.1158444881439208984 2.4120290279388427734 2.7389781475067138672 2.0806918144226074219 2.4319117069244384766 1.7515344619750976562 1.2161794900894165039 -9999 -9999 -9999 -9999 -9999 -9999 1.0709235668182373047 -9999 -9999 -9999 -9999 -9999 -9999 -9999 -9999 -9999 -9999 -9999 -9999 -9999 -9999 -9999 -9999 1.0299134254455566406 -9999 -9999 -9999 -9999 -9999 -9999 -9999 -9999 -9999 -9999 -9999 -9999 -9999 -9999 -9999 1.0925318002700805664 1.1809500455856323242 1.2346547842025756836 1.5400528907775878906 1.6073919534683227539 1.3777573108673095703 1.0398015975952148438 1.0197148323059082031 -9999 -9999 -9999 1.0298427343368530273 1.03559112548828125 1.0534687042236328125 1.020824432373046875 -9999 1.107468724250793457 1.3007590770721435547 1.0831829309463500977 1.0423855781555175781 1.0616248846054077148 1.0508540868759155273 1.0311911106109619141 1.0091391801834106445 -9999 -9999 -9999 -9999 -9999 -9999 -9999 -9999 -9999 -9999 -9999 -9999 -9999 -9999 -9999 -9999 -9999 -9999 1.2099896669387817383 1.0990608930587768555 -9999 -9999 -9999 -9999 -9999 -9999 -9999 -9999 -9999 -9999 -9999 -9999 -9999 
-9999 -9999 -9999 -9999 -9999 1.0505688190460205078 -9999 1.0430786609649658203 1.0887477397918701172 1.0541068315505981445 1.0846577882766723633 1.0917646884918212891 1.1753832101821899414 1.2894676923751831055 1.1609419584274291992 1.1546885967254638672 1.1144272089004516602 -9999 1.0232167243957519531 1.1138389110565185547 1.5390838384628295898 1.3359057903289794922 1.0995630025863647461 1.6635918617248535156 3.3401215076446533203 4.5535483360290527344 3.2976663112640380859 2.6730751991271972656 3.4494688510894775391 2.6681654453277587891 2.0002884864807128906 1.7719547748565673828 1.4183397293090820312 -9999 -9999 -9999 -9999 1.0493196249008178711 -9999 -9999 -9999 -9999 -9999 -9999 -9999 -9999 -9999 -9999 -9999 -9999 -9999 -9999 -9999 -9999 -9999 -9999 -9999 -9999 -9999 -9999 -9999 -9999 -9999 -9999 -9999 -9999 -9999 -9999 -9999 -9999 -9999 1.0878293514251708984 1.3788219690322875977 1.7555910348892211914 1.7306814193725585938 1.1612166166305541992 1.0167047977447509766 -9999 -9999 1.0728566646575927734 1.0474925041198730469 1.0598014593124389648 1.1705546379089355469 1.2608526945114135742 1.113417506217956543 1.0615849494934082031 1.1465344429016113281 1.3517154455184936523 1.1883337497711181641 1.0926554203033447266 1.0745608806610107422 1.0748292207717895508 1.0485105514526367188 1.0166782140731811523 -9999 -9999 -9999 -9999 -9999 -9999 -9999 -9999 -9999 -9999 -9999 -9999 -9999 -9999 -9999 -9999 -9999 1.0539690256118774414 1.1347167491912841797 -9999 -9999 -9999 -9999 -9999 -9999 -9999 -9999 -9999 -9999 -9999 -9999 -9999 -9999 
-9999 -9999 -9999 -9999 1.0477445125579833984 -9999 -9999 1.0265659093856811523 1.0343030691146850586 1.0614686012268066406 -9999 1.1148623228073120117 1.1929540634155273438 1.119780421257019043 1.0430829524993896484 -9999 -9999 -9999 -9999 1.1007581949234008789 1.2777917385101318359 1.2721507549285888672 -9999 1.8731549978256225586 3.1999938488006591797 3.9657790660858154297 3.16861724853515625 2.7758746147155761719 3.4159982204437255859 4.5489606857299804688 5.0894927978515625 3.9121642112731933594 1.8693420886993408203 -9999 -9999 -9999 -9999 -9999 -9999 -9999 -9999 -9999 -9999 -9999 -9999 -9999 -9999 -9999 -9999 -9999 -9999 -9999 -9999 -9999 -9999 -9999 -9999 -9999 -9999 -9999 -9999 -9999 -9999 -9999 -9999 -9999 -9999 -9999 -9999 -9999 -9999 1.1429849863052368164 1.4892029762268066406 1.8739783763885498047 1.4745042324066162109 1.1023485660552978516 1.024623870849609375 -9999 -9999 1.0509322881698608398 1.0364135503768920898 1.072253108024597168 1.3432663679122924805 1.4906095266342163086 1.2840387821197509766 1.241356968879699707 1.406276702880859375 1.3665702342987060547 1.4531959295272827148 1.1434471607208251953 1.1615568399429321289 1.1713999509811401367 1.0675303936004638672 -9999 -9999 -9999 -9999 -9999 -9999 -9999 -9999 -9999 -9999 -9999 -9999 -9999 -9999 -9999 -9999 -9999 -9999 -9999 -9999 -9999 -9999 -9999 -9999 -9999 -9999 -9999 -9999 -9999 -9999 -9999 -9999 -9999 -9999 
-9999 -9999 -9999 -9999 -9999 -9999 -9999 1.0461155176162719727 1.0430029630661010742 1.0548806190490722656 1.0534316301345825195 1.0830157995223999023 1.1921328306198120117 1.1665343046188354492 1.0290899276733398438 -9999 -9999 -9999 1.0910711288452148438 1.1409820318222045898 1.2544529438018798828 -9999 1.1314977407455444336 1.5609992742538452148 1.9875710010528564453 1.7837779521942138672 2.7790999412536621094 3.4200699329376220703 3.7422623634338378906 6.7123851776123046875 8.0389575958251953125 6.22154998779296875 2.7836780548095703125 1.2797112464904785156 1.2726006507873535156 1.073546290397644043 -9999 -9999 -9999 -9999 -9999 -9999 -9999 -9999 -9999 -9999 -9999 -9999 1.0482398271560668945 -9999 -9999 -9999 -9999 -9999 -9999 -9999 -9999 -9999 -9999 -9999 -9999 -9999 -9999 -9999 -9999 -9999 -9999 -9999 -9999 -9999 -9999 1.1825587749481201172 1.4027475118637084961 1.3902900218963623047 1.1981856822967529297 -9999 -9999 -9999 1.0828422307968139648 1.0611519813537597656 1.0577207803726196289 1.1142481565475463867 1.4111620187759399414 1.5165234804153442383 1.4642841815948486328 1.7608778476715087891 2.0332677364349365234 1.5057187080383300781 1.5582441091537475586 1.1818435192108154297 1.2374986410140991211 1.155246734619140625 1.0674803256988525391 -9999 -9999 -9999 -9999 -9999 -9999 -9999 -9999 -9999 -9999 -9999 -9999 -9999 -9999 -9999 -9999 -9999 -9999 -9999 -9999 -9999 -9999 -9999 -9999 -9999 -9999 -9999 -9999 -9999 -9999 -9999 -9999 -9999 -9999 
-9999 -9999 -9999 1.0328993797302246094 -9999 -9999 1.0205446481704711914 1.0691498517990112305 1.0705200433731079102 1.044161677360534668 1.0529921054840087891 1.0574824810028076172 1.0774742364883422852 -9999 -9999 -9999 -9999 -9999 -9999 1.6402970552444458008 2.4590106010437011719 1.8633863925933837891 1.1591711044311523438 1.3037691116333007812 1.5967131853103637695 2.1405608654022216797 3.166172027587890625 3.9308493137359619141 6.2251620292663574219 8.098575592041015625 7.9793987274169921875 7.0060377120971679688 4.4472842216491699219 1.5818451642990112305 1.1889032125473022461 1.1722215414047241211 1.1552883386611938477 -9999 -9999 -9999 -9999 -9999 -9999 -9999 -9999 -9999 -9999 -9999 -9999 -9999 -9999 -9999 -9999 -9999 -9999 -9999 -9999 -9999 -9999 -9999 -9999 -9999 -9999 -9999 1.0385566949844360352 -9999 -9999 -9999 -9999 -9999 -9999 -9999 1.296605229377746582 1.2475043535232543945 1.1034396886825561523 1.0354917049407958984 -9999 -9999 -9999 -9999 1.0587314367294311523 1.1455420255661010742 1.3742204904556274414 1.6860293149948120117 1.5859850645065307617 2.1816239356994628906 2.3959519863128662109 1.5041979551315307617 1.2990807294845581055 1.1780244112014770508 1.2281426191329956055 1.1521722078323364258 1.0516496896743774414 -9999 -9999 -9999 -9999 -9999 -9999 -9999 -9999 -9999 -9999 -9999 -9999 -9999 -9999 -9999 -9999 -9999 -9999 -9999 -9999 -9999 -9999 -9999 -9999 -9999 -9999 -9999 -9999 -9999 -9999 -9999 -9999 -9999 -9999 
-9999 1.1099312305450439453 1.0970948934555053711 1.0579482316970825195 1.0329539775848388672 1.0513123273849487305 1.0500710010528564453 1.1468334197998046875 1.2154984474182128906 1.0925039052963256836 1.0662181377410888672 1.0801979303359985352 1.0462472438812255859 -9999 -9999 -9999 -9999 -9999 -9999 -9999 -9999 1.2829674482345581055 1.3061519861221313477 1.3040093183517456055 1.5160281658172607422 1.8702405691146850586 2.1352822780609130859 3.4131903648376464844 6.2389469146728515625 8.8508005142211914062 8.6883859634399414062 6.6900420188903808594 4.9471659660339355469 2.6981658935546875 1.8979300260543823242 1.9860025644302368164 1.6168340444564819336 -9999 -9999 -9999 -9999 -9999 -9999 -9999 -9999 -9999 -9999 -9999 -9999 -9999 -9999 -9999 -9999 -9999 -9999 -9999 -9999 -9999 -9999 -9999 -9999 -9999 -9999 -9999 -9999 -9999 -9999 -9999 -9999 -9999 -9999 -9999 1.2387344837188720703 1.245222926139831543 1.3403921127319335938 1.0933617353439331055 -9999 -9999 -9999 -9999 1.2181413173675537109 1.3295856714248657227 1.5156236886978149414 1.6045954227447509766 1.679001927375793457 2.6566462516784667969 2.5872168540954589844 1.3972597122192382812 1.1539614200592041016 1.1019947528839111328 1.1417027711868286133 1.119485020637512207 -9999 -9999 -9999 -9999 -9999 -9999 -9999 -9999 -9999 -9999 -9999 -9999 -9999 -9999 -9999 -9999 1.0028253793716430664 -9999 -9999 -9999 -9999 -9999 -9999 -9999 -9999 -9999 -9999 -9999 -9999 -9999 -9999 -9999 -9999 -9999 -9999 
1.0897289514541625977 1.0893713235855102539 1.0722818374633789062 1.0611094236373901367 -9999 -9999 1.1455246210098266602 1.2064337730407714844 1.1391205787658691406 1.0819565057754516602 1.0490310192108154297 1.0561003684997558594 1.0469863414764404297 -9999 -9999 -9999 -9999 -9999 -9999 -9999 -9999 1.1531193256378173828 1.4548864364624023438 1.2703438997268676758 1.2829917669296264648 1.511932373046875 1.8314273357391357422 2.6271677017211914062 3.3638799190521240234 6.2908329963684082031 7.9117760658264160156 5.6896381378173828125 4.5669679641723632812 4.9095044136047363281 4.5480508804321289062 3.7881317138671875 2.2051866054534912109 1.1094756126403808594 -9999 -9999 -9999 -9999 -9999 -9999 -9999 -9999 -9999 -9999 -9999 -9999 -9999 -9999 -9999 -9999 -9999 -9999 -9999 -9999 -9999 -9999 -9999 -9999 -9999 -9999 -9999 -9999 -9999 -9999 -9999 -9999 -9999 -9999 1.1634411811828613281 1.29880523681640625 1.2423202991485595703 1.0918698310852050781 -9999 -9999 1.0107753276824951172 1.1478607654571533203 1.4452307224273681641 1.7882783412933349609 2.2502615451812744141 2.2832872867584228516 1.6728038787841796875 2.5753934383392333984 2.8835165500640869141 1.6883113384246826172 1.5758277177810668945 1.2507919073104858398 -9999 1.0293793678283691406 -9999 -9999 -9999 -9999 -9999 -9999 -9999 -9999 -9999 -9999 -9999 -9999 -9999 -9999 -9999 -9999 -9999 -9999 -9999 -9999 -9999 -9999 -9999 -9999 -9999 -9999 -9999 -9999 -9999 -9999 -9999 -9999 -9999 -9999 -9999 
1.0870844125747680664 1.0656859874725341797 1.0589548349380493164 1.0576890707015991211 -9999 -9999 1.2760242223739624023 1.2624170780181884766 1.1641135215759277344 1.1039803028106689453 1.0610206127166748047 1.0784230232238769531 1.0220644474029541016 -9999 -9999 1.0553345680236816406 1.0362814664840698242 1.0248520374298095703 1.0409300327301025391 -9999 -9999 1.1562912464141845703 1.4072246551513671875 1.3495724201202392578 1.3359683752059936523 1.325059056282043457 1.8712877035140991211 2.8482887744903564453 2.7546315193176269531 4.03220367431640625 6.9153208732604980469 5.3317809104919433594 4.78179168701171875 6.6225953102111816406 7.2516260147094726562 6.1823339462280273438 4.0755515098571777344 1.8352739810943603516 -9999 -9999 -9999 -9999 -9999 -9999 -9999 -9999 -9999 -9999 -9999 -9999 -9999 -9999 -9999 -9999 -9999 -9999 1.0351960659027099609 1.0159115791320800781 -9999 -9999 -9999 -9999 -9999 -9999 -9999 -9999 -9999 -9999 -9999 -9999 -9999 1.172911524772644043 1.348340153694152832 1.4811872243881225586 1.1955684423446655273 1.0545836687088012695 -9999 -9999 1.0445125102996826172 1.4183413982391357422 2.1127631664276123047 2.5134327411651611328 2.9769735336303710938 2.3625674247741699219 2.6681337356567382812 3.7473511695861816406 3.1331436634063720703 1.742781519889831543 1.4690387248992919922 1.2664240598678588867 -9999 1.0388584136962890625 1.0178782939910888672 -9999 -9999 -9999 -9999 -9999 -9999 -9999 -9999 -9999 -9999 -9999 1.1047129631042480469 -9999 -9999 -9999 -9999 -9999 -9999 -9999 -9999 -9999 -9999 -9999 -9999 -9999 -9999 -9999 -9999 -9999 -9999 -9999 -9999 -9999 -9999 
1.0268131494522094727 1.0487536191940307617 1.0649858713150024414 1.0676755905151367188 1.0489265918731689453 1.1371667385101318359 1.2324755191802978516 1.1944955587387084961 1.18032073974609375 1.1051007509231567383 1.0517419576644897461 1.0532212257385253906 -9999 -9999 1.1231648921966552734 1.2246738672256469727 1.2058513164520263672 1.0610661506652832031 1.2449384927749633789 -9999 1.1505347490310668945 1.3144319057464599609 1.5976892709732055664 1.839003443717956543 1.4602055549621582031 1.5987907648086547852 2.1697144508361816406 2.8464117050170898438 2.7861897945404052734 3.4277656078338623047 4.3441162109375 2.861392974853515625 3.5324697494506835938 6.7489833831787109375 8.1402864456176757812 7.0604329109191894531 6.2973093986511230469 4.0765476226806640625 2.2059121131896972656 1.6685613393783569336 1.5725270509719848633 -9999 -9999 -9999 -9999 -9999 -9999 -9999 -9999 -9999 -9999 -9999 1.0033097267150878906 1.0049395561218261719 -9999 1.1932162046432495117 1.0470725297927856445 -9999 -9999 -9999 -9999 -9999 -9999 -9999 -9999 -9999 -9999 -9999 -9999 -9999 1.8076798915863037109 2.5692677497863769531 2.4326353073120117188 1.7869545221328735352 1.2065706253051757812 1.0288722515106201172 -9999 -9999 1.2823532819747924805 2.4501056671142578125 3.5255427360534667969 3.6223094463348388672 4.1979260444641113281 2.8261249065399169922 4.4464159011840820312 4.5079560279846191406 2.8456704616546630859 1.3131859302520751953 1.1742942333221435547 1.1442009210586547852 -9999 1.0785584449768066406 1.0409111976623535156 -9999 -9999 -9999 -9999 -9999 -9999 -9999 -9999 -9999 -9999 -9999 -9999 -9999 -9999 -9999 -9999 -9999 -9999 -9999 -9999 -9999 -9999 -9999 -9999 -9999 -9999 -9999 -9999 -9999 -9999 -9999 -9999 -9999 -9999 
1.0343528985977172852 1.0091937780380249023 -9999 -9999 1.1003991365432739258 1.1442602872848510742 1.1928025484085083008 1.1953375339508056641 1.1015011072158813477 1.0525975227355957031 1.0475437641143798828 1.0304476022720336914 -9999 -9999 1.1579759120941162109 1.2254620790481567383 1.1729599237442016602 1.1160504817962646484 1.3318990468978881836 1.4799301624298095703 1.4767174720764160156 1.6897153854370117188 1.6674275398254394531 2.1323313713073730469 1.7220962047576904297 1.5349863767623901367 1.6051784753799438477 2.6100213527679443359 3.7169804573059082031 5.0712161064147949219 2.7357423305511474609 1.7642910480499267578 3.2976601123809814453 5.8597402572631835938 8.2535963058471679688 7.7531180381774902344 7.5060591697692871094 6.8534088134765625 5.3363184928894042969 3.8967096805572509766 2.7004666328430175781 1.3723955154418945312 -9999 -9999 -9999 -9999 -9999 -9999 -9999 -9999 -9999 -9999 -9999 -9999 1.2169086933135986328 1.4794715642929077148 1.1342130899429321289 1.0612986087799072266 1.1040421724319458008 1.0416429042816162109 -9999 1.120907902717590332 -9999 -9999 -9999 -9999 1.2942376136779785156 1.438954472541809082 1.7749320268630981445 2.4775059223175048828 4.3713507652282714844 5.112865447998046875 4.0463428497314453125 3.9625627994537353516 1.7711466550827026367 1.0504026412963867188 1.0554902553558349609 1.0733501911163330078 1.6465237140655517578 3.1185612678527832031 2.9400045871734619141 3.1979324817657470703 5.353759765625 3.5011112689971923828 5.3820395469665527344 4.5091710090637207031 2.0915355682373046875 -9999 1.1202744245529174805 -9999 1.0642900466918945312 1.1424462795257568359 1.0569311380386352539 -9999 -9999 -9999 -9999 -9999 -9999 -9999 -9999 -9999 -9999 -9999 -9999 -9999 -9999 -9999 -9999 -9999 -9999 -9999 -9999 -9999 -9999 -9999 -9999 -9999 -9999 -9999 -9999 -9999 -9999 -9999 -9999 -9999 -9999 
1.0105932950973510742 1.0040585994720458984 -9999 1.1257407665252685547 1.0674250125885009766 1.0698001384735107422 1.081927180290222168 1.1406463384628295898 1.1267132759094238281 1.098690032958984375 1.0405138731002807617 -9999 1.2776540517807006836 1.1433728933334350586 1.2007660865783691406 1.1215798854827880859 1.0964571237564086914 1.2614207267761230469 1.4182257652282714844 1.5781775712966918945 1.6186695098876953125 1.5743573904037475586 1.6161462068557739258 1.8810248374938964844 2.1014821529388427734 2.0272448062896728516 2.0915827751159667969 2.2971513271331787109 2.7717609405517578125 3.9800846576690673828 2.1028885841369628906 3.2146818637847900391 4.6258759498596191406 4.9764771461486816406 7.9560484886169433594 9.4929819107055664062 8.86620330810546875 7.1411962509155273438 6.5712542533874511719 5.5974192619323730469 4.10420989990234375 3.0045328140258789062 1.7845100164413452148 -9999 -9999 -9999 -9999 -9999 -9999 -9999 -9999 1.1373747587203979492 1.3734341859817504883 1.2982344627380371094 1.4245193004608154297 1.4303927421569824219 -9999 1.1664632558822631836 1.3086829185485839844 1.1701232194900512695 -9999 -9999 1.103545069694519043 -9999 -9999 1.279954075813293457 1.9136557579040527344 2.0128529071807861328 2.6921758651733398438 3.6502661705017089844 5.8112807273864746094 7.4129133224487304688 7.697887420654296875 5.90985870361328125 2.4937956333160400391 1.8511900901794433594 1.4151258468627929688 1.2635066509246826172 2.3429226875305175781 3.5582180023193359375 2.8535614013671875 4.1046643257141113281 5.2233381271362304688 3.8863108158111572266 4.6467719078063964844 4.064189910888671875 1.7358181476593017578 1.0451092720031738281 1.09499359130859375 -9999 1.0457892417907714844 1.1500875949859619141 1.045790553092956543 -9999 -9999 -9999 -9999 -9999 -9999 -9999 -9999 -9999 1.1413284540176391602 -9999 -9999 -9999 -9999 -9999 -9999 -9999 -9999 -9999 -9999 -9999 -9999 -9999 -9999 -9999 -9999 -9999 -9999 -9999 -9999 -9999 -9999 -9999 -9999 
-9999 1.0562535524368286133 1.0355589389801025391 1.0242085456848144531 1.0517859458923339844 -9999 -9999 1.0895639657974243164 1.0873532295227050781 1.0556731224060058594 -9999 -9999 1.2306692600250244141 1.1443375349044799805 1.1584794521331787109 1.1757912635803222656 1.2794741392135620117 1.5054429769515991211 1.4160497188568115234 1.3930748701095581055 1.4552568197250366211 1.5746068954467773438 1.6678916215896606445 1.6581900119781494141 2.4745714664459228516 2.6048712730407714844 2.8819677829742431641 3.0233454704284667969 2.4624488353729248047 2.1898822784423828125 1.3209623098373413086 2.4126005172729492188 3.7244842052459716797 4.4660935401916503906 6.3902935981750488281 9.1790027618408203125 10.415067672729492188 8.6160879135131835938 6.9969663619995117188 6.6445841789245605469 6.77475738525390625 6.7793364524841308594 4.0899000167846679688 1.8820030689239501953 1.1306612491607666016 1.0851573944091796875 -9999 -9999 -9999 1.5513683557510375977 2.1531579494476318359 2.5016336441040039062 2.9969511032104492188 2.3523936271667480469 2.4034638404846191406 1.7158839702606201172 1.1151770353317260742 1.185916900634765625 1.3267278671264648438 1.1869961023330688477 -9999 -9999 -9999 -9999 -9999 1.3956826925277709961 1.9333038330078125 2.11283111572265625 3.7950713634490966797 4.3661856651306152344 6.2517347335815429688 8.7115497589111328125 8.447643280029296875 6.207977294921875 4.0379557609558105469 4.2400641441345214844 3.5538685321807861328 2.5673747062683105469 3.6765356063842773438 3.8536915779113769531 3.4218301773071289062 3.6351180076599121094 3.2509684562683105469 4.9370050430297851562 5.1099839210510253906 3.8455681800842285156 1.6244843006134033203 1.02428436279296875 -9999 -9999 -9999 -9999 -9999 -9999 -9999 -9999 -9999 1.0511473417282104492 1.0842369794845581055 1.0934379100799560547 -9999 1.049167633056640625 -9999 -9999 -9999 -9999 -9999 -9999 -9999 -9999 -9999 -9999 -9999 -9999 -9999 -9999 -9999 -9999 -9999 -9999 -9999 -9999 -9999 -9999 -9999 -9999 -9999 
-9999 1.0894765853881835938 1.0311428308486938477 1.0090663433074951172 -9999 -9999 -9999 1.0913165807723999023 1.0777472257614135742 1.0178253650665283203 -9999 -9999 1.105431675910949707 1.2385443449020385742 1.2587589025497436523 1.2030146121978759766 1.2749665975570678711 1.2656600475311279297 1.1572982072830200195 1.2417299747467041016 1.3011139631271362305 1.6120593547821044922 1.7578202486038208008 1.9503785371780395508 1.9444445371627807617 1.4939599037170410156 1.9975574016571044922 3.0265254974365234375 2.2049093246459960938 1.3432261943817138672 1.2637773752212524414 -9999 1.5296940803527832031 2.4095857143402099609 2.5312311649322509766 5.3276109695434570312 7.9371213912963867188 6.4617643356323242188 6.7163901329040527344 6.508365631103515625 7.9885663986206054688 7.2562994956970214844 6.5640492439270019531 5.0019712448120117188 2.5153589248657226562 1.3383692502975463867 1.2966852188110351562 2.2771022319793701172 2.5031135082244873047 3.5540952682495117188 4.8677420616149902344 5.0653438568115234375 3.9428102970123291016 3.0281488895416259766 3.0833468437194824219 1.5584496259689331055 1.1343433856964111328 1.1151779890060424805 1.109574437141418457 -9999 -9999 -9999 -9999 -9999 -9999 -9999 1.4017505645751953125 3.22013092041015625 6.8910160064697265625 7.8698434829711914062 8.7289609909057617188 9.115325927734375 7.5137958526611328125 5.7426247596740722656 6.2545452117919921875 6.6479372978210449219 5.8177113533020019531 4.5351138114929199219 3.3969433307647705078 2.7875254154205322266 4.1387667655944824219 3.1378748416900634766 1.8272620439529418945 3.6633441448211669922 5.2225351333618164062 3.2499270439147949219 -9999 1.0103962421417236328 -9999 -9999 -9999 -9999 -9999 -9999 -9999 1.078844904899597168 1.0333857536315917969 -9999 -9999 -9999 -9999 -9999 -9999 -9999 -9999 -9999 -9999 -9999 -9999 -9999 -9999 -9999 -9999 -9999 -9999 -9999 -9999 -9999 -9999 -9999 -9999 -9999 -9999 -9999 -9999 -9999 -9999 
-9999 -9999 -9999 -9999 -9999 1.0192345380783081055 -9999 1.0486772060394287109 -9999 -9999 -9999 -9999 1.083624720573425293 1.2513957023620605469 1.3313103914260864258 1.3005615472793579102 1.2571070194244384766 1.2078455686569213867 1.1187896728515625 1.2110167741775512695 1.3645219802856445312 1.4710700511932373047 1.3461546897888183594 1.490764617919921875 1.3325569629669189453 -9999 1.4500931501388549805 1.9253630638122558594 1.9888681173324584961 1.3175970315933227539 1.1624510288238525391 -9999 1.237111210823059082 1.6044774055480957031 1.3367040157318115234 2.3037562370300292969 3.1684184074401855469 3.7235047817230224609 6.3050069808959960938 6.8203582763671875 6.3642630577087402344 6.941802978515625 8.3176593780517578125 7.5965557098388671875 4.6137475967407226562 2.2225878238677978516 2.1777071952819824219 4.2645063400268554688 5.2044305801391601562 6.3290848731994628906 5.9426631927490234375 5.4548597335815429688 2.9221541881561279297 4.0439534187316894531 3.4637341499328613281 1.5780773162841796875 1.0804293155670166016 1.0533102750778198242 -9999 1.0444443225860595703 -9999 -9999 -9999 -9999 -9999 -9999 1.9733400344848632812 5.5737967491149902344 8.1526384353637695312 9.030914306640625 9.74471282958984375 9.4200191497802734375 8.258007049560546875 5.1880927085876464844 5.7713046073913574219 6.4096217155456542969 4.9253592491149902344 4.0374245643615722656 3.4134395122528076172 3.5403218269348144531 3.3559637069702148438 1.9645569324493408203 1.8420583009719848633 3.6481809616088867188 4.3016037940979003906 2.3200240135192871094 -9999 -9999 -9999 -9999 -9999 1.0340197086334228516 1.0173095464706420898 -9999 -9999 -9999 -9999 -9999 -9999 -9999 -9999 -9999 -9999 -9999 -9999 -9999 -9999 -9999 -9999 -9999 -9999 -9999 -9999 -9999 -9999 -9999 -9999 -9999 -9999 -9999 -9999 -9999 -9999 -9999 -9999 -9999 -9999 
-9999 -9999 -9999 1.0508211851119995117 1.0863866806030273438 1.039067387580871582 1.0203557014465332031 1.0662859678268432617 1.0250731706619262695 -9999 -9999 1.1377437114715576172 1.0991078615188598633 1.204768061637878418 1.3067545890808105469 1.2300007343292236328 1.203350067138671875 1.2001785039901733398 1.1052138805389404297 1.2825547456741333008 1.4891518354415893555 1.3252164125442504883 1.1641730070114135742 -9999 -9999 -9999 1.0700539350509643555 1.5308297872543334961 2.2387957572937011719 1.4490915536880493164 1.2030332088470458984 1.2875623703002929688 1.3478990793228149414 1.5584440231323242188 1.2575403451919555664 1.2342641353607177734 1.6393647193908691406 2.8771593570709228516 4.5618147850036621094 6.3094763755798339844 5.9160003662109375 6.6721563339233398438 8.6159563064575195312 8.427959442138671875 5.8574395179748535156 3.5127718448638916016 3.7970483303070068359 7.1577959060668945312 8.5375356674194335938 8.9242267608642578125 7.9616456031799316406 6.5493750572204589844 4.2630734443664550781 6.3495802879333496094 3.5787353515625 2.3594021797180175781 1.2190301418304443359 -9999 1.1192064285278320312 1.067435145378112793 1.3812952041625976562 2.3729429244995117188 1.9632313251495361328 -9999 1.1931263208389282227 1.956891179084777832 4.1646986007690429688 6.8117814064025878906 7.0195026397705078125 9.4599895477294921875 9.027545928955078125 7.0549273490905761719 6.8866219520568847656 4.2371301651000976562 4.4503092765808105469 5.5399556159973144531 3.0853056907653808594 2.9194321632385253906 5.29462432861328125 5.6160526275634765625 2.626316070556640625 1.8126935958862304688 2.4560363292694091797 3.0472645759582519531 2.7498905658721923828 -9999 -9999 -9999 -9999 -9999 -9999 1.0567941665649414062 1.0478341579437255859 -9999 -9999 -9999 -9999 -9999 -9999 -9999 -9999 -9999 -9999 -9999 -9999 -9999 -9999 -9999 -9999 -9999 -9999 -9999 -9999 -9999 -9999 -9999 -9999 -9999 -9999 -9999 -9999 -9999 -9999 -9999 -9999 -9999 -9999 
-9999 -9999 -9999 1.0787090063095092773 1.0866489410400390625 1.0582541227340698242 1.0246968269348144531 -9999 -9999 -9999 1.1648111343383789062 1.1243312358856201172 1.063335418701171875 1.0957422256469726562 1.2210851907730102539 1.2076039314270019531 1.2014719247817993164 1.1987174749374389648 1.1821892261505126953 1.306995391845703125 1.4477921724319458008 1.3660297393798828125 1.2490170001983642578 -9999 1.2297356128692626953 -9999 1.279890894889831543 2.1239078044891357422 2.2188429832458496094 1.3077571392059326172 1.1980179548263549805 1.4040213823318481445 1.8370070457458496094 1.7343717813491821289 1.8931452035903930664 1.4376696348190307617 1.2850300073623657227 1.755797266960144043 3.3049302101135253906 3.5224308967590332031 3.9118072986602783203 4.8086943626403808594 5.1091065406799316406 7.2530670166015625 6.4287118911743164062 5.0503702163696289062 6.0137844085693359375 8.7633342742919921875 10.380708694458007812 10.576138496398925781 10.174816131591796875 7.2648181915283203125 5.511600494384765625 6.4341225624084472656 5.1524834632873535156 3.3321149349212646484 1.9564378261566162109 -9999 -9999 -9999 1.5019315481185913086 3.8173069953918457031 4.3472771644592285156 2.4824492931365966797 2.3377988338470458984 4.8888273239135742188 7.4549102783203125 8.2068376541137695312 7.3211655616760253906 9.239879608154296875 8.5714673995971679688 6.7667284011840820312 7.3727140426635742188 4.5651354789733886719 4.4927201271057128906 5.1635990142822265625 2.2466609477996826172 3.3639376163482666016 6.5281848907470703125 5.2301988601684570312 2.2582192420959472656 1.5487996339797973633 1.6644620895385742188 1.3065462112426757812 1.1260741949081420898 -9999 -9999 -9999 -9999 -9999 -9999 1.0919864177703857422 1.0671502351760864258 -9999 -9999 -9999 -9999 -9999 -9999 -9999 -9999 -9999 -9999 -9999 -9999 -9999 -9999 -9999 -9999 -9999 -9999 -9999 -9999 -9999 -9999 -9999 -9999 -9999 -9999 -9999 -9999 -9999 -9999 -9999 -9999 -9999 -9999 
-9999 -9999 -9999 1.0747092962265014648 1.0564184188842773438 1.0407075881958007812 1.0380541086196899414 -9999 -9999 -9999 1.0455901622772216797 1.0438678264617919922 1.0499968528747558594 1.0375860929489135742 1.1024216413497924805 1.1079775094985961914 1.1923941373825073242 1.1926720142364501953 1.2151018381118774414 1.2871950864791870117 1.3247547149658203125 1.289503931999206543 1.1818298101425170898 -9999 -9999 -9999 1.3172174692153930664 2.1168487071990966797 1.8740679025650024414 1.3591448068618774414 1.4750059843063354492 2.0212142467498779297 2.2107591629028320312 1.6202176809310913086 1.5560373067855834961 1.3351640701293945312 1.5021117925643920898 1.7457641363143920898 2.0283968448638916016 2.7857506275177001953 2.5968968868255615234 2.5109508037567138672 2.9456489086151123047 3.6950659751892089844 4.6763052940368652344 4.459625244140625 6.9022002220153808594 9.5851583480834960938 10.438313484191894531 10.687395095825195312 9.9664297103881835938 7.0677933692932128906 3.9020888805389404297 5.3212265968322753906 5.6156864166259765625 3.2980151176452636719 1.8944641351699829102 1.2542384862899780273 -9999 -9999 -9999 3.8089632987976074219 4.9545817375183105469 3.6968555450439453125 4.7487044334411621094 6.1557850837707519531 6.9682965278625488281 8.0430574417114257812 8.4193677902221679688 7.0429477691650390625 6.2966122627258300781 5.7490167617797851562 5.311298370361328125 3.5579004287719726562 5.0884242057800292969 4.5696926116943359375 2.0589807033538818359 2.3699772357940673828 4.0887737274169921875 3.3358120918273925781 2.7993316650390625 1.8096604347229003906 1.1903685331344604492 -9999 1.0034196376800537109 -9999 -9999 1.2845381498336791992 1.4338899850845336914 -9999 -9999 -9999 -9999 -9999 -9999 -9999 -9999 -9999 -9999 -9999 -9999 -9999 -9999 -9999 -9999 -9999 -9999 -9999 -9999 -9999 -9999 -9999 -9999 -9999 -9999 -9999 -9999 -9999 -9999 -9999 -9999 -9999 -9999 -9999 -9999 -9999 -9999 
-9999 -9999 1.0535997152328491211 -9999 1.0442141294479370117 1.0290040969848632812 1.0184271335601806641 -9999 -9999 1.063643336296081543 1.0538325309753417969 1.0618109703063964844 -9999 1.0636316537857055664 1.1583352088928222656 1.1044126749038696289 1.1433111429214477539 1.1385498046875 1.2339780330657958984 1.2039448022842407227 1.1680513620376586914 1.1508436203002929688 1.0678365230560302734 -9999 -9999 -9999 1.3847347497940063477 1.4878836870193481445 1.3267891407012939453 1.2112190723419189453 1.6532733440399169922 2.5342066287994384766 2.2429749965667724609 1.9194557666778564453 1.4448270797729492188 1.5378510951995849609 1.5636841058731079102 1.8929001092910766602 2.2744960784912109375 2.0319209098815917969 1.6995511054992675781 2.04046630859375 2.3207795619964599609 2.3964924812316894531 5.2962975502014160156 6.3640880584716796875 7.8847217559814453125 10.410146713256835938 9.784870147705078125 10.904803276062011719 10.459666252136230469 7.9702882766723632812 4.658161163330078125 7.14281463623046875 5.1843848228454589844 3.7765610218048095703 2.3768324851989746094 2.6562058925628662109 3.4497721195220947266 3.1771645545959472656 2.7533853054046630859 4.4712419509887695312 6.3786835670471191406 6.9869437217712402344 7.7612981796264648438 6.1550068855285644531 6.5404944419860839844 9.1471815109252929688 8.945281982421875 8.7754535675048828125 6.5079402923583984375 5.2325677871704101562 4.3995990753173828125 5.3421316146850585938 5.8949480056762695312 3.4739887714385986328 4.4435291290283203125 5.217926025390625 3.5660238265991210938 3.2593636512756347656 2.7639398574829101562 1.5726597309112548828 -9999 1.0793936252593994141 1.0753399133682250977 -9999 -9999 1.1978744268417358398 1.2782074213027954102 -9999 -9999 -9999 -9999 -9999 -9999 -9999 -9999 1.0496724843978881836 -9999 -9999 -9999 -9999 -9999 -9999 -9999 -9999 -9999 -9999 -9999 -9999 -9999 -9999 -9999 -9999 -9999 -9999 -9999 -9999 -9999 -9999 -9999 -9999 -9999 -9999 -9999 -9999 -9999 
-9999 -9999 -9999 1.025543212890625 1.0371022224426269531 -9999 -9999 -9999 1.0723817348480224609 1.0578728914260864258 1.0621669292449951172 1.0813297033309936523 1.2075594663619995117 1.1573549509048461914 1.1463115215301513672 -9999 -9999 1.0835088491439819336 1.094717860221862793 1.1113557815551757812 1.1953734159469604492 1.1602309942245483398 1.0989075899124145508 -9999 -9999 1.4737272262573242188 1.3987778425216674805 1.4206445217132568359 -9999 1.4031565189361572266 1.7515957355499267578 2.201873779296875 1.993945002555847168 1.3861566781997680664 1.3905221223831176758 1.389777064323425293 1.686709284782409668 2.8672263622283935547 4.0599904060363769531 2.9055049419403076172 2.7193849086761474609 2.2529172897338867188 2.1636273860931396484 2.0889801979064941406 3.5295004844665527344 6.2928304672241210938 6.9473280906677246094 10.352243423461914062 10.045316696166992188 10.774731636047363281 10.972937583923339844 8.1817760467529296875 7.0779924392700195312 8.6080875396728515625 6.0875563621520996094 5.1299967765808105469 4.2609515190124511719 5.1316356658935546875 6.4420704841613769531 6.2848429679870605469 5.9059667587280273438 7.8183407783508300781 8.4062585830688476562 8.8237123489379882812 10.025030136108398438 9.2104005813598632812 9.4172582626342773438 10.641562461853027344 10.725063323974609375 10.735620498657226562 8.625461578369140625 6.7149820327758789062 6.2638154029846191406 6.8275370597839355469 5.6081013679504394531 4.9578328132629394531 7.6360344886779785156 7.6295990943908691406 5.5110058784484863281 4.8964991569519042969 2.6135513782501220703 1.3285726308822631836 1.0853630304336547852 1.1220829486846923828 1.0716291666030883789 1.2057074308395385742 1.1220799684524536133 -9999 -9999 -9999 -9999 -9999 -9999 -9999 -9999 -9999 -9999 -9999 -9999 -9999 -9999 -9999 -9999 -9999 -9999 -9999 -9999 -9999 -9999 -9999 -9999 -9999 -9999 -9999 -9999 -9999 -9999 -9999 -9999 -9999 -9999 -9999 -9999 -9999 -9999 -9999 -9999 
-9999 -9999 1.0412523746490478516 -9999 -9999 -9999 -9999 -9999 -9999 1.0608055591583251953 -9999 1.0426905155181884766 -9999 1.121333003044128418 1.1160664558410644531 1.0626482963562011719 1.0779964923858642578 1.1055365800857543945 1.1602013111114501953 1.1880128383636474609 1.1118023395538330078 -9999 -9999 -9999 1.1885391473770141602 1.2538716793060302734 -9999 1.669243931770324707 1.3550369739532470703 1.332262873649597168 1.6040037870407104492 1.9839097261428833008 1.7499808073043823242 1.3123135566711425781 1.302196502685546875 1.8245607614517211914 2.9137933254241943359 4.1362929344177246094 4.6514048576354980469 3.9924325942993164062 4.0018267631530761719 2.3247938156127929688 1.8918240070343017578 2.7098991870880126953 3.5575685501098632812 5.7149600982666015625 8.1827859878540039062 9.7095928192138671875 10.610180854797363281 9.6113567352294921875 8.1030178070068359375 7.2896838188171386719 9.2100200653076171875 8.687038421630859375 7.7669239044189453125 6.6041522026062011719 6.1939897537231445312 7.1601505279541015625 6.218597412109375 6.9803919792175292969 8.756763458251953125 9.702266693115234375 9.271854400634765625 9.7280893325805664062 10.141903877258300781 8.0801248550415039062 9.2744312286376953125 9.307430267333984375 9.0149450302124023438 9.2319269180297851562 6.6802630424499511719 6.3449182510375976562 8.3070497512817382812 7.5894527435302734375 5.8575143814086914062 6.7332415580749511719 8.6508893966674804688 7.2983880043029785156 5.585285186767578125 4.9373526573181152344 1.926134943962097168 1.1896800994873046875 1.1970744132995605469 -9999 -9999 -9999 1.0532019138336181641 1.1297281980514526367 1.1026479005813598633 -9999 -9999 -9999 -9999 -9999 -9999 -9999 -9999 -9999 -9999 -9999 -9999 -9999 -9999 -9999 -9999 -9999 -9999 -9999 -9999 -9999 -9999 -9999 -9999 -9999 -9999 -9999 -9999 -9999 -9999 -9999 -9999 -9999 -9999 -9999 -9999 -9999 -9999 
-9999 -9999 1.0815175771713256836 -9999 -9999 -9999 -9999 -9999 -9999 1.0885123014450073242 -9999 1.0506862401962280273 -9999 1.0442531108856201172 1.1180837154388427734 -9999 1.1784892082214355469 1.1415771245956420898 1.1564501523971557617 1.127366185188293457 -9999 1.1510316133499145508 -9999 -9999 -9999 1.2668448686599731445 -9999 1.1207467317581176758 1.0915976762771606445 1.1393944025039672852 1.6678485870361328125 1.9691662788391113281 1.5684900283813476562 1.2923041582107543945 1.2871774435043334961 2.4113881587982177734 2.9366295337677001953 4.14623260498046875 3.5415298938751220703 4.2867403030395507812 4.3026137351989746094 2.6113233566284179688 2.983715057373046875 2.6604335308074951172 3.7147238254547119141 4.8075613975524902344 8.8482103347778320312 9.31919097900390625 9.8555593490600585938 7.2772278785705566406 3.879486083984375 8.13135528564453125 10.353045463562011719 9.66742706298828125 8.3030385971069335938 7.9540801048278808594 8.13239288330078125 7.002513885498046875 4.9907083511352539062 8.4612836837768554688 10.178996086120605469 10.076619148254394531 9.5257539749145507812 10.028924942016601562 10.21564483642578125 7.3646912574768066406 8.7037191390991210938 8.035266876220703125 8.2593936920166015625 7.0875830650329589844 5.1547913551330566406 9.0425386428833007812 7.8317961692810058594 7.0516848564147949219 8.3377599716186523438 8.45386505126953125 9.5797824859619140625 6.3078465461730957031 5.7437548637390136719 2.9966320991516113281 1.3465175628662109375 1.1840848922729492188 1.1446133852005004883 -9999 -9999 -9999 1.0846376419067382812 1.1638751029968261719 -9999 -9999 -9999 -9999 -9999 -9999 -9999 -9999 -9999 -9999 -9999 -9999 -9999 -9999 -9999 -9999 -9999 -9999 -9999 -9999 -9999 -9999 -9999 -9999 -9999 -9999 -9999 -9999 -9999 -9999 -9999 -9999 -9999 -9999 -9999 -9999 -9999 -9999 -9999 
-9999 -9999 -9999 1.0877715349197387695 -9999 -9999 -9999 -9999 -9999 -9999 1.0562528371810913086 1.0323308706283569336 1.0335071086883544922 1.0198857784271240234 1.0703424215316772461 1.1426028013229370117 1.1867609024047851562 1.1724309921264648438 1.094661712646484375 1.0581591129302978516 -9999 1.0547906160354614258 -9999 -9999 -9999 -9999 -9999 -9999 1.0988140106201171875 1.1536402702331542969 1.2979938983917236328 1.3677324056625366211 1.8732677698135375977 1.7395169734954833984 1.5634636878967285156 1.5885518789291381836 1.5206098556518554688 2.9135174751281738281 3.8738687038421630859 5.4861879348754882812 4.79651641845703125 3.9163296222686767578 3.9332439899444580078 3.779117584228515625 6.6509714126586914062 6.9783616065979003906 8.4231996536254882812 8.9736757278442382812 9.1433324813842773438 5.2797455787658691406 4.3636722564697265625 9.276630401611328125 10.477097511291503906 9.5680818557739257812 7.7147054672241210938 7.5519256591796875 7.6421732902526855469 6.1246218681335449219 7.6035413742065429688 8.4474649429321289062 7.5616097450256347656 8.4046535491943359375 7.07558441162109375 7.8562664985656738281 9.1464967727661132812 7.8351926803588867188 8.62178802490234375 8.9128351211547851562 9.53446197509765625 8.1794691085815429688 6.4119515419006347656 7.0712490081787109375 6.1660051345825195312 9.6610107421875 8.7770214080810546875 8.7424221038818359375 9.5778446197509765625 7.9018425941467285156 4.8540768623352050781 1.9015548229217529297 1.4942728281021118164 1.2157914638519287109 -9999 -9999 -9999 -9999 1.0236427783966064453 -9999 -9999 -9999 -9999 -9999 -9999 -9999 -9999 -9999 -9999 -9999 -9999 -9999 -9999 -9999 -9999 -9999 -9999 -9999 -9999 -9999 -9999 -9999 -9999 -9999 -9999 -9999 -9999 -9999 -9999 -9999 -9999 -9999 -9999 -9999 -9999 -9999 -9999 -9999 -9999 
-9999 -9999 -9999 -9999 -9999 -9999 -9999 -9999 -9999 1.0532246828079223633 1.0724343061447143555 1.0749311447143554688 1.0747888088226318359 1.0618517398834228516 1.1175252199172973633 1.1135797500610351562 1.1492005586624145508 1.1144820451736450195 1.0659372806549072266 -9999 -9999 -9999 -9999 -9999 -9999 -9999 -9999 -9999 1.1514043807983398438 1.1956650018692016602 -9999 1.1847174167633056641 1.7320448160171508789 1.6920808553695678711 1.8201444149017333984 1.6928644180297851562 2.4812231063842773438 4.1625981330871582031 4.8419680595397949219 5.4106192588806152344 3.6727120876312255859 5.1014719009399414062 4.8026671409606933594 5.1963763236999511719 8.5415096282958984375 7.4275326728820800781 7.141937255859375 6.5233669281005859375 6.199275970458984375 4.0123081207275390625 6.8868608474731445312 9.4871397018432617188 10.081612586975097656 9.2558956146240234375 7.8884835243225097656 7.4480714797973632812 4.7580342292785644531 6.1348567008972167969 7.4810633659362792969 7.0649895668029785156 6.7733945846557617188 7.0408492088317871094 6.6842427253723144531 6.7894797325134277344 7.0297918319702148438 7.0444345474243164062 8.01468658447265625 8.6004638671875 9.3463649749755859375 8.6070528030395507812 7.3547348976135253906 7.5957775115966796875 10.184414863586425781 10.442415237426757812 7.1148352622985839844 6.6365342140197753906 9.6777563095092773438 8.3468036651611328125 4.0477056503295898438 1.2482173442840576172 1.120366215705871582 -9999 -9999 -9999 -9999 -9999 1.0281450748443603516 1.0286819934844970703 -9999 -9999 -9999 -9999 -9999 -9999 -9999 -9999 -9999 -9999 -9999 -9999 -9999 -9999 -9999 -9999 -9999 -9999 -9999 -9999 -9999 -9999 -9999 -9999 -9999 -9999 -9999 -9999 -9999 -9999 -9999 -9999 -9999 -9999 -9999 -9999 -9999 -9999 -9999 
-9999 -9999 -9999 -9999 -9999 -9999 1.1321814060211181641 -9999 -9999 1.0481485128402709961 1.0571280717849731445 1.0675933361053466797 1.0914704799652099609 1.1287511587142944336 1.1157085895538330078 1.1131947040557861328 1.1652522087097167969 1.0867630243301391602 -9999 -9999 -9999 -9999 -9999 -9999 -9999 -9999 1.1199196577072143555 1.0938460826873779297 1.1285703182220458984 -9999 1.0908999443054199219 1.1662886142730712891 1.697619318962097168 2.0148007869720458984 2.9112355709075927734 3.5419802665710449219 4.4090600013732910156 4.5399060249328613281 4.7104067802429199219 4.3515982627868652344 3.5001151561737060547 4.7579274177551269531 3.4583644866943359375 4.5237579345703125 8.6701917648315429688 7.4531016349792480469 7.8026857376098632812 7.3338336944580078125 4.7490973472595214844 4.9250445365905761719 7.7877721786499023438 9.8725290298461914062 8.9555997848510742188 7.3222546577453613281 7.7589421272277832031 6.2040424346923828125 3.4164063930511474609 3.1157541275024414062 3.2556128501892089844 2.9145822525024414062 2.7254712581634521484 2.4879312515258789062 2.470561981201171875 2.8520801067352294922 2.9280018806457519531 3.5956215858459472656 6.147975921630859375 7.5951533317565917969 8.5202569961547851562 7.366455078125 8.0677328109741210938 9.6605014801025390625 10.668331146240234375 10.191653251647949219 9.3731794357299804688 9.944118499755859375 9.946949005126953125 7.1471948623657226562 2.9290571212768554688 1.1510875225067138672 1.0836769342422485352 -9999 -9999 -9999 -9999 -9999 -9999 -9999 -9999 -9999 -9999 1.0317540168762207031 1.0607213973999023438 1.0168473720550537109 -9999 -9999 -9999 -9999 -9999 -9999 -9999 -9999 -9999 -9999 -9999 -9999 -9999 -9999 -9999 -9999 -9999 -9999 -9999 -9999 -9999 -9999 -9999 -9999 -9999 -9999 -9999 -9999 -9999 -9999 -9999 -9999 -9999 
-9999 -9999 -9999 -9999 -9999 -9999 -9999 1.0539677143096923828 -9999 1.0257184505462646484 1.0346882343292236328 1.0643918514251708984 1.0987027883529663086 1.0980939865112304688 1.1510435342788696289 1.1588964462280273438 1.1002714633941650391 1.0795458555221557617 1.197998046875 1.3247367143630981445 1.2349628210067749023 1.1055430173873901367 -9999 -9999 -9999 -9999 -9999 1.1153036355972290039 1.1148278713226318359 1.1358491182327270508 1.2204593420028686523 1.3297876119613647461 2.5257954597473144531 2.9350600242614746094 2.8100101947784423828 4.4529500007629394531 5.6397995948791503906 4.8745160102844238281 4.4828581809997558594 4.5019288063049316406 4.2297654151916503906 4.2601695060729980469 4.4490642547607421875 5.3613190650939941406 7.4401254653930664062 6.2951006889343261719 7.2318859100341796875 7.493656158447265625 5.9426159858703613281 9.3074560165405273438 9.095600128173828125 10.414771080017089844 9.0383148193359375 8.216587066650390625 6.7969207763671875 3.5587759017944335938 1.6775854825973510742 -9999 -9999 -9999 -9999 -9999 -9999 1.1602197885513305664 -9999 -9999 2.6887128353118896484 4.6625256538391113281 7.3868608474731445312 7.4570941925048828125 9.3926458358764648438 9.74575042724609375 8.8601446151733398438 8.620227813720703125 10.409076690673828125 10.558694839477539062 9.4899854660034179688 5.0095438957214355469 1.7713898420333862305 1.2078512907028198242 1.0732733011245727539 -9999 -9999 -9999 -9999 -9999 -9999 -9999 -9999 -9999 1.0934669971466064453 1.1198377609252929688 1.2036366462707519531 1.0753747224807739258 -9999 -9999 -9999 -9999 -9999 -9999 -9999 -9999 -9999 -9999 -9999 -9999 -9999 -9999 -9999 -9999 -9999 -9999 -9999 -9999 -9999 -9999 -9999 -9999 -9999 -9999 -9999 -9999 -9999 -9999 -9999 -9999 -9999 
-9999 -9999 -9999 -9999 -9999 -9999 -9999 -9999 -9999 1.0517609119415283203 -9999 1.1485446691513061523 1.1556783914566040039 1.1532979011535644531 1.1991481781005859375 1.2922083139419555664 1.1592564582824707031 1.4874945878982543945 1.6836361885070800781 1.7675929069519042969 1.4071323871612548828 -9999 -9999 -9999 -9999 1.1138665676116943359 1.1156433820724487305 1.1517179012298583984 1.1200511455535888672 1.2451673746109008789 1.5056747198104858398 1.7840275764465332031 3.1172747611999511719 2.5976693630218505859 3.2010514736175537109 5.4296169281005859375 6.1209287643432617188 4.7455906867980957031 5.0815396308898925781 5.4248061180114746094 5.7196550369262695312 5.0520749092102050781 3.8287198543548583984 5.7509164810180664062 5.0362658500671386719 3.0370395183563232422 4.2972168922424316406 5.8184065818786621094 6.1029791831970214844 8.7470388412475585938 9.7132120132446289062 9.8749399185180664062 8.1350870132446289062 7.007854461669921875 3.8512160778045654297 1.5509192943572998047 -9999 -9999 -9999 -9999 -9999 -9999 -9999 -9999 -9999 -9999 -9999 1.9722797870635986328 5.4021358489990234375 7.0051908493041992188 8.0405931472778320312 9.6343860626220703125 7.2913069725036621094 8.3651380538940429688 10.125609397888183594 10.693464279174804688 9.0795278549194335938 4.766101837158203125 1.4213376045227050781 1.0618636608123779297 -9999 -9999 -9999 -9999 -9999 -9999 -9999 1.0127160549163818359 -9999 1.1209468841552734375 1.0854523181915283203 1.1770925521850585938 1.2782644033432006836 1.0891250371932983398 -9999 -9999 -9999 -9999 -9999 -9999 -9999 -9999 -9999 -9999 -9999 -9999 -9999 -9999 -9999 -9999 -9999 -9999 -9999 -9999 -9999 -9999 -9999 -9999 -9999 -9999 1.0019657611846923828 -9999 -9999 -9999 -9999 -9999 -9999 
-9999 -9999 -9999 -9999 -9999 -9999 -9999 1.1306253671646118164 1.1166322231292724609 1.075801849365234375 1.069188237190246582 1.1113363504409790039 1.2514032125473022461 1.1607710123062133789 1.1763700246810913086 1.2043716907501220703 1.3974419832229614258 1.7935197353363037109 1.7807215452194213867 1.9034481048583984375 1.3348383903503417969 1.0768603086471557617 1.0538114309310913086 -9999 1.1124612092971801758 -9999 -9999 1.1517217159271240234 1.1637942790985107422 1.316389918327331543 1.3565733432769775391 1.814452052116394043 2.5652668476104736328 2.85198211669921875 5.4055314064025878906 6.4243741035461425781 5.3949460983276367188 5.6398000717163085938 5.7919583320617675781 5.7129559516906738281 8.0055551528930664062 5.9301767349243164062 3.7475562095642089844 4.5480241775512695312 2.0330028533935546875 1.305703282356262207 2.19609832763671875 3.8819553852081298828 5.4987440109252929688 5.33254241943359375 4.6625485420227050781 3.8531897068023681641 3.1177091598510742188 2.5610537528991699219 1.5013494491577148438 -9999 -9999 -9999 -9999 -9999 -9999 -9999 -9999 -9999 -9999 -9999 -9999 1.514382481575012207 4.3780202865600585938 7.8278012275695800781 8.6353502273559570312 9.1239795684814453125 8.1763696670532226562 9.4809589385986328125 10.436100006103515625 10.670245170593261719 8.266651153564453125 4.043399810791015625 1.2313817739486694336 1.0242848396301269531 -9999 -9999 -9999 -9999 -9999 -9999 1.1575750112533569336 1.1789872646331787109 1.3734687566757202148 1.53896331787109375 1.494851231575012207 1.3132977485656738281 1.1881132125854492188 1.0439019203186035156 -9999 -9999 -9999 -9999 -9999 -9999 -9999 -9999 -9999 -9999 -9999 -9999 -9999 -9999 -9999 -9999 -9999 -9999 -9999 -9999 -9999 -9999 -9999 -9999 -9999 -9999 -9999 -9999 -9999 -9999 -9999 -9999 -9999 
-9999 -9999 -9999 -9999 -9999 -9999 -9999 -9999 -9999 -9999 1.0445184707641601562 1.1017777919769287109 1.1692427396774291992 1.1012445688247680664 1.1248017549514770508 1.3543605804443359375 2.13556671142578125 1.9954413175582885742 1.61484527587890625 1.5287975072860717773 1.1275551319122314453 1.116949915885925293 -9999 -9999 1.1432361602783203125 -9999 -9999 1.1122745275497436523 1.5659985542297363281 1.8633680343627929688 2.2750298976898193359 2.5001957416534423828 1.9026139974594116211 3.1486666202545166016 5.6262264251708984375 5.2200894355773925781 5.6400709152221679688 6.9024333953857421875 6.6336512565612792969 5.2472796440124511719 5.9622554779052734375 3.9376013278961181641 3.6009323596954345703 2.6200163364410400391 -9999 2.9275925159454345703 3.8665137290954589844 6.3325786590576171875 7.1945910453796386719 7.1396918296813964844 4.0188951492309570312 2.0601568222045898438 1.7265300750732421875 1.4033823013305664062 1.2695839405059814453 -9999 -9999 -9999 -9999 -9999 1.0354912281036376953 1.0310460329055786133 1.0802134275436401367 1.2522566318511962891 1.049279332160949707 1.0348775386810302734 -9999 1.2955023050308227539 2.6977243423461914062 5.3101873397827148438 9.2143697738647460938 10.086833953857421875 10.354433059692382812 9.5114917755126953125 10.344715118408203125 10.740683555603027344 8.6776123046875 3.4961717128753662109 1.2219465970993041992 -9999 -9999 -9999 -9999 -9999 -9999 1.0759954452514648438 1.4280872344970703125 1.3746924400329589844 1.3454021215438842773 1.5556170940399169922 1.6106642484664916992 1.4963300228118896484 1.2327857017517089844 -9999 -9999 -9999 -9999 -9999 -9999 -9999 -9999 -9999 -9999 -9999 -9999 -9999 -9999 -9999 -9999 -9999 -9999 -9999 -9999 -9999 -9999 -9999 -9999 -9999 -9999 -9999 -9999 -9999 -9999 -9999 -9999 -9999 -9999 
-9999 -9999 -9999 -9999 -9999 1.0213093757629394531 -9999 -9999 -9999 1.0364277362823486328 1.0504125356674194336 1.1641560792922973633 1.1881742477416992188 1.1471732854843139648 1.3087298870086669922 1.7270693778991699219 1.8489197492599487305 1.5327931642532348633 1.5500839948654174805 1.2899030447006225586 1.2013248205184936523 -9999 -9999 1.1110012531280517578 -9999 1.1199758052825927734 1.1484491825103759766 1.3575447797775268555 1.7490124702453613281 2.0358631610870361328 3.1947951316833496094 2.317661285400390625 1.2994936704635620117 1.8600355386734008789 2.7415964603424072266 4.411350250244140625 6.1252789497375488281 7.2637729644775390625 6.7886824607849121094 5.0270085334777832031 5.4208831787109375 3.737030029296875 3.7317907810211181641 4.0153851509094238281 4.0028696060180664062 4.3010835647583007812 5.5796399116516113281 8.8033399581909179688 9.137760162353515625 7.6296830177307128906 8.3448114395141601562 7.2032270431518554688 5.7012791633605957031 4.1036753654479980469 2.5347545146942138672 2.2266662120819091797 1.9830663204193115234 1.4135851860046386719 1.1013108491897583008 1.1181010007858276367 -9999 -9999 -9999 -9999 -9999 1.0684225559234619141 -9999 2.1187083721160888672 3.4269564151763916016 5.1906890869140625 9.0201854705810546875 10.368707656860351562 10.181110382080078125 10.017573356628417969 10.582686424255371094 10.057636260986328125 8.4586629867553710938 4.121219635009765625 1.2471996545791625977 1.067747950553894043 -9999 -9999 -9999 1.6574667692184448242 1.6850678920745849609 1.2512115240097045898 2.1381547451019287109 1.8407623767852783203 1.1981254816055297852 1.4726445674896240234 1.646641850471496582 1.4966942071914672852 1.2469207048416137695 1.1489436626434326172 -9999 -9999 -9999 -9999 -9999 -9999 -9999 -9999 -9999 -9999 -9999 -9999 -9999 -9999 -9999 -9999 -9999 -9999 -9999 -9999 -9999 -9999 -9999 -9999 -9999 -9999 -9999 -9999 -9999 -9999 -9999 -9999 -9999 
-9999 -9999 -9999 -9999 -9999 -9999 1.0499656200408935547 -9999 1.030684351921081543 1.027562260627746582 1.0893926620483398438 1.2374702692031860352 1.3064761161804199219 1.321501612663269043 1.7189550399780273438 1.6960575580596923828 1.3349628448486328125 1.3848028182983398438 1.4050693511962890625 1.2122275829315185547 1.1429804563522338867 -9999 1.2034697532653808594 1.2215545177459716797 1.1820570230484008789 -9999 1.1691339015960693359 1.684597015380859375 2.3893620967864990234 2.7110426425933837891 2.3150885105133056641 1.428750157356262207 1.3998694419860839844 1.8862152099609375 4.086589813232421875 6.2218937873840332031 6.6044344902038574219 5.6866393089294433594 5.0932331085205078125 4.6268835067749023438 6.3759965896606445312 4.7622900009155273438 3.1796898841857910156 3.3746840953826904297 4.4070887565612792969 5.9199490547180175781 7.7920093536376953125 8.7212610244750976562 8.2128000259399414062 4.969951629638671875 6.084049224853515625 9.981746673583984375 9.1710157394409179688 7.342655181884765625 4.0105295181274414062 3.5645532608032226562 2.4728453159332275391 1.9086978435516357422 1.2150064706802368164 1.0627652406692504883 1.3693946599960327148 2.0044398307800292969 1.9885982275009155273 1.3306876420974731445 -9999 2.068218231201171875 4.2620997428894042969 5.5623898506164550781 7.2244057655334472656 8.8472375869750976562 9.9745988845825195312 10.030850410461425781 9.87352752685546875 10.546029090881347656 10.486761093139648438 9.0367183685302734375 7.5640230178833007812 3.4235179424285888672 1.3388451337814331055 1.0897490978240966797 -9999 -9999 -9999 2.0407080650329589844 2.3423511981964111328 1.79717254638671875 3.6554067134857177734 3.8174738883972167969 1.8599034547805786133 1.4149932861328125 1.9192100763320922852 1.5343761444091796875 1.4445260763168334961 1.5410760641098022461 1.2503674030303955078 -9999 -9999 -9999 -9999 -9999 -9999 -9999 -9999 -9999 -9999 -9999 -9999 -9999 -9999 -9999 -9999 -9999 -9999 -9999 -9999 1.0708082914352416992 -9999 -9999 -9999 -9999 -9999 -9999 -9999 -9999 -9999 -9999 -9999 
-9999 -9999 -9999 -9999 -9999 -9999 -9999 -9999 1.0681453943252563477 1.0822180509567260742 1.1674150228500366211 1.3116163015365600586 1.3934785127639770508 1.3468902111053466797 1.5879288911819458008 1.4415214061737060547 1.1601755619049072266 1.1371883153915405273 1.1734383106231689453 1.0838284492492675781 1.0728955268859863281 1.0385915040969848633 1.1263506412506103516 1.1991221904754638672 1.2490522861480712891 1.1928347349166870117 1.1888251304626464844 1.6054427623748779297 2.6539037227630615234 2.697391510009765625 1.7605086565017700195 1.5221660137176513672 1.8725149631500244141 2.9417860507965087891 5.65723419189453125 6.6686768531799316406 5.3780255317687988281 3.9154644012451171875 4.8092565536499023438 5.4047846794128417969 6.1315541267395019531 4.9703793525695800781 3.9890038967132568359 5.87865447998046875 7.8084936141967773438 8.3291025161743164062 8.48131561279296875 7.6292138099670410156 7.6745505332946777344 7.9137401580810546875 8.1207647323608398438 9.0885229110717773438 7.2656617164611816406 7.5693874359130859375 5.7048354148864746094 4.2061390876770019531 2.8289873600006103516 2.7299211025238037109 1.3131905794143676758 -9999 1.1954349279403686523 1.7016352415084838867 1.5730564594268798828 1.2948943376541137695 2.3842198848724365234 5.267459869384765625 7.2546443939208984375 7.2045469284057617188 8.179107666015625 9.44953155517578125 9.9867839813232421875 10.074527740478515625 10.235055923461914062 10.593811988830566406 9.9470243453979492188 8.2342891693115234375 6.8692750930786132812 2.3006787300109863281 -9999 -9999 -9999 -9999 1.2398220300674438477 1.9140642881393432617 2.534252166748046875 3.0667798519134521484 5.1189289093017578125 4.3397316932678222656 1.7881429195404052734 2.1488897800445556641 2.9209384918212890625 1.8844395875930786133 1.6452604532241821289 1.6262087821960449219 1.1608184576034545898 -9999 -9999 -9999 -9999 -9999 -9999 -9999 -9999 -9999 -9999 -9999 -9999 -9999 -9999 -9999 -9999 -9999 -9999 -9999 -9999 -9999 -9999 -9999 -9999 -9999 -9999 -9999 -9999 -9999 -9999 -9999 -9999 
-9999 -9999 -9999 -9999 1.0315164327621459961 -9999 -9999 1.0433136224746704102 1.0602791309356689453 1.2797033786773681641 1.3890962600708007812 1.5319849252700805664 1.2484204769134521484 1.2628564834594726562 1.2755417823791503906 1.2789138555526733398 1.1265015602111816406 1.1008994579315185547 1.1452028751373291016 1.0787103176116943359 1.0689151287078857422 1.0627541542053222656 1.1222985982894897461 1.2237998247146606445 1.21398162841796875 1.0815066099166870117 1.1083377599716186523 1.4770421981811523438 2.5030646324157714844 1.5663602352142333984 1.2559300661087036133 1.3682047128677368164 2.598064422607421875 3.3347899913787841797 5.3576173782348632812 4.4710564613342285156 4.3277959823608398438 3.0450196266174316406 3.5826332569122314453 4.8263716697692871094 5.0595831871032714844 3.3603734970092773438 5.9554238319396972656 7.649608612060546875 9.0496358871459960938 9.0037479400634765625 7.4143204689025878906 7.070499420166015625 6.4753861427307128906 6.0452857017517089844 5.4634661674499511719 6.059467315673828125 6.7853684425354003906 6.5226316452026367188 6.1043043136596679688 6.1863436698913574219 3.7941365242004394531 3.6788835525512695312 3.2604610919952392578 1.6890721321105957031 1.1406236886978149414 1.5224292278289794922 1.7563568353652954102 3.2119753360748291016 6.190647125244140625 7.694568634033203125 7.9760489463806152344 8.1073369979858398438 9.3097972869873046875 9.6523790359497070312 10.120618820190429688 10.366484642028808594 10.422841072082519531 10.3887481689453125 8.9305620193481445312 7.901519775390625 6.8347291946411132812 2.3308110237121582031 -9999 -9999 -9999 -9999 1.1777358055114746094 1.8098573684692382812 2.0694935321807861328 4.0805840492248535156 7.3082814216613769531 6.3974208831787109375 3.3955187797546386719 2.3176207542419433594 3.0768177509307861328 2.0969395637512207031 1.3508799076080322266 1.1705499887466430664 1.0751819610595703125 -9999 -9999 -9999 -9999 -9999 -9999 -9999 -9999 -9999 -9999 -9999 -9999 -9999 -9999 -9999 -9999 -9999 -9999 -9999 -9999 -9999 -9999 -9999 -9999 -9999 -9999 -9999 -9999 -9999 -9999 -9999 -9999 
-9999 -9999 -9999 1.0355910062789916992 -9999 -9999 -9999 1.0454317331314086914 1.1175243854522705078 1.1275948286056518555 1.2355490922927856445 1.3168909549713134766 1.1634125709533691406 1.1873481273651123047 1.1474138498306274414 1.0934540033340454102 1.1032187938690185547 1.1142868995666503906 1.1504806280136108398 1.1101075410842895508 -9999 1.2272237539291381836 1.1678806543350219727 1.1453357934951782227 1.1678290367126464844 1.0988609790802001953 1.2533837556838989258 1.7248951196670532227 2.0878424644470214844 1.6183276176452636719 1.6198177337646484375 2.3465480804443359375 3.6856927871704101562 4.4638409614562988281 4.1945004463195800781 3.1064367294311523438 3.0779223442077636719 3.22502899169921875 3.3551244735717773438 2.9187457561492919922 3.8794648647308349609 5.3481903076171875 5.9063482284545898438 5.0734601020812988281 7.7748227119445800781 7.3555626869201660156 6.3686857223510742188 5.0182271003723144531 6.6947169303894042969 4.7005743980407714844 5.0736627578735351562 3.5095112323760986328 4.7457718849182128906 4.3860783576965332031 4.0010209083557128906 5.3676877021789550781 5.1650328636169433594 5.9524240493774414062 7.1026244163513183594 4.4874811172485351562 2.2374022006988525391 2.6788382530212402344 4.183490753173828125 7.6373429298400878906 8.43958282470703125 7.4694576263427734375 8.6304798126220703125 9.3366155624389648438 9.8801851272583007812 8.9756784439086914062 9.7068834304809570312 10.332170486450195312 10.301676750183105469 9.9429979324340820312 7.0053911209106445312 7.6862325668334960938 6.3750944137573242188 2.0961201190948486328 -9999 -9999 -9999 -9999 1.1364932060241699219 1.907551884651184082 1.971945643424987793 4.2515549659729003906 7.6521496772766113281 6.9766836166381835938 4.4981775283813476562 3.1027817726135253906 3.1313242912292480469 1.999531865119934082 2.0056889057159423828 1.6154855489730834961 1.2709686756134033203 -9999 -9999 -9999 -9999 -9999 1.0471179485321044922 -9999 -9999 -9999 -9999 -9999 -9999 -9999 -9999 -9999 -9999 -9999 -9999 -9999 -9999 -9999 -9999 -9999 -9999 -9999 -9999 -9999 -9999 -9999 -9999 -9999 -9999 
-9999 -9999 -9999 -9999 -9999 1.0406634807586669922 1.0812091827392578125 1.1234453916549682617 1.096188664436340332 -9999 -9999 1.1908755302429199219 1.1073609590530395508 1.1238932609558105469 1.120705723762512207 1.1437296867370605469 1.1226923465728759766 1.1714751720428466797 1.09999847412109375 1.055171966552734375 1.0962456464767456055 1.1679832935333251953 1.1321843862533569336 1.0820355415344238281 1.1067961454391479492 1.1902672052383422852 1.5864148139953613281 1.9215315580368041992 1.3018517494201660156 1.211162567138671875 1.6089783906936645508 3.0618045330047607422 3.9858140945434570312 4.1264786720275878906 3.7616961002349853516 2.2229235172271728516 2.5648851394653320312 3.6300177574157714844 2.5808336734771728516 1.6218445301055908203 2.3085186481475830078 4.1807770729064941406 5.94248199462890625 5.8457002639770507812 6.5519480705261230469 7.1891775131225585938 5.1411585807800292969 6.3529458045959472656 8.7041807174682617188 6.7297282218933105469 4.5698761940002441406 2.1765532493591308594 2.1507613658905029297 2.211246490478515625 2.8286235332489013672 2.8635773658752441406 3.3411970138549804688 3.9864482879638671875 5.805278778076171875 6.8292303085327148438 5.28676605224609375 5.49773406982421875 7.6897907257080078125 9.9402723312377929688 9.4334783554077148438 8.3152523040771484375 9.1947488784790039062 6.7505602836608886719 7.94451141357421875 9.5331201553344726562 10.318897247314453125 10.086910247802734375 9.0940580368041992188 7.714611053466796875 7.0359973907470703125 7.1009263992309570312 4.7461647987365722656 -9999 1.1392754316329956055 1.1080255508422851562 1.0576989650726318359 1.056210637092590332 1.2308405637741088867 1.3958313465118408203 1.5702515840530395508 4.509754180908203125 6.9832510948181152344 5.0773406028747558594 4.7562923431396484375 3.0404055118560791016 2.1540765762329101562 1.88237762451171875 2.1642525196075439453 1.9161416292190551758 1.6666994094848632812 1.1534099578857421875 -9999 -9999 -9999 -9999 -9999 -9999 -9999 -9999 -9999 -9999 -9999 -9999 -9999 -9999 -9999 -9999 -9999 -9999 -9999 -9999 -9999 -9999 -9999 -9999 -9999 -9999 -9999 -9999 -9999 -9999 -9999 
-9999 -9999 -9999 -9999 -9999 1.0602720975875854492 1.1192357540130615234 1.164952397346496582 1.0886070728302001953 -9999 -9999 1.0359592437744140625 1.0643645524978637695 1.0687491893768310547 1.0668499469757080078 1.0943962335586547852 1.0928952693939208984 1.0980612039566040039 1.0784436464309692383 1.1169748306274414062 1.0721019506454467773 1.15887451171875 1.0870542526245117188 1.1015405654907226562 1.0682015419006347656 -9999 1.4449243545532226562 1.429665684700012207 1.1931661367416381836 1.3701150417327880859 2.2739875316619873047 3.1780612468719482422 3.5846707820892333984 2.9001488685607910156 2.7557466030120849609 2.4004774093627929688 2.5455982685089111328 2.1762967109680175781 1.8149064779281616211 1.6345858573913574219 1.5457508563995361328 1.7191199064254760742 3.0625712871551513672 4.1723966598510742188 5.8211789131164550781 5.8058629035949707031 5.2032446861267089844 8.4422845840454101562 8.1080188751220703125 4.2624554634094238281 2.1990807056427001953 -9999 -9999 1.3312165737152099609 2.8366029262542724609 2.594593048095703125 1.3719339370727539062 1.6855063438415527344 2.8321177959442138672 3.8539013862609863281 6.7178273200988769531 8.3244485855102539062 9.8683156967163085938 9.6519651412963867188 9.0000638961791992188 8.5481891632080078125 7.6510982513427734375 5.2422056198120117188 4.8682622909545898438 6.3783020973205566406 9.4920978546142578125 8.88642120361328125 4.5749602317810058594 5.4833354949951171875 8.7999143600463867188 7.9201226234436035156 3.9372622966766357422 -9999 -9999 -9999 -9999 -9999 1.6124689579010009766 1.8425079584121704102 1.4051103591918945312 3.5541548728942871094 6.1487035751342773438 5.3657093048095703125 4.5470170974731445312 2.5604460239410400391 1.2002654075622558594 1.633780360221862793 2.4103882312774658203 1.8218873739242553711 1.522890925407409668 1.1025100946426391602 -9999 -9999 -9999 -9999 -9999 -9999 -9999 -9999 -9999 -9999 -9999 -9999 -9999 -9999 -9999 1.0781302452087402344 1.0710628032684326172 -9999 -9999 -9999 -9999 -9999 -9999 -9999 -9999 -9999 -9999 -9999 -9999 -9999 -9999 
-9999 -9999 -9999 -9999 -9999 1.0865108966827392578 1.1373550891876220703 1.1382752656936645508 1.0608475208282470703 -9999 1.0285537242889404297 1.080199122428894043 1.0624883174896240234 1.0248459577560424805 -9999 1.0407243967056274414 1.0593657493591308594 1.0957483053207397461 1.044503331184387207 1.0418089628219604492 1.0987317562103271484 1.208657383918762207 1.1765503883361816406 1.1212259531021118164 1.0465286970138549805 1.1408774852752685547 1.5708119869232177734 1.5027532577514648438 1.371096491813659668 1.7218077182769775391 2.2259061336517333984 2.0774645805358886719 2.2826554775238037109 2.1936554908752441406 2.1360721588134765625 2.4482188224792480469 2.6519684791564941406 1.9833693504333496094 1.5824669599533081055 1.5082641839981079102 1.3204175233840942383 1.3942102193832397461 1.4606781005859375 2.2379691600799560547 4.0022497177124023438 4.0452084541320800781 4.9905123710632324219 6.053741455078125 4.3884701728820800781 1.8021897077560424805 1.1935052871704101562 1.1216696500778198242 -9999 1.3581979274749755859 2.9375462532043457031 3.0994594097137451172 1.40167999267578125 1.5947346687316894531 1.8081337213516235352 1.7029631137847900391 2.4798886775970458984 3.5894367694854736328 6.3581414222717285156 5.7882099151611328125 5.2600507736206054688 4.2879710197448730469 3.6281414031982421875 3.17125701904296875 2.0565545558929443359 2.6842522621154785156 6.9846529960632324219 5.8937497138977050781 3.5639843940734863281 8.9051675796508789062 9.6049108505249023438 7.822540283203125 3.8632664680480957031 -9999 1.1526658535003662109 1.1528223752975463867 -9999 1.1896396875381469727 1.8788154125213623047 2.2632322311401367188 1.8409563302993774414 3.2229893207550048828 4.3040566444396972656 3.0739943981170654297 2.8542282581329345703 2.5812373161315917969 2.3920125961303710938 2.6071534156799316406 2.5613033771514892578 1.4869147539138793945 1.0661588907241821289 1.0472433567047119141 1.0616332292556762695 1.1230891942977905273 -9999 -9999 -9999 -9999 -9999 -9999 -9999 -9999 -9999 -9999 -9999 -9999 -9999 -9999 -9999 -9999 -9999 -9999 -9999 -9999 -9999 -9999 -9999 -9999 -9999 -9999 -9999 -9999 -9999 
-9999 -9999 -9999 -9999 1.0236030817031860352 1.0623066425323486328 1.0502427816390991211 1.0783135890960693359 1.0819898843765258789 1.0671520233154296875 1.0677868127822875977 1.0794291496276855469 1.0425115823745727539 1.0341223478317260742 1.0624301433563232422 1.1070666313171386719 1.1398875713348388672 1.1629908084869384766 1.0836231708526611328 1.0550630092620849609 1.2428083419799804688 1.2302770614624023438 1.2444772720336914062 1.1974334716796875 1.0557808876037597656 1.1890658140182495117 1.4824583530426025391 1.5430278778076171875 1.5227571725845336914 1.6621381044387817383 1.779986262321472168 1.4494802951812744141 1.8513336181640625 2.6358377933502197266 2.4008643627166748047 2.8275859355926513672 2.4568231105804443359 1.5881377458572387695 1.2115931510925292969 1.2144939899444580078 1.1424770355224609375 1.0966281890869140625 1.1804432868957519531 1.9298806190490722656 2.5606975555419921875 2.7458777427673339844 3.4108376502990722656 2.8041529655456542969 1.3929015398025512695 1.1864582300186157227 1.165186762809753418 1.2274565696716308594 1.2067338228225708008 1.4817571640014648438 2.1350874900817871094 2.5998380184173583984 1.4981911182403564453 1.1137115955352783203 1.5394661426544189453 1.5507159233093261719 1.393929600715637207 1.9837775230407714844 3.2777836322784423828 2.48149871826171875 1.5165092945098876953 1.2655314207077026367 -9999 1.123578190803527832 1.258083343505859375 2.0750257968902587891 4.0290918350219726562 1.9524748325347900391 5.3615250587463378906 10.176652908325195312 9.6783895492553710938 8.1439142227172851562 4.583217620849609375 -9999 1.2067778110504150391 1.3096250295639038086 -9999 1.2640120983123779297 2.0687680244445800781 2.9119086265563964844 4.2122797966003417969 3.9560375213623046875 2.0750176906585693359 2.0605833530426025391 2.9705898761749267578 3.7429833412170410156 3.4473111629486083984 2.1990997791290283203 -9999 1.6020301580429077148 1.8492586612701416016 1.7652631998062133789 1.4410333633422851562 1.1919436454772949219 1.1896197795867919922 1.1192618608474731445 -9999 1.0148664712905883789 -9999 -9999 -9999 -9999 -9999 -9999 -9999 1.1598868370056152344 -9999 -9999 -9999 -9999 -9999 -9999 -9999 -9999 -9999 -9999 -9999 -9999 -9999 -9999 -9999 -9999 -9999 
-9999 -9999 -9999 -9999 1.0389436483383178711 1.0716898441314697266 1.0577399730682373047 1.114953160285949707 1.1092969179153442383 1.0679856538772583008 1.0524910688400268555 1.0185216665267944336 1.04650115966796875 1.0524405241012573242 -9999 -9999 1.1276099681854248047 1.1968202590942382812 1.1080023050308227539 1.0678265094757080078 1.2314476966857910156 1.172030329704284668 1.1812387704849243164 1.1511074304580688477 1.0887644290924072266 1.3531278371810913086 1.5851335525512695312 1.4777922630310058594 1.5647131204605102539 1.8521399497985839844 1.8920352458953857422 1.5151126384735107422 1.9354361295700073242 2.7854914665222167969 2.6468873023986816406 2.1740097999572753906 1.9210811853408813477 1.3485667705535888672 1.0602462291717529297 1.1071320772171020508 1.0606610774993896484 1.0592737197875976562 1.3652093410491943359 2.2923305034637451172 2.6940073966979980469 2.0739157199859619141 1.5033766031265258789 1.2597929239273071289 1.1549637317657470703 1.1387783288955688477 -9999 -9999 1.1163667440414428711 1.365483403205871582 1.6573845148086547852 1.5666010379791259766 1.3249416351318359375 1.2552412748336791992 2.1564605236053466797 1.8808494806289672852 1.3866388797760009766 2.1704900264739990234 2.3786170482635498047 2.7281718254089355469 2.0506448745727539062 1.6182235479354858398 1.7127689123153686523 1.3015819787979125977 1.2855390310287475586 2.0872867107391357422 2.0819373130798339844 1.7716964483261108398 7.1691083908081054688 10.234859466552734375 9.687427520751953125 8.2045507431030273438 5.7048144340515136719 1.8065782785415649414 1.1777039766311645508 -9999 -9999 1.2174503803253173828 1.5618748664855957031 2.4147634506225585938 4.8427305221557617188 3.949268341064453125 1.9264423847198486328 1.9629250764846801758 1.9362119436264038086 2.8036816120147705078 2.9597797393798828125 2.9083666801452636719 4.1522097587585449219 3.9265704154968261719 3.7651653289794921875 2.7850787639617919922 1.7904565334320068359 1.3515298366546630859 1.1962087154388427734 1.0830941200256347656 1.13503265380859375 1.0843389034271240234 -9999 -9999 -9999 -9999 -9999 -9999 -9999 -9999 -9999 -9999 -9999 -9999 -9999 -9999 -9999 -9999 -9999 -9999 -9999 -9999 -9999 -9999 -9999 -9999 -9999 
-9999 -9999 -9999 1.0306924581527709961 -9999 -9999 1.0686748027801513672 1.0542315244674682617 1.045676112174987793 1.0468333959579467773 1.0284211635589599609 1.0665960311889648438 1.0529035329818725586 1.0473494529724121094 1.0498034954071044922 1.0824019908905029297 1.1402930021286010742 1.0888812541961669922 1.0671180486679077148 1.1003522872924804688 1.0964305400848388672 1.1237890720367431641 1.1842290163040161133 1.1050009727478027344 1.1734690666198730469 1.4122387170791625977 1.5003937482833862305 1.4946897029876708984 1.7838292121887207031 1.8000568151473999023 1.7852729558944702148 1.4988117218017578125 1.7600483894348144531 2.8546595573425292969 2.635822296142578125 1.8660767078399658203 1.529124140739440918 1.164623260498046875 1.1275626420974731445 1.117483973503112793 -9999 1.1200407743453979492 1.5035676956176757812 2.1307392120361328125 2.0081057548522949219 1.5150905847549438477 -9999 1.045439600944519043 -9999 1.3132350444793701172 1.2376916408538818359 1.0657330751419067383 1.0770925283432006836 1.1938979625701904297 1.1767270565032958984 1.4012099504470825195 1.6887571811676025391 1.2284287214279174805 1.5991605520248413086 1.6152034997940063477 1.5670561790466308594 1.7387415170669555664 1.6550874710083007812 2.3924405574798583984 2.7633278369903564453 2.9760584831237792969 2.5561690330505371094 1.3748358488082885742 1.1669651269912719727 1.4362739324569702148 1.4001023769378662109 1.9371123313903808594 6.3268003463745117188 9.9411764144897460938 9.6995372772216796875 7.5627717971801757812 6.1111078262329101562 2.0479328632354736328 -9999 1.0673146247863769531 1.0261731147766113281 1.1602195501327514648 1.2762311697006225586 2.6921131610870361328 4.7881336212158203125 3.4571325778961181641 1.9582393169403076172 2.4408166408538818359 4.4010162353515625 7.1918687820434570312 6.8430919647216796875 6.9567952156066894531 5.6233725547790527344 3.3288915157318115234 2.7680885791778564453 2.2315928936004638672 2.2530379295349121094 1.8721973896026611328 1.4249644279479980469 1.4026529788970947266 1.3616583347320556641 1.1261860132217407227 -9999 1.0093261003494262695 -9999 -9999 -9999 -9999 -9999 -9999 -9999 -9999 -9999 -9999 -9999 -9999 -9999 -9999 -9999 -9999 -9999 -9999 -9999 -9999 -9999 -9999 -9999 
-9999 -9999 -9999 -9999 -9999 -9999 1.1146199703216552734 -9999 1.0495879650115966797 1.0522283315658569336 1.0736260414123535156 1.150048375129699707 1.0593290328979492188 1.0311297178268432617 1.1030334234237670898 1.1331899166107177734 1.0466531515121459961 1.076422572135925293 1.1140317916870117188 1.0870621204376220703 1.1210373640060424805 1.1742320060729980469 1.1867011785507202148 1.1084867715835571289 1.2883225679397583008 1.549874424934387207 1.6062973737716674805 1.6107665300369262695 1.8021303415298461914 1.4017053842544555664 1.4910902976989746094 -9999 1.5199016332626342773 2.9809293746948242188 3.4039990901947021484 2.3489623069763183594 1.2639963626861572266 1.2057235240936279297 1.135767817497253418 -9999 1.043818354606628418 1.0689508914947509766 1.2995345592498779297 1.9471592903137207031 1.3917423486709594727 -9999 -9999 -9999 1.2618803977966308594 1.4389845132827758789 1.1238317489624023438 1.207421422004699707 1.2495938539505004883 1.2614548206329345703 1.1349356174468994141 1.3071875572204589844 1.4332503080368041992 1.4662741422653198242 1.3107296228408813477 1.2658959627151489258 1.4916242361068725586 1.6077933311462402344 1.696210026741027832 1.9495050907135009766 3.3012273311614990234 2.9381506443023681641 1.7350531816482543945 1.3671113252639770508 1.4759613275527954102 1.4306390285491943359 1.438143610954284668 1.4431443214416503906 4.1111507415771484375 8.9102582931518554688 8.287445068359375 8.507781982421875 6.5647134780883789062 2.2081146240234375 -9999 1.123453974723815918 1.0545501708984375 1.4490938186645507812 2.0816593170166015625 4.0623116493225097656 4.3088169097900390625 3.4533114433288574219 4.7140707969665527344 7.5895853042602539062 8.7185459136962890625 8.672367095947265625 8.01371002197265625 5.9981026649475097656 3.4533536434173583984 2.4035983085632324219 1.7861933708190917969 2.8059067726135253906 3.7165868282318115234 2.4306075572967529297 1.4486222267150878906 1.7426402568817138672 1.2940727472305297852 1.0382355451583862305 1.0749777555465698242 1.0982413291931152344 -9999 -9999 -9999 -9999 -9999 -9999 -9999 -9999 -9999 -9999 -9999 -9999 -9999 -9999 -9999 -9999 -9999 -9999 -9999 -9999 -9999 -9999 -9999 
-9999 1.0081052780151367188 -9999 -9999 -9999 1.0738807916641235352 -9999 -9999 -9999 -9999 1.0481833219528198242 1.0619066953659057617 1.0473116636276245117 1.0461809635162353516 1.0899933576583862305 1.0757848024368286133 1.0922666788101196289 1.1970781087875366211 1.1771504878997802734 1.130976557731628418 1.2239847183227539062 1.2957173585891723633 1.2673592567443847656 1.1288497447967529297 1.3281111717224121094 1.3502500057220458984 1.3870607614517211914 1.4905234575271606445 1.6936180591583251953 1.4058637619018554688 1.2757440805435180664 -9999 1.7013279199600219727 2.4384455680847167969 2.8818781375885009766 2.0653839111328125 1.3063263893127441406 1.1504052877426147461 1.0711055994033813477 1.0305166244506835938 1.0387697219848632812 1.1454212665557861328 1.3760874271392822266 1.5760136842727661133 1.314388275146484375 1.1469949483871459961 -9999 -9999 1.2786449193954467773 1.1770007610321044922 1.0670722723007202148 1.0717941522598266602 1.1016715764999389648 1.1147713661193847656 1.1498925685882568359 1.2951339483261108398 1.3537018299102783203 1.4304276704788208008 1.2948241233825683594 -9999 -9999 1.3734296560287475586 1.8949228525161743164 4.7072849273681640625 6.8248085975646972656 4.5879058837890625 2.9094097614288330078 3.1237094402313232422 2.4711096286773681641 1.8083547353744506836 1.1395041942596435547 1.5610224008560180664 5.5199437141418457031 9.2890224456787109375 9.39110565185546875 8.1134862899780273438 5.0857601165771484375 1.7855501174926757812 1.2139946222305297852 1.585892796516418457 1.3912345170974731445 3.0061151981353759766 4.4958901405334472656 3.5135571956634521484 3.4159257411956787109 7.4343805313110351562 8.603908538818359375 8.7526369094848632812 9.1504716873168945312 9.3852224349975585938 7.8435525894165039062 3.5428214073181152344 2.3501305580139160156 2.3548190593719482422 2.3061800003051757812 2.7353186607360839844 3.2761847972869873047 2.2734136581420898438 2.2280585765838623047 2.6594188213348388672 1.6621876955032348633 1.250033259391784668 1.2190315723419189453 1.1225016117095947266 -9999 -9999 -9999 -9999 -9999 -9999 -9999 1.0577226877212524414 -9999 -9999 -9999 -9999 -9999 -9999 -9999 -9999 -9999 -9999 -9999 -9999 -9999 -9999 -9999 
1.0167328119277954102 -9999 -9999 -9999 -9999 -9999 -9999 -9999 -9999 -9999 -9999 1.0285662412643432617 1.0521709918975830078 1.0694173574447631836 1.0593093633651733398 1.0828064680099487305 1.1153219938278198242 1.3185787200927734375 1.2708059549331665039 1.1572700738906860352 1.2172510623931884766 1.2510626316070556641 1.2895981073379516602 1.213428497314453125 1.401823878288269043 1.2920234203338623047 1.2959358692169189453 1.7325264215469360352 1.5746097564697265625 1.1814551353454589844 -9999 -9999 1.9732961654663085938 2.2737679481506347656 1.655360102653503418 1.4618618488311767578 1.8697524070739746094 1.3017441034317016602 1.1713604927062988281 1.1609984636306762695 1.1615406274795532227 1.2966994047164916992 1.4309657812118530273 1.3302829265594482422 1.2497706413269042969 1.0801670551300048828 -9999 1.0729616880416870117 1.1147154569625854492 1.1087713241577148438 1.1065995693206787109 1.0660239458084106445 1.0467007160186767578 1.0697458982467651367 1.1126668453216552734 1.2289050817489624023 1.7320021390914916992 1.5362340211868286133 -9999 -9999 1.1907712221145629883 1.4821066856384277344 2.0942070484161376953 5.9388890266418457031 7.2948746681213378906 5.6706266403198242188 4.1372823715209960938 3.3931593894958496094 2.0094258785247802734 1.6680094003677368164 1.2569469213485717773 1.6653727293014526367 3.3601500988006591797 5.4462819099426269531 6.9888596534729003906 4.2403025627136230469 2.8996586799621582031 2.1238360404968261719 1.6855273246765136719 2.2005059719085693359 1.9273658990859985352 3.168308258056640625 4.5330657958984375 4.9582037925720214844 7.8453664779663085938 8.9153041839599609375 7.9166469573974609375 9.3945055007934570312 9.9766340255737304688 8.9738826751708984375 6.4905276298522949219 3.5848958492279052734 2.2425377368927001953 2.8919353485107421875 5.0796236991882324219 5.3730483055114746094 5.3241901397705078125 4.6020150184631347656 4.1559023857116699219 3.3821463584899902344 2.1958243846893310547 1.9743716716766357422 1.300740361213684082 1.1740802526473999023 1.2598371505737304688 1.077548980712890625 -9999 -9999 -9999 -9999 -9999 -9999 -9999 -9999 -9999 -9999 -9999 -9999 -9999 -9999 -9999 -9999 -9999 -9999 -9999 -9999 -9999 
1.0178747177124023438 -9999 -9999 -9999 -9999 -9999 -9999 -9999 -9999 -9999 -9999 1.0933426618576049805 1.0997425317764282227 1.1600319147109985352 1.0992380380630493164 1.1001131534576416016 1.1136325597763061523 1.2126824855804443359 1.2207978963851928711 1.1294858455657958984 1.1299492120742797852 1.2307677268981933594 1.3817505836486816406 1.2057178020477294922 1.2915078401565551758 1.3365218639373779297 1.3113999366760253906 1.3365710973739624023 1.4962998628616333008 1.2094510793685913086 -9999 1.2273507118225097656 1.6471095085144042969 1.5141834020614624023 1.4220385551452636719 1.4498234987258911133 1.5609807968139648438 1.2750371694564819336 1.1680746078491210938 1.2249875068664550781 1.1384757757186889648 1.2479252815246582031 1.3429982662200927734 1.1520537137985229492 1.1080505847930908203 1.0981742143630981445 1.1463339328765869141 1.1008962392807006836 1.0586646795272827148 1.0787625312805175781 1.1034989356994628906 1.0939522981643676758 1.036642909049987793 -9999 1.0597118139266967773 1.2572796344757080078 2.0638272762298583984 1.7492806911468505859 1.2777258157730102539 1.2294753789901733398 -9999 1.4149918556213378906 2.5183756351470947266 2.9935972690582275391 2.6681654453277587891 3.4069902896881103516 3.5492687225341796875 2.5754444599151611328 2.8822011947631835938 1.8795328140258789062 1.4498918056488037109 1.9414525032043457031 2.0667366981506347656 2.4025599956512451172 3.7660396099090576172 2.406780242919921875 2.0148267745971679688 2.6376979351043701172 2.1471350193023681641 1.5484331846237182617 1.6094961166381835938 1.8580267429351806641 5.1283593177795410156 8.8333101272583007812 10.181811332702636719 9.1618223190307617188 9.243473052978515625 9.0831708908081054688 9.3004293441772460938 6.0726151466369628906 2.3766489028930664062 2.8558733463287353516 4.1739430427551269531 6.9875583648681640625 9.627826690673828125 9.6030435562133789062 8.7100439071655273438 6.4737706184387207031 3.5474312305450439453 2.6821396350860595703 2.2453606128692626953 1.8187911510467529297 1.3624925613403320312 1.6038166284561157227 1.3440198898315429688 1.0848283767700195312 -9999 -9999 -9999 -9999 1.0230619907379150391 -9999 -9999 -9999 -9999 -9999 -9999 -9999 -9999 -9999 -9999 -9999 -9999 -9999 -9999 -9999 -9999 
-9999 -9999 -9999 -9999 -9999 -9999 -9999 -9999 -9999 1.0206520557403564453 -9999 1.198284149169921875 1.0597708225250244141 1.0931317806243896484 1.0947141647338867188 1.1112138032913208008 1.1150587797164916992 1.1223813295364379883 1.3904052972793579102 1.354882359504699707 1.1792113780975341797 1.226378321647644043 1.2105431556701660156 1.1535767316818237305 1.2057267427444458008 1.2379127740859985352 1.117481231689453125 1.1300486326217651367 1.254067540168762207 1.0492798089981079102 1.0167750120162963867 1.1305162906646728516 1.3226768970489501953 1.4338133335113525391 1.5236498117446899414 1.3969892263412475586 1.2584729194641113281 1.1478654146194458008 1.1119990348815917969 1.0708451271057128906 1.0891740322113037109 1.1330449581146240234 1.1215280294418334961 -9999 -9999 1.3174660205841064453 1.2071976661682128906 1.065568089485168457 1.091584324836730957 1.0532859563827514648 1.1448410749435424805 1.1175868511199951172 1.0583226680755615234 1.0790854692459106445 1.124918818473815918 -9999 1.7329298257827758789 1.6244921684265136719 1.440883636474609375 1.3441500663757324219 1.5220954418182373047 2.1627368927001953125 5.0618162155151367188 3.6472687721252441406 3.5211808681488037109 4.4259853363037109375 3.9400122165679931641 4.88411712646484375 6.0755205154418945312 3.0422241687774658203 2.8711807727813720703 1.9419966936111450195 2.4283456802368164062 4.4654207229614257812 5.80425262451171875 2.8371853828430175781 1.5000493526458740234 2.0835971832275390625 2.1714305877685546875 2.3718636035919189453 2.0678527355194091797 2.6938822269439697266 7.8093142509460449219 10.074940681457519531 10.324963569641113281 9.378597259521484375 7.2328176498413085938 5.4551701545715332031 5.9473986625671386719 5.3251652717590332031 4.3982911109924316406 6.5485510826110839844 8.7110929489135742188 8.80451202392578125 10.267512321472167969 10.1178741455078125 9.3231496810913085938 6.9263744354248046875 5.2873525619506835938 4.5389637947082519531 3.0612025260925292969 2.8524723052978515625 2.1000902652740478516 1.8366461992263793945 1.1755384206771850586 1.102042078971862793 1.0579143762588500977 1.0480426549911499023 -9999 1.0466672182083129883 1.060694575309753418 -9999 -9999 -9999 -9999 -9999 -9999 -9999 -9999 -9999 -9999 -9999 -9999 -9999 -9999 -9999 -9999 
-9999 -9999 1.0357497930526733398 -9999 -9999 -9999 -9999 -9999 -9999 -9999 1.2096502780914306641 1.2696052789688110352 1.0863718986511230469 1.1045236587524414062 1.1054440736770629883 1.1137213706970214844 1.1595340967178344727 1.2872065305709838867 1.7804878950119018555 1.6941083669662475586 1.2343039512634277344 1.0814472436904907227 1.134601593017578125 1.1607489585876464844 1.2586829662322998047 1.1757237911224365234 1.211665034294128418 1.2400133609771728516 1.1658509969711303711 1.10550689697265625 1.0605105161666870117 1.2207927703857421875 1.4532552957534790039 1.4615769386291503906 1.2017792463302612305 1.1455206871032714844 1.1084383726119995117 1.0642635822296142578 1.1568613052368164062 -9999 1.1309552192687988281 1.1279560327529907227 1.0667910575866699219 -9999 -9999 1.2688679695129394531 1.1549773216247558594 1.122137904167175293 1.1211895942687988281 -9999 1.3919643163681030273 1.32105255126953125 1.0678167343139648438 1.1080913543701171875 1.207057952880859375 1.8308640718460083008 1.5751074552536010742 2.0205771923065185547 1.5860126018524169922 -9999 1.2194166183471679688 2.5800824165344238281 4.2800664901733398438 4.7624316215515136719 8.1658878326416015625 9.0884332656860351562 8.4699068069458007812 9.5684757232666015625 8.7562189102172851562 5.7956604957580566406 4.8363237380981445312 3.2357523441314697266 5.8137369155883789062 8.1657581329345703125 6.6899862289428710938 2.2389802932739257812 1.2185182571411132812 2.5063679218292236328 2.7998430728912353516 2.331363677978515625 1.6880377531051635742 1.9197214841842651367 6.9488439559936523438 10.028997421264648438 9.740352630615234375 7.5340681076049804688 5.7023720741271972656 5.8720021247863769531 7.2399401664733886719 8.816341400146484375 8.1066598892211914062 9.4636754989624023438 10.281384468078613281 10.311738967895507812 10.338357925415039062 10.028063774108886719 9.5428972244262695312 9.4364080429077148438 9.216693878173828125 7.4128317832946777344 5.3755655288696289062 4.0076808929443359375 2.4556980133056640625 1.5032111406326293945 1.1872212886810302734 1.3010346889495849609 1.0975413322448730469 -9999 -9999 -9999 1.1898922920227050781 1.2193394899368286133 -9999 -9999 -9999 -9999 -9999 -9999 -9999 1.0445497035980224609 1.0774346590042114258 -9999 -9999 -9999 -9999 -9999 -9999 
-9999 -9999 -9999 -9999 -9999 -9999 -9999 -9999 -9999 -9999 1.1727626323699951172 1.1436944007873535156 1.0665028095245361328 1.0961225032806396484 1.0881893634796142578 1.1362047195434570312 1.24423980712890625 1.3087735176086425781 1.3785790205001831055 1.3763052225112915039 1.1210561990737915039 1.0520151853561401367 1.1348345279693603516 1.1611034870147705078 1.2899364233016967773 1.2170013189315795898 1.204951167106628418 1.3458782434463500977 1.3922613859176635742 1.1469252109527587891 1.1200314760208129883 1.3603631258010864258 1.3221240043640136719 1.1402341127395629883 1.0783370733261108398 1.1564109325408935547 1.1737310886383056641 1.1333994865417480469 -9999 -9999 -9999 1.059979557991027832 1.0061751604080200195 -9999 1.0248931646347045898 1.1391261816024780273 -9999 -9999 -9999 -9999 -9999 1.1004739999771118164 1.0586148500442504883 1.0528953075408935547 -9999 2.7144420146942138672 1.5780779123306274414 2.2747237682342529297 1.830260157585144043 -9999 2.508419036865234375 4.6517844200134277344 4.6847748756408691406 6.4532265663146972656 10.130886077880859375 10.461508750915527344 8.4020471572875976562 7.7118840217590332031 6.3552289009094238281 8.8656063079833984375 5.3838334083557128906 2.5883994102478027344 4.5631208419799804688 8.6453876495361328125 8.2318410873413085938 2.8720750808715820312 1.2779040336608886719 2.6947243213653564453 2.8742606639862060547 1.3695942163467407227 1.3388354778289794922 2.5245707035064697266 3.5670933723449707031 6.1519517898559570312 8.4619922637939453125 8.7963104248046875 9.0577363967895507812 9.5971460342407226562 10.226186752319335938 10.348041534423828125 10.180624961853027344 10.220051765441894531 10.331845283508300781 10.197399139404296875 9.7673749923706054688 10.065059661865234375 10.343873023986816406 9.6643114089965820312 7.6626133918762207031 7.1320781707763671875 5.39229583740234375 4.09349822998046875 1.7322772741317749023 1.107592463493347168 1.2907376289367675781 1.2830059528350830078 -9999 1.4693012237548828125 -9999 -9999 1.098294377326965332 1.2146650552749633789 -9999 -9999 -9999 1.1559058427810668945 -9999 -9999 1.016564488410949707 -9999 1.0730414390563964844 -9999 -9999 -9999 -9999 -9999 -9999 
-9999 -9999 -9999 -9999 -9999 -9999 -9999 -9999 1.1382739543914794922 1.1281806230545043945 -9999 1.0437180995941162109 1.0792605876922607422 1.0685418844223022461 1.0503227710723876953 1.1907745599746704102 1.2191987037658691406 1.1799154281616210938 -9999 -9999 1.0964300632476806641 1.1276669502258300781 1.1487058401107788086 1.1063468456268310547 1.1510157585144042969 1.2160925865173339844 1.2071769237518310547 1.3109121322631835938 1.5938847064971923828 1.288901209831237793 1.2081673145294189453 1.1693099737167358398 1.0984631776809692383 1.0687831640243530273 1.0369156599044799805 1.1192277669906616211 1.2429696321487426758 1.1957744359970092773 1.2923567295074462891 1.2269835472106933594 1.1417640447616577148 1.0692178010940551758 1.0017849206924438477 -9999 -9999 1.0776864290237426758 -9999 -9999 -9999 1.1136565208435058594 -9999 -9999 -9999 -9999 -9999 1.1820214986801147461 1.2869466543197631836 1.8748939037322998047 1.8139427900314331055 3.0929315090179443359 6.1481909751892089844 7.0772547721862792969 5.1064929962158203125 5.5238046646118164062 9.549686431884765625 10.104722023010253906 7.9099287986755371094 5.8345727920532226562 6.7239212989807128906 9.4141826629638671875 6.2685551643371582031 2.5135939121246337891 2.0279407501220703125 5.908695220947265625 8.7954225540161132812 3.7822597026824951172 1.6659283638000488281 1.3373837471008300781 1.3203638792037963867 1.1479346752166748047 1.5270826816558837891 2.9399647712707519531 4.7505154609680175781 7.3030405044555664062 9.2669763565063476562 9.7070474624633789062 9.9837703704833984375 10.275304794311523438 10.309377670288085938 10.448050498962402344 10.510039329528808594 10.424023628234863281 9.7994022369384765625 9.739749908447265625 10.382178306579589844 10.605597496032714844 10.262848854064941406 7.34886932373046875 6.9493346214294433594 6.1343798637390136719 3.3446042537689208984 2.9635121822357177734 1.8214750289916992188 1.3110579252243041992 1.3086533546447753906 1.1685317754745483398 1.5564686059951782227 1.4336274862289428711 -9999 1.145165562629699707 1.1817339658737182617 1.1109486818313598633 1.2888247966766357422 -9999 1.0633138418197631836 -9999 -9999 -9999 -9999 1.1381738185882568359 1.100100398063659668 -9999 -9999 -9999 -9999 -9999 -9999 
-9999 -9999 -9999 -9999 -9999 -9999 -9999 -9999 1.2663592100143432617 1.0935114622116088867 -9999 1.0872625112533569336 1.0850832462310791016 1.0409179925918579102 1.0723249912261962891 1.0988520383834838867 1.1169706583023071289 1.0862981081008911133 -9999 -9999 1.1208165884017944336 1.0919740200042724609 1.0958735942840576172 1.1076304912567138672 1.0604270696640014648 1.162634730339050293 1.2581921815872192383 1.4738181829452514648 1.7319147586822509766 1.5263676643371582031 1.490731358528137207 1.2201551198959350586 1.0928502082824707031 1.0664310455322265625 1.1082150936126708984 1.2167146205902099609 1.3114771842956542969 1.2443883419036865234 1.4464120864868164062 1.1550730466842651367 1.0777441263198852539 -9999 -9999 -9999 -9999 1.0602385997772216797 -9999 -9999 1.1006201505661010742 1.0300027132034301758 -9999 -9999 -9999 -9999 2.7871413230895996094 1.8386847972869873047 1.6879743337631225586 2.0891597270965576172 3.6744816303253173828 7.052799224853515625 8.342041015625 7.6974325180053710938 2.9752473831176757812 2.9549016952514648438 8.296169281005859375 9.5039539337158203125 8.3190097808837890625 9.1994695663452148438 9.7203397750854492188 8.7411108016967773438 6.5184006690979003906 3.1314737796783447266 1.7726029157638549805 6.5301446914672851562 8.224910736083984375 2.6929149627685546875 1.3391221761703491211 1.2263573408126831055 1.2004721164703369141 1.1176586151123046875 1.5099123716354370117 5.0428600311279296875 8.9874753952026367188 10.01566314697265625 10.009287834167480469 10.294142723083496094 10.298299789428710938 10.302495956420898438 10.353394508361816406 10.5290374755859375 10.537370681762695312 9.66522979736328125 9.3140506744384765625 10.451485633850097656 10.576143264770507812 10.324444770812988281 7.8864383697509765625 3.6806731224060058594 3.8757121562957763672 4.1731295585632324219 2.6790969371795654297 3.3874964714050292969 2.2582190036773681641 1.6731647253036499023 1.4784536361694335938 1.2072347402572631836 1.1666135787963867188 1.0618236064910888672 -9999 1.1373438835144042969 1.1285624504089355469 1.0902305841445922852 1.1964800357818603516 -9999 -9999 -9999 -9999 -9999 -9999 -9999 -9999 -9999 -9999 -9999 -9999 -9999 -9999 
-9999 -9999 -9999 -9999 -9999 -9999 -9999 -9999 -9999 -9999 -9999 -9999 1.0955493450164794922 1.0829918384552001953 -9999 -9999 -9999 -9999 -9999 1.2347892522811889648 1.1960083246231079102 1.0482678413391113281 -9999 1.213466644287109375 1.0860933065414428711 1.1254332065582275391 1.334538578987121582 1.6441926956176757812 1.5481778383255004883 1.4528663158416748047 1.5174355506896972656 1.3067631721496582031 1.1024986505508422852 1.0541136264801025391 1.1344037055969238281 1.1211042404174804688 1.1473013162612915039 1.1980395317077636719 1.2066123485565185547 1.0527143478393554688 1.0341705083847045898 -9999 -9999 -9999 -9999 -9999 -9999 -9999 -9999 -9999 1.0433608293533325195 1.0323613882064819336 1.1264779567718505859 -9999 -9999 2.0642580986022949219 2.8267920017242431641 3.8327708244323730469 8.0841436386108398438 8.9793519973754882812 9.4898633956909179688 9.3213472366333007812 4.6023201942443847656 3.2287981510162353516 8.1926898956298828125 9.9130182266235351562 9.8902606964111328125 9.732852935791015625 10.255654335021972656 10.113256454467773438 8.0038614273071289062 5.7772283554077148438 5.5287575721740722656 8.2485485076904296875 8.7751493453979492188 4.3130412101745605469 2.0896029472351074219 2.3960633277893066406 1.9237074851989746094 1.5515612363815307617 1.8680074214935302734 6.2085170745849609375 9.7748537063598632812 10.309133529663085938 10.248131752014160156 10.280797004699707031 10.323037147521972656 9.860294342041015625 10.46657562255859375 10.600930213928222656 9.4245176315307617188 9.5436944961547851562 10.350397109985351562 9.7843799591064453125 8.6375379562377929688 7.6801366806030273438 3.9047272205352783203 4.1608262062072753906 4.3089404106140136719 3.1646511554718017578 3.1519942283630371094 3.8213763236999511719 2.9216809272766113281 2.0442502498626708984 1.7319151163101196289 1.5297702550888061523 1.1650391817092895508 1.0292891263961791992 1.0214419364929199219 -9999 1.0666190385818481445 1.0405501127243041992 -9999 -9999 -9999 -9999 -9999 -9999 1.1741605997085571289 1.2817603349685668945 1.3303973674774169922 -9999 -9999 -9999 -9999 -9999 -9999 
-9999 -9999 -9999 -9999 -9999 -9999 -9999 -9999 -9999 -9999 -9999 1.0533556938171386719 1.0949827432632446289 1.0887104272842407227 -9999 -9999 -9999 1.0485907793045043945 -9999 1.190026402473449707 1.124825596809387207 -9999 -9999 -9999 -9999 1.196782231330871582 1.1888626813888549805 1.4793463945388793945 1.5698336362838745117 1.7170364856719970703 1.4513721466064453125 1.3178015947341918945 1.1345123052597045898 1.048653721809387207 1.1417802572250366211 1.1461827754974365234 1.2733445167541503906 1.4348257780075073242 1.2469197511672973633 1.1000523567199707031 1.07159423828125 -9999 -9999 -9999 1.0621112585067749023 -9999 -9999 -9999 1.0530817508697509766 1.1317420005798339844 1.1216099262237548828 1.0743284225463867188 1.2722336053848266602 1.1269452571868896484 -9999 2.8726801872253417969 4.5738062858581542969 7.3064494132995605469 8.844635009765625 9.7081804275512695312 9.7557849884033203125 8.6775503158569335938 4.6399226188659667969 2.4037616252899169922 6.1936106681823730469 8.4250955581665039062 9.6342010498046875 7.9848160743713378906 9.700191497802734375 9.7180242538452148438 8.3519659042358398438 9.0366497039794921875 9.5967092514038085938 9.8197488784790039062 9.4985628128051757812 8.6664714813232421875 6.8516087532043457031 4.6392469406127929688 3.3614544868469238281 3.0760772228240966797 2.3426215648651123047 5.5321784019470214844 7.8304400444030761719 7.9688124656677246094 9.3419961929321289062 10.202376365661621094 10.2828826904296875 10.279083251953125 10.53081512451171875 10.64034271240234375 10.316430091857910156 10.507092475891113281 10.242081642150878906 9.0594491958618164062 8.0680227279663085938 7.2673897743225097656 5.4413371086120605469 6.3457784652709960938 5.0468144416809082031 2.0828392505645751953 1.9022305011749267578 1.834957122802734375 1.6436780691146850586 2.1526863574981689453 2.0450012683868408203 1.5257890224456787109 1.1431796550750732422 -9999 -9999 -9999 1.0833071470260620117 1.0807720422744750977 -9999 -9999 -9999 -9999 1.2067972421646118164 1.34104156494140625 1.2010616064071655273 -9999 1.2331000566482543945 -9999 -9999 -9999 -9999 -9999 -9999 
-9999 -9999 -9999 -9999 -9999 -9999 -9999 -9999 1.0422435998916625977 -9999 -9999 -9999 1.1062880754470825195 1.0539420843124389648 -9999 1.1034272909164428711 -9999 -9999 -9999 -9999 -9999 -9999 -9999 1.0600801706314086914 1.0888117551803588867 1.1554800271987915039 1.1309376955032348633 1.1719806194305419922 1.3041965961456298828 1.5897095203399658203 1.4498941898345947266 1.325468897819519043 1.1829901933670043945 1.2914409637451171875 1.3057873249053955078 1.335576176643371582 1.1999411582946777344 1.2132632732391357422 1.1087282896041870117 1.0680533647537231445 1.1149872541427612305 1.0646679401397705078 -9999 -9999 1.0793225765228271484 -9999 -9999 -9999 -9999 1.2414034605026245117 1.3104568719863891602 -9999 1.0810315608978271484 1.3710519075393676758 1.7301232814788818359 2.9471797943115234375 5.3135461807250976562 8.085399627685546875 7.897098541259765625 10.355246543884277344 9.5847482681274414062 8.1783342361450195312 3.9511618614196777344 1.650214076042175293 4.0088887214660644531 6.9894361495971679688 8.8889493942260742188 8.2247076034545898438 9.4893503189086914062 8.8642425537109375 7.7425417900085449219 9.4354677200317382812 9.299530029296875 9.9309434890747070312 10.206686973571777344 10.053305625915527344 10.200463294982910156 9.3607473373413085938 8.0895900726318359375 4.8639392852783203125 2.4282598495483398438 2.4232311248779296875 2.1075649261474609375 2.3756086826324462891 6.7168641090393066406 9.9673376083374023438 10.263670921325683594 10.385380744934082031 10.565928459167480469 10.72336578369140625 10.863641738891601562 10.391889572143554688 9.2469053268432617188 8.4331254959106445312 7.57462310791015625 5.7413392066955566406 3.9894397258758544922 4.3411312103271484375 2.5877051353454589844 -9999 -9999 -9999 1.1653330326080322266 1.562209010124206543 1.3962717056274414062 1.2442225217819213867 -9999 -9999 -9999 -9999 1.3500519990921020508 1.3285386562347412109 1.0645965337753295898 -9999 -9999 1.0255790948867797852 -9999 -9999 1.1229250431060791016 -9999 -9999 -9999 -9999 1.161295771598815918 -9999 -9999 -9999 
-9999 -9999 -9999 -9999 1.0326234102249145508 -9999 -9999 -9999 1.0865087509155273438 -9999 1.0695803165435791016 1.1015802621841430664 -9999 1.0423616170883178711 -9999 1.1199829578399658203 -9999 -9999 -9999 1.0580552816390991211 -9999 -9999 1.0354936122894287109 1.0647095441818237305 1.1118470430374145508 1.1407195329666137695 1.082285761833190918 -9999 1.0986096858978271484 1.1450908184051513672 1.2207282781600952148 1.3184375762939453125 1.2308498620986938477 1.6937941312789916992 1.5625832080841064453 1.2745765447616577148 1.1273187398910522461 1.1516617536544799805 -9999 1.0743399858474731445 1.1197661161422729492 1.0627804994583129883 1.0890451669692993164 1.1553161144256591797 1.1596710681915283203 1.0460779666900634766 -9999 1.109339594841003418 1.6215419769287109375 1.8691734075546264648 1.3002933263778686523 1.0328209400177001953 1.079729914665222168 1.439725041389465332 2.0465447902679443359 4.1373167037963867188 7.9052400588989257812 9.1288309097290039062 9.7042932510375976562 9.944980621337890625 9.1914319992065429688 8.0304317474365234375 3.7847974300384521484 -9999 2.557586669921875 5.2739787101745605469 5.7711124420166015625 6.2181019783020019531 9.4598932266235351562 8.9177446365356445312 8.5564661026000976562 9.8739757537841796875 9.898525238037109375 10.182990074157714844 10.491936683654785156 10.393746376037597656 10.37105560302734375 10.260376930236816406 8.1638317108154296875 3.3464527130126953125 1.9133148193359375 2.9958491325378417969 2.40599822998046875 4.0808777809143066406 8.7543916702270507812 10.35453033447265625 10.328104972839355469 10.387409210205078125 10.569522857666015625 10.666879653930664062 10.843390464782714844 9.7439641952514648438 8.3347787857055664062 6.7142362594604492188 4.1406483650207519531 2.1986701488494873047 -9999 1.488112330436706543 -9999 -9999 -9999 1.0719743967056274414 1.6525374650955200195 1.7728673219680786133 1.5732680559158325195 1.2003628015518188477 -9999 -9999 1.2337197065353393555 1.5315729379653930664 1.6888020038604736328 1.5478204488754272461 1.1871582269668579102 -9999 -9999 1.0727117061614990234 1.0994887351989746094 1.0945849418640136719 1.0239394903182983398 -9999 -9999 -9999 1.155539393424987793 -9999 -9999 -9999 -9999 
-9999 -9999 -9999 -9999 -9999 -9999 -9999 1.0454816818237304688 1.0716229677200317383 1.1257812976837158203 1.0736005306243896484 -9999 1.0606034994125366211 -9999 -9999 1.0575630664825439453 -9999 -9999 -9999 -9999 -9999 -9999 -9999 -9999 -9999 -9999 -9999 -9999 -9999 -9999 1.2261710166931152344 1.2052119970321655273 1.4661593437194824219 1.5764868259429931641 1.2589435577392578125 1.0695496797561645508 -9999 -9999 1.0707825422286987305 1.0883558988571166992 1.1108952760696411133 1.0474771261215209961 1.0791034698486328125 1.1411703824996948242 1.1365115642547607422 1.0420963764190673828 -9999 1.096693873405456543 1.3217729330062866211 1.5049914121627807617 1.1441967487335205078 1.046887516975402832 1.2415723800659179688 1.7535374164581298828 1.7125922441482543945 2.87473297119140625 8.1434421539306640625 8.9154729843139648438 8.903972625732421875 9.72911834716796875 9.4965677261352539062 8.5288105010986328125 6.2908072471618652344 4.3925890922546386719 4.1277866363525390625 5.3435273170471191406 3.2331578731536865234 3.4524855613708496094 8.489803314208984375 9.0729551315307617188 9.12209320068359375 9.9330129623413085938 10.235421180725097656 10.3439788818359375 10.4837493896484375 10.35987091064453125 10.422010421752929688 9.7730226516723632812 5.2246522903442382812 2.5176339149475097656 3.5068359375 6.2696213722229003906 4.472034454345703125 7.8823137283325195312 10.268836021423339844 10.450209617614746094 10.337162971496582031 10.101053237915039062 10.597975730895996094 10.487055778503417969 10.554845809936523438 9.3805246353149414062 6.4777307510375976562 3.0998558998107910156 1.586727142333984375 -9999 -9999 -9999 -9999 -9999 -9999 1.3677446842193603516 2.6037251949310302734 2.8408329486846923828 2.1603167057037353516 1.4735398292541503906 1.3088564872741699219 1.2115244865417480469 1.39825439453125 1.8337682485580444336 1.7921906709671020508 1.578457951545715332 1.2829191684722900391 -9999 -9999 1.0796577930450439453 1.2417490482330322266 1.1816996335983276367 1.0339672565460205078 1.1258767843246459961 -9999 -9999 -9999 -9999 -9999 -9999 -9999 
-9999 -9999 1.0296905040740966797 1.0890961885452270508 -9999 1.0901352167129516602 1.094176173210144043 1.0347089767456054688 1.0395430326461791992 -9999 -9999 -9999 1.0591844320297241211 -9999 -9999 -9999 -9999 -9999 -9999 -9999 1.0483783483505249023 -9999 -9999 -9999 -9999 1.0427193641662597656 1.0367444753646850586 1.062432408332824707 1.1578724384307861328 1.4559208154678344727 1.2977869510650634766 1.4116636514663696289 2.0418839454650878906 1.5873438119888305664 1.0887897014617919922 1.1004321575164794922 1.1165167093276977539 1.0679237842559814453 -9999 -9999 1.1100072860717773438 1.0503731966018676758 1.0283463001251220703 1.0746048688888549805 1.0659077167510986328 1.1400265693664550781 1.0631840229034423828 1.1195569038391113281 1.1213287115097045898 1.126887202262878418 1.1593157052993774414 1.2428201436996459961 1.7293856143951416016 2.9109969139099121094 3.5482983589172363281 4.5397953987121582031 8.0130939483642578125 8.3856077194213867188 10.001430511474609375 10.381807327270507812 9.737529754638671875 8.3791208267211914062 8.0456523895263671875 6.7310566902160644531 4.1549196243286132812 4.5072612762451171875 3.7893106937408447266 3.9996364116668701172 8.4137334823608398438 10.183069229125976562 9.7879838943481445312 9.13533782958984375 10.2161102294921875 10.480721473693847656 10.547533035278320312 10.353367805480957031 10.413445472717285156 8.6245794296264648438 4.9439024925231933594 3.2951767444610595703 4.3122801780700683594 6.6856966018676757812 7.9370021820068359375 9.76332855224609375 10.372417449951171875 10.431875228881835938 10.439504623413085938 10.473187446594238281 10.703264236450195312 10.735457420349121094 10.244321823120117188 9.0279874801635742188 5.0746898651123046875 1.6143032312393188477 -9999 -9999 -9999 -9999 -9999 -9999 1.5690137147903442383 2.35961151123046875 4.251277923583984375 3.7165217399597167969 2.6521687507629394531 1.9731321334838867188 1.9921097755432128906 1.5808349847793579102 1.4648931026458740234 1.758187413215637207 1.8289899826049804688 1.6866935491561889648 1.1998982429504394531 -9999 -9999 1.0823234319686889648 1.2281978130340576172 1.0873851776123046875 1.0265334844589233398 1.091054081916809082 1.1184076070785522461 1.127536773681640625 -9999 -9999 -9999 -9999 -9999 
-9999 -9999 1.0263129472732543945 1.0694906711578369141 -9999 1.0688837766647338867 1.0875695943832397461 1.0541571378707885742 -9999 -9999 -9999 -9999 1.0632025003433227539 -9999 1.0245974063873291016 -9999 -9999 -9999 -9999 -9999 -9999 -9999 1.0632573366165161133 -9999 1.0119366645812988281 1.0257943868637084961 1.0723743438720703125 1.237336277961730957 1.2236118316650390625 1.5455973148345947266 1.3418474197387695312 1.5758713483810424805 1.5489195585250854492 1.1847225427627563477 -9999 1.2132787704467773438 1.1572524309158325195 1.0637376308441162109 1.0970134735107421875 -9999 1.0314900875091552734 1.1061319112777709961 1.1120522022247314453 1.1066067218780517578 1.0676299333572387695 1.1451582908630371094 1.1145592927932739258 -9999 1.126700282096862793 1.1721535921096801758 1.1444517374038696289 1.3328796625137329102 2.6672737598419189453 3.9662685394287109375 6.1007599830627441406 8.72675323486328125 9.6280813217163085938 9.4893856048583984375 10.344387054443359375 10.431227684020996094 10.288357734680175781 9.8729915618896484375 9.4809551239013671875 7.0050859451293945312 5.1880450248718261719 5.22074127197265625 3.9871644973754882812 3.9308133125305175781 7.6181764602661132812 10.13520050048828125 9.4945726394653320312 8.5196046829223632812 9.274959564208984375 9.0805158615112304688 10.272027015686035156 10.346779823303222656 10.40225982666015625 6.9812383651733398438 4.9716577529907226562 6.1233272552490234375 4.9398698806762695312 5.6209936141967773438 8.3400640487670898438 9.5623579025268554688 10.340043067932128906 10.465116500854492188 10.460076332092285156 10.621091842651367188 10.533825874328613281 10.540523529052734375 9.9677181243896484375 8.6491260528564453125 4.504261016845703125 1.6457587480545043945 -9999 -9999 1.5678372383117675781 1.4758446216583251953 -9999 1.5041673183441162109 1.9293916225433349609 2.7419772148132324219 4.5138506889343261719 3.7479443550109863281 2.1985967159271240234 1.5361151695251464844 2.1332495212554931641 2.1391489505767822266 1.6017651557922363281 1.7916566133499145508 2.4020512104034423828 1.8335644006729125977 1.1396142244338989258 -9999 -9999 1.3002363443374633789 1.409899592399597168 1.1064881086349487305 1.0739848613739013672 1.0544732809066772461 1.1838718652725219727 1.1075429916381835938 -9999 -9999 -9999 -9999 -9999 
-9999 -9999 -9999 -9999 -9999 -9999 -9999 -9999 -9999 -9999 -9999 -9999 -9999 -9999 -9999 -9999 1.0455996990203857422 -9999 -9999 -9999 -9999 -9999 -9999 1.0676184892654418945 1.0928373336791992188 1.0427011251449584961 1.1385427713394165039 1.1958259344100952148 1.1092287302017211914 1.1952642202377319336 1.4361968040466308594 1.3863679170608520508 1.1098678112030029297 -9999 1.5509841442108154297 1.4813215732574462891 1.1181354522705078125 -9999 1.0343692302703857422 1.0947514772415161133 1.1181521415710449219 -9999 -9999 1.0304820537567138672 1.0632756948471069336 1.0717997550964355469 1.0691612958908081055 -9999 -9999 1.0602583885192871094 1.0643836259841918945 1.4134583473205566406 3.7830278873443603516 5.8404207229614257812 8.5432615280151367188 10.079812049865722656 10.259324073791503906 9.34821319580078125 6.5509037971496582031 9.3059329986572265625 10.212796211242675781 10.468016624450683594 10.3115081787109375 8.3453912734985351562 8.0308599472045898438 7.0766520500183105469 5.09235382080078125 5.6423935890197753906 6.5681715011596679688 9.8996915817260742188 10.023919105529785156 10.154834747314453125 9.626865386962890625 9.2391376495361328125 9.9277067184448242188 9.7131223678588867188 8.861919403076171875 5.7829804420471191406 7.4381275177001953125 9.2719821929931640625 8.6317729949951171875 8.1319284439086914062 8.9763240814208984375 10.295362472534179688 10.719817161560058594 10.506854057312011719 10.401551246643066406 10.427779197692871094 10.404531478881835938 10.477379798889160156 9.9785051345825195312 8.688648223876953125 5.7393207550048828125 3.7640845775604248047 2.4956288337707519531 1.4222682714462280273 2.919765472412109375 2.9687180519104003906 2.1470332145690917969 2.340946197509765625 2.6248543262481689453 2.7037703990936279297 4.7170424461364746094 4.3921236991882324219 1.6822278499603271484 1.5170011520385742188 3.2697536945343017578 3.9869389533996582031 2.6866297721862792969 2.7204139232635498047 2.3285093307495117188 1.7867729663848876953 1.1160552501678466797 -9999 1.28275299072265625 1.7640199661254882812 1.5899835824966430664 1.1704190969467163086 -9999 1.0234129428863525391 1.1229408979415893555 -9999 -9999 1.0382914543151855469 -9999 -9999 -9999 
-9999 1.0819927453994750977 1.1056656837463378906 1.0588060617446899414 -9999 -9999 -9999 -9999 -9999 -9999 -9999 -9999 1.0518364906311035156 -9999 -9999 -9999 -9999 -9999 -9999 -9999 -9999 1.046116948127746582 1.0386753082275390625 1.0743278264999389648 1.117304682731628418 1.0979251861572265625 1.1212012767791748047 1.1711040735244750977 1.1192880868911743164 1.1494311094284057617 1.2371691465377807617 1.1011387109756469727 1.072426915168762207 1.0803251266479492188 1.3237881660461425781 1.5022528171539306641 1.1911004781723022461 1.0744560956954956055 -9999 1.1309580802917480469 1.1032258272171020508 -9999 -9999 -9999 1.1868244409561157227 1.1495444774627685547 1.0813896656036376953 1.0292139053344726562 -9999 -9999 1.0749416351318359375 1.4278531074523925781 2.557254791259765625 7.2369785308837890625 10.432692527770996094 10.197188377380371094 9.7431650161743164062 10.205732345581054688 7.9973540306091308594 9.3653364181518554688 10.191096305847167969 10.051950454711914062 8.4158067703247070312 4.9854135513305664062 5.1455326080322265625 6.8192725181579589844 4.5569787025451660156 4.7778382301330566406 6.3026652336120605469 9.2731065750122070312 9.281185150146484375 10.38039398193359375 10.438776969909667969 10.494715690612792969 10.295514106750488281 9.691631317138671875 6.1123514175415039062 5.7126111984252929688 9.1430253982543945312 10.385502815246582031 10.479730606079101562 10.030507087707519531 9.267490386962890625 10.541019439697265625 10.51816558837890625 10.415522575378417969 10.123250007629394531 10.336623191833496094 10.423361778259277344 10.485194206237792969 9.3216533660888671875 8.7386150360107421875 6.432186126708984375 6.17345428466796875 6.0258188247680664062 4.1165032386779785156 3.4938447475433349609 4.530200958251953125 3.9404456615447998047 3.9920933246612548828 3.4546792507171630859 4.2590889930725097656 5.3914113044738769531 5.5833263397216796875 3.6078658103942871094 3.4611232280731201172 5.17739105224609375 4.600078582763671875 4.2673425674438476562 3.5021283626556396484 2.5438399314880371094 1.7143228054046630859 -9999 1.075426936149597168 1.4716185331344604492 1.907965540885925293 1.6648137569427490234 1.1441831588745117188 1.0400315523147583008 1.0560364723205566406 1.036356806755065918 -9999 -9999 1.0212818384170532227 -9999 -9999 1.0371096134185791016 
1.0541268587112426758 1.0409250259399414062 1.0473333597183227539 -9999 -9999 -9999 -9999 -9999 -9999 -9999 1.0292848348617553711 1.0136394500732421875 1.0374271869659423828 1.0523858070373535156 1.0584967136383056641 -9999 -9999 -9999 -9999 1.0304964780807495117 1.0346680879592895508 1.0616379976272583008 1.0522596836090087891 1.0677151679992675781 1.1322758197784423828 1.1713967323303222656 1.1220763921737670898 1.1508600711822509766 1.0918482542037963867 1.0847249031066894531 1.1014966964721679688 1.0859358310699462891 1.1173783540725708008 1.0370732545852661133 1.2446117401123046875 1.4634360074996948242 1.4534705877304077148 1.3298211097717285156 -9999 -9999 -9999 1.0539907217025756836 -9999 -9999 1.0634177923202514648 1.1573501825332641602 1.0718680620193481445 -9999 -9999 -9999 1.5376969575881958008 2.2912187576293945312 2.4998047351837158203 7.6597385406494140625 10.229801177978515625 9.8217763900756835938 9.4989004135131835938 10.48789215087890625 10.057842254638671875 10.315073013305664062 10.163809776306152344 8.9278287887573242188 3.5360605716705322266 1.9207994937896728516 2.2307605743408203125 4.3812580108642578125 3.7491567134857177734 7.6133403778076171875 9.3947935104370117188 9.94252777099609375 8.5524950027465820312 10.216479301452636719 10.062727928161621094 10.452589035034179688 10.111760139465332031 9.3587121963500976562 4.7123551368713378906 8.51348114013671875 10.701602935791015625 10.641348838806152344 10.47830963134765625 10.278147697448730469 9.631488800048828125 10.622460365295410156 10.617609024047851562 10.307508468627929688 10.206875801086425781 10.394140243530273438 10.410639762878417969 9.9180288314819335938 8.0371198654174804688 6.805206298828125 7.4331564903259277344 8.5052547454833984375 8.7766733169555664062 8.371185302734375 6.3964509963989257812 5.7276549339294433594 6.6268286705017089844 6.3408846855163574219 4.0677127838134765625 4.7165708541870117188 5.4291515350341796875 5.1799755096435546875 6.6974463462829589844 5.2635831832885742188 4.3915567398071289062 3.2269332408905029297 3.7830953598022460938 3.421588897705078125 3.0274922847747802734 1.6385419368743896484 -9999 1.3876957893371582031 1.8097314834594726562 1.7947915792465209961 1.5118795633316040039 1.2059569358825683594 1.1869747638702392578 -9999 1.2377535104751586914 -9999 -9999 -9999 -9999 -9999 -9999 
-9999 -9999 -9999 -9999 -9999 -9999 -9999 -9999 1.031780242919921875 -9999 -9999 1.0295903682708740234 -9999 -9999 -9999 -9999 1.2789787054061889648 -9999 -9999 -9999 1.0338011980056762695 1.0740462541580200195 1.1105769872665405273 1.1140193939208984375 1.161725163459777832 1.1535246372222900391 1.1065146923065185547 1.1392090320587158203 1.0965541601181030273 1.0684734582901000977 -9999 1.1275979280471801758 1.4108062982559204102 -9999 1.5330942869186401367 1.9076055288314819336 1.5634729862213134766 1.223399043083190918 1.0675460100173950195 -9999 1.0365167856216430664 -9999 -9999 1.1198025941848754883 1.1901977062225341797 1.1478401422500610352 1.0916273593902587891 1.0511707067489624023 -9999 -9999 1.5816167593002319336 1.9173297882080078125 2.9073705673217773438 8.5851154327392578125 9.5544033050537109375 9.7190065383911132812 9.82621002197265625 10.472357749938964844 10.297272682189941406 10.220885276794433594 9.9936656951904296875 8.1307096481323242188 2.5531089305877685547 1.1940940618515014648 1.254950404167175293 1.9180132150650024414 2.4858291149139404297 6.0329489707946777344 6.6222820281982421875 9.0796632766723632812 10.334595680236816406 10.356927871704101562 10.207996368408203125 9.6285858154296875 9.23027801513671875 8.2216243743896484375 7.8867511749267578125 10.434340476989746094 9.993770599365234375 10.388249397277832031 10.52503204345703125 10.672532081604003906 10.516184806823730469 10.208113670349121094 10.420733451843261719 10.239897727966308594 10.194035530090332031 10.414620399475097656 10.386684417724609375 9.07861328125 6.1641249656677246094 4.2245721817016601562 7.9295296669006347656 10.241388320922851562 10.202176094055175781 10.143763542175292969 9.9941225051879882812 9.645660400390625 10.157258987426757812 8.138477325439453125 6.5806097984313964844 6.8153233528137207031 6.6751027107238769531 8.0219316482543945312 8.4052219390869140625 4.5946097373962402344 3.8331904411315917969 4.14876556396484375 3.2756297588348388672 2.6963672637939453125 2.4465324878692626953 1.391536712646484375 1.2426115274429321289 1.8514443635940551758 1.9328860044479370117 1.7495683431625366211 1.3271225690841674805 1.4979913234710693359 1.2006719112396240234 1.0366675853729248047 -9999 -9999 -9999 -9999 -9999 -9999 -9999 
-9999 -9999 -9999 -9999 -9999 -9999 -9999 -9999 1.0076853036880493164 -9999 -9999 -9999 -9999 -9999 1.0462599992752075195 -9999 -9999 -9999 -9999 -9999 -9999 1.0586750507354736328 1.123131871223449707 1.1181004047393798828 1.1488515138626098633 1.1368869543075561523 1.2105617523193359375 -9999 1.1190860271453857422 1.1151130199432373047 1.0683724880218505859 1.1321028470993041992 1.3766433000564575195 1.3664070367813110352 1.2772427797317504883 1.4676828384399414062 1.3648152351379394531 1.1095982789993286133 1.0593253374099731445 1.1808484792709350586 1.0657007694244384766 1.1135685443878173828 1.0908334255218505859 1.1396822929382324219 1.1730210781097412109 1.2013702392578125 1.4058133363723754883 1.1392059326171875 1.0400316715240478516 1.0659985542297363281 1.3014748096466064453 2.3430953025817871094 4.6500387191772460938 9.4816560745239257812 9.3852491378784179688 9.6357135772705078125 9.9830236434936523438 9.9489727020263671875 10.066717147827148438 9.7755298614501953125 10.004589080810546875 8.49707794189453125 3.5360593795776367188 1.1916497945785522461 1.0917991399765014648 1.1141109466552734375 1.2583315372467041016 2.0836224555969238281 3.4506783485412597656 7.2148633003234863281 10.314725875854492188 10.465815544128417969 10.3212738037109375 8.5010852813720703125 8.2850198745727539062 6.8408007621765136719 9.7639894485473632812 10.649407386779785156 9.2990541458129882812 9.7475996017456054688 10.642170906066894531 10.331327438354492188 10.404454231262207031 10.477431297302246094 9.7956571578979492188 8.9182224273681640625 9.449954986572265625 9.9946298599243164062 10.37805938720703125 9.9111576080322265625 8.4755535125732421875 7.1771645545959472656 8.7495756149291992188 10.600702285766601562 10.686520576477050781 10.615078926086425781 10.700520515441894531 10.174639701843261719 10.524872779846191406 10.024633407592773438 9.90288543701171875 10.109724044799804688 9.0996875762939453125 10.174440383911132812 10.187548637390136719 7.3045659065246582031 5.8511137962341308594 5.1594204902648925781 2.9876198768615722656 2.6439774036407470703 2.8878436088562011719 1.4538444280624389648 1.4309123754501342773 1.5603923797607421875 1.3147976398468017578 1.2217910289764404297 1.2894740104675292969 1.2718470096588134766 1.0376965999603271484 -9999 -9999 1.2027039527893066406 -9999 -9999 1.0538507699966430664 -9999 -9999 
-9999 -9999 -9999 -9999 -9999 1.047448277473449707 -9999 -9999 -9999 -9999 -9999 -9999 -9999 -9999 -9999 -9999 -9999 -9999 -9999 -9999 -9999 1.1281844377517700195 1.1989374160766601562 -9999 1.1893320083618164062 1.2897937297821044922 1.266736149787902832 1.1033877134323120117 1.189169764518737793 1.1772688627243041992 1.1659841537475585938 -9999 1.0879496335983276367 -9999 1.0519379377365112305 1.2294371128082275391 1.2703313827514648438 1.1205865144729614258 1.1104034185409545898 1.1700439453125 -9999 1.1340836286544799805 1.1218760013580322266 1.3704221248626708984 1.4448394775390625 1.3845056295394897461 1.4454475641250610352 1.129634857177734375 1.1263256072998046875 1.24143218994140625 1.7899976968765258789 2.8427221775054931641 3.7115948200225830078 7.0296678543090820312 9.7179775238037109375 9.8945379257202148438 9.9938335418701171875 9.8383235931396484375 9.80368804931640625 8.0786895751953125 9.6641378402709960938 8.6173925399780273438 4.8322772979736328125 1.4339733123779296875 -9999 1.3257201910018920898 1.9326394796371459961 3.2416660785675048828 5.6636376380920410156 7.4491972923278808594 9.9143724441528320312 10.43277740478515625 10.481574058532714844 10.290904045104980469 7.8807940483093261719 7.2902131080627441406 10.47662353515625 10.487622261047363281 9.713047027587890625 9.118244171142578125 10.498593330383300781 10.239138603210449219 10.349949836730957031 10.208077430725097656 8.961048126220703125 7.8421421051025390625 9.3965101242065429688 9.77974700927734375 10.049467086791992188 8.5778942108154296875 6.9549560546875 9.94072723388671875 9.2443933486938476562 10.511677742004394531 10.749376296997070312 10.873762130737304688 10.944976806640625 10.736776351928710938 10.652509689331054688 10.702478408813476562 10.773324012756347656 10.935918807983398438 10.588083267211914062 9.7940435409545898438 10.324135780334472656 8.7352800369262695312 6.3978705406188964844 5.1421537399291992188 3.3002781867980957031 2.8404333591461181641 1.92833709716796875 1.3670600652694702148 1.5787622928619384766 1.4021109342575073242 1.4502850770950317383 1.4328579902648925781 1.2414615154266357422 1.1740175485610961914 1.0497564077377319336 -9999 1.0854538679122924805 1.0614793300628662109 -9999 -9999 -9999 -9999 -9999 
-9999 -9999 -9999 -9999 -9999 -9999 -9999 -9999 -9999 -9999 1.0300287008285522461 1.0377653837203979492 -9999 -9999 1.1164737939834594727 -9999 -9999 1.1049767732620239258 1.0825924873352050781 1.1032788753509521484 1.1336870193481445312 1.1299701929092407227 1.1899236440658569336 1.332230687141418457 1.1509515047073364258 1.1133164167404174805 1.2068636417388916016 1.2151610851287841797 1.1526215076446533203 1.1023738384246826172 1.1085851192474365234 1.1624209880828857422 1.1057890653610229492 -9999 -9999 1.1364791393280029297 1.1206622123718261719 1.0899900197982788086 1.1702874898910522461 1.1167423725128173828 1.2034848928451538086 1.1696741580963134766 1.3423106670379638672 1.9309248924255371094 1.963451385498046875 1.759764552116394043 1.4657520055770874023 1.2967755794525146484 1.4726171493530273438 2.2581009864807128906 2.506008148193359375 2.9176676273345947266 3.4349572658538818359 5.1484441757202148438 6.9244365692138671875 8.5634393692016601562 7.8345022201538085938 7.9770879745483398438 8.6203832626342773438 6.28791046142578125 8.1431646347045898438 7.24439239501953125 3.6228663921356201172 1.6600641012191772461 2.0481288433074951172 2.3703854084014892578 2.4409162998199462891 4.4045577049255371094 5.3110165596008300781 5.4348282814025878906 8.8232889175415039062 10.366151809692382812 9.9186105728149414062 9.6872472763061523438 5.4426426887512207031 8.1750097274780273438 10.525928497314453125 10.757993698120117188 9.0056753158569335938 7.1817693710327148438 8.1037273406982421875 10.079632759094238281 10.188910484313964844 9.1547107696533203125 5.7785615921020507812 5.3762149810791015625 8.9156351089477539062 9.7739553451538085938 9.5593633651733398438 9.5536708831787109375 9.3476972579956054688 10.353204727172851562 10.349542617797851562 10.656594276428222656 10.813138961791992188 10.906269073486328125 10.854976654052734375 10.809296607971191406 10.646971702575683594 10.63042449951171875 10.755694389343261719 10.851938247680664062 10.588934898376464844 9.8015184402465820312 10.212592124938964844 7.9522848129272460938 5.144786834716796875 5.2277140617370605469 4.5990157127380371094 4.9459290504455566406 4.6794109344482421875 5.0663294792175292969 4.1359000205993652344 3.1127862930297851562 2.3440771102905273438 2.2425389289855957031 2.3422136306762695312 2.0906856060028076172 1.2335064411163330078 -9999 -9999 -9999 1.1525571346282958984 -9999 -9999 -9999 -9999 
-9999 -9999 -9999 -9999 -9999 -9999 -9999 -9999 -9999 1.0546171665191650391 1.0672464370727539062 1.0527145862579345703 -9999 -9999 -9999 1.1016297340393066406 -9999 1.1310859918594360352 1.1113805770874023438 1.1628586053848266602 1.2300046682357788086 1.2287194728851318359 1.1738791465759277344 1.2301503419876098633 1.2170312404632568359 1.211132049560546875 1.1711117029190063477 1.123608708381652832 -9999 -9999 1.2207071781158447266 1.2609741687774658203 -9999 -9999 1.2211966514587402344 1.1199680566787719727 -9999 -9999 1.0897978544235229492 1.128466486930847168 1.175220489501953125 1.2220805883407592773 1.4911339282989501953 2.3872122764587402344 2.4691038131713867188 2.7534558773040771484 2.6468563079833984375 2.3578760623931884766 2.1253478527069091797 3.7860395908355712891 3.4504487514495849609 2.7358388900756835938 4.2695155143737792969 4.2121071815490722656 4.0373578071594238281 4.8896999359130859375 3.8213176727294921875 4.1113042831420898438 4.9892282485961914062 4.683483123779296875 6.3728857040405273438 5.1046123504638671875 3.9464519023895263672 2.594585418701171875 3.0796186923980712891 1.917054295539855957 1.4825342893600463867 3.8558976650238037109 5.8667016029357910156 8.0242528915405273438 9.5363340377807617188 9.7522096633911132812 9.2713422775268554688 7.3192057609558105469 6.4699463844299316406 10.034989356994628906 10.521063804626464844 10.80722808837890625 10.40271759033203125 9.7496490478515625 9.0288715362548828125 9.8907747268676757812 9.4721441268920898438 9.8189945220947265625 7.4815149307250976562 6.0318636894226074219 7.7776722908020019531 7.9049763679504394531 9.3806285858154296875 9.5032444000244140625 9.8604068756103515625 10.240300178527832031 10.388052940368652344 10.498381614685058594 10.555457115173339844 10.673666954040527344 10.650043487548828125 10.768881797790527344 10.612195968627929688 10.62773895263671875 10.662360191345214844 10.703765869140625 10.651491165161132812 10.425971031188964844 10.776158332824707031 9.5525674819946289062 8.7849435806274414062 9.1439771652221679688 9.7578496932983398438 10.041459083557128906 9.7461948394775390625 9.7354860305786132812 8.3730754852294921875 6.8866772651672363281 5.6018047332763671875 4.2748370170593261719 2.8904125690460205078 2.2667572498321533203 1.2736760377883911133 1.1390027999877929688 -9999 -9999 -9999 -9999 -9999 -9999 -9999 
-9999 1.0386353731155395508 -9999 -9999 -9999 -9999 -9999 -9999 -9999 -9999 1.039469599723815918 -9999 -9999 1.0807569026947021484 -9999 -9999 1.1744725704193115234 1.1256434917449951172 1.1031520366668701172 1.16854095458984375 1.1434173583984375 1.1285370588302612305 1.1774880886077880859 1.3146702051162719727 1.3649994134902954102 1.2568902969360351562 1.3192341327667236328 1.2433818578720092773 1.0978238582611083984 1.1093738079071044922 1.1346564292907714844 -9999 1.2302651405334472656 1.1883971691131591797 1.2159618139266967773 1.0939242839813232422 1.1058468818664550781 1.2431708574295043945 1.1653056144714355469 1.2388437986373901367 1.3543972969055175781 1.6064223051071166992 1.7251653671264648438 2.0688490867614746094 2.8517653942108154297 2.6154389381408691406 2.1576991081237792969 2.2515347003936767578 2.2460296154022216797 1.9250344038009643555 2.1269145011901855469 2.6177694797515869141 3.6028664112091064453 3.7764134407043457031 3.2531585693359375 3.2294187545776367188 2.1026964187622070312 2.3859636783599853516 1.7679685354232788086 1.9991592168807983398 5.8534674644470214844 5.3732419013977050781 5.4074907302856445312 4.0229430198669433594 3.7323923110961914062 3.2238488197326660156 2.7417347431182861328 6.0320177078247070312 8.7800874710083007812 9.7906036376953125 8.4204549789428710938 8.0406932830810546875 7.2840313911437988281 4.013721466064453125 8.4048070907592773438 10.161488533020019531 10.093257904052734375 10.361501693725585938 10.651766777038574219 10.178980827331542969 10.657498359680175781 10.562733650207519531 9.6704187393188476562 9.8653306961059570312 9.2967615127563476562 8.0493307113647460938 8.2160282135009765625 4.6753478050231933594 7.6354107856750488281 9.6255550384521484375 9.9304370880126953125 9.9712476730346679688 10.392807960510253906 10.715921401977539062 10.609763145446777344 10.485413551330566406 10.30371856689453125 10.737635612487792969 10.782958984375 10.713133811950683594 10.673665046691894531 10.713656425476074219 10.591760635375976562 9.658069610595703125 10.209272384643554688 10.413519859313964844 10.428256988525390625 10.6381988525390625 10.521037101745605469 10.314755439758300781 9.8407468795776367188 10.058763504028320312 9.6992158889770507812 8.0736932754516601562 6.0374569892883300781 4.3799948692321777344 1.7418689727783203125 1.2200353145599365234 1.1475965976715087891 1.2629922628402709961 1.1353162527084350586 1.0354993343353271484 1.0544505119323730469 -9999 -9999 -9999 -9999 
1.0654864311218261719 -9999 -9999 -9999 -9999 -9999 -9999 -9999 -9999 -9999 -9999 -9999 -9999 -9999 -9999 -9999 1.2154384851455688477 1.1579370498657226562 -9999 1.0913395881652832031 -9999 1.1054979562759399414 1.2181909084320068359 1.4712388515472412109 1.482787013053894043 1.1328262090682983398 1.2120919227600097656 1.2072769403457641602 1.154144287109375 1.2242782115936279297 1.2407845258712768555 1.1202131509780883789 1.331892848014831543 1.5241075754165649414 1.3940410614013671875 1.1721836328506469727 1.165408015251159668 1.2377260923385620117 1.11457061767578125 1.2387151718139648438 1.6967841386795043945 2.0001218318939208984 1.7988233566284179688 1.4229226112365722656 1.7526489496231079102 1.4612407684326171875 1.2594823837280273438 1.3570944070816040039 1.2636218070983886719 -9999 1.4033763408660888672 2.0332732200622558594 2.8614940643310546875 1.8598343133926391602 2.0488088130950927734 1.7415797710418701172 -9999 1.3922340869903564453 1.5518637895584106445 3.1622459888458251953 5.7713918685913085938 7.261684417724609375 5.2749586105346679688 3.1963341236114501953 2.5150372982025146484 3.3105316162109375 3.1765429973602294922 3.3484604358673095703 5.2440142631530761719 5.1344203948974609375 6.5841045379638671875 7.9138255119323730469 4.1848392486572265625 5.4740285873413085938 9.540843963623046875 7.9546709060668945312 6.9507923126220703125 9.2884311676025390625 10.078790664672851562 7.0422720909118652344 9.6662168502807617188 7.90606689453125 9.4007387161254882812 9.7987642288208007812 9.0750684738159179688 9.7641572952270507812 9.46738433837890625 6.8223791122436523438 7.7326865196228027344 9.945133209228515625 10.177733421325683594 9.0923748016357421875 9.815898895263671875 10.739583015441894531 10.809359550476074219 10.297101020812988281 10.153203964233398438 10.870203018188476562 10.883678436279296875 10.772156715393066406 10.642843246459960938 9.923458099365234375 10.602613449096679688 10.383154869079589844 10.214104652404785156 9.7857112884521484375 9.2004299163818359375 9.3238401412963867188 10.502255439758300781 10.247271537780761719 9.449108123779296875 9.7399539947509765625 8.641803741455078125 5.6601495742797851562 4.154552459716796875 2.6641371250152587891 1.2130423784255981445 -9999 -9999 1.1418755054473876953 1.117900848388671875 1.0230607986450195312 -9999 -9999 -9999 -9999 -9999 
-9999 -9999 -9999 -9999 -9999 -9999 -9999 -9999 -9999 1.0698118209838867188 -9999 -9999 -9999 -9999 -9999 1.0872136354446411133 1.0845484733581542969 -9999 1.048534393310546875 1.1520054340362548828 1.2729524374008178711 1.2203969955444335938 1.6042542457580566406 1.4863611459732055664 1.2798392772674560547 1.1906039714813232422 1.1452530622482299805 1.4383178949356079102 1.6173604726791381836 1.6755208969116210938 1.5908640623092651367 1.506253361701965332 1.5857146978378295898 1.87158966064453125 1.2520916461944580078 1.1722140312194824219 1.139326930046081543 1.2473306655883789062 1.2431904077529907227 1.2348787784576416016 1.303238987922668457 1.2144532203674316406 1.3892492055892944336 1.2584244012832641602 1.3416537046432495117 1.5170346498489379883 1.3014867305755615234 1.2044888734817504883 1.148234248161315918 1.1584155559539794922 1.1528630256652832031 1.6071741580963134766 2.0736970901489257812 1.3602283000946044922 1.8384902477264404297 2.013141632080078125 1.4937688112258911133 1.3116984367370605469 2.4357755184173583984 4.8636498451232910156 7.0352435111999511719 7.2809891700744628906 4.2558393478393554688 1.7557129859924316406 1.2396425008773803711 2.5894877910614013672 3.8146765232086181641 3.5962865352630615234 3.6181380748748779297 4.0152115821838378906 5.4199285507202148438 4.5727100372314453125 3.8923738002777099609 8.5122852325439453125 8.9705476760864257812 5.3804039955139160156 4.8323931694030761719 9.5970983505249023438 10.649615287780761719 9.1726160049438476562 8.9107151031494140625 9.2993450164794921875 10.167452812194824219 10.29457855224609375 10.375095367431640625 9.6403207778930664062 8.0281038284301757812 6.2800683975219726562 6.8092188835144042969 9.4969997406005859375 10.21941375732421875 9.4647493362426757812 10.193024635314941406 10.6585540771484375 10.724013328552246094 10.420345306396484375 10.394134521484375 10.953755378723144531 11 10.854390144348144531 10.353653907775878906 9.7193746566772460938 10.606964111328125 10.220694541931152344 8.8233041763305664062 7.6916074752807617188 9.25653839111328125 9.3417367935180664062 8.4429073333740234375 9.5999011993408203125 6.8220777511596679688 4.7912974357604980469 3.4929833412170410156 1.8970105648040771484 1.4216278791427612305 1.4817520380020141602 1.3299993276596069336 1.2912660837173461914 1.2058870792388916016 1.056704401969909668 1.0245176553726196289 1.0278922319412231445 1.00678253173828125 -9999 -9999 -9999 1.0313205718994140625 
1.0107136964797973633 -9999 -9999 -9999 -9999 -9999 -9999 -9999 -9999 -9999 -9999 1.0749634504318237305 1.0921835899353027344 -9999 1.1061316728591918945 1.0872678756713867188 1.0739368200302124023 -9999 -9999 1.1921864748001098633 1.4394681453704833984 1.289301753044128418 1.518336176872253418 1.5329629182815551758 1.2152713537216186523 1.2121137380599975586 1.2389407157897949219 1.5333333015441894531 1.8172345161437988281 1.6655533313751220703 1.6397780179977416992 1.4561012983322143555 1.3440904617309570312 1.3605499267578125 1.1830408573150634766 1.2415494918823242188 1.0940885543823242188 1.2114342451095581055 1.2879073619842529297 1.1440602540969848633 1.1277675628662109375 1.1721653938293457031 1.0991514921188354492 1.0966981649398803711 1.5175879001617431641 2.6305553913116455078 2.7182798385620117188 2.3112351894378662109 1.5011020898818969727 1.1927329301834106445 -9999 1.09218597412109375 -9999 1.7350631952285766602 3.8909003734588623047 4.9160609245300292969 3.9752233028411865234 3.6293194293975830078 5.22417449951171875 4.5731759071350097656 4.7315077781677246094 4.3638167381286621094 1.7110460996627807617 -9999 1.1405878067016601562 2.0858378410339355469 2.2004272937774658203 2.4147953987121582031 3.1383414268493652344 4.0214028358459472656 2.7905244827270507812 1.7061541080474853516 4.9904661178588867188 8.9485559463500976562 6.4972014427185058594 4.3452677726745605469 7.9125194549560546875 10.412251472473144531 10.530106544494628906 7.2061514854431152344 7.5650687217712402344 9.8070383071899414062 9.828868865966796875 9.7436513900756835938 7.8039431571960449219 4.4839730262756347656 2.9507577419281005859 5.5081233978271484375 9.267181396484375 10.412885665893554688 10.535290718078613281 10.347284317016601562 10.470114707946777344 10.684515953063964844 10.618969917297363281 10.788324356079101562 10.919246673583984375 10.930190086364746094 10.904521942138671875 10.835084915161132812 10.569494247436523438 10.5204315185546875 10.579838752746582031 9.2992181777954101562 8.0710849761962890625 9.7432374954223632812 9.8829088211059570312 8.2336683273315429688 7.8362565040588378906 6.3659434318542480469 4.1888399124145507812 3.5215933322906494141 2.9656839370727539062 2.5993611812591552734 2.8539116382598876953 3.9496080875396728516 2.947055816650390625 2.2619714736938476562 1.7230523824691772461 1.1831095218658447266 1.0410250425338745117 1.0951691865921020508 -9999 -9999 1.0437438488006591797 1.0908291339874267578 1.0677318572998046875 
-9999 -9999 -9999 -9999 -9999 1.0086488723754882812 -9999 -9999 -9999 -9999 -9999 -9999 1.0841391086578369141 -9999 1.202706456184387207 1.1725134849548339844 -9999 1.1122018098831176758 1.0759774446487426758 1.116629481315612793 1.1575549840927124023 1.3339407444000244141 1.4300978183746337891 1.3955986499786376953 1.2939466238021850586 1.1419886350631713867 1.1174651384353637695 1.2983958721160888672 1.4189214706420898438 1.1869713068008422852 1.0870825052261352539 1.0579934120178222656 1.2106212377548217773 1.2064892053604125977 1.1908426284790039062 1.1546602249145507812 -9999 1.1072380542755126953 1.2646706104278564453 1.1016523838043212891 1.2410383224487304688 1.3099311590194702148 1.0930764675140380859 1.3130011558532714844 1.7281473875045776367 2.1007795333862304688 2.9829239845275878906 3.4813942909240722656 1.7243638038635253906 -9999 -9999 -9999 1.6923375129699707031 3.8493103981018066406 5.6215004920959472656 6.6944208145141601562 5.2098541259765625 3.8256528377532958984 3.6187388896942138672 2.1299061775207519531 1.4456716775894165039 1.6075749397277832031 1.1736533641815185547 -9999 1.2338868379592895508 1.6923832893371582031 1.3024041652679443359 1.2321820259094238281 1.6904404163360595703 2.1909861564636230469 1.6289646625518798828 1.3323595523834228516 4.4680414199829101562 8.1291675567626953125 6.0913891792297363281 6.7010660171508789062 9.9344692230224609375 10.713521957397460938 10.692835807800292969 8.9867620468139648438 8.3447408676147460938 8.3086833953857421875 8.1539220809936523438 7.499179840087890625 2.6992466449737548828 1.3792039155960083008 2.7002682685852050781 6.3331294059753417969 8.08502960205078125 9.8436832427978515625 10.229223251342773438 10.29278564453125 10.418062210083007812 10.589778900146484375 10.720750808715820312 10.928187370300292969 10.924489021301269531 10.67316436767578125 10.572915077209472656 10.711870193481445312 10.680303573608398438 10.655079841613769531 10.598867416381835938 10.48413848876953125 10.268685340881347656 10.544965744018554688 9.9055814743041992188 8.0026197433471679688 9.503635406494140625 9.5544033050537109375 7.3168835639953613281 3.3822979927062988281 2.8221178054809570312 4.9647259712219238281 5.014678955078125 5.12026214599609375 3.7756969928741455078 2.4307148456573486328 1.5056401491165161133 1.1769886016845703125 1.1031329631805419922 1.0823791027069091797 -9999 1.0134577751159667969 1.0453287363052368164 1.0531399250030517578 1.0914254188537597656 
-9999 -9999 -9999 -9999 -9999 -9999 -9999 -9999 -9999 1.0639823675155639648 -9999 1.0510299205780029297 1.0617356300354003906 1.1225178241729736328 1.1710298061370849609 1.1150077581405639648 1.1227110624313354492 1.151331782341003418 1.1788566112518310547 1.2242537736892700195 1.1133217811584472656 1.2325700521469116211 1.2626354694366455078 1.2821092605590820312 -9999 -9999 1.0350457429885864258 -9999 -9999 -9999 1.1518509387969970703 1.1327589750289916992 1.3051866292953491211 1.265635371208190918 1.1206476688385009766 1.1374017000198364258 1.0618367195129394531 1.0408835411071777344 1.0969198942184448242 -9999 1.1237704753875732422 1.1211196184158325195 1.0704911947250366211 1.2170256376266479492 1.4684684276580810547 1.7024500370025634766 2.7631354331970214844 3.4892110824584960938 1.7799228429794311523 1.0646361112594604492 1.0739009380340576172 1.0757274627685546875 2.0385553836822509766 4.544891357421875 3.6545984745025634766 3.0711643695831298828 2.0115032196044921875 -9999 1.3028227090835571289 1.2070765495300292969 -9999 1.1255501508712768555 -9999 1.1762216091156005859 1.2770079374313354492 1.4054968357086181641 1.2329512834548950195 1.2786235809326171875 -9999 1.8485695123672485352 2.2756791114807128906 3.3294363021850585938 4.8583178520202636719 4.8905673027038574219 4.2895684242248535156 8.1525526046752929688 10.235284805297851562 10.794413566589355469 10.834239959716796875 9.9557619094848632812 7.2708568572998046875 7.9903750419616699219 9.3559436798095703125 8.8729486465454101562 3.6365399360656738281 1.7543852329254150391 3.6925611495971679688 6.1030793190002441406 6.54805755615234375 8.7579526901245117188 7.1558208465576171875 7.887798309326171875 10.180581092834472656 10.226488113403320312 10.349896430969238281 10.644166946411132812 10.731593132019042969 10.52327728271484375 10.255099296569824219 10.564821243286132812 10.637006759643554688 10.647390365600585938 10.606215476989746094 10.651556968688964844 10.6508636474609375 10.487285614013671875 9.3970804214477539062 8.5090045928955078125 10.304727554321289062 10.008524894714355469 8.5763530731201171875 4.8416776657104492188 5.2714486122131347656 6.9997115135192871094 5.550388336181640625 4.1066155433654785156 2.6404061317443847656 1.6220042705535888672 1.4146595001220703125 1.2222417593002319336 1.1961545944213867188 1.1636809110641479492 1.0832042694091796875 1.0356856584548950195 1.0049117803573608398 1.0183678865432739258 1.0499457120895385742 
-9999 -9999 -9999 -9999 -9999 -9999 -9999 1.1263583898544311523 1.101157069206237793 -9999 1.2514542341232299805 1.2398087978363037109 1.0981307029724121094 1.1357254981994628906 1.2595754861831665039 1.2623957395553588867 1.1304922103881835938 1.215191960334777832 1.5758162736892700195 1.4886368513107299805 1.2589104175567626953 1.1039813756942749023 1.1791024208068847656 1.1433546543121337891 1.1843216419219970703 1.1053947210311889648 1.0733315944671630859 1.0774877071380615234 1.1446195840835571289 1.078004002571105957 1.1809400320053100586 1.2557270526885986328 1.2834392786026000977 1.4021706581115722656 1.1989554166793823242 -9999 1.1767232418060302734 1.1027495861053466797 1.0559341907501220703 1.1715277433395385742 1.1836264133453369141 1.1062053442001342773 1.1196296215057373047 1.1202731132507324219 1.1227838993072509766 1.1886398792266845703 1.7934994697570800781 2.7810044288635253906 2.1701221466064453125 1.1314263343811035156 -9999 1.2391985654830932617 2.5653820037841796875 4.1790981292724609375 1.9369699954986572266 1.1752153635025024414 -9999 1.093196868896484375 1.0681725740432739258 1.1198151111602783203 1.8465157747268676758 1.6714292764663696289 -9999 1.2696492671966552734 1.6247330904006958008 1.478183746337890625 1.4951440095901489258 1.9828357696533203125 1.1363812685012817383 1.4754614830017089844 2.4971144199371337891 4.230438232421875 5.6395864486694335938 5.26531982421875 5.4985260963439941406 8.9244747161865234375 10.354036331176757812 10.577959060668945312 10.549060821533203125 7.7536921501159667969 6.97135162353515625 9.5966777801513671875 10.342455863952636719 9.396244049072265625 5.8999123573303222656 2.8579008579254150391 -9999 4.5043573379516601562 7.1105566024780273438 8.1547861099243164062 4.2127566337585449219 5.9909043312072753906 10.067968368530273438 8.8794956207275390625 9.0901613235473632812 10.128436088562011719 10.586226463317871094 10.667998313903808594 10.60956573486328125 10.550757408142089844 10.505337715148925781 10.624422073364257812 10.686371803283691406 10.695194244384765625 10.09874725341796875 9.9589929580688476562 9.0807819366455078125 9.5284786224365234375 9.8096294403076171875 5.2251911163330078125 3.9203829765319824219 4.0136418342590332031 7.7535762786865234375 7.8263425827026367188 5.9177870750427246094 3.0593852996826171875 1.9976358413696289062 1.2523865699768066406 1.2474638223648071289 1.1782889366149902344 1.2556562423706054688 1.2697999477386474609 1.2239459753036499023 1.1152439117431640625 1.0087368488311767578 1.0324075222015380859 1.0689202547073364258 
-9999 -9999 -9999 -9999 -9999 -9999 1.1726626157760620117 1.3452196121215820312 1.161673426628112793 1.1068198680877685547 1.3412231206893920898 1.2803527116775512695 1.1281832456588745117 1.1666049957275390625 1.2002283334732055664 1.1357376575469970703 1.1645331382751464844 1.2850741147994995117 1.4308071136474609375 1.2155078649520874023 1.1275467872619628906 1.2587184906005859375 1.4925076961517333984 -9999 1.205519556999206543 1.1754124164581298828 -9999 1.1991021633148193359 1.2840037345886230469 -9999 1.0761433839797973633 1.1846746206283569336 1.1293839216232299805 1.2071256637573242188 1.1883141994476318359 1.3036061525344848633 1.1732326745986938477 1.0916773080825805664 1.0869054794311523438 1.1528339385986328125 1.2123911380767822266 1.1282609701156616211 1.0543448925018310547 1.1183217763900756836 1.1711075305938720703 1.0483630895614624023 1.0905928611755371094 1.4259945154190063477 1.5363600254058837891 1.1988369226455688477 1.2994378805160522461 1.394082188606262207 1.9247622489929199219 2.3439385890960693359 1.4808040857315063477 -9999 -9999 1.1098639965057373047 1.0893305540084838867 1.6895734071731567383 4.038604736328125 2.9878215789794921875 -9999 1.4310582876205444336 1.6344330310821533203 2.3339486122131347656 2.8263347148895263672 2.0314245223999023438 1.4670749902725219727 2.3571612834930419922 3.9445161819458007812 6.0069365501403808594 5.360424041748046875 4.6402163505554199219 6.7422862052917480469 8.0568342208862304688 8.91684722900390625 9.3470859527587890625 7.549530029296875 2.7439210414886474609 3.1830034255981445312 7.7630696296691894531 10.133729934692382812 9.4873495101928710938 7.0082902908325195312 3.3791868686676025391 1.5098212957382202148 3.1468982696533203125 6.3621373176574707031 7.3378062248229980469 7.1338343620300292969 8.8669157028198242188 9.906917572021484375 9.6679010391235351562 10.000112533569335938 9.67383575439453125 10.380726814270019531 10.322579383850097656 10.437136650085449219 10.412569999694824219 10.432359695434570312 10.616671562194824219 10.59503936767578125 10.218975067138671875 9.0826568603515625 9.865512847900390625 8.664318084716796875 8.24881744384765625 6.0864076614379882812 2.1899371147155761719 2.2156782150268554688 4.5557389259338378906 6.515594482421875 6.5688199996948242188 4.9065794944763183594 4.0593113899230957031 3.4048395156860351562 1.7935849428176879883 1.1492084264755249023 1.0479940176010131836 1.1423828601837158203 1.1994338035583496094 1.1321854591369628906 1.0979996919631958008 -9999 -9999 -9999 
1.1212733983993530273 -9999 -9999 1.097008824348449707 1.1236039400100708008 1.2659230232238769531 1.1830066442489624023 1.2228152751922607422 1.1813338994979858398 1.1338264942169189453 1.1858327388763427734 1.133498072624206543 1.1496603488922119141 1.0856112241744995117 1.097243189811706543 1.1624263525009155273 1.4180414676666259766 1.7167891263961791992 1.3543665409088134766 1.1598536968231201172 -9999 1.1246069669723510742 1.2731267213821411133 1.1383173465728759766 1.4692331552505493164 1.3480167388916015625 -9999 -9999 -9999 -9999 1.1551897525787353516 1.1370090246200561523 -9999 1.1822066307067871094 1.1292911767959594727 1.2708994150161743164 1.2006616592407226562 1.1038261651992797852 1.0641236305236816406 1.1187744140625 1.2556339502334594727 -9999 1.0845597982406616211 1.1620887517929077148 1.1958135366439819336 1.0433022975921630859 -9999 1.0904314517974853516 -9999 1.6412513256072998047 2.2130446434020996094 2.0205814838409423828 -9999 -9999 -9999 -9999 -9999 -9999 -9999 1.7229343652725219727 4.2735033035278320312 2.969524383544921875 1.2993972301483154297 1.9138147830963134766 1.9433599710464477539 2.4839069843292236328 2.1159503459930419922 1.7829747200012207031 2.6673395633697509766 4.680629730224609375 7.4094662666320800781 7.2897830009460449219 5.6845827102661132812 5.1405062675476074219 5.0937457084655761719 5.5047121047973632812 4.2442746162414550781 5.6428737640380859375 5.854343414306640625 3.9445912837982177734 3.8795654773712158203 7.9151096343994140625 10.435690879821777344 9.95520782470703125 8.01590728759765625 3.5574600696563720703 2.0143523216247558594 2.5890495777130126953 4.7675356864929199219 7.67104339599609375 9.6443195343017578125 10.174338340759277344 10.0164642333984375 9.6652154922485351562 8.5597791671752929688 8.1541986465454101562 10.022698402404785156 10.407513618469238281 10.30451202392578125 10.215576171875 10.088109016418457031 9.3618059158325195312 8.8150510787963867188 9.63854217529296875 9.8685121536254882812 9.323459625244140625 6.4460349082946777344 3.3128478527069091797 1.9513709545135498047 2.1911745071411132812 3.9707529544830322266 5.3391923904418945312 5.5874075889587402344 6.1336488723754882812 5.8901500701904296875 6.06465911865234375 4.0633420944213867188 1.9700188636779785156 1.3761907815933227539 1.0844361782073974609 -9999 -9999 1.0696568489074707031 -9999 -9999 -9999 -9999 
1.1077703237533569336 1.0647491216659545898 -9999 1.1911853551864624023 1.6844061613082885742 2.5356488227844238281 1.6713079214096069336 1.2010717391967773438 1.3051059246063232422 -9999 1.5818992853164672852 1.3297384977340698242 1.1077616214752197266 -9999 1.1417354345321655273 1.232461094856262207 1.4708274602890014648 1.603741765022277832 1.5382801294326782227 1.3456995487213134766 1.1138962507247924805 1.0311151742935180664 1.1191676855087280273 1.2444306612014770508 2.7757902145385742188 2.6888051033020019531 1.3912595510482788086 1.225494384765625 1.0118396282196044922 -9999 1.0923948287963867188 1.0720815658569335938 1.1171513795852661133 1.1213792562484741211 1.1470937728881835938 1.120357513427734375 1.1297776699066162109 1.1474622488021850586 1.0931622982025146484 1.0739998817443847656 1.1222237348556518555 1.1351583003997802734 1.1357290744781494141 1.0884362459182739258 1.1933001279830932617 1.1229888200759887695 -9999 -9999 -9999 1.3552285432815551758 2.4615418910980224609 2.4485383033752441406 -9999 -9999 -9999 -9999 -9999 -9999 1.6594386100769042969 2.3058335781097412109 4.2637867927551269531 3.0790381431579589844 3.3548684120178222656 2.7664585113525390625 2.006359100341796875 1.4834061861038208008 1.3442450761795043945 2.6041979789733886719 4.9013509750366210938 4.1249833106994628906 6.0874719619750976562 7.3115568161010742188 4.7868595123291015625 4.7651686668395996094 5.5493721961975097656 6.3744835853576660156 4.2474408149719238281 5.2831959724426269531 4.7608733177185058594 6.6767277717590332031 7.6584367752075195312 9.4099607467651367188 10.337214469909667969 10.244313240051269531 9.7260084152221679688 7.127410888671875 5.5225372314453125 5.9129767417907714844 8.1999835968017578125 10.005686759948730469 10.071259498596191406 10.03565216064453125 10.23181915283203125 9.24796295166015625 7.8311090469360351562 9.2253065109252929688 10.155728340148925781 10.260098457336425781 9.98685455322265625 10.054648399353027344 10.034603118896484375 8.2194423675537109375 8.1206102371215820312 9.6468915939331054688 8.6030216217041015625 5.6818766593933105469 2.9383916854858398438 1.5604116916656494141 1.8410062789916992188 2.7377247810363769531 5.4772381782531738281 4.0884270668029785156 3.6467103958129882812 3.2928700447082519531 3.7491085529327392578 4.0809698104858398438 3.6727206707000732422 2.5371139049530029297 1.6317157745361328125 1.1210619211196899414 -9999 -9999 -9999 -9999 -9999 -9999 -9999 
1.0984479188919067383 1.1377718448638916016 1.1939938068389892578 1.5619130134582519531 2.7785685062408447266 3.5546269416809082031 2.4252364635467529297 1.6040387153625488281 1.7810416221618652344 1.8679453134536743164 1.9650795459747314453 1.5516152381896972656 1.136889338493347168 1.1149120330810546875 1.148836970329284668 1.0986369848251342773 1.2677959203720092773 1.2322374582290649414 1.5971117019653320312 1.2416511774063110352 -9999 1.0207054615020751953 -9999 1.2496433258056640625 2.8525073528289794922 3.8234319686889648438 1.8936467170715332031 1.1581217050552368164 -9999 -9999 1.0778765678405761719 -9999 1.2324969768524169922 1.1299800872802734375 1.4114111661911010742 1.2961871623992919922 1.1205335855484008789 1.0757496356964111328 1.0779116153717041016 1.0365443229675292969 1.0803225040435791016 1.1009784936904907227 1.1192563772201538086 1.2273133993148803711 1.2114068269729614258 1.2678766250610351562 1.0792311429977416992 1.0240091085433959961 -9999 -9999 2.2495503425598144531 2.4489829540252685547 2.4823026657104492188 1.5882141590118408203 -9999 -9999 1.4030319452285766602 1.9631356000900268555 3.8912901878356933594 4.4780263900756835938 3.3932414054870605469 5.6614370346069335938 7.4015951156616210938 5.3055009841918945312 2.1054472923278808594 1.5793515443801879883 1.944390416145324707 2.7901935577392578125 4.2158236503601074219 3.6864018440246582031 3.8002400398254394531 3.8603277206420898438 2.5240240097045898438 4.0239987373352050781 8.3705835342407226562 8.5270166397094726562 6.9049930572509765625 5.5705842971801757812 4.7717375755310058594 8.40673065185546875 8.901340484619140625 8.9610013961791992188 8.0588178634643554688 8.9208307266235351562 9.0715541839599609375 8.938678741455078125 9.6208982467651367188 9.8670520782470703125 9.9640522003173828125 10.095059394836425781 9.7212858200073242188 9.452686309814453125 10.071702003479003906 9.3990297317504882812 7.6749267578125 9.2154607772827148438 10.216408729553222656 10.213072776794433594 9.8824558258056640625 10.2048797607421875 10.404643058776855469 10.091434478759765625 10.041925430297851562 9.8029689788818359375 6.2453937530517578125 4.2128610610961914062 3.7564306259155273438 2.2540326118469238281 2.9833595752716064453 4.1397085189819335938 4.1095662117004394531 2.6042463779449462891 2.3306963443756103516 1.9914865493774414062 2.2326560020446777344 2.1539804935455322266 1.7862632274627685547 2.3174581527709960938 1.7110550403594970703 1.1310908794403076172 -9999 -9999 -9999 -9999 -9999 -9999 -9999 
-9999 -9999 1.1498953104019165039 1.4553014039993286133 1.654782414436340332 1.7466737031936645508 1.7194869518280029297 1.7105090618133544922 1.3819055557250976562 1.4290332794189453125 1.3411773443222045898 1.2141300439834594727 1.1006220579147338867 1.0534178018569946289 1.0755766630172729492 -9999 -9999 1.1773420572280883789 1.4946310520172119141 1.2068420648574829102 1.0656020641326904297 -9999 -9999 -9999 1.4668886661529541016 2.2584314346313476562 1.8721452951431274414 1.2163648605346679688 1.171513676643371582 1.0781635046005249023 1.1196339130401611328 -9999 -9999 1.1082991361618041992 1.2953962087631225586 1.2009177207946777344 1.2343689203262329102 -9999 1.046925663948059082 1.1740012168884277344 1.2479132413864135742 1.1793805360794067383 1.4239349365234375 1.3526444435119628906 1.2462298870086669922 1.3483918905258178711 1.1257413625717163086 1.1438459157943725586 1.0667841434478759766 1.2182277441024780273 2.0261380672454833984 2.4660265445709228516 2.9964957237243652344 2.4359312057495117188 1.4041513204574584961 -9999 2.0413985252380371094 3.2385952472686767578 4.2487187385559082031 6.1689219474792480469 5.4911975860595703125 7.9311227798461914062 8.4559698104858398438 6.4052739143371582031 3.6156475543975830078 3.4098322391510009766 3.9775280952453613281 5.3772234916687011719 3.2284433841705322266 1.6125696897506713867 1.5851598978042602539 1.6760320663452148438 2.5260686874389648438 6.9968614578247070312 9.8229131698608398438 9.1648998260498046875 5.5913877487182617188 5.5802302360534667969 6.6662530899047851562 9.6207218170166015625 9.706073760986328125 8.61773681640625 5.5079784393310546875 9.2250843048095703125 9.8237400054931640625 9.6451387405395507812 10.209620475769042969 10.08281707763671875 9.1491651535034179688 8.896907806396484375 9.3196477890014648438 9.614139556884765625 8.674999237060546875 8.1265506744384765625 5.216632843017578125 4.9667572975158691406 7.5833196640014648438 8.63745880126953125 8.8663578033447265625 10.096844673156738281 10.243958473205566406 10.382596015930175781 10.081694602966308594 9.3325452804565429688 6.4574880599975585938 5.5625147819519042969 5.214183807373046875 3.7305817604064941406 3.497066497802734375 4.6378712654113769531 3.1911668777465820312 2.8010044097900390625 2.1760213375091552734 2.4891488552093505859 2.1880710124969482422 1.5043321847915649414 1.1776467561721801758 1.4961755275726318359 1.4128180742263793945 1.0597279071807861328 -9999 -9999 -9999 -9999 -9999 -9999 1.1001797914505004883 
-9999 -9999 -9999 1.1073555946350097656 1.4859781265258789062 1.9205223321914672852 1.8653395175933837891 -9999 -9999 -9999 -9999 1.0619422197341918945 1.0264192819595336914 1.0550742149353027344 1.1110872030258178711 1.0933165550231933594 -9999 1.0479190349578857422 1.0858918428421020508 1.1232254505157470703 1.0817917585372924805 -9999 -9999 -9999 -9999 1.2337957620620727539 1.7433096170425415039 1.3591375350952148438 1.0843956470489501953 1.0456191301345825195 1.0749489068984985352 1.0647952556610107422 1.2457101345062255859 1.3690053224563598633 1.1656980514526367188 1.120406031608581543 1.1243658065795898438 -9999 1.1679735183715820312 1.4887796640396118164 1.1720451116561889648 1.1620850563049316406 1.6614842414855957031 2.8220417499542236328 1.7061928510665893555 1.1025513410568237305 1.2101335525512695312 1.290227055549621582 1.1562422513961791992 1.1349214315414428711 1.5112644433975219727 2.4964497089385986328 3.0539710521697998047 2.8855345249176025391 1.8599278926849365234 -9999 1.947231292724609375 2.2455968856811523438 3.1254055500030517578 4.8246397972106933594 7.1134696006774902344 7.6932978630065917969 5.9798421859741210938 3.7142863273620605469 3.3487553596496582031 5.95999908447265625 5.6445493698120117188 5.3475852012634277344 2.4856951236724853516 1.2294826507568359375 2.7155351638793945312 2.6765844821929931641 3.5925920009613037109 8.5657339096069335938 9.8497753143310546875 9.6680383682250976562 7.1741170883178710938 7.0203938484191894531 9.3386564254760742188 9.6131114959716796875 9.7788639068603515625 9.4805707931518554688 7.8201785087585449219 10.319078445434570312 10.396658897399902344 9.5932559967041015625 9.594516754150390625 10.096380233764648438 9.6860790252685546875 8.8178930282592773438 8.2500362396240234375 8.853061676025390625 6.552478790283203125 4.3182625770568847656 2.0673913955688476562 1.902661442756652832 3.7266764640808105469 8.235240936279296875 9.8541231155395507812 9.9652986526489257812 8.8731288909912109375 7.5810947418212890625 8.1418962478637695312 8.2917451858520507812 6.8036875724792480469 3.9978542327880859375 3.2804584503173828125 4.2937922477722167969 4.6439256668090820312 4.5304427146911621094 2.3887510299682617188 2.2957799434661865234 1.7666161060333251953 1.9821336269378662109 1.853304743766784668 1.4350132942199707031 1.1038728952407836914 1.2502460479736328125 1.3480176925659179688 1.0937891006469726562 -9999 -9999 -9999 -9999 -9999 -9999 -9999 
-9999 -9999 -9999 1.188794255256652832 1.6650447845458984375 2.1700251102447509766 2.1938674449920654297 1.5384321212768554688 1.2479262351989746094 1.1925275325775146484 -9999 -9999 1.0306144952774047852 1.0189989805221557617 1.0343968868255615234 1.0371664762496948242 1.0770576000213623047 -9999 -9999 -9999 -9999 -9999 -9999 -9999 -9999 -9999 -9999 1.1313368082046508789 1.1389293670654296875 1.0586588382720947266 1.0712935924530029297 -9999 1.2866053581237792969 1.3023847341537475586 -9999 1.1895761489868164062 1.1527818441390991211 -9999 1.0958648920059204102 1.1638667583465576172 1.0419303178787231445 1.0511001348495483398 1.7466883659362792969 3.0681018829345703125 2.7993235588073730469 1.5861107110977172852 1.5786840915679931641 2.1939032077789306641 1.5057723522186279297 -9999 1.70134735107421875 2.2313644886016845703 3.0763070583343505859 3.2755336761474609375 2.0365529060363769531 -9999 1.3061553239822387695 1.6334944963455200195 1.7932579517364501953 2.2920587062835693359 5.6578755378723144531 6.2183322906494140625 4.7590813636779785156 4.3083767890930175781 5.904327392578125 5.8126630783081054688 3.2456617355346679688 2.2235293388366699219 1.5923758745193481445 1.1805870532989501953 2.3486459255218505859 2.1944079399108886719 3.7145226001739501953 4.9541988372802734375 6.7826161384582519531 7.0488023757934570312 4.9057412147521972656 6.3885941505432128906 9.3453912734985351562 8.2194766998291015625 8.1521205902099609375 10.056483268737792969 9.84714508056640625 10.618067741394042969 10.4389801025390625 10.164356231689453125 9.7954664230346679688 10.219841957092285156 9.1534833908081054688 8.4738616943359375 7.6703658103942871094 8.5328769683837890625 8.6639699935913085938 6.2724857330322265625 1.9992473125457763672 1.4688160419464111328 2.8277084827423095703 5.1615033149719238281 7.7674846649169921875 7.5844573974609375 4.2270960807800292969 1.9182407855987548828 3.0088570117950439453 5.927524566650390625 6.5473527908325195312 4.5432543754577636719 3.5910670757293701172 3.4843208789825439453 3.9899415969848632812 4.6264925003051757812 1.9752584695816040039 1.2255730628967285156 1.3418668508529663086 1.4024084806442260742 1.1899075508117675781 1.1028639078140258789 1.0349385738372802734 1.2383059263229370117 1.3221633434295654297 1.1679599285125732422 1.053351283073425293 -9999 -9999 -9999 -9999 -9999 -9999 
-9999 1.1334029436111450195 -9999 1.0905013084411621094 1.2990013360977172852 1.6654882431030273438 1.8681572675704956055 1.6539298295974731445 1.5435974597930908203 1.4176961183547973633 1.1577093601226806641 1.1270490884780883789 1.1460360288619995117 -9999 -9999 1.0424311161041259766 -9999 1.051945805549621582 -9999 -9999 -9999 -9999 -9999 -9999 -9999 -9999 -9999 -9999 1.1642866134643554688 1.1058663129806518555 1.0704809427261352539 -9999 1.1290565729141235352 1.1624530553817749023 1.0894402265548706055 1.1287500858306884766 -9999 1.0556946992874145508 1.1147613525390625 1.056232452392578125 1.0235815048217773438 1.019430994987487793 1.1782332658767700195 2.2385623455047607422 4.180492401123046875 2.5662653446197509766 2.1021587848663330078 2.4322454929351806641 1.4450403451919555664 1.27867889404296875 2.2002704143524169922 2.0454142093658447266 2.0049335956573486328 2.8818218708038330078 1.9070938825607299805 1.2433214187622070312 1.1326888799667358398 1.231830596923828125 1.2214121818542480469 1.7840137481689453125 2.5901000499725341797 5.3999872207641601562 3.99613189697265625 4.4756793975830078125 5.8449835777282714844 3.7776961326599121094 2.2662169933319091797 1.3273233175277709961 1.0714762210845947266 1.3647414445877075195 2.2523875236511230469 1.6442477703094482422 1.9040266275405883789 2.9587464332580566406 3.6446950435638427734 2.7701544761657714844 2.9879028797149658203 6.6330766677856445312 9.815555572509765625 8.4456539154052734375 7.9760656356811523438 10.4833526611328125 10.602511405944824219 10.300931930541992188 10.529561042785644531 10.588720321655273438 10.141666412353515625 10.201244354248046875 9.5694580078125 8.3559856414794921875 7.8003830909729003906 7.6109299659729003906 6.7408666610717773438 5.1139364242553710938 2.5446279048919677734 2.7567284107208251953 3.7766170501708984375 3.097820281982421875 2.9548220634460449219 4.1499981880187988281 3.7017102241516113281 1.7504094839096069336 3.5421817302703857422 5.5068335533142089844 6.2294287681579589844 5.3812475204467773438 5.0127167701721191406 5.2851266860961914062 4.7092275619506835938 3.9915018081665039062 2.1123049259185791016 1.2835261821746826172 1.2158601284027099609 1.1284738779067993164 1.0278927087783813477 -9999 1.1390197277069091797 1.4395389556884765625 1.3573988676071166992 1.1026796102523803711 -9999 -9999 -9999 -9999 -9999 -9999 -9999 
-9999 -9999 -9999 -9999 1.0971506834030151367 1.3555471897125244141 1.5320650339126586914 1.5326672792434692383 1.5813633203506469727 1.4217602014541625977 1.2190768718719482422 1.108168482780456543 1.1855472326278686523 1.0579886436462402344 -9999 -9999 -9999 -9999 1.1716198921203613281 1.4171295166015625 1.1112471818923950195 -9999 -9999 -9999 -9999 -9999 -9999 -9999 1.1245014667510986328 1.1103551387786865234 -9999 -9999 1.1010452508926391602 1.1501526832580566406 1.1859201192855834961 1.1457626819610595703 -9999 1.0549149513244628906 1.1024765968322753906 -9999 1.0111230611801147461 1.0208783149719238281 1.1203858852386474609 1.8429355621337890625 4.13716888427734375 2.860607147216796875 1.7327187061309814453 1.6012328863143920898 -9999 1.7748109102249145508 2.4540517330169677734 2.31224822998046875 1.2748944759368896484 2.2773871421813964844 2.4810349941253662109 1.3650008440017700195 -9999 1.0504715442657470703 1.7777764797210693359 3.1423039436340332031 2.7412371635437011719 4.3670277595520019531 2.8964869976043701172 4.57872772216796875 4.0185403823852539062 2.2621996402740478516 1.6542804241180419922 1.192654728889465332 -9999 1.5368251800537109375 2.6764454841613769531 1.6537882089614868164 1.1723999977111816406 2.6448674201965332031 3.1026942729949951172 1.9876818656921386719 3.6621992588043212891 9.1698808670043945312 10.040472984313964844 8.3465728759765625 8.9148588180541992188 10.383067131042480469 10.647874832153320312 10.552773475646972656 10.679050445556640625 10.672635078430175781 10.106237411499023438 8.6589231491088867188 8.8175334930419921875 8.193737030029296875 5.4620347023010253906 3.4689288139343261719 3.4930286407470703125 3.2020022869110107422 2.7406497001647949219 2.4775090217590332031 2.5975110530853271484 2.6176776885986328125 1.8916548490524291992 1.6965289115905761719 1.6806690692901611328 1.4657775163650512695 3.2469775676727294922 5.1180429458618164062 5.1146759986877441406 4.8608484268188476562 4.150554656982421875 4.9276976585388183594 3.9379472732543945312 3.525211334228515625 2.3376297950744628906 1.8459626436233520508 1.7939145565032958984 1.4759734869003295898 1.0701277256011962891 1.0474312305450439453 1.1679623126983642578 1.2410273551940917969 1.1177184581756591797 -9999 -9999 -9999 -9999 -9999 -9999 -9999 -9999 
-9999 -9999 -9999 -9999 -9999 -9999 1.2838377952575683594 1.3120886087417602539 1.3464133739471435547 1.4370846748352050781 1.3301665782928466797 1.1334569454193115234 1.2357574701309204102 1.1186028718948364258 -9999 -9999 -9999 -9999 1.193934321403503418 1.3399099111557006836 -9999 -9999 -9999 -9999 -9999 -9999 -9999 -9999 1.120209813117980957 1.1202816963195800781 1.3364202976226806641 -9999 -9999 -9999 1.2164855003356933594 1.2370975017547607422 1.023596644401550293 1.0521689653396606445 -9999 -9999 1.0421556234359741211 1.0664769411087036133 1.1166679859161376953 1.4958198070526123047 3.6524074077606201172 3.7704420089721679688 1.5519328117370605469 1.1762578487396240234 1.389162898063659668 2.8040282726287841797 2.5728816986083984375 1.9241788387298583984 -9999 2.0390708446502685547 3.4224021434783935547 1.8740752935409545898 -9999 1.1620935201644897461 1.669121861457824707 2.6819093227386474609 3.6828036308288574219 3.0810658931732177734 1.5426408052444458008 3.3985345363616943359 4.577747344970703125 4.4374017715454101562 2.5322835445404052734 1.6104009151458740234 1.8996806144714355469 1.5664448738098144531 1.7426002025604248047 1.6574507951736450195 1.3253064155578613281 2.4040570259094238281 2.5975892543792724609 2.2797210216522216797 4.25855255126953125 8.6730804443359375 9.3812036514282226562 8.60420989990234375 8.1070699691772460938 9.828540802001953125 10.427926063537597656 10.630148887634277344 10.677328109741210938 10.636530876159667969 9.8391809463500976562 6.5214853286743164062 7.0750017166137695312 6.2066402435302734375 2.7428081035614013672 -9999 1.4107862710952758789 1.770964503288269043 2.3315150737762451172 1.4279700517654418945 1.3914109468460083008 1.7469027042388916016 2.061092376708984375 1.6160753965377807617 1.1954778432846069336 -9999 2.3933310508728027344 4.7760272026062011719 3.8262493610382080078 3.7815690040588378906 3.4788010120391845703 2.9967474937438964844 1.9724024534225463867 2.1575498580932617188 1.6733971834182739258 1.4480022192001342773 1.5827170610427856445 1.271533966064453125 1.0422574281692504883 1.0168852806091308594 -9999 -9999 -9999 -9999 -9999 -9999 -9999 -9999 -9999 -9999 -9999 
-9999 -9999 -9999 -9999 -9999 -9999 -9999 1.197579503059387207 1.4226505756378173828 1.4035989046096801758 1.2755284309387207031 1.1497246026992797852 1.1657493114471435547 1.1189706325531005859 -9999 -9999 -9999 -9999 -9999 -9999 -9999 -9999 1.1020960807800292969 -9999 -9999 -9999 -9999 -9999 -9999 1.3145089149475097656 1.6609020233154296875 1.3152889013290405273 -9999 -9999 1.1511099338531494141 1.1133207082748413086 -9999 -9999 1.1879618167877197266 1.1060581207275390625 1.2044950723648071289 1.2797729969024658203 1.3372547626495361328 2.0057880878448486328 4.7270612716674804688 5.5228953361511230469 3.3754200935363769531 2.0253517627716064453 1.8590996265411376953 3.8542046546936035156 3.7897651195526123047 1.8564118146896362305 1.3593348264694213867 2.1903669834136962891 3.3710675239562988281 2.1027350425720214844 1.2702910900115966797 1.5775177478790283203 1.2563246488571166992 2.4829416275024414062 3.2216522693634033203 1.9382952451705932617 1.5618350505828857422 2.563262939453125 4.1401600837707519531 6.5757722854614257812 6.6868319511413574219 6.0066294670104980469 5.904552459716796875 4.2931346893310546875 2.706264495849609375 2.8024244308471679688 2.1214396953582763672 3.0553367137908935547 2.4270567893981933594 3.5102312564849853516 5.5031065940856933594 4.0441026687622070312 4.2340598106384277344 6.1740827560424804688 9.480937957763671875 10.361898422241210938 10.365143775939941406 10.393566131591796875 10.437031745910644531 10.447924613952636719 10.360512733459472656 7.2729592323303222656 3.2530090808868408203 1.9391949176788330078 1.5003190040588378906 1.1865704059600830078 -9999 2.3700199127197265625 3.5141155719757080078 2.4825150966644287109 1.2439756393432617188 1.1526739597320556641 1.2409977912902832031 1.3479661941528320312 1.598874211311340332 1.5524573326110839844 1.8927303552627563477 2.5022225379943847656 1.4842522144317626953 1.5819048881530761719 -9999 1.3103864192962646484 -9999 -9999 1.1205571889877319336 -9999 1.1969922780990600586 1.1074221134185791016 -9999 -9999 -9999 -9999 -9999 -9999 -9999 -9999 -9999 -9999 -9999 -9999 -9999 
-9999 -9999 -9999 -9999 -9999 -9999 -9999 1.0915771722793579102 1.1595259904861450195 1.2225226163864135742 1.1715145111083984375 1.1548254489898681641 1.0920865535736083984 1.0329056978225708008 -9999 -9999 -9999 -9999 -9999 -9999 -9999 1.0694059133529663086 1.1173456907272338867 1.1003479957580566406 1.0428583621978759766 -9999 -9999 -9999 -9999 1.4891295433044433594 2.9332797527313232422 3.1125800609588623047 -9999 -9999 1.0475795269012451172 1.0366660356521606445 1.182831883430480957 1.5340855121612548828 1.4890471696853637695 1.1546224355697631836 1.6198797225952148438 1.8576464653015136719 2.0018777847290039062 3.0655686855316162109 4.7323946952819824219 4.6635065078735351562 3.7466437816619873047 3.8104557991027832031 3.4132680892944335938 4.488842010498046875 4.20604705810546875 3.4397675991058349609 2.4244790077209472656 2.0934824943542480469 3.4150900840759277344 3.0455198287963867188 1.9832897186279296875 1.2841745615005493164 1.4222834110260009766 3.3501856327056884766 2.4169588088989257812 1.2963709831237792969 1.8378112316131591797 2.0845537185668945312 4.2753343582153320312 8.1992979049682617188 8.3898334503173828125 8.453266143798828125 8.2137279510498046875 7.1382203102111816406 5.5504360198974609375 3.6900568008422851562 3.6814415454864501953 4.7433447837829589844 2.2779762744903564453 2.6725161075592041016 3.8389332294464111328 2.3798177242279052734 1.7322658300399780273 6.4262590408325195312 9.9622411727905273438 10.142813682556152344 10.160563468933105469 10.360013961791992188 10.433407783508300781 10.477246284484863281 10.4796600341796875 8.4977016448974609375 2.8210434913635253906 1.3587621450424194336 1.6434292793273925781 1.7044249773025512695 1.6673866510391235352 2.3308918476104736328 2.4238333702087402344 2.4878201484680175781 1.512742161750793457 1.1158006191253662109 -9999 1.092071533203125 1.3368518352508544922 1.6035151481628417969 1.226430058479309082 1.2365369796752929688 1.0962929725646972656 -9999 -9999 1.1587644815444946289 -9999 -9999 -9999 -9999 -9999 -9999 -9999 -9999 -9999 -9999 -9999 -9999 -9999 -9999 -9999 -9999 -9999 -9999 -9999 
-9999 -9999 -9999 -9999 -9999 -9999 -9999 -9999 1.0678164958953857422 1.0839622020721435547 1.0402572154998779297 1.0961912870407104492 1.0639469623565673828 1.0549234151840209961 -9999 -9999 1.0529116392135620117 -9999 -9999 -9999 -9999 -9999 -9999 -9999 -9999 1.0333434343338012695 -9999 -9999 -9999 1.9572575092315673828 5.2455625534057617188 5.7047824859619140625 3.31299591064453125 -9999 -9999 -9999 1.1929752826690673828 1.883647918701171875 2.2081103324890136719 -9999 1.3033018112182617188 2.0979101657867431641 3.0569391250610351562 4.1620798110961914062 4.1766486167907714844 3.0594115257263183594 2.3793227672576904297 3.2924747467041015625 3.4582324028015136719 4.2966227531433105469 3.5544528961181640625 3.275058746337890625 1.855061650276184082 2.2021639347076416016 3.4237127304077148438 3.9651169776916503906 2.788356781005859375 -9999 1.6972221136093139648 1.9739960432052612305 1.3785576820373535156 1.2988581657409667969 2.1292288303375244141 1.6787133216857910156 3.6694204807281494141 8.7877645492553710938 9.7016744613647460938 9.553386688232421875 9.1122274398803710938 8.3818960189819335938 4.7747683525085449219 2.1578586101531982422 3.6798105239868164062 3.2305219173431396484 1.9130618572235107422 1.7427091598510742188 1.6764777898788452148 1.5215102434158325195 1.8685945272445678711 6.2163553237915039062 9.7507905960083007812 10.135004997253417969 10.1785125732421875 10.321946144104003906 10.3973541259765625 9.8365583419799804688 9.5224218368530273438 9.5960903167724609375 6.7017922401428222656 4.5031924247741699219 3.8616783618927001953 3.1597015857696533203 2.6928119659423828125 2.8315536975860595703 -9999 2.3842742443084716797 2.2609441280364990234 1.3632650375366210938 -9999 -9999 1.1394023895263671875 1.1390775442123413086 1.1193835735321044922 1.1401108503341674805 1.0647838115692138672 -9999 1.1555022001266479492 1.5787792205810546875 1.1750067472457885742 -9999 -9999 -9999 -9999 -9999 -9999 -9999 -9999 -9999 -9999 -9999 -9999 -9999 -9999 -9999 -9999 -9999 -9999 
-9999 -9999 -9999 -9999 -9999 -9999 -9999 -9999 -9999 -9999 -9999 -9999 -9999 -9999 -9999 -9999 -9999 -9999 -9999 -9999 -9999 -9999 -9999 -9999 -9999 -9999 -9999 -9999 1.2000861167907714844 2.191883087158203125 5.492572784423828125 6.7087397575378417969 5.5677351951599121094 4.6728930473327636719 1.9857975244522094727 1.122450709342956543 -9999 1.3700515031814575195 1.8482253551483154297 1.2506545782089233398 1.1363766193389892578 1.6234542131423950195 2.2060215473175048828 2.3967797756195068359 3.4186043739318847656 2.9084713459014892578 2.1128089427947998047 2.394870758056640625 2.6590325832366943359 1.9445959329605102539 1.9824653863906860352 2.1769442558288574219 1.1967464685440063477 1.6976798772811889648 2.9158806800842285156 3.0950434207916259766 3.2120001316070556641 1.8037507534027099609 1.6810212135314941406 1.2766954898834228516 1.0625169277191162109 1.3229025602340698242 2.2500874996185302734 1.8189388513565063477 2.3286294937133789062 6.2086009979248046875 9.3076410293579101562 10.172335624694824219 10.189496040344238281 10.004635810852050781 8.8547563552856445312 6.4977927207946777344 7.0545315742492675781 2.7000777721405029297 1.8752539157867431641 1.3695354461669921875 1.119378209114074707 1.6779332160949707031 3.5202884674072265625 8.1532840728759765625 8.6479034423828125 9.6528139114379882812 10.082970619201660156 9.5838842391967773438 9.2174978256225585938 8.9215593338012695312 9.4520673751831054688 9.7075672149658203125 9.485233306884765625 9.40535736083984375 7.7256917953491210938 6.4976019859313964844 6.8551545143127441406 6.6242814064025878906 5.3623766899108886719 2.96298980712890625 2.3855128288269042969 1.6696035861968994141 1.0986818075180053711 1.1203514337539672852 1.6300141811370849609 1.711152195930480957 1.1767548322677612305 1.0685851573944091797 1.0337970256805419922 -9999 1.3301163911819458008 1.8037450313568115234 1.189727783203125 1.0990912914276123047 -9999 -9999 -9999 -9999 -9999 -9999 -9999 -9999 -9999 -9999 1.0352157354354858398 -9999 -9999 -9999 -9999 -9999 -9999 
-9999 -9999 -9999 -9999 -9999 -9999 -9999 -9999 -9999 -9999 -9999 -9999 -9999 -9999 -9999 -9999 -9999 -9999 -9999 -9999 -9999 -9999 -9999 -9999 -9999 -9999 -9999 -9999 -9999 1.3271963596343994141 2.2219800949096679688 4.0766506195068359375 5.8252658843994140625 7.0321965217590332031 5.3093228340148925781 2.243648529052734375 -9999 -9999 1.1006717681884765625 1.1655061244964599609 1.3384919166564941406 1.4603712558746337891 1.4276967048645019531 1.735595703125 1.8495354652404785156 2.2560169696807861328 1.8472756147384643555 1.7774955034255981445 2.2158019542694091797 4.7651824951171875 4.8942971229553222656 2.3004775047302246094 -9999 1.3395860195159912109 2.2110965251922607422 2.4914946556091308594 3.7471752166748046875 2.6350398063659667969 1.4332647323608398438 1.0832964181900024414 1.3349246978759765625 1.6747059822082519531 3.1416885852813720703 4.9242992401123046875 3.9283204078674316406 3.4275689125061035156 7.0392408370971679688 9.956287384033203125 10.268939971923828125 10.2957763671875 9.95767974853515625 9.8933963775634765625 8.1760988235473632812 2.4160590171813964844 1.2087748050689697266 1.3330014944076538086 1.2633473873138427734 1.8734896183013916016 3.4760401248931884766 7.1719541549682617188 9.488983154296875 10.087851524353027344 9.9184083938598632812 8.6796665191650390625 9.1395368576049804688 9.8700037002563476562 9.5580835342407226562 9.1510553359985351562 8.958099365234375 9.0028123855590820312 8.24466705322265625 6.9024939537048339844 5.6851897239685058594 4.5924572944641113281 3.5783891677856445312 2.4402956962585449219 2.1257305145263671875 1.6890566349029541016 1.4648590087890625 1.5401823520660400391 2.6428890228271484375 1.9839273691177368164 1.1889873743057250977 1.0441976785659790039 1.0175386667251586914 1.0724630355834960938 1.4407372474670410156 1.6173368692398071289 1.1896291971206665039 1.127423405647277832 -9999 -9999 -9999 1.0603542327880859375 -9999 -9999 -9999 -9999 -9999 -9999 -9999 -9999 -9999 -9999 -9999 -9999 -9999 
1.0925992727279663086 -9999 -9999 -9999 -9999 -9999 -9999 -9999 -9999 -9999 -9999 -9999 -9999 -9999 -9999 -9999 -9999 -9999 -9999 -9999 -9999 -9999 -9999 -9999 -9999 -9999 -9999 -9999 -9999 -9999 -9999 2.0836608409881591797 3.8109488487243652344 5.5645046234130859375 6.4682941436767578125 3.6792342662811279297 2.2899668216705322266 1.3860251903533935547 -9999 1.0432901382446289062 -9999 -9999 -9999 1.4621779918670654297 1.8684395551681518555 2.3405094146728515625 2.85979461669921875 4.1325860023498535156 6.6948490142822265625 9.1311235427856445312 6.3194661140441894531 2.5421841144561767578 2.459728240966796875 2.0323030948638916016 1.6796761751174926758 2.04332733154296875 1.9574377536773681641 1.6254000663757324219 -9999 -9999 1.3749998807907104492 2.3424060344696044922 4.9767136573791503906 4.9174141883850097656 5.6953654289245605469 5.8556771278381347656 7.4968914985656738281 9.9138994216918945312 10.32701873779296875 10.013304710388183594 8.9456911087036132812 9.9181089401245117188 7.9771223068237304688 3.1457169055938720703 1.9313293695449829102 2.5152425765991210938 2.4882695674896240234 3.9029612541198730469 7.1187562942504882812 9.7664947509765625 9.7374725341796875 8.7971487045288085938 8.4832849502563476562 9.1737012863159179688 10.078410148620605469 9.4957647323608398438 8.6416692733764648438 7.7333631515502929688 6.4109416007995605469 6.8947992324829101562 7.8560619354248046875 5.7171092033386230469 2.1758375167846679688 1.4278465509414672852 1.2573032379150390625 1.1383044719696044922 1.6025661230087280273 1.5082216262817382812 1.7592417001724243164 2.3983030319213867188 2.44245147705078125 1.6509380340576171875 1.5236594676971435547 1.1417105197906494141 -9999 1.0906511545181274414 1.2770367860794067383 1.1800009012222290039 1.0425375699996948242 1.0758026838302612305 1.0332483053207397461 -9999 -9999 1.0658419132232666016 -9999 -9999 -9999 -9999 -9999 -9999 -9999 -9999 -9999 -9999 -9999 -9999 -9999 
-9999 -9999 -9999 -9999 -9999 -9999 -9999 -9999 -9999 -9999 -9999 -9999 -9999 -9999 -9999 -9999 -9999 -9999 -9999 -9999 -9999 -9999 -9999 1.0025835037231445312 -9999 1.0808392763137817383 -9999 -9999 -9999 -9999 -9999 1.9258123636245727539 3.1172783374786376953 3.7855548858642578125 6.3956227302551269531 5.5817041397094726562 4.9625492095947265625 2.21630096435546875 -9999 -9999 -9999 1.0887168645858764648 1.1564726829528808594 1.6041889190673828125 1.5342767238616943359 1.3140999078750610352 1.6498010158538818359 4.2414450645446777344 9.126285552978515625 9.998020172119140625 7.7113323211669921875 5.3009486198425292969 4.7852582931518554688 2.8185279369354248047 1.4122700691223144531 1.7089742422103881836 1.2948668003082275391 1.2546464204788208008 -9999 -9999 -9999 2.0550534725189208984 3.6822762489318847656 2.5946791172027587891 3.1230514049530029297 5.0955266952514648438 7.8880758285522460938 9.9568376541137695312 10.377565383911132812 10.152179718017578125 10.289562225341796875 9.8562822341918945312 7.6234750747680664062 4.8001666069030761719 2.2423284053802490234 2.1370322704315185547 3.2877964973449707031 6.8008160591125488281 9.3105316162109375 10.198767662048339844 9.5769557952880859375 7.7513742446899414062 9.1830720901489257812 9.7433004379272460938 9.4498910903930664062 8.7238712310791015625 7.9090929031372070312 5.09378814697265625 2.3082339763641357422 3.9435150623321533203 7.1856317520141601562 6.7973742485046386719 3.1722271442413330078 1.3107661008834838867 -9999 1.0436704158782958984 1.2014441490173339844 1.1802262067794799805 1.3539376258850097656 2.0359199047088623047 1.9634354114532470703 1.8190264701843261719 1.7728939056396484375 1.3174428939819335938 -9999 -9999 1.0595487356185913086 1.1584959030151367188 1.0498694181442260742 1.0533738136291503906 -9999 -9999 -9999 1.0850443840026855469 -9999 -9999 -9999 -9999 -9999 -9999 -9999 -9999 -9999 -9999 -9999 -9999 -9999 
1.0347146987915039062 -9999 -9999 -9999 -9999 -9999 -9999 -9999 -9999 -9999 -9999 -9999 -9999 -9999 -9999 -9999 1.092421412467956543 -9999 -9999 -9999 -9999 -9999 -9999 -9999 -9999 -9999 -9999 -9999 -9999 -9999 -9999 1.6964519023895263672 1.9218405485153198242 1.8208068609237670898 5.01529693603515625 8.0646524429321289062 7.6480994224548339844 3.679271697998046875 1.7908860445022583008 -9999 1.0702227354049682617 1.0728188753128051758 1.0979397296905517578 1.2733397483825683594 1.3493102788925170898 1.1872606277465820312 1.5458283424377441406 3.6817982196807861328 7.0099239349365234375 7.1455602645874023438 5.326663970947265625 3.1532137393951416016 2.4769008159637451172 1.4225282669067382812 1.2264915704727172852 1.1217592954635620117 -9999 1.0640456676483154297 1.2696633338928222656 1.158297419548034668 1.2975145578384399414 1.4286780357360839844 1.9310525655746459961 2.1434450149536132812 2.8916301727294921875 4.5757021903991699219 8.6105108261108398438 10.179930686950683594 10.298490524291992188 10.101627349853515625 10.185139656066894531 8.971172332763671875 4.7846293449401855469 2.3851292133331298828 1.3064900636672973633 -9999 3.9208171367645263672 7.2208871841430664062 9.21317291259765625 10.168153762817382812 9.0610609054565429688 8.3400697708129882812 9.1392297744750976562 8.790515899658203125 7.4267635345458984375 7.4416184425354003906 5.6978278160095214844 2.3815991878509521484 -9999 2.5279872417449951172 5.4029850959777832031 5.8359737396240234375 4.922863006591796875 2.2619593143463134766 1.634968876838684082 -9999 -9999 -9999 1.1674534082412719727 1.6099977493286132812 1.9564461708068847656 2.0092933177947998047 1.8550871610641479492 1.2055959701538085938 1.1743836402893066406 1.1150007247924804688 1.0738087892532348633 1.0780153274536132812 -9999 1.0703030824661254883 -9999 -9999 -9999 -9999 -9999 -9999 -9999 -9999 -9999 -9999 -9999 -9999 -9999 -9999 -9999 -9999 -9999 
-9999 -9999 -9999 -9999 -9999 -9999 -9999 -9999 -9999 -9999 -9999 -9999 -9999 -9999 -9999 -9999 -9999 -9999 -9999 -9999 -9999 -9999 -9999 -9999 -9999 -9999 -9999 -9999 -9999 -9999 -9999 -9999 1.1741400957107543945 1.5306569337844848633 5.0452566146850585938 7.0484929084777832031 6.9036083221435546875 4.6837987899780273438 2.7923350334167480469 2.0006482601165771484 1.1835716962814331055 -9999 1.0975613594055175781 -9999 -9999 -9999 1.4278421401977539062 1.8929191827774047852 3.3333475589752197266 2.8526456356048583984 1.8603001832962036133 1.2724363803863525391 1.2193846702575683594 1.3974938392639160156 1.2878315448760986328 1.0423163175582885742 -9999 1.2414748668670654297 1.397312164306640625 1.2587890625 1.4473810195922851562 -9999 1.2155840396881103516 2.0018088817596435547 2.9115021228790283203 4.1247272491455078125 8.441619873046875 9.9216327667236328125 10.3135223388671875 9.9035024642944335938 9.1909646987915039062 7.0621685981750488281 3.0762774944305419922 1.4885778427124023438 1.2024184465408325195 1.3965167999267578125 3.4274141788482666016 6.6453719139099121094 9.31255340576171875 9.35396575927734375 7.9599099159240722656 8.6492528915405273438 8.43047332763671875 7.316516876220703125 5.339458465576171875 3.6490147113800048828 2.2543139457702636719 -9999 2.1645402908325195312 3.2844545841217041016 4.1355762481689453125 4.7479572296142578125 3.4741024971008300781 1.8417896032333374023 1.1459273099899291992 1.0140219926834106445 -9999 1.2515887022018432617 1.1480731964111328125 1.4519746303558349609 1.9008136987686157227 1.9525490999221801758 1.6606729030609130859 1.6506654024124145508 1.3428553342819213867 1.298502802848815918 1.1480982303619384766 -9999 -9999 1.0333731174468994141 -9999 -9999 -9999 -9999 -9999 -9999 -9999 -9999 -9999 -9999 -9999 -9999 -9999 -9999 -9999 -9999 -9999 
-9999 -9999 -9999 -9999 -9999 -9999 -9999 -9999 -9999 -9999 -9999 -9999 -9999 -9999 -9999 -9999 -9999 -9999 -9999 -9999 -9999 -9999 -9999 -9999 -9999 -9999 -9999 -9999 1.213383793830871582 1.2106199264526367188 -9999 -9999 1.1488268375396728516 1.4528391361236572266 3.3729805946350097656 3.6950428485870361328 4.4216866493225097656 4.5168471336364746094 2.9064202308654785156 1.6965472698211669922 1.1826655864715576172 1.1081012487411499023 1.2280281782150268555 1.5594868659973144531 1.2762314081192016602 1.1365809440612792969 1.6090334653854370117 1.6993930339813232422 2.9242928028106689453 1.9268208742141723633 1.4387371540069580078 1.425693511962890625 1.1566793918609619141 1.362652897834777832 1.1485861539840698242 -9999 1.1009427309036254883 1.1745964288711547852 1.2111520767211914062 1.4593069553375244141 1.2354230880737304688 1.1413015127182006836 -9999 1.462269902229309082 2.0923962593078613281 2.9557030200958251953 4.8820776939392089844 6.2856841087341308594 9.7166385650634765625 10.041262626647949219 8.2476739883422851562 4.0151848793029785156 1.6790485382080078125 1.3450388908386230469 2.1064908504486083984 2.1342842578887939453 3.0341823101043701172 5.7738614082336425781 8.1496000289916992188 7.0315346717834472656 5.2988142967224121094 6.2539758682250976562 6.7939305305480957031 3.9377820491790771484 2.0048918724060058594 -9999 1.5241687297821044922 3.0953869819641113281 4.59712982177734375 6.4847078323364257812 5.03339385986328125 3.5359363555908203125 1.6528122425079345703 1.1178467273712158203 1.0363245010375976562 1.0441797971725463867 -9999 -9999 1.0671541690826416016 1.1737231016159057617 1.6394438743591308594 1.8977369070053100586 1.3285888433456420898 1.5299528837203979492 1.3419117927551269531 1.1704547405242919922 1.1672407388687133789 1.263898015022277832 1.6507441997528076172 -9999 -9999 -9999 -9999 -9999 -9999 -9999 -9999 -9999 -9999 -9999 -9999 -9999 -9999 -9999 -9999 -9999 -9999 
-9999 -9999 -9999 -9999 -9999 -9999 -9999 -9999 -9999 -9999 -9999 -9999 -9999 -9999 -9999 -9999 -9999 -9999 -9999 -9999 -9999 -9999 -9999 -9999 -9999 -9999 -9999 -9999 1.5497344732284545898 1.4532959461212158203 -9999 -9999 1.1871427297592163086 1.3450434207916259766 1.8092434406280517578 1.7445778846740722656 2.2585239410400390625 2.8967387676239013672 2.1829171180725097656 1.3938965797424316406 1.1684325933456420898 1.4986559152603149414 2.1108117103576660156 2.2245378494262695312 2.2126698493957519531 1.8828454017639160156 1.3078125715255737305 1.2340832948684692383 1.2649747133255004883 1.1379756927490234375 1.4710966348648071289 1.4211733341217041016 1.0697745084762573242 -9999 -9999 1.2174863815307617188 1.4086450338363647461 1.7253675460815429688 1.6575920581817626953 1.2081089019775390625 1.0624943971633911133 1.1097840070724487305 -9999 1.4271048307418823242 1.8708091974258422852 2.2022123336791992188 3.3078327178955078125 6.0240926742553710938 8.8775529861450195312 9.5188703536987304688 7.498104095458984375 4.3562164306640625 1.5707896947860717773 1.3858733177185058594 1.9596863985061645508 2.0493521690368652344 3.0234568119049072266 5.5907506942749023438 5.0707411766052246094 3.2213451862335205078 1.9854934215545654297 3.1673197746276855469 4.2590727806091308594 2.8607311248779296875 1.5132954120635986328 1.8037682771682739258 4.1888127326965332031 6.4478116035461425781 6.668331146240234375 6.3702039718627929688 4.2936081886291503906 1.8055135011672973633 1.1020253896713256836 1.0820920467376708984 1.0973502397537231445 1.1084572076797485352 1.0891424417495727539 -9999 1.1881749629974365234 1.1656959056854248047 1.2449080944061279297 1.9901964664459228516 1.4621835947036743164 -9999 1.1141039133071899414 1.0722079277038574219 1.2552725076675415039 1.1876684427261352539 1.0383207798004150391 1.1078772544860839844 -9999 -9999 -9999 -9999 -9999 -9999 -9999 -9999 -9999 -9999 -9999 -9999 -9999 -9999 -9999 -9999 -9999 
-9999 -9999 -9999 -9999 -9999 -9999 -9999 -9999 -9999 -9999 -9999 -9999 -9999 -9999 -9999 -9999 -9999 -9999 -9999 1.0642848014831542969 -9999 -9999 -9999 -9999 -9999 -9999 -9999 -9999 1.3135282993316650391 1.3479464054107666016 -9999 1.0869306325912475586 1.0609633922576904297 1.1299883127212524414 1.0874028205871582031 1.1747239828109741211 1.9930063486099243164 2.4345335960388183594 1.6732144355773925781 1.3493474721908569336 1.0999231338500976562 1.3445818424224853516 2.1366641521453857422 2.7886071205139160156 2.656116485595703125 2.5394675731658935547 1.4821922779083251953 -9999 -9999 -9999 -9999 -9999 -9999 1.4068958759307861328 1.4169261455535888672 1.5090144872665405273 1.3440368175506591797 1.7814239263534545898 1.5793409347534179688 1.1488121747970581055 1.0400556325912475586 1.112942814826965332 1.6315323114395141602 1.4940671920776367188 1.2349971532821655273 1.2711724042892456055 1.8411844968795776367 4.9373073577880859375 7.909271240234375 7.9048895835876464844 4.2905774116516113281 2.6844553947448730469 1.7025121450424194336 2.0402944087982177734 1.8016530275344848633 1.5577900409698486328 2.6940722465515136719 3.1177392005920410156 1.8061211109161376953 1.1978793144226074219 1.1297640800476074219 2.2009918689727783203 3.6664946079254150391 3.9945824146270751953 2.7740566730499267578 3.6765613555908203125 5.108898162841796875 6.6965708732604980469 7.3926477432250976562 3.8286156654357910156 1.9267333745956420898 1.0952602624893188477 1.0776636600494384766 1.1143789291381835938 1.0518182516098022461 1.0564568042755126953 1.1568161249160766602 1.0602025985717773438 1.2018911838531494141 1.1871689558029174805 1.1292771100997924805 1.5331059694290161133 1.525673985481262207 1.1181871891021728516 1.1794234514236450195 1.2217003107070922852 1.193362116813659668 1.0520001649856567383 1.021470189094543457 -9999 -9999 -9999 -9999 -9999 -9999 -9999 -9999 -9999 -9999 -9999 -9999 -9999 -9999 -9999 -9999 -9999 -9999 
-9999 -9999 -9999 -9999 -9999 -9999 -9999 -9999 -9999 -9999 -9999 -9999 -9999 -9999 -9999 -9999 -9999 -9999 -9999 -9999 -9999 -9999 -9999 -9999 -9999 -9999 -9999 -9999 -9999 -9999 -9999 -9999 -9999 -9999 -9999 1.0918277502059936523 1.4629284143447875977 1.7336139678955078125 1.5705149173736572266 1.3349292278289794922 1.0955252647399902344 -9999 1.442168116569519043 1.6412209272384643555 1.4672609567642211914 1.6154649257659912109 1.2457460165023803711 -9999 -9999 -9999 -9999 1.0621774196624755859 1.16410064697265625 1.4663921594619750977 1.4006060361862182617 1.2053087949752807617 1.0696961879730224609 1.1528413295745849609 1.1717138290405273438 1.1012182235717773438 1.0358988046646118164 -9999 1.1968505382537841797 1.1664304733276367188 1.06064605712890625 -9999 1.1928598880767822266 3.1098444461822509766 6.4330267906188964844 6.7283878326416015625 2.9545524120330810547 2.1559133529663085938 2.1007237434387207031 1.7740720510482788086 1.2240569591522216797 1.364922642707824707 2.0903289318084716797 1.7047526836395263672 1.3897085189819335938 1.280579686164855957 1.0478322505950927734 -9999 2.0866365432739257812 2.8180203437805175781 3.7773587703704833984 6.3401112556457519531 6.0541882514953613281 6.0277843475341796875 4.9532480239868164062 1.9227617979049682617 1.1031346321105957031 1.0749171972274780273 1.1430563926696777344 1.2053720951080322266 1.2459077835083007812 -9999 1.2661384344100952148 1.3237308263778686523 1.3187428712844848633 1.2561821937561035156 1.0813072919845581055 -9999 1.1935608386993408203 1.479732513427734375 1.8625290393829345703 1.8519508838653564453 1.2759183645248413086 -9999 1.1076824665069580078 -9999 -9999 -9999 -9999 -9999 -9999 -9999 -9999 -9999 -9999 -9999 -9999 -9999 -9999 -9999 -9999 -9999 -9999 
-9999 -9999 -9999 -9999 -9999 -9999 -9999 -9999 -9999 -9999 -9999 -9999 -9999 -9999 -9999 -9999 -9999 -9999 -9999 -9999 -9999 -9999 -9999 -9999 -9999 -9999 -9999 -9999 -9999 -9999 -9999 -9999 -9999 -9999 -9999 -9999 1.1238783597946166992 1.2588721513748168945 1.4868155717849731445 1.2139477729797363281 -9999 -9999 -9999 -9999 -9999 -9999 -9999 -9999 -9999 -9999 -9999 -9999 1.0576336383819580078 1.1451373100280761719 1.1182264089584350586 -9999 -9999 1.0592069625854492188 1.1092350482940673828 1.0852626562118530273 1.0774271488189697266 -9999 -9999 -9999 -9999 1.0390390157699584961 -9999 2.5328514575958251953 4.2663526535034179688 2.9181332588195800781 1.6918251514434814453 1.9109137058258056641 1.5058319568634033203 1.1500698328018188477 1.0415426492691040039 1.1964483261108398438 1.2803099155426025391 1.1321165561676025391 1.1791361570358276367 1.2173333168029785156 1.0813972949981689453 -9999 1.5944286584854125977 2.2770338058471679688 4.0286660194396972656 5.6019120216369628906 5.36605072021484375 4.3324904441833496094 1.7509887218475341797 1.1471943855285644531 1.1464399099349975586 -9999 1.3293782472610473633 -9999 1.2608002424240112305 1.1284559965133666992 1.3984198570251464844 1.8394759893417358398 1.8485121726989746094 1.9146838188171386719 1.6423509120941162109 1.4183553457260131836 1.7352980375289916992 2.4712324142456054688 2.0906627178192138672 1.7976291179656982422 1.4993038177490234375 1.1460895538330078125 -9999 -9999 -9999 1.0742444992065429688 1.070653080940246582 -9999 -9999 -9999 -9999 -9999 1.0039697885513305664 -9999 -9999 -9999 -9999 -9999 -9999 -9999 -9999 
-9999 -9999 -9999 -9999 -9999 -9999 -9999 -9999 -9999 -9999 -9999 -9999 -9999 -9999 -9999 -9999 -9999 -9999 -9999 -9999 -9999 -9999 -9999 -9999 -9999 -9999 -9999 -9999 -9999 -9999 1.0647832155227661133 -9999 -9999 -9999 -9999 -9999 -9999 1.1010609865188598633 1.2317190170288085938 1.1113595962524414062 -9999 -9999 -9999 -9999 -9999 -9999 -9999 -9999 -9999 -9999 -9999 -9999 -9999 1.0863529443740844727 -9999 -9999 -9999 -9999 -9999 -9999 -9999 1.0774422883987426758 1.0531047582626342773 1.0649399757385253906 1.0479381084442138672 -9999 1.1911219358444213867 1.5099980831146240234 1.4469624757766723633 1.1876823902130126953 1.3558090925216674805 1.3746370077133178711 1.1102875471115112305 1.0267198085784912109 1.1034181118011474609 1.359042048454284668 1.5884190797805786133 1.3189071416854858398 1.1687961816787719727 -9999 -9999 1.0362018346786499023 1.150258183479309082 1.4997720718383789062 1.5681084394454956055 1.9006261825561523438 1.676554560661315918 1.4348608255386352539 1.1878315210342407227 1.1625080108642578125 1.1835598945617675781 -9999 1.3377081155776977539 1.2674559354782104492 1.25319671630859375 1.2169071435928344727 1.4405924081802368164 1.8834756612777709961 1.9341807365417480469 2.1392278671264648438 2.1375019550323486328 2.8720488548278808594 3.0815708637237548828 2.9014143943786621094 2.0105006694793701172 1.3676401376724243164 1.1195507049560546875 1.0888690948486328125 -9999 1.0403195619583129883 -9999 -9999 -9999 -9999 -9999 -9999 -9999 -9999 -9999 -9999 -9999 -9999 -9999 -9999 -9999 -9999 -9999 
-9999 -9999 -9999 -9999 -9999 -9999 -9999 -9999 -9999 -9999 -9999 -9999 -9999 -9999 -9999 -9999 -9999 -9999 -9999 -9999 -9999 -9999 -9999 -9999 -9999 -9999 -9999 -9999 -9999 -9999 -9999 -9999 -9999 -9999 -9999 -9999 -9999 -9999 -9999 -9999 -9999 -9999 -9999 -9999 -9999 -9999 -9999 -9999 -9999 -9999 -9999 -9999 -9999 -9999 -9999 -9999 -9999 -9999 -9999 -9999 -9999 1.0646058320999145508 1.0544511079788208008 1.0975283384323120117 1.2622056007385253906 -9999 1.0802332162857055664 1.3772090673446655273 2.5419631004333496094 2.8346629142761230469 3.1293337345123291016 2.7204716205596923828 1.5050663948059082031 -9999 1.1917272806167602539 1.868231654167175293 2.5427310466766357422 1.6174218654632568359 -9999 -9999 1.0754142999649047852 1.0711147785186767578 1.5708818435668945312 3.0350210666656494141 2.8968489170074462891 1.9658617973327636719 1.6317561864852905273 1.2946119308471679688 1.3864912986755371094 1.4543051719665527344 1.3384560346603393555 1.0717159509658813477 1.2219827175140380859 1.1674138307571411133 1.1920685768127441406 1.3318942785263061523 1.4811242818832397461 1.7232164144515991211 2.3475406169891357422 2.2086694240570068359 1.9219907522201538086 2.2401015758514404297 1.9356980323791503906 1.3135774135589599609 1.2412841320037841797 1.5821403264999389648 1.4131383895874023438 1.2003954648971557617 1.0969998836517333984 1.0735685825347900391 -9999 -9999 -9999 -9999 1.0236427783966064453 1.0593340396881103516 -9999 -9999 -9999 -9999 -9999 -9999 -9999 -9999 -9999 -9999 -9999 
-9999 -9999 -9999 -9999 -9999 -9999 -9999 -9999 -9999 -9999 -9999 -9999 -9999 -9999 -9999 -9999 -9999 -9999 -9999 -9999 -9999 -9999 -9999 -9999 -9999 -9999 -9999 -9999 -9999 -9999 -9999 -9999 -9999 -9999 -9999 -9999 -9999 -9999 -9999 -9999 -9999 -9999 -9999 -9999 -9999 -9999 -9999 -9999 -9999 -9999 -9999 -9999 -9999 -9999 -9999 -9999 1.0324586629867553711 -9999 -9999 -9999 -9999 1.0646451711654663086 1.1681483983993530273 1.1506367921829223633 1.4630111455917358398 -9999 -9999 1.3560816049575805664 2.0971720218658447266 3.6629374027252197266 4.1277761459350585938 3.6720669269561767578 1.923627018928527832 -9999 1.2852524518966674805 1.4865497350692749023 1.6470102071762084961 1.3107825517654418945 -9999 1.1025143861770629883 1.1212010383605957031 -9999 3.00151824951171875 5.919063568115234375 6.2137217521667480469 4.1863303184509277344 1.8466489315032958984 1.2956584692001342773 1.645684361457824707 1.4721332788467407227 1.4251585006713867188 1.2114017009735107422 1.1937814950942993164 1.2122722864151000977 1.2296959161758422852 1.0902042388916015625 1.4141899347305297852 1.3904178142547607422 1.7701370716094970703 2.2796480655670166016 2.32273101806640625 2.3103647232055664062 1.8969076871871948242 1.0861130952835083008 1.0893888473510742188 1.5537273883819580078 2.2145214080810546875 2.3043127059936523438 1.5446360111236572266 1.1370083093643188477 1.0901750326156616211 -9999 -9999 -9999 1.0666255950927734375 1.1299797296524047852 1.0731699466705322266 -9999 -9999 -9999 -9999 1.033421635627746582 -9999 -9999 -9999 -9999 -9999 
-9999 -9999 -9999 -9999 -9999 -9999 -9999 -9999 -9999 -9999 -9999 -9999 -9999 -9999 -9999 -9999 -9999 -9999 -9999 -9999 -9999 -9999 -9999 -9999 -9999 -9999 -9999 -9999 -9999 -9999 -9999 1.1818078756332397461 -9999 -9999 -9999 -9999 -9999 -9999 -9999 -9999 -9999 -9999 -9999 -9999 -9999 -9999 -9999 -9999 -9999 -9999 -9999 -9999 -9999 -9999 -9999 -9999 -9999 -9999 -9999 -9999 -9999 -9999 -9999 -9999 1.2452541589736938477 1.3985311985015869141 -9999 -9999 1.1639817953109741211 1.8468778133392333984 2.4999933242797851562 2.3395752906799316406 -9999 1.2041760683059692383 1.7120589017868041992 1.4893498420715332031 1.2236007452011108398 -9999 1.1306619644165039062 1.1462355852127075195 1.1768581867218017578 1.2222797870635986328 2.3756315708160400391 4.5228686332702636719 5.1526613235473632812 4.4967441558837890625 2.1453137397766113281 1.7198684215545654297 2.2001185417175292969 1.4739683866500854492 1.1665782928466796875 1.376829981803894043 1.412840723991394043 1.3343760967254638672 1.2344032526016235352 1.1190828084945678711 1.4107586145401000977 1.3554309606552124023 1.4223052263259887695 1.6029647588729858398 2.354648590087890625 2.4650914669036865234 1.8763960599899291992 1.5362726449966430664 1.6184747219085693359 1.6025716066360473633 2.3449289798736572266 2.72650146484375 2.1680285930633544922 1.363751530647277832 1.3159763813018798828 1.2400792837142944336 1.1248060464859008789 1.1361088752746582031 1.0616350173950195312 -9999 1.0508579015731811523 1.1286184787750244141 1.0714883804321289062 -9999 1.0622445344924926758 1.1098761558532714844 -9999 -9999 -9999 1.0597805976867675781 1.046637415885925293 
-9999 -9999 -9999 -9999 -9999 -9999 -9999 -9999 -9999 -9999 -9999 -9999 -9999 -9999 -9999 -9999 -9999 -9999 -9999 -9999 -9999 -9999 -9999 -9999 -9999 -9999 -9999 -9999 -9999 -9999 -9999 1.2571976184844970703 -9999 -9999 -9999 -9999 -9999 -9999 1.1853199005126953125 -9999 -9999 -9999 -9999 -9999 -9999 -9999 1.0745307207107543945 -9999 -9999 -9999 -9999 -9999 -9999 -9999 -9999 -9999 -9999 -9999 -9999 -9999 -9999 -9999 -9999 -9999 -9999 -9999 1.4584909677505493164 -9999 -9999 1.3541811704635620117 1.5675963163375854492 -9999 -9999 1.1468288898468017578 1.4102600812911987305 1.249348759651184082 1.05895233154296875 -9999 -9999 -9999 1.0402985811233520508 1.7921915054321289062 3.9185850620269775391 5.2072772979736328125 4.8710608482360839844 4.2039580345153808594 2.4218645095825195312 2.2347724437713623047 2.0442984104156494141 2.0268356800079345703 1.4519363641738891602 1.3511602878570556641 1.3599580526351928711 1.4894126653671264648 1.333302617073059082 1.4241030216217041016 1.4887599945068359375 1.2099694013595581055 1.366583704948425293 1.5501294136047363281 1.920424342155456543 1.5323952436447143555 1.3447449207305908203 2.8685181140899658203 3.0910172462463378906 1.9999631643295288086 2.0875866413116455078 2.1710612773895263672 1.7465639114379882812 1.3501629829406738281 1.1746757030487060547 1.1984500885009765625 1.2520194053649902344 1.3808401823043823242 1.2310626506805419922 1.3609881401062011719 1.213271021842956543 1.0934187173843383789 1.0639557838439941406 1.0771695375442504883 1.0990376472473144531 1.1039218902587890625 1.0212831497192382812 1.0382399559020996094 1.0392661094665527344 1.0755594968795776367 -9999 
-9999 -9999 -9999 -9999 -9999 -9999 -9999 -9999 -9999 -9999 -9999 -9999 -9999 -9999 -9999 -9999 -9999 -9999 -9999 -9999 -9999 -9999 -9999 -9999 -9999 -9999 -9999 -9999 -9999 -9999 -9999 -9999 1.3436371088027954102 -9999 -9999 -9999 -9999 -9999 -9999 -9999 -9999 -9999 -9999 -9999 -9999 -9999 -9999 -9999 -9999 -9999 -9999 -9999 -9999 -9999 -9999 -9999 -9999 -9999 -9999 -9999 -9999 -9999 -9999 1.0023741722106933594 1.0024244785308837891 -9999 1.5823575258255004883 1.8567367792129516602 1.3406542539596557617 1.2169371843338012695 -9999 -9999 -9999 1.1770949363708496094 1.2791436910629272461 1.1102299690246582031 1.0428622961044311523 1.0561035871505737305 -9999 -9999 -9999 1.8071581125259399414 4.4734873771667480469 5.1124372482299804688 4.5019307136535644531 4.5508794784545898438 3.1581089496612548828 2.5776031017303466797 2.03975677490234375 2.1444647312164306641 2.1075079441070556641 1.452252507209777832 1.1226712465286254883 1.782561182975769043 3.0834743976593017578 3.6555135250091552734 3.2720532417297363281 2.08057403564453125 1.6469380855560302734 1.6474461555480957031 1.4382033348083496094 1.1821960210800170898 1.206316828727722168 2.2484526634216308594 2.0875916481018066406 1.5156495571136474609 1.6282781362533569336 1.5064908266067504883 1.2980645895004272461 1.3854479789733886719 1.2586959600448608398 -9999 -9999 1.1259350776672363281 1.3962275981903076172 1.8442339897155761719 1.5642478466033935547 1.3986454010009765625 1.1711367368698120117 1.1274307966232299805 1.1852875947952270508 1.1358990669250488281 -9999 -9999 1.0691580772399902344 -9999 -9999 
-9999 -9999 -9999 -9999 -9999 -9999 -9999 -9999 -9999 -9999 -9999 -9999 -9999 -9999 -9999 -9999 -9999 -9999 -9999 -9999 -9999 -9999 -9999 -9999 -9999 -9999 -9999 -9999 -9999 -9999 -9999 -9999 -9999 1.0888118743896484375 1.0629673004150390625 -9999 -9999 -9999 -9999 -9999 -9999 -9999 -9999 -9999 -9999 -9999 -9999 -9999 -9999 -9999 -9999 -9999 -9999 -9999 -9999 -9999 -9999 -9999 -9999 -9999 -9999 -9999 -9999 -9999 -9999 -9999 -9999 -9999 1.2459543943405151367 1.1512989997863769531 -9999 -9999 -9999 -9999 1.1430526971817016602 1.131770014762878418 1.1456692218780517578 -9999 -9999 -9999 -9999 1.495787501335144043 2.7794442176818847656 2.5114595890045166016 2.0715000629425048828 3.0337746143341064453 2.8886218070983886719 2.2921853065490722656 2.1129183769226074219 2.3654017448425292969 1.9309549331665039062 1.3037687540054321289 1.0882438421249389648 2.0541543960571289062 4.1434750556945800781 5.3060803413391113281 4.4220509529113769531 2.8628892898559570312 2.9199974536895751953 2.8276259899139404297 1.4400881528854370117 1.2018072605133056641 2.0717406272888183594 3.2807357311248779297 1.6757285594940185547 1.0728120803833007812 1.1960014104843139648 1.1162245273590087891 -9999 -9999 1.1989673376083374023 1.3944091796875 1.1225762367248535156 1.0996454954147338867 1.1755501031875610352 1.3820519447326660156 1.2442238330841064453 1.1558709144592285156 1.2118564844131469727 1.1393395662307739258 1.2115091085433959961 1.1041816473007202148 -9999 -9999 -9999 -9999 -9999 
-9999 -9999 -9999 -9999 -9999 -9999 -9999 -9999 -9999 -9999 -9999 -9999 -9999 -9999 -9999 -9999 -9999 -9999 -9999 -9999 -9999 -9999 -9999 -9999 -9999 -9999 -9999 -9999 -9999 -9999 -9999 -9999 -9999 1.181868433952331543 1.1564942598342895508 -9999 -9999 -9999 -9999 -9999 -9999 -9999 -9999 -9999 -9999 -9999 -9999 -9999 -9999 -9999 -9999 -9999 -9999 -9999 -9999 -9999 -9999 -9999 -9999 -9999 -9999 -9999 -9999 -9999 -9999 -9999 -9999 -9999 -9999 -9999 -9999 -9999 -9999 -9999 -9999 1.0974501371383666992 1.1536457538604736328 1.1549189090728759766 1.1263968944549560547 -9999 -9999 1.3731001615524291992 1.657919764518737793 1.4071891307830810547 1.5254279375076293945 1.4341862201690673828 2.0273795127868652344 2.0880935192108154297 2.0770914554595947266 1.7885024547576904297 1.1821422576904296875 1.1641161441802978516 1.2911285161972045898 2.8188049793243408203 4.9375815391540527344 5.9323053359985351562 5.6947426795959472656 3.6734721660614013672 3.6740832328796386719 3.5194048881530761719 1.6083393096923828125 2.5605282783508300781 4.4464364051818847656 4.7088537216186523438 2.2595977783203125 1.2000998258590698242 1.272740483283996582 1.1748241186141967773 -9999 1.0590387582778930664 1.1266046762466430664 1.3101134300231933594 1.430411219596862793 1.2263081073760986328 1.3692812919616699219 1.3787279129028320312 -9999 1.0593917369842529297 1.1246701478958129883 1.0758188962936401367 1.1753486394882202148 1.1427330970764160156 -9999 -9999 1.0025002956390380859 -9999 -9999 
-9999 -9999 -9999 -9999 -9999 -9999 -9999 -9999 -9999 -9999 -9999 -9999 -9999 -9999 -9999 -9999 -9999 -9999 -9999 -9999 -9999 -9999 -9999 -9999 -9999 -9999 -9999 -9999 -9999 -9999 -9999 -9999 -9999 1.0867311954498291016 1.2650316953659057617 1.1309659481048583984 -9999 -9999 -9999 1.0335787534713745117 -9999 -9999 -9999 -9999 -9999 -9999 -9999 -9999 -9999 -9999 -9999 -9999 -9999 -9999 -9999 -9999 -9999 -9999 -9999 -9999 -9999 -9999 -9999 -9999 -9999 -9999 -9999 -9999 -9999 -9999 -9999 -9999 -9999 1.1104525327682495117 1.1739060878753662109 1.1139250993728637695 1.1294651031494140625 1.1605863571166992188 -9999 1.091387629508972168 1.0986664295196533203 1.188733220100402832 1.2984850406646728516 1.2299933433532714844 1.2711533308029174805 1.1797786951065063477 1.1102530956268310547 1.3230689764022827148 1.4103468656539916992 1.0934283733367919922 -9999 1.062108159065246582 1.437356114387512207 3.5117437839508056641 4.8809132575988769531 6.3993625640869140625 6.8946685791015625 6.3479142189025878906 5.5381388664245605469 4.5323204994201660156 3.3565521240234375 4.30689239501953125 5.2245602607727050781 4.6248950958251953125 2.2310543060302734375 1.6656490564346313477 1.3663145303726196289 1.1620894670486450195 1.083153843879699707 1.0820511579513549805 1.0546447038650512695 1.0744488239288330078 1.4070264101028442383 1.6460175514221191406 1.4390634298324584961 1.4313235282897949219 1.1439945697784423828 1.0455133914947509766 1.0805976390838623047 1.1009355783462524414 1.165537714958190918 1.3716882467269897461 1.1125783920288085938 -9999 -9999 -9999 -9999 
-9999 -9999 -9999 -9999 -9999 -9999 -9999 -9999 -9999 -9999 -9999 -9999 -9999 -9999 -9999 -9999 -9999 -9999 -9999 -9999 -9999 -9999 -9999 -9999 -9999 -9999 -9999 -9999 -9999 -9999 -9999 -9999 -9999 -9999 -9999 1.3358242511749267578 1.2097436189651489258 -9999 -9999 -9999 -9999 -9999 -9999 -9999 -9999 -9999 -9999 -9999 -9999 -9999 -9999 -9999 -9999 -9999 -9999 -9999 -9999 -9999 -9999 -9999 -9999 1.0636631250381469727 -9999 -9999 -9999 -9999 -9999 -9999 -9999 -9999 -9999 -9999 -9999 1.1002650260925292969 1.303676605224609375 1.3224455118179321289 1.2012932300567626953 1.0626846551895141602 1.0391187667846679688 1.1435779333114624023 1.2386653423309326172 1.1343611478805541992 1.090639948844909668 1.1226469278335571289 1.2457202672958374023 1.2826544046401977539 -9999 1.1457846164703369141 1.0714838504791259766 1.0288257598876953125 1.0822060108184814453 1.2488286495208740234 1.7452069520950317383 3.6786112785339355469 4.6804375648498535156 5.0760769844055175781 5.3814396858215332031 6.4356813430786132812 5.9177837371826171875 4.28156280517578125 4.1926722526550292969 4.4332041740417480469 3.4805126190185546875 2.3567726612091064453 1.5843248367309570312 1.7241405248641967773 1.878437042236328125 1.5000481605529785156 1.0734220743179321289 -9999 1.2078114748001098633 -9999 1.1276478767395019531 1.6159207820892333984 1.5866254568099975586 1.3812340497970581055 1.0975563526153564453 -9999 1.1318213939666748047 1.1864801645278930664 1.255283355712890625 1.381743311882019043 1.1565285921096801758 -9999 -9999 -9999 -9999 
-9999 -9999 -9999 -9999 -9999 -9999 -9999 -9999 -9999 -9999 -9999 -9999 -9999 -9999 -9999 -9999 -9999 -9999 -9999 -9999 -9999 -9999 -9999 -9999 -9999 -9999 -9999 -9999 -9999 -9999 -9999 -9999 -9999 -9999 -9999 1.4599109888076782227 1.3544390201568603516 1.03986358642578125 1.0447320938110351562 1.0254099369049072266 -9999 -9999 -9999 -9999 -9999 -9999 -9999 -9999 -9999 -9999 -9999 -9999 -9999 -9999 -9999 -9999 -9999 -9999 -9999 -9999 -9999 -9999 -9999 -9999 -9999 -9999 -9999 -9999 -9999 -9999 -9999 -9999 -9999 1.0581085681915283203 1.0923373699188232422 1.129176020622253418 1.1726514101028442383 -9999 1.0896469354629516602 1.0961338281631469727 1.1314519643783569336 1.1218515634536743164 -9999 1.0715643167495727539 1.4284701347351074219 1.5043872594833374023 1.1295769214630126953 -9999 1.2919217348098754883 1.2148237228393554688 1.0404044389724731445 1.1692606210708618164 1.6765613555908203125 2.3399641513824462891 3.1530344486236572266 3.1295616626739501953 3.5825028419494628906 4.3870344161987304688 3.4670629501342773438 3.3197977542877197266 4.1959681510925292969 4.0310902595520019531 3.7218940258026123047 1.9207222461700439453 1.6208212375640869141 2.0233061313629150391 1.9949401617050170898 1.6104769706726074219 1.1765776872634887695 -9999 -9999 -9999 1.0449283123016357422 1.1731010675430297852 1.3668203353881835938 1.2821209430694580078 1.1625883579254150391 1.1906808614730834961 -9999 -9999 -9999 1.08321380615234375 1.1145790815353393555 1.2400383949279785156 -9999 -9999 -9999 
-9999 -9999 -9999 -9999 -9999 -9999 -9999 -9999 -9999 -9999 -9999 -9999 -9999 -9999 -9999 -9999 -9999 -9999 -9999 -9999 -9999 -9999 -9999 -9999 -9999 -9999 -9999 -9999 -9999 -9999 -9999 -9999 -9999 -9999 1.2517324686050415039 1.1402963399887084961 1.1482104063034057617 1.1211713552474975586 1.0726069211959838867 1.0411666631698608398 -9999 -9999 -9999 -9999 -9999 -9999 -9999 -9999 -9999 -9999 -9999 -9999 -9999 -9999 -9999 -9999 -9999 -9999 -9999 -9999 -9999 -9999 -9999 -9999 -9999 -9999 -9999 -9999 -9999 -9999 -9999 -9999 -9999 1.1098966598510742188 -9999 -9999 -9999 -9999 1.1001144647598266602 1.196268916130065918 1.1007022857666015625 -9999 -9999 1.1055375337600708008 1.3567129373550415039 1.3547430038452148438 1.2787297964096069336 1.436787724494934082 1.2593734264373779297 1.1700534820556640625 1.1131173372268676758 1.1869537830352783203 1.4680004119873046875 1.8463368415832519531 2.2501943111419677734 2.2065570354461669922 1.8469718694686889648 2.6900482177734375 3.1072361469268798828 2.4087398052215576172 2.1964476108551025391 1.9119967222213745117 1.9163639545440673828 1.4843780994415283203 1.2521800994873046875 1.2249866724014282227 1.3187067508697509766 1.4033616781234741211 1.2619072198867797852 1.1096608638763427734 1.0623618364334106445 1.0585914850234985352 1.0527960062026977539 1.0367101430892944336 -9999 1.3073629140853881836 1.5628544092178344727 1.5922534465789794922 -9999 -9999 -9999 1.0945190191268920898 -9999 -9999 -9999 -9999 -9999 
-9999 -9999 -9999 -9999 -9999 -9999 -9999 -9999 -9999 -9999 -9999 -9999 -9999 -9999 -9999 -9999 -9999 -9999 -9999 -9999 -9999 -9999 -9999 -9999 -9999 -9999 -9999 -9999 -9999 -9999 -9999 -9999 -9999 -9999 1.0778942108154296875 -9999 1.0853290557861328125 1.1786375045776367188 1.1707475185394287109 -9999 1.0816938877105712891 -9999 -9999 -9999 -9999 -9999 -9999 -9999 -9999 -9999 -9999 -9999 -9999 -9999 -9999 -9999 -9999 -9999 -9999 -9999 -9999 -9999 -9999 -9999 -9999 -9999 -9999 -9999 -9999 -9999 -9999 -9999 -9999 -9999 -9999 -9999 -9999 -9999 1.1116026639938354492 1.3039413690567016602 1.1790906190872192383 -9999 -9999 -9999 1.1523302793502807617 -9999 1.5802887678146362305 2.9272296428680419922 2.6632289886474609375 2.1134285926818847656 1.5440411567687988281 1.4895701408386230469 1.5123940706253051758 1.9638372659683227539 1.5106226205825805664 2.4233324527740478516 2.8610939979553222656 3.4340281486511230469 2.153942108154296875 1.1255403757095336914 1.0896993875503540039 1.1154968738555908203 1.0797322988510131836 1.3948982954025268555 1.8334296941757202148 1.7144129276275634766 1.9234018325805664062 1.8698029518127441406 1.2462630271911621094 1.1670676469802856445 -9999 1.2845531702041625977 -9999 1.2437202930450439453 1.2790112495422363281 1.5412193536758422852 2.1764514446258544922 2.0696287155151367188 -9999 1.1340306997299194336 -9999 -9999 -9999 -9999 -9999 -9999 -9999 
-9999 -9999 -9999 -9999 -9999 -9999 -9999 -9999 -9999 -9999 -9999 -9999 -9999 -9999 -9999 -9999 -9999 -9999 -9999 -9999 -9999 -9999 -9999 -9999 -9999 -9999 -9999 -9999 -9999 -9999 -9999 -9999 -9999 -9999 -9999 -9999 -9999 -9999 1.1841057538986206055 -9999 -9999 1.0271965265274047852 -9999 1.1239434480667114258 1.1012716293334960938 -9999 -9999 -9999 -9999 -9999 -9999 -9999 -9999 -9999 -9999 -9999 -9999 -9999 -9999 -9999 1.0525783300399780273 -9999 -9999 -9999 -9999 -9999 -9999 -9999 -9999 -9999 1.022131800651550293 -9999 -9999 -9999 -9999 -9999 -9999 -9999 -9999 1.1252714395523071289 1.118455052375793457 -9999 -9999 -9999 1.1572630405426025391 1.3178566694259643555 2.4601831436157226562 3.3653004169464111328 3.2465460300445556641 2.5260171890258789062 2.0305421352386474609 2.6104109287261962891 2.7665257453918457031 2.4688992500305175781 2.5977010726928710938 4.5167527198791503906 4.6108298301696777344 2.7241811752319335938 1.2987440824508666992 1.1388227939605712891 1.2117617130279541016 1.3345625400543212891 1.3165919780731201172 1.9926941394805908203 3.0781641006469726562 2.9273164272308349609 2.1684739589691162109 1.6432898044586181641 1.1609086990356445312 -9999 1.478058934211730957 1.9762349128723144531 1.897684931755065918 1.5659203529357910156 1.6996794939041137695 1.9339514970779418945 2.5477688312530517578 1.8676290512084960938 1.0887477397918701172 1.0859127044677734375 1.1080086231231689453 1.1216045618057250977 -9999 1.2419887781143188477 -9999 -9999 -9999 
-9999 -9999 -9999 -9999 -9999 -9999 -9999 -9999 -9999 -9999 -9999 -9999 -9999 -9999 -9999 -9999 -9999 -9999 -9999 -9999 -9999 -9999 -9999 -9999 -9999 -9999 -9999 -9999 -9999 -9999 -9999 -9999 -9999 -9999 -9999 -9999 -9999 -9999 -9999 -9999 -9999 -9999 -9999 1.1456799507141113281 1.1325609683990478516 -9999 -9999 -9999 -9999 -9999 -9999 -9999 -9999 -9999 -9999 -9999 -9999 -9999 -9999 -9999 -9999 -9999 -9999 -9999 -9999 -9999 -9999 -9999 -9999 -9999 -9999 -9999 -9999 -9999 -9999 -9999 -9999 -9999 -9999 -9999 -9999 1.0504128932952880859 1.1532932519912719727 -9999 1.0868284702301025391 1.3184530735015869141 1.9690076112747192383 2.2725048065185546875 2.4226639270782470703 2.0860679149627685547 2.2642729282379150391 2.6199476718902587891 3.2318596839904785156 2.8338742256164550781 4.2615389823913574219 4.9131317138671875 4.539661407470703125 2.3525969982147216797 1.1544450521469116211 1.2667496204376220703 2.0303585529327392578 2.2336866855621337891 1.7528893947601318359 1.7902833223342895508 2.1438543796539306641 2.0468149185180664062 1.3933241367340087891 1.1247752904891967773 1.148135066032409668 1.0839191675186157227 1.1413272619247436523 1.4795873165130615234 1.461363673210144043 1.2151284217834472656 1.1602931022644042969 1.2860395908355712891 1.4842553138732910156 1.2488769292831420898 1.0438711643218994141 1.0540055036544799805 1.1356298923492431641 1.0991522073745727539 1.1841561794281005859 1.2680630683898925781 -9999 -9999 -9999 
-9999 -9999 1.0850207805633544922 -9999 -9999 -9999 -9999 -9999 -9999 -9999 -9999 -9999 -9999 -9999 -9999 -9999 -9999 -9999 -9999 -9999 -9999 -9999 -9999 -9999 -9999 -9999 -9999 -9999 -9999 -9999 -9999 -9999 -9999 -9999 -9999 1.0978730916976928711 -9999 -9999 -9999 -9999 -9999 -9999 -9999 -9999 1.0727492570877075195 1.0793805122375488281 -9999 -9999 -9999 -9999 -9999 -9999 -9999 -9999 -9999 -9999 -9999 -9999 -9999 -9999 -9999 -9999 -9999 -9999 -9999 -9999 -9999 -9999 -9999 -9999 -9999 -9999 -9999 -9999 -9999 -9999 -9999 -9999 -9999 -9999 1.0866640806198120117 1.0899567604064941406 -9999 -9999 -9999 -9999 1.1568233966827392578 1.1693537235260009766 1.2581837177276611328 1.3773746490478515625 1.5929392576217651367 1.7135018110275268555 1.6423970460891723633 1.7562777996063232422 2.8515210151672363281 2.8329577445983886719 2.0004889965057373047 1.8898742198944091797 1.1715890169143676758 1.249779820442199707 2.1558759212493896484 2.287792205810546875 1.8886063098907470703 1.6127625703811645508 1.3236204385757446289 1.2689286470413208008 1.2120361328125 1.3615117073059082031 1.3707183599472045898 1.1239261627197265625 -9999 -9999 -9999 -9999 -9999 1.041132807731628418 -9999 -9999 -9999 -9999 -9999 1.0716316699981689453 1.1223617792129516602 1.2284291982650756836 -9999 -9999 -9999 
-9999 -9999 -9999 -9999 -9999 -9999 -9999 -9999 -9999 -9999 -9999 -9999 -9999 -9999 -9999 -9999 -9999 -9999 -9999 -9999 -9999 -9999 -9999 -9999 -9999 -9999 -9999 -9999 -9999 -9999 -9999 -9999 -9999 -9999 -9999 -9999 -9999 1.13787841796875 -9999 -9999 -9999 -9999 -9999 -9999 1.0894021987915039062 1.2719445228576660156 1.3061661720275878906 1.1208695173263549805 -9999 -9999 -9999 -9999 -9999 -9999 -9999 -9999 -9999 -9999 -9999 -9999 -9999 -9999 -9999 -9999 -9999 -9999 -9999 -9999 -9999 -9999 -9999 -9999 -9999 -9999 -9999 -9999 1.0965875387191772461 -9999 -9999 -9999 1.0474193096160888672 1.0738248825073242188 1.0962184667587280273 1.1196841001510620117 1.0427429676055908203 -9999 -9999 1.050675511360168457 1.1238878965377807617 1.1424642801284790039 1.2926657199859619141 1.6339231729507446289 1.2626022100448608398 1.1966581344604492188 1.3041968345642089844 1.466584324836730957 1.6698690652847290039 1.9786319732666015625 1.4408472776412963867 1.5553381443023681641 1.8846257925033569336 1.4322754144668579102 1.4970917701721191406 1.3225519657135009766 -9999 -9999 1.0250608921051025391 1.0779401063919067383 1.0995289087295532227 1.101161956787109375 -9999 1.5010508298873901367 -9999 -9999 -9999 1.0401091575622558594 -9999 -9999 -9999 -9999 -9999 -9999 1.0729459524154663086 1.154871821403503418 1.220883488655090332 -9999 -9999 
-9999 -9999 -9999 -9999 -9999 -9999 -9999 -9999 -9999 -9999 -9999 -9999 -9999 -9999 -9999 -9999 -9999 -9999 -9999 -9999 -9999 -9999 -9999 -9999 -9999 -9999 -9999 -9999 -9999 -9999 -9999 -9999 -9999 -9999 -9999 1.1558650732040405273 -9999 -9999 -9999 -9999 -9999 -9999 -9999 -9999 -9999 1.0994694232940673828 1.1880471706390380859 -9999 -9999 -9999 -9999 -9999 -9999 -9999 -9999 -9999 -9999 -9999 -9999 -9999 -9999 -9999 -9999 -9999 -9999 -9999 -9999 -9999 -9999 -9999 -9999 -9999 -9999 -9999 -9999 1.0683172941207885742 -9999 -9999 -9999 -9999 -9999 1.0823904275894165039 1.1004476547241210938 1.0963965654373168945 1.0938813686370849609 -9999 -9999 1.1059149503707885742 1.1584478616714477539 1.153256535530090332 1.1123410463333129883 1.082262873649597168 1.2392001152038574219 1.2573627233505249023 1.5665298700332641602 1.5564044713973999023 1.8488675355911254883 2.2083234786987304688 1.7847020626068115234 2.5246124267578125 2.2678380012512207031 1.6461318731307983398 1.2707000970840454102 -9999 1.1591598987579345703 -9999 -9999 1.0254216194152832031 -9999 1.1167070865631103516 1.2093825340270996094 1.2054312229156494141 -9999 -9999 1.0934034585952758789 -9999 -9999 -9999 -9999 -9999 -9999 1.2024106979370117188 1.1249450445175170898 1.1226278543472290039 1.2412911653518676758 -9999 -9999 
-9999 -9999 -9999 -9999 -9999 -9999 -9999 -9999 -9999 -9999 -9999 -9999 -9999 -9999 -9999 -9999 -9999 -9999 -9999 -9999 -9999 -9999 -9999 -9999 -9999 -9999 -9999 -9999 -9999 -9999 -9999 -9999 -9999 -9999 -9999 -9999 -9999 -9999 -9999 -9999 -9999 -9999 -9999 -9999 -9999 -9999 -9999 -9999 -9999 -9999 -9999 -9999 -9999 -9999 -9999 -9999 -9999 -9999 -9999 -9999 -9999 -9999 -9999 1.0088058710098266602 -9999 -9999 -9999 -9999 1.0056954622268676758 -9999 -9999 -9999 -9999 -9999 -9999 -9999 -9999 -9999 -9999 -9999 1.1457636356353759766 1.2140519618988037109 1.0483754873275756836 1.1157928705215454102 1.1090681552886962891 1.1243780851364135742 1.0266104936599731445 1.1538561582565307617 1.1170032024383544922 1.0285305976867675781 1.0453522205352783203 1.0480320453643798828 1.1903873682022094727 1.1501603126525878906 1.1694860458374023438 1.2126333713531494141 1.3283389806747436523 1.5724043846130371094 2.5012979507446289062 2.7043805122375488281 1.8359720706939697266 1.1774588823318481445 -9999 -9999 -9999 -9999 -9999 -9999 -9999 1.1247668266296386719 1.2686793804168701172 -9999 1.0778011083602905273 1.0349808931350708008 1.0977596044540405273 -9999 -9999 -9999 -9999 -9999 -9999 -9999 1.1043024063110351562 -9999 -9999 -9999 -9999 
-9999 -9999 -9999 -9999 -9999 -9999 -9999 -9999 -9999 -9999 -9999 -9999 -9999 -9999 -9999 -9999 -9999 -9999 -9999 -9999 -9999 -9999 -9999 -9999 -9999 -9999 -9999 -9999 -9999 1.1648100614547729492 -9999 -9999 -9999 -9999 -9999 -9999 -9999 -9999 -9999 -9999 -9999 -9999 -9999 -9999 -9999 -9999 1.0303188562393188477 1.0600210428237915039 -9999 -9999 -9999 -9999 -9999 -9999 -9999 -9999 -9999 -9999 -9999 -9999 -9999 -9999 -9999 -9999 -9999 -9999 -9999 -9999 -9999 -9999 -9999 -9999 -9999 -9999 -9999 -9999 -9999 -9999 -9999 -9999 1.0727093219757080078 1.160846710205078125 1.0632114410400390625 1.159521937370300293 1.1448816061019897461 1.0573644638061523438 -9999 -9999 -9999 1.2569788694381713867 -9999 1.088727116584777832 1.1623704433441162109 1.2488750219345092773 1.4407557249069213867 -9999 1.127177119255065918 1.1745409965515136719 1.6094497442245483398 1.5981736183166503906 1.2722437381744384766 -9999 -9999 -9999 -9999 -9999 -9999 -9999 -9999 -9999 1.2850118875503540039 1.1941099166870117188 -9999 -9999 1.0911957025527954102 -9999 -9999 1.1082807779312133789 1.0629346370697021484 -9999 -9999 -9999 -9999 -9999 -9999 -9999 -9999 
-9999 -9999 -9999 -9999 -9999 -9999 -9999 -9999 -9999 -9999 -9999 -9999 -9999 -9999 -9999 -9999 -9999 -9999 -9999 -9999 -9999 -9999 -9999 -9999 -9999 -9999 -9999 -9999 -9999 -9999 -9999 -9999 -9999 -9999 -9999 -9999 -9999 -9999 -9999 -9999 -9999 -9999 -9999 -9999 -9999 -9999 -9999 -9999 -9999 1.0916703939437866211 1.1173858642578125 -9999 -9999 -9999 -9999 -9999 -9999 -9999 -9999 -9999 -9999 -9999 -9999 -9999 -9999 -9999 -9999 -9999 -9999 -9999 -9999 -9999 -9999 -9999 -9999 -9999 -9999 -9999 -9999 -9999 -9999 1.1145764589309692383 1.0769881010055541992 1.0904217958450317383 1.0671464204788208008 1.0518060922622680664 1.0794303417205810547 -9999 -9999 1.3071312904357910156 1.4168480634689331055 1.2897205352783203125 -9999 1.2124692201614379883 1.7217332124710083008 -9999 1.2272043228149414062 1.1582626104354858398 1.1429451704025268555 1.211262822151184082 1.1968604326248168945 1.2143542766571044922 -9999 -9999 -9999 -9999 -9999 -9999 -9999 -9999 1.1455544233322143555 1.1461882591247558594 -9999 -9999 -9999 -9999 -9999 -9999 -9999 -9999 -9999 -9999 -9999 -9999 -9999 -9999 -9999 
-9999 1.0258818864822387695 -9999 -9999 -9999 -9999 -9999 -9999 -9999 -9999 -9999 -9999 -9999 -9999 -9999 -9999 -9999 -9999 -9999 -9999 -9999 -9999 -9999 -9999 -9999 -9999 -9999 -9999 -9999 -9999 -9999 -9999 -9999 -9999 -9999 -9999 -9999 -9999 -9999 -9999 -9999 -9999 -9999 -9999 -9999 -9999 -9999 -9999 -9999 -9999 1.3054100275039672852 1.1967706680297851562 1.0618323087692260742 -9999 -9999 -9999 -9999 -9999 -9999 -9999 -9999 -9999 -9999 -9999 1.0211555957794189453 -9999 -9999 1.0052245855331420898 -9999 -9999 -9999 -9999 -9999 -9999 -9999 -9999 -9999 -9999 -9999 -9999 1.1590237617492675781 1.1824409961700439453 1.1439964771270751953 1.1121265888214111328 1.0812612771987915039 1.0491492748260498047 1.062142491340637207 1.0492750406265258789 1.0510916709899902344 -9999 1.2617473602294921875 1.2071506977081298828 1.1660735607147216797 1.167964935302734375 1.1845958232879638672 1.1602469682693481445 -9999 1.1250483989715576172 1.1046959161758422852 1.1750038862228393555 1.4949686527252197266 1.3922569751739501953 1.0868791341781616211 -9999 -9999 -9999 -9999 -9999 -9999 -9999 1.2789244651794433594 -9999 -9999 -9999 -9999 -9999 -9999 -9999 -9999 -9999 -9999 -9999 -9999 -9999 -9999 -9999 -9999 
-9999 -9999 -9999 -9999 -9999 -9999 -9999 -9999 -9999 -9999 -9999 -9999 -9999 -9999 -9999 -9999 -9999 -9999 -9999 -9999 -9999 -9999 -9999 -9999 -9999 -9999 -9999 -9999 -9999 -9999 -9999 -9999 -9999 1.0830177068710327148 -9999 -9999 -9999 -9999 -9999 -9999 -9999 -9999 -9999 -9999 -9999 -9999 -9999 -9999 -9999 -9999 1.162705540657043457 1.1051284074783325195 -9999 -9999 -9999 -9999 -9999 -9999 -9999 -9999 -9999 -9999 -9999 -9999 -9999 -9999 -9999 -9999 -9999 -9999 -9999 -9999 -9999 -9999 -9999 -9999 -9999 -9999 -9999 -9999 1.1169874668121337891 1.1138194799423217773 1.062668919563293457 1.0484116077423095703 1.0659952163696289062 1.0585129261016845703 -9999 1.0732400417327880859 1.0724736452102661133 1.0654674768447875977 1.1508318185806274414 1.0469707250595092773 -9999 1.0980162620544433594 1.3071672916412353516 1.2554771900177001953 -9999 1.1844513416290283203 1.2342435121536254883 1.1793662309646606445 1.3996615409851074219 1.3004981279373168945 1.2967292070388793945 1.1365894079208374023 1.0462245941162109375 -9999 1.0711539983749389648 -9999 -9999 1.2073372602462768555 1.3432985544204711914 1.3288991451263427734 1.153729557991027832 -9999 -9999 -9999 -9999 -9999 -9999 -9999 -9999 -9999 -9999 -9999 -9999 -9999 -9999 
-9999 -9999 -9999 -9999 -9999 -9999 -9999 -9999 -9999 -9999 -9999 -9999 -9999 -9999 -9999 -9999 -9999 -9999 -9999 -9999 -9999 -9999 -9999 -9999 -9999 -9999 -9999 -9999 -9999 -9999 -9999 -9999 -9999 -9999 -9999 -9999 -9999 -9999 -9999 -9999 -9999 -9999 -9999 -9999 -9999 -9999 -9999 -9999 -9999 -9999 1.0940860509872436523 -9999 1.050011754035949707 -9999 -9999 -9999 -9999 -9999 -9999 -9999 -9999 -9999 -9999 -9999 -9999 -9999 -9999 -9999 -9999 -9999 -9999 -9999 -9999 -9999 -9999 -9999 -9999 -9999 -9999 -9999 -9999 -9999 -9999 -9999 1.0545219182968139648 1.0788621902465820312 1.0663504600524902344 1.0502283573150634766 1.0325036048889160156 -9999 -9999 -9999 1.0667024850845336914 1.0908311605453491211 -9999 1.1905281543731689453 1.1635835170745849609 1.1702405214309692383 -9999 1.1885201930999755859 1.2266253232955932617 1.1247301101684570312 1.1248772144317626953 -9999 1.0753632783889770508 1.1150509119033813477 1.1359964609146118164 1.1883738040924072266 1.2227256298065185547 -9999 1.2987245321273803711 -9999 -9999 -9999 -9999 -9999 -9999 -9999 -9999 -9999 -9999 -9999 -9999 -9999 -9999 -9999 -9999 
-9999 -9999 -9999 -9999 -9999 -9999 -9999 -9999 -9999 -9999 -9999 -9999 -9999 -9999 -9999 -9999 -9999 -9999 -9999 -9999 -9999 -9999 -9999 -9999 -9999 -9999 -9999 -9999 -9999 -9999 1.1425647735595703125 1.0432457923889160156 -9999 -9999 -9999 -9999 -9999 -9999 -9999 -9999 -9999 -9999 -9999 -9999 -9999 -9999 -9999 -9999 1.0588260889053344727 -9999 -9999 -9999 -9999 1.0416054725646972656 -9999 -9999 -9999 1.0039820671081542969 -9999 -9999 -9999 -9999 -9999 -9999 -9999 1.0138239860534667969 -9999 -9999 -9999 -9999 -9999 -9999 -9999 -9999 -9999 -9999 -9999 1.0299361944198608398 -9999 -9999 -9999 -9999 -9999 -9999 -9999 1.0386157035827636719 -9999 -9999 -9999 -9999 -9999 -9999 -9999 1.0838533639907836914 1.1854991912841796875 1.1927616596221923828 1.1040326356887817383 1.0861495733261108398 1.1449313163757324219 1.1289496421813964844 1.3412532806396484375 1.2608278989791870117 1.0800632238388061523 1.1517622470855712891 1.1285170316696166992 1.200032353401184082 1.2282383441925048828 1.1988588571548461914 -9999 -9999 1.1855429410934448242 -9999 -9999 -9999 1.0447982549667358398 -9999 -9999 -9999 -9999 -9999 -9999 -9999 -9999 -9999 -9999 -9999 -9999 
-9999 -9999 -9999 -9999 -9999 -9999 -9999 -9999 -9999 -9999 -9999 -9999 -9999 -9999 -9999 -9999 -9999 -9999 -9999 -9999 -9999 -9999 -9999 -9999 -9999 -9999 -9999 -9999 -9999 -9999 1.0868499279022216797 -9999 -9999 -9999 -9999 -9999 -9999 -9999 -9999 -9999 -9999 -9999 -9999 -9999 -9999 -9999 -9999 -9999 -9999 -9999 -9999 -9999 -9999 -9999 -9999 -9999 -9999 -9999 1.060103297233581543 1.0272867679595947266 -9999 -9999 -9999 -9999 -9999 -9999 -9999 -9999 -9999 -9999 -9999 -9999 -9999 -9999 -9999 -9999 -9999 -9999 -9999 -9999 -9999 -9999 -9999 -9999 -9999 1.0193078517913818359 -9999 -9999 -9999 -9999 -9999 -9999 -9999 -9999 1.1345419883728027344 1.147668004035949707 1.0898882150650024414 1.0958341360092163086 1.1643624305725097656 1.1199568510055541992 1.3062045574188232422 1.5485132932662963867 1.4023736715316772461 1.1518054008483886719 1.0882219076156616211 1.5542671680450439453 1.4490865468978881836 1.1601176261901855469 -9999 -9999 -9999 -9999 -9999 -9999 -9999 -9999 -9999 -9999 -9999 -9999 -9999 -9999 -9999 -9999 -9999 -9999 -9999 
-9999 -9999 -9999 -9999 -9999 -9999 -9999 -9999 -9999 -9999 -9999 -9999 -9999 -9999 -9999 -9999 -9999 -9999 -9999 -9999 -9999 -9999 -9999 -9999 -9999 -9999 -9999 -9999 -9999 -9999 -9999 -9999 -9999 -9999 -9999 -9999 1.2192807197570800781 -9999 -9999 -9999 -9999 -9999 -9999 -9999 -9999 -9999 -9999 -9999 -9999 -9999 -9999 1.0156610012054443359 -9999 -9999 -9999 -9999 -9999 -9999 -9999 -9999 -9999 -9999 -9999 -9999 -9999 -9999 -9999 -9999 -9999 -9999 -9999 -9999 -9999 -9999 -9999 -9999 -9999 -9999 -9999 -9999 -9999 -9999 -9999 -9999 -9999 -9999 -9999 -9999 -9999 -9999 -9999 -9999 -9999 -9999 -9999 1.085547327995300293 1.2305991649627685547 1.2590633630752563477 -9999 1.0301233530044555664 1.0990244150161743164 1.3004672527313232422 1.4707952737808227539 1.1535205841064453125 1.2216552495956420898 1.4495441913604736328 -9999 -9999 -9999 -9999 -9999 -9999 -9999 -9999 -9999 -9999 1.0315474271774291992 -9999 -9999 -9999 -9999 -9999 -9999 -9999 -9999 -9999 -9999 
-9999 -9999 -9999 -9999 -9999 -9999 -9999 -9999 -9999 -9999 -9999 -9999 -9999 -9999 -9999 -9999 -9999 -9999 -9999 -9999 -9999 -9999 -9999 -9999 -9999 -9999 -9999 -9999 -9999 -9999 -9999 -9999 -9999 -9999 -9999 -9999 -9999 -9999 -9999 -9999 -9999 -9999 -9999 1.1550253629684448242 1.0864136219024658203 -9999 -9999 -9999 -9999 -9999 -9999 -9999 -9999 -9999 -9999 -9999 -9999 -9999 -9999 -9999 -9999 -9999 -9999 -9999 -9999 -9999 -9999 -9999 -9999 -9999 -9999 -9999 -9999 -9999 -9999 -9999 -9999 -9999 -9999 -9999 -9999 -9999 -9999 -9999 -9999 -9999 -9999 -9999 -9999 -9999 -9999 -9999 -9999 1.0301496982574462891 1.0562919378280639648 1.0878678560256958008 1.0928996801376342773 1.1544790267944335938 1.1365152597427368164 -9999 1.119259953498840332 1.2604947090148925781 1.4124994277954101562 1.3141973018646240234 1.1462218761444091797 1.2224030494689941406 1.2314291000366210938 -9999 -9999 -9999 -9999 -9999 -9999 -9999 -9999 -9999 -9999 -9999 -9999 -9999 -9999 -9999 -9999 -9999 1.0217179059982299805 -9999 -9999 
-9999 -9999 -9999 1.0378006696701049805 1.0590608119964599609 -9999 -9999 -9999 -9999 -9999 -9999 -9999 -9999 -9999 -9999 -9999 -9999 -9999 -9999 -9999 -9999 -9999 -9999 -9999 -9999 -9999 -9999 -9999 -9999 -9999 -9999 -9999 -9999 -9999 -9999 1.097773432731628418 -9999 -9999 -9999 -9999 1.0413279533386230469 -9999 1.1083240509033203125 1.2506191730499267578 1.3123848438262939453 1.3086373805999755859 1.0556098222732543945 1.0499696731567382812 -9999 -9999 -9999 -9999 -9999 -9999 -9999 -9999 -9999 -9999 -9999 -9999 -9999 -9999 -9999 -9999 -9999 -9999 -9999 -9999 -9999 -9999 -9999 -9999 -9999 -9999 -9999 -9999 -9999 -9999 -9999 -9999 -9999 -9999 -9999 -9999 -9999 -9999 -9999 -9999 -9999 -9999 -9999 -9999 -9999 -9999 -9999 -9999 1.0389903783798217773 1.0841236114501953125 1.1184682846069335938 1.0422947406768798828 1.1042687892913818359 1.2076964378356933594 1.3082849979400634766 1.6971023082733154297 1.5314780473709106445 1.7354110479354858398 1.5782033205032348633 1.1764446496963500977 1.1771955490112304688 -9999 -9999 -9999 -9999 -9999 -9999 -9999 -9999 -9999 -9999 -9999 -9999 -9999 -9999 -9999 -9999 -9999 -9999 
-9999 -9999 -9999 -9999 -9999 -9999 -9999 -9999 -9999 -9999 -9999 -9999 -9999 -9999 -9999 -9999 -9999 -9999 -9999 -9999 -9999 -9999 -9999 -9999 -9999 -9999 -9999 -9999 -9999 -9999 -9999 -9999 -9999 -9999 -9999 -9999 -9999 -9999 -9999 -9999 1.1841328144073486328 -9999 1.2113387584686279297 1.225825190544128418 1.2500931024551391602 1.5233441591262817383 1.3663523197174072266 1.2218788862228393555 -9999 1.0239641666412353516 -9999 -9999 -9999 -9999 -9999 -9999 -9999 -9999 -9999 -9999 -9999 -9999 -9999 -9999 1.0303478240966796875 -9999 -9999 -9999 -9999 -9999 -9999 -9999 -9999 -9999 -9999 -9999 -9999 -9999 -9999 -9999 -9999 -9999 -9999 -9999 -9999 -9999 -9999 -9999 -9999 -9999 -9999 -9999 -9999 -9999 -9999 -9999 -9999 -9999 -9999 -9999 1.0844188928604125977 1.149674534797668457 1.3397344350814819336 1.8789428472518920898 1.6079375743865966797 1.4479217529296875 1.6785618066787719727 1.3412096500396728516 -9999 -9999 -9999 -9999 -9999 -9999 -9999 -9999 -9999 -9999 -9999 -9999 -9999 -9999 -9999 -9999 -9999 -9999 -9999 
-9999 -9999 -9999 -9999 -9999 -9999 -9999 -9999 -9999 -9999 -9999 -9999 -9999 -9999 -9999 -9999 -9999 -9999 -9999 -9999 -9999 -9999 -9999 -9999 -9999 -9999 -9999 -9999 -9999 -9999 -9999 -9999 -9999 -9999 -9999 1.1725745201110839844 1.080702662467956543 -9999 -9999 -9999 -9999 1.2402006387710571289 1.4706083536148071289 1.7474839687347412109 1.2480778694152832031 1.5892155170440673828 1.8600286245346069336 1.2930080890655517578 1.0595567226409912109 1.0095270872116088867 -9999 -9999 -9999 -9999 -9999 -9999 -9999 -9999 -9999 -9999 -9999 -9999 -9999 -9999 1.012821197509765625 -9999 -9999 -9999 -9999 -9999 -9999 -9999 -9999 -9999 -9999 -9999 -9999 -9999 -9999 -9999 -9999 -9999 -9999 -9999 -9999 -9999 -9999 -9999 -9999 -9999 -9999 -9999 -9999 -9999 -9999 -9999 -9999 -9999 -9999 -9999 -9999 1.057586669921875 1.2581208944320678711 1.7916685342788696289 1.850596308708190918 1.7245213985443115234 2.5066745281219482422 2.1739878654479980469 1.2415430545806884766 -9999 -9999 -9999 1.0809293985366821289 -9999 -9999 -9999 -9999 -9999 -9999 -9999 -9999 -9999 -9999 -9999 -9999 -9999 -9999 
