ncols        127
nrows        131
xllcorner    -71.681135979344
yllcorner    -16.519694133538
cellsize     0.001836012963
NODATA_value -9999
-9999.0 -9999 -9999 -9999 -9999 -9999 -9999 -9999 -9999 -9999 -9999 65.89508056640625 66.05938720703125 -9999 -9999 66.84874725341796875 -9999 -9999 -9999 -9999 -9999 -9999 66.78234100341796875 67.9859619140625 -9999 -9999 70.281097412109375 -9999 -9999 -9999 -9999 -9999 66.09526824951171875 -9999 -9999 -9999 -9999 -9999 -9999 -9999 -9999 -9999 -9999 -9999 -9999 -9999 -9999 -9999 -9999 -9999 -9999 -9999 -9999 -9999 -9999 -9999 -9999 -9999 -9999 -9999 -9999 -9999 -9999 -9999 -9999 -9999 -9999 -9999 -9999 -9999 -9999 -9999 -9999 -9999 -9999 -9999 -9999 -9999 -9999 -9999 -9999 -9999 -9999 -9999 -9999 -9999 -9999 -9999 -9999 -9999 -9999 -9999 -9999 -9999 -9999 -9999 -9999 -9999 -9999 -9999 -9999 -9999 -9999 -9999 -9999 -9999 -9999 -9999 -9999 -9999 -9999 -9999 -9999 -9999 -9999 -9999 -9999 -9999 -9999 -9999 -9999 -9999 -9999 -9999 -9999 -9999 -9999 
-9999 -9999 -9999 -9999 -9999 -9999 -9999 -9999 -9999 -9999 -9999 66.0460357666015625 66.40547943115234375 -9999 -9999 -9999 -9999 -9999 -9999 -9999 -9999 -9999 67.26416778564453125 67.67787933349609375 66.0495452880859375 67.07672119140625 67.755218505859375 66.27495574951171875 68.58631134033203125 -9999 -9999 66.882354736328125 -9999 -9999 -9999 -9999 -9999 -9999 -9999 -9999 -9999 -9999 -9999 -9999 -9999 -9999 -9999 -9999 -9999 -9999 -9999 -9999 -9999 -9999 -9999 -9999 -9999 -9999 -9999 -9999 -9999 -9999 -9999 -9999 -9999 -9999 -9999 -9999 -9999 65.8273773193359375 -9999 -9999 -9999 -9999 65.816558837890625 65.81665802001953125 -9999 -9999 -9999 -9999 -9999 -9999 -9999 -9999 -9999 -9999 -9999 -9999 -9999 -9999 -9999 65.8451080322265625 65.83258056640625 -9999 -9999 -9999 -9999 -9999 -9999 -9999 -9999 -9999 -9999 -9999 -9999 -9999 -9999 -9999 -9999 -9999 -9999 -9999 -9999 66.1551361083984375 -9999 -9999 -9999 -9999 -9999 -9999 -9999 -9999 -9999 -9999 -9999 -9999 -9999 
-9999 -9999 -9999 -9999 -9999 -9999 -9999 -9999 -9999 -9999 66.1360015869140625 66.64426422119140625 68.280303955078125 68.2338409423828125 66.70496368408203125 65.9170074462890625 -9999 -9999 -9999 -9999 -9999 -9999 67.484771728515625 68.48059844970703125 66.14740753173828125 66.01758575439453125 66.0543212890625 -9999 71.45428466796875 -9999 -9999 67.12235260009765625 -9999 -9999 -9999 -9999 -9999 -9999 -9999 -9999 -9999 -9999 -9999 -9999 -9999 -9999 -9999 -9999 -9999 -9999 -9999 -9999 -9999 -9999 -9999 -9999 -9999 -9999 -9999 -9999 -9999 -9999 -9999 -9999 -9999 -9999 -9999 -9999 -9999 65.97548675537109375 66.00580596923828125 -9999 -9999 -9999 66.052337646484375 -9999 -9999 -9999 -9999 -9999 65.81641387939453125 -9999 -9999 -9999 -9999 -9999 -9999 -9999 -9999 -9999 -9999 -9999 -9999 -9999 -9999 -9999 -9999 -9999 -9999 -9999 -9999 -9999 -9999 -9999 -9999 -9999 -9999 -9999 -9999 -9999 -9999 -9999 -9999 -9999 -9999 -9999 -9999 -9999 -9999 -9999 65.92519378662109375 -9999 -9999 -9999 -9999 -9999 -9999 
66.57222747802734375 -9999 -9999 -9999 -9999 -9999 -9999 -9999 -9999 66.655059814453125 -9999 66.3612518310546875 72.11072540283203125 75.64519500732421875 68.9782257080078125 68.197265625 69.92282867431640625 -9999 -9999 -9999 70.956573486328125 68.6164398193359375 72.9847869873046875 69.1898193359375 67.245635986328125 70.174041748046875 67.51802825927734375 -9999 80.22393035888671875 -9999 79.13375091552734375 -9999 -9999 -9999 -9999 -9999 -9999 -9999 -9999 -9999 -9999 -9999 -9999 -9999 -9999 -9999 65.96930694580078125 -9999 -9999 -9999 -9999 -9999 -9999 -9999 -9999 -9999 -9999 -9999 -9999 -9999 -9999 -9999 -9999 -9999 -9999 -9999 -9999 -9999 -9999 66.43212890625 67.66931915283203125 67.551239013671875 68.80673980712890625 78.8426513671875 70.33586883544921875 -9999 -9999 65.8292999267578125 65.87937164306640625 -9999 -9999 -9999 -9999 -9999 -9999 -9999 -9999 -9999 66.0724029541015625 -9999 -9999 -9999 -9999 -9999 -9999 -9999 -9999 -9999 -9999 -9999 -9999 -9999 -9999 -9999 -9999 -9999 -9999 -9999 -9999 -9999 -9999 -9999 -9999 -9999 -9999 -9999 -9999 66.01929473876953125 -9999 -9999 65.9713134765625 -9999 -9999 -9999 -9999 -9999 -9999 
-9999 -9999 -9999 -9999 -9999 -9999 -9999 -9999 -9999 -9999 66.01082611083984375 66.48711395263671875 72.0196533203125 81.94101715087890625 77.3059234619140625 78.55231475830078125 73.16759490966796875 -9999 -9999 -9999 69.248504638671875 76.7039794921875 84.31710052490234375 74.953460693359375 67.87679290771484375 70.61325836181640625 69.14473724365234375 78.6745147705078125 77.529205322265625 74.81299591064453125 75.1692962646484375 -9999 -9999 -9999 -9999 -9999 -9999 -9999 -9999 -9999 -9999 -9999 -9999 -9999 -9999 -9999 -9999 -9999 -9999 -9999 66.32684326171875 -9999 -9999 -9999 -9999 -9999 -9999 -9999 -9999 -9999 -9999 -9999 -9999 -9999 -9999 -9999 -9999 -9999 66.26374053955078125 67.44918060302734375 68.68767547607421875 69.107696533203125 74.68115997314453125 83.52021026611328125 73.88922882080078125 82.89577484130859375 71.5780181884765625 66.8825836181640625 65.837371826171875 -9999 -9999 -9999 -9999 -9999 -9999 -9999 -9999 65.90515899658203125 65.8678131103515625 66.456695556640625 -9999 -9999 -9999 66.40001678466796875 67.11145782470703125 -9999 66.02890777587890625 -9999 -9999 -9999 -9999 -9999 -9999 -9999 -9999 -9999 -9999 -9999 -9999 -9999 -9999 -9999 -9999 -9999 -9999 -9999 -9999 -9999 -9999 -9999 -9999 -9999 -9999 -9999 -9999 -9999 -9999 
-9999 -9999 -9999 -9999 -9999 -9999 -9999 66.9404144287109375 68.06194305419921875 66.72895050048828125 66.05712890625 66.47357940673828125 67.13968658447265625 73.6801300048828125 83.90366363525390625 94.8170623779296875 77.61675262451171875 -9999 -9999 -9999 72.0090789794921875 90.81555938720703125 96.74411773681640625 79.62795257568359375 70.47153472900390625 75.26424407958984375 86.340911865234375 86.7005767822265625 101.25460052490234375 90.107330322265625 86.36690521240234375 -9999 -9999 -9999 -9999 -9999 -9999 -9999 -9999 -9999 -9999 -9999 -9999 -9999 -9999 -9999 -9999 -9999 66.01525115966796875 -9999 -9999 -9999 -9999 -9999 -9999 -9999 -9999 -9999 -9999 -9999 -9999 -9999 -9999 -9999 -9999 -9999 -9999 -9999 66.0383453369140625 66.51839447021484375 69.854034423828125 70.71929168701171875 73.88350677490234375 82.0031890869140625 93.34355926513671875 100.7672576904296875 71.92192840576171875 68.382843017578125 65.8741912841796875 66.30268096923828125 -9999 -9999 -9999 65.95546722412109375 65.86203765869140625 -9999 65.96063995361328125 67.26827239990234375 65.8935089111328125 65.81671142578125 65.9649810791015625 -9999 -9999 -9999 -9999 -9999 -9999 -9999 -9999 -9999 -9999 -9999 -9999 -9999 -9999 -9999 -9999 -9999 -9999 -9999 -9999 -9999 -9999 -9999 -9999 -9999 -9999 -9999 -9999 -9999 -9999 -9999 -9999 -9999 -9999 -9999 -9999 
-9999 -9999 -9999 -9999 -9999 -9999 -9999 66.343048095703125 67.2157745361328125 66.36321258544921875 66.2944488525390625 66.3699493408203125 67.4663238525390625 74.75888824462890625 86.8816375732421875 94.78586578369140625 74.42563629150390625 -9999 -9999 66.809234619140625 73.88726806640625 82.0912933349609375 81.13486480712890625 95.04660797119140625 111.223876953125 128.7038421630859375 144.8808135986328125 107.022705078125 131.6468048095703125 92.121002197265625 72.13442230224609375 -9999 -9999 -9999 -9999 -9999 -9999 66.52492523193359375 -9999 -9999 -9999 -9999 -9999 -9999 -9999 -9999 -9999 -9999 -9999 -9999 -9999 -9999 -9999 -9999 65.98142242431640625 -9999 -9999 -9999 -9999 -9999 -9999 -9999 -9999 -9999 -9999 -9999 -9999 -9999 -9999 -9999 67.08242034912109375 69.93602752685546875 73.35597991943359375 93.837005615234375 100.5717315673828125 85.387359619140625 66.28960418701171875 65.9431915283203125 -9999 -9999 -9999 66.01247406005859375 66.10179901123046875 66.4181365966796875 65.9185638427734375 -9999 67.63216400146484375 77.14984893798828125 66.18489837646484375 66.01749420166015625 66.457489013671875 66.27100372314453125 66.00955963134765625 65.8337554931640625 -9999 -9999 -9999 -9999 -9999 -9999 -9999 -9999 -9999 -9999 -9999 -9999 -9999 -9999 -9999 -9999 -9999 -9999 68.8856964111328125 65.57814788818359375 -9999 -9999 -9999 -9999 -9999 -9999 -9999 -9999 -9999 -9999 -9999 -9999 -9999 
-9999 -9999 -9999 -9999 -9999 66.2875823974609375 -9999 66.21572113037109375 67.183074951171875 66.40708160400390625 66.98557281494140625 67.4505767822265625 71.39361572265625 76.37384033203125 70.386260986328125 70.34294891357421875 67.743133544921875 -9999 65.8908843994140625 67.41683197021484375 83.8588104248046875 74.6695404052734375 67.0941925048828125 90.81728363037109375 195.2165069580078125 291.029571533203125 191.630615234375 154.250091552734375 210.6224822998046875 157.007415771484375 114.96567535400390625 99.71694183349609375 78.34499359130859375 -9999 -9999 -9999 -9999 66.19995880126953125 -9999 -9999 -9999 -9999 -9999 -9999 -9999 -9999 -9999 -9999 -9999 -9999 -9999 -9999 -9999 -9999 -9999 -9999 -9999 -9999 -9999 -9999 -9999 -9999 -9999 -9999 -9999 -9999 -9999 -9999 -9999 -9999 -9999 66.9498443603515625 80.065185546875 113.27564239501953125 111.03717041015625 70.532867431640625 65.90181732177734375 -9999 -9999 66.7565765380859375 66.3404693603515625 66.664520263671875 72.86528778076171875 80.42972564697265625 68.9124298095703125 66.6082000732421875 70.2610015869140625 78.39166259765625 70.521697998046875 67.2005462646484375 66.71123504638671875 66.712799072265625 66.25824737548828125 65.874298095703125 -9999 -9999 -9999 -9999 -9999 -9999 -9999 -9999 -9999 -9999 -9999 -9999 -9999 -9999 -9999 -9999 -9999 66.1945037841796875 67.63800048828125 -9999 -9999 -9999 -9999 -9999 -9999 -9999 -9999 -9999 -9999 -9999 -9999 -9999 -9999 
-9999 -9999 -9999 -9999 66.2232818603515625 -9999 -9999 65.9787445068359375 66.08536529541015625 66.53073883056640625 -9999 68.44199371337890625 72.5470123291015625 68.715728759765625 66.22974395751953125 -9999 -9999 -9999 -9999 67.00508880615234375 72.75707244873046875 71.89156341552734375 -9999 98.4967498779296875 186.3622589111328125 253.082489013671875 177.158203125 154.192779541015625 207.493682861328125 316.61761474609375 382.60174560546875 259.1036376953125 100.70224761962890625 -9999 -9999 -9999 -9999 -9999 -9999 -9999 -9999 -9999 -9999 -9999 -9999 -9999 -9999 -9999 -9999 -9999 -9999 -9999 -9999 -9999 -9999 -9999 -9999 -9999 -9999 -9999 -9999 -9999 -9999 -9999 -9999 -9999 -9999 -9999 -9999 -9999 -9999 68.32175445556640625 81.60870361328125 121.22209930419921875 91.2691497802734375 67.6905364990234375 65.93166351318359375 -9999 -9999 66.31369781494140625 66.19805908203125 67.38535308837890625 90.695892333984375 98.7415771484375 78.02854156494140625 76.37622833251953125 87.9451904296875 81.95162200927734375 88.17864990234375 69.6508941650390625 69.23160552978515625 69.28624725341796875 66.56067657470703125 -9999 -9999 -9999 -9999 -9999 -9999 -9999 -9999 -9999 -9999 -9999 -9999 -9999 -9999 -9999 -9999 -9999 -9999 -9999 -9999 -9999 -9999 -9999 -9999 -9999 -9999 -9999 -9999 -9999 -9999 -9999 -9999 -9999 -9999 
-9999 -9999 -9999 -9999 -9999 -9999 -9999 66.257843017578125 66.23148345947265625 66.48894500732421875 66.5131683349609375 67.4142913818359375 71.46346282958984375 71.0655975341796875 66.03070068359375 -9999 -9999 -9999 66.928009033203125 67.96949005126953125 72.7110748291015625 -9999 67.43660736083984375 82.237060546875 98.86275482177734375 94.32940673828125 158.0048980712890625 202.845367431640625 218.903228759765625 515.1923828125 648.8026123046875 471.69146728515625 167.30853271484375 62.423183441162109375 70.61310577392578125 66.47796630859375 -9999 -9999 -9999 -9999 -9999 -9999 -9999 -9999 -9999 -9999 -9999 -9999 66.23241424560546875 -9999 -9999 -9999 -9999 -9999 -9999 -9999 -9999 -9999 -9999 -9999 -9999 -9999 -9999 -9999 -9999 -9999 -9999 -9999 -9999 -9999 -9999 69.8886871337890625 81.7550201416015625 85.10475921630859375 71.52761077880859375 -9999 -9999 -9999 67.08934783935546875 66.5612335205078125 66.52124786376953125 68.975555419921875 92.2945098876953125 98.92029571533203125 89.6123199462890625 117.9952392578125 137.710845947265625 92.15178680419921875 100.14513397216796875 71.06964874267578125 71.402313232421875 68.78052520751953125 66.5754241943359375 -9999 -9999 -9999 -9999 -9999 -9999 -9999 -9999 -9999 -9999 -9999 -9999 -9999 -9999 -9999 -9999 -9999 -9999 -9999 -9999 -9999 -9999 -9999 -9999 -9999 -9999 -9999 -9999 -9999 -9999 -9999 -9999 -9999 -9999 
-9999 -9999 -9999 66.03054046630859375 -9999 -9999 65.908416748046875 66.737701416015625 66.8459014892578125 66.254180908203125 66.47281646728515625 66.71750640869140625 67.08582305908203125 -9999 -9999 -9999 -9999 -9999 -9999 96.957916259765625 148.7587890625 104.6105804443359375 68.1434173583984375 71.89040374755859375 85.53575897216796875 118.78662872314453125 198.1945037841796875 240.4370269775390625 434.33929443359375 621.60662841796875 616.4365234375 537.99591064453125 316.684814453125 78.9572296142578125 68.58080291748046875 68.452178955078125 68.2349090576171875 -9999 -9999 -9999 -9999 -9999 -9999 -9999 -9999 -9999 -9999 -9999 -9999 -9999 -9999 -9999 -9999 -9999 -9999 -9999 -9999 -9999 -9999 -9999 -9999 -9999 -9999 -9999 66.06281280517578125 -9999 -9999 -9999 -9999 -9999 -9999 -9999 75.48682403564453125 73.27054595947265625 67.285736083984375 66.06024169921875 -9999 -9999 -9999 -9999 66.42557525634765625 69.2723388671875 83.18770599365234375 114.40117645263671875 96.6697235107421875 145.878082275390625 156.882659912109375 86.4390411376953125 77.70900726318359375 70.189910888671875 71.9439849853515625 68.720306396484375 66.296417236328125 -9999 -9999 -9999 -9999 -9999 -9999 -9999 -9999 -9999 -9999 -9999 -9999 -9999 -9999 -9999 -9999 -9999 -9999 -9999 -9999 -9999 -9999 -9999 -9999 -9999 -9999 -9999 -9999 -9999 -9999 -9999 -9999 -9999 -9999 
-9999 67.8369903564453125 67.58013916015625 66.39388275146484375 66.02079010009765625 66.26799774169921875 66.3024139404296875 69.6510772705078125 71.4685211181640625 67.4281463623046875 66.9303741455078125 67.445770263671875 66.38047027587890625 -9999 -9999 -9999 -9999 -9999 -9999 -9999 -9999 73.89560699462890625 75.64621734619140625 73.17404937744140625 87.0335693359375 104.0884552001953125 128.92852783203125 197.7407989501953125 446.809967041015625 695.0936279296875 696.7197265625 502.123321533203125 343.76361083984375 150.6575927734375 101.53726959228515625 110.59316253662109375 89.1991729736328125 -9999 -9999 -9999 -9999 -9999 -9999 -9999 -9999 -9999 -9999 -9999 -9999 -9999 -9999 -9999 -9999 -9999 -9999 -9999 -9999 -9999 -9999 -9999 -9999 -9999 -9999 -9999 -9999 -9999 -9999 -9999 -9999 -9999 -9999 -9999 72.74196624755859375 72.3666229248046875 76.2468109130859375 67.1924896240234375 -9999 -9999 -9999 -9999 72.988037109375 83.81537628173828125 100.68930816650390625 113.34477996826171875 97.7297515869140625 178.6715087890625 181.6138916015625 79.58531951904296875 68.5328216552734375 67.379913330078125 68.4771881103515625 67.77459716796875 -9999 -9999 -9999 -9999 -9999 -9999 -9999 -9999 -9999 -9999 -9999 -9999 -9999 -9999 -9999 -9999 65.817108154296875 -9999 -9999 -9999 -9999 -9999 -9999 -9999 -9999 -9999 -9999 -9999 -9999 -9999 -9999 -9999 -9999 -9999 -9999 
67.0813446044921875 67.3452301025390625 66.87481689453125 66.468017578125 -9999 -9999 68.86954498291015625 71.784271240234375 68.62457275390625 67.22896575927734375 66.4173736572265625 66.53539276123046875 66.32080841064453125 -9999 -9999 -9999 -9999 -9999 -9999 -9999 -9999 68.80268096923828125 81.72782135009765625 71.995849609375 75.29132080078125 85.3218994140625 99.7031402587890625 144.16595458984375 189.3143463134765625 442.723052978515625 609.97216796875 404.828643798828125 296.085845947265625 313.74859619140625 290.802642822265625 243.377593994140625 125.92247772216796875 67.38230133056640625 -9999 -9999 -9999 -9999 -9999 -9999 -9999 -9999 -9999 -9999 -9999 -9999 -9999 -9999 -9999 -9999 -9999 -9999 -9999 -9999 -9999 -9999 -9999 -9999 -9999 -9999 -9999 -9999 -9999 -9999 -9999 -9999 -9999 -9999 69.5136871337890625 74.270294189453125 71.85355377197265625 67.10562896728515625 -9999 -9999 65.83355712890625 68.13800048828125 88.4010162353515625 122.61396026611328125 150.660614013671875 155.585357666015625 99.64792633056640625 169.64794921875 214.4539031982421875 97.802825927734375 86.65125274658203125 72.1255950927734375 -9999 65.9789886474609375 -9999 -9999 -9999 -9999 -9999 -9999 -9999 -9999 -9999 -9999 -9999 -9999 -9999 -9999 -9999 -9999 -9999 -9999 -9999 -9999 -9999 -9999 -9999 -9999 -9999 -9999 -9999 -9999 -9999 -9999 -9999 -9999 -9999 -9999 -9999 
67.01349639892578125 66.609954833984375 66.3966827392578125 66.41353607177734375 -9999 -9999 74.2069244384765625 73.9345245361328125 70.6155548095703125 68.28155517578125 66.55559539794921875 66.91573333740234375 65.9435882568359375 -9999 -9999 66.42212677001953125 66.053131103515625 65.93144989013671875 66.21315765380859375 -9999 -9999 68.8533935546875 77.43610382080078125 74.189971923828125 76.4336700439453125 74.8394012451171875 102.27217864990234375 162.8307037353515625 145.259307861328125 241.749481201171875 496.063262939453125 356.69451904296875 301.817596435546875 455.15985107421875 550.64501953125 454.6878662109375 267.190155029296875 100.11634063720703125 -9999 -9999 -9999 -9999 -9999 -9999 -9999 -9999 -9999 -9999 -9999 -9999 -9999 -9999 -9999 -9999 -9999 -9999 65.98830413818359375 65.854583740234375 -9999 -9999 -9999 -9999 -9999 -9999 -9999 -9999 -9999 -9999 -9999 -9999 -9999 70.67490386962890625 77.920562744140625 85.0123748779296875 71.01993560791015625 66.355987548828125 -9999 -9999 65.8026123046875 72.17092132568359375 132.370635986328125 178.136138916015625 218.753631591796875 156.770111083984375 177.293426513671875 273.236236572265625 211.4785919189453125 99.19416046142578125 81.922271728515625 71.422210693359375 -9999 66.06111907958984375 65.87628173828125 -9999 -9999 -9999 -9999 -9999 -9999 -9999 -9999 -9999 -9999 -9999 67.11022186279296875 -9999 -9999 -9999 -9999 -9999 -9999 -9999 -9999 -9999 -9999 -9999 -9999 -9999 -9999 -9999 -9999 -9999 -9999 -9999 -9999 -9999 -9999 
65.953521728515625 66.2248992919921875 66.4578094482421875 66.4956817626953125 66.25913238525390625 68.49744415283203125 72.19313812255859375 71.04930877685546875 70.8058013916015625 67.81646728515625 66.37335205078125 66.4000244140625 -9999 -9999 68.6363372802734375 73.8832550048828125 71.75064849853515625 66.94185638427734375 73.86767578125 -9999 68.92044830322265625 78.87345123291015625 92.4072418212890625 114.2003173828125 82.38480377197265625 87.37093353271484375 124.99495697021484375 166.9106903076171875 156.5408782958984375 202.0469818115234375 279.324798583984375 160.3499908447265625 196.759490966796875 467.208953857421875 620.1671142578125 522.84423828125 467.28863525390625 279.425140380859375 127.2890625 100.546966552734375 91.27121734619140625 -9999 -9999 -9999 -9999 -9999 -9999 -9999 -9999 -9999 -9999 -9999 65.81743621826171875 65.81989288330078125 -9999 69.806182861328125 66.2015838623046875 -9999 -9999 -9999 -9999 -9999 -9999 -9999 -9999 -9999 -9999 -9999 -9999 -9999 100.92714691162109375 163.2220306396484375 152.703826904296875 106.58800506591796875 71.20343017578125 65.96027374267578125 -9999 -9999 69.30994415283203125 134.899627685546875 248.1935577392578125 259.2762451171875 318.52728271484375 188.336151123046875 331.615631103515625 338.976776123046875 181.8776397705078125 75.509063720703125 69.0078277587890625 67.9260101318359375 -9999 66.5925140380859375 66.06761932373046875 -9999 -9999 -9999 -9999 -9999 -9999 -9999 -9999 -9999 -9999 -9999 -9999 -9999 -9999 -9999 -9999 -9999 -9999 -9999 -9999 -9999 -9999 -9999 -9999 -9999 -9999 -9999 -9999 -9999 -9999 -9999 -9999 -9999 -9999 
66.04437255859375 65.8307342529296875 -9999 -9999 67.56284332275390625 69.10936737060546875 70.641204833984375 71.77391815185546875 67.99457550048828125 66.502105712890625 66.36260223388671875 66.05982208251953125 -9999 -9999 70.19083404541015625 73.52143096923828125 71.23691558837890625 69.44820404052734375 77.979583740234375 84.8262939453125 86.98272705078125 98.88213348388671875 108.28961181640625 152.6278533935546875 103.67917633056640625 85.67069244384765625 89.5399017333984375 150.552764892578125 241.303955078125 362.083984375 165.64581298828125 97.99730682373046875 214.753082275390625 438.910919189453125 641.35931396484375 592.80859375 577.17742919921875 529.67510986328125 395.772674560546875 272.80950927734375 171.1487274169921875 79.8211669921875 -9999 -9999 -9999 -9999 -9999 -9999 -9999 -9999 -9999 -9999 -9999 -9999 70.50299072265625 81.825408935546875 68.1586761474609375 66.499603271484375 67.3641357421875 66.03501129150390625 -9999 67.7097625732421875 -9999 -9999 -9999 -9999 72.4622802734375 79.32164764404296875 94.4665679931640625 149.38873291015625 312.4744873046875 380.29827880859375 307.9771728515625 287.843414306640625 100.60677337646484375 66.18573760986328125 66.2105255126953125 66.529205322265625 95.5314178466796875 207.8949737548828125 202.50714111328125 214.614044189453125 392.75592041015625 230.2139434814453125 394.18701171875 332.77679443359375 124.96669769287109375 -9999 67.4138336181640625 -9999 66.361236572265625 67.742889404296875 66.226654052734375 -9999 -9999 -9999 -9999 -9999 -9999 -9999 -9999 -9999 -9999 -9999 -9999 -9999 -9999 -9999 -9999 -9999 -9999 -9999 -9999 -9999 -9999 -9999 -9999 -9999 -9999 -9999 -9999 -9999 -9999 -9999 -9999 -9999 -9999 
65.83571624755859375 65.81841278076171875 -9999 68.2307586669921875 66.65119171142578125 66.71413421630859375 67.11315155029296875 69.0562896728515625 68.78003692626953125 67.9797515869140625 66.2571563720703125 -9999 75.740692138671875 69.29694366455078125 72.59444427490234375 69.57445526123046875 67.874420166015625 74.07037353515625 82.49285125732421875 94.54573822021484375 99.1222991943359375 98.69427490234375 98.1943511962890625 124.300933837890625 137.977935791015625 125.47391510009765625 128.3215179443359375 135.4972686767578125 169.00030517578125 261.382049560546875 120.1272735595703125 211.517303466796875 347.0916748046875 358.982025146484375 630.19818115234375 748.66839599609375 681.27008056640625 529.7435302734375 503.96392822265625 412.546630859375 281.637664794921875 192.5127410888671875 95.96795654296875 -9999 -9999 -9999 -9999 -9999 -9999 -9999 -9999 74.595245361328125 80.37955474853515625 75.0794830322265625 81.2248077392578125 81.014312744140625 -9999 69.77089691162109375 75.49127960205078125 69.47084808349609375 -9999 -9999 67.070343017578125 -9999 -9999 72.65859222412109375 102.112274169921875 109.83042144775390625 162.824371337890625 255.93341064453125 439.225341796875 586.9268798828125 617.48736572265625 460.6326904296875 150.1940155029296875 103.98246002197265625 77.41672515869140625 73.17340087890625 144.21533203125 246.4814300537109375 186.9711456298828125 287.316925048828125 384.11004638671875 264.48760986328125 342.579254150390625 308.128448486328125 103.65489959716796875 66.11894989013671875 66.8570404052734375 -9999 66.12705230712890625 68.138519287109375 66.11316680908203125 -9999 -9999 -9999 -9999 -9999 -9999 -9999 -9999 -9999 68.01522064208984375 -9999 -9999 -9999 -9999 -9999 -9999 -9999 -9999 -9999 -9999 -9999 -9999 -9999 -9999 -9999 -9999 -9999 -9999 -9999 -9999 -9999 -9999 -9999 -9999 
-9999 66.3662109375 66.09923553466796875 65.931365966796875 66.27392578125 -9999 -9999 67.42055511474609375 67.4779205322265625 66.4438018798828125 -9999 -9999 73.538818359375 70.81674957275390625 71.93857574462890625 71.417938232421875 74.73187255859375 90.4092254638671875 82.71819305419921875 82.25003814697265625 89.53279876708984375 99.67974090576171875 104.34300994873046875 101.11700439453125 167.355621337890625 181.188262939453125 198.447998046875 199.2659912109375 157.9296722412109375 127.89954376220703125 73.75621795654296875 134.7111053466796875 251.7825927734375 305.5496826171875 473.8812255859375 724.18157958984375 834.04193115234375 653.23529052734375 499.474151611328125 492.938995361328125 522.53424072265625 542.39892578125 300.6942138671875 75.8943939208984375 66.085968017578125 65.0504608154296875 -9999 -9999 -9999 67.33416748046875 72.179656982421875 197.2689208984375 215.1254119873046875 139.7599945068359375 144.5917205810546875 97.70786285400390625 67.5497894287109375 70.8930511474609375 76.8865509033203125 69.42533111572265625 -9999 -9999 -9999 -9999 -9999 76.997222900390625 104.271820068359375 119.46765899658203125 271.461334228515625 306.640228271484375 457.7967529296875 716.3504638671875 677.93505859375 468.829803466796875 271.84808349609375 294.1234130859375 231.5896453857421875 149.5890655517578125 233.921661376953125 250.538299560546875 216.8696746826171875 239.247772216796875 212.447479248046875 373.226287841796875 388.944305419921875 302.3858642578125 101.05633544921875 65.92960357666015625 -9999 -9999 -9999 -9999 -9999 -9999 -9999 -9999 -9999 66.25139617919921875 66.8236846923828125 66.97795867919921875 -9999 66.18801116943359375 -9999 -9999 -9999 -9999 -9999 -9999 -9999 -9999 -9999 -9999 -9999 -9999 -9999 -9999 -9999 -9999 -9999 -9999 -9999 -9999 -9999 -9999 -9999 -9999 -9999 
-9999 67.0484161376953125 66.0300445556640625 65.8332366943359375 -9999 -9999 -9999 67.42835235595703125 67.046966552734375 65.90755462646484375 -9999 -9999 68.3017425537109375 75.34438323974609375 78.28216552734375 75.45732879638671875 75.4246063232421875 75.07653045654296875 70.52433013916015625 73.68536376953125 77.76416015625 112.25032806396484375 114.5970001220703125 128.7294769287109375 124.26938629150390625 79.8790435791015625 127.2684326171875 207.167633056640625 140.448333740234375 76.44948577880859375 71.98671722412109375 -9999 77.09481048583984375 135.1039276123046875 139.752838134765625 377.35394287109375 616.6622314453125 468.40618896484375 496.69921875 488.050750732421875 657.045166015625 582.22576904296875 543.16217041015625 397.811370849609375 122.4486846923828125 66.31085968017578125 64.43576812744140625 61.092395782470703125 140.3131256103515625 235.592864990234375 361.716033935546875 390.33721923828125 285.483306884765625 189.8269500732421875 194.28216552734375 84.94950103759765625 68.29278564453125 67.93601226806640625 67.49529266357421875 -9999 -9999 -9999 -9999 -9999 -9999 -9999 77.12296295166015625 181.9005584716796875 517.90850830078125 602.26080322265625 686.34033203125 768.45458984375 591.9661865234375 431.0389404296875 473.00970458984375 500.21636962890625 414.893524169921875 296.026336669921875 215.56671142578125 160.1022491455078125 258.12347412109375 189.59344482421875 106.8566741943359375 260.878082275390625 400.7838134765625 172.7369232177734375 -9999 65.828765869140625 -9999 -9999 -9999 -9999 -9999 -9999 -9999 66.63637542724609375 65.9936370849609375 -9999 -9999 -9999 -9999 -9999 -9999 -9999 -9999 -9999 -9999 -9999 -9999 -9999 -9999 -9999 -9999 -9999 -9999 -9999 -9999 -9999 -9999 -9999 -9999 -9999 -9999 -9999 -9999 -9999 -9999 
-9999 -9999 -9999 -9999 -9999 65.8820037841796875 -9999 66.27678680419921875 -9999 -9999 -9999 -9999 67.7481689453125 77.231475830078125 86.48682403564453125 86.741851806640625 77.6400146484375 72.74350738525390625 68.6319580078125 72.8803863525390625 88.282989501953125 99.46422576904296875 82.25618743896484375 87.10666656494140625 74.84439849853515625 -9999 86.50313568115234375 118.2062530517578125 126.24491119384765625 75.96825408935546875 68.6068115234375 -9999 70.42282867431640625 84.89133453369140625 74.15880584716796875 125.5911407470703125 181.986907958984375 241.01275634765625 477.278594970703125 506.004608154296875 453.53173828125 528.80328369140625 712.93212890625 665.69329833984375 371.87860107421875 131.3144378662109375 129.2291259765625 297.433349609375 370.62969970703125 461.758544921875 400.557830810546875 398.38385009765625 188.9223480224609375 264.957427978515625 227.4356842041015625 88.82862091064453125 66.93441009521484375 66.283966064453125 -9999 66.1196441650390625 -9999 -9999 -9999 -9999 -9999 -9999 112.1596832275390625 398.331573486328125 645.3780517578125 709.663330078125 775.53692626953125 764.3289794921875 648.4583740234375 355.864837646484375 416.853912353515625 481.997344970703125 337.233734130859375 253.9645843505859375 213.0422515869140625 236.4891357421875 214.9990997314453125 108.00421905517578125 104.62992095947265625 247.876708984375 315.500335693359375 134.3318328857421875 -9999 -9999 -9999 -9999 -9999 66.00531005859375 65.8694305419921875 -9999 -9999 -9999 -9999 -9999 -9999 -9999 -9999 -9999 -9999 -9999 -9999 -9999 -9999 -9999 -9999 -9999 -9999 -9999 -9999 -9999 -9999 -9999 -9999 -9999 -9999 -9999 -9999 -9999 -9999 -9999 -9999 -9999 -9999 
-9999 -9999 -9999 66.22119140625 66.9321746826171875 66.08681488037109375 65.90068817138671875 66.6055145263671875 65.96002197265625 -9999 -9999 68.71297454833984375 67.68279266357421875 74.42482757568359375 89.43012237548828125 80.90462493896484375 75.45571136474609375 74.1025848388671875 68.4395904541015625 79.042694091796875 102.4303131103515625 82.793121337890625 71.0928192138671875 -9999 -9999 -9999 66.72359466552734375 89.57668304443359375 141.7157135009765625 82.18622589111328125 67.46784210205078125 71.8066253662109375 76.98956298828125 86.76911163330078125 71.53192901611328125 70.65807342529296875 88.7888336181640625 178.818115234375 322.42401123046875 468.60467529296875 408.430938720703125 499.747528076171875 736.4482421875 742.4322509765625 465.01654052734375 232.919891357421875 238.4805450439453125 552.06744384765625 688.45013427734375 716.49639892578125 575.69354248046875 478.69598388671875 266.122039794921875 446.28045654296875 228.9937744140625 140.542083740234375 70.5090484619140625 -9999 67.4950408935546875 66.49172210693359375 77.756256103515625 129.64434814453125 82.2378692626953125 -9999 69.635040283203125 112.61598968505859375 288.401092529296875 511.588592529296875 540.7548828125 775.0697021484375 737.04376220703125 518.9561767578125 509.005157470703125 288.118560791015625 325.430938720703125 421.5003662109375 194.8288116455078125 174.0675201416015625 363.53045654296875 397.197509765625 159.7178955078125 93.8597259521484375 139.5493927001953125 181.4927978515625 166.5193023681640625 -9999 -9999 -9999 -9999 -9999 -9999 65.99114990234375 66.166900634765625 -9999 -9999 -9999 -9999 -9999 -9999 -9999 -9999 -9999 -9999 -9999 -9999 -9999 -9999 -9999 -9999 -9999 -9999 -9999 -9999 -9999 -9999 -9999 -9999 -9999 -9999 -9999 -9999 -9999 -9999 -9999 -9999 -9999 -9999 
-9999 -9999 -9999 66.72015380859375 66.9744110107421875 66.47071075439453125 65.97017669677734375 -9999 -9999 -9999 69.5432281494140625 68.261932373046875 66.6797332763671875 67.8065948486328125 76.415496826171875 74.45123291015625 75.45586395263671875 75.602569580078125 74.94223785400390625 84.437744140625 94.1435394287109375 87.50403594970703125 79.09400177001953125 -9999 71.7537689208984375 -9999 75.21823883056640625 131.88360595703125 135.3177337646484375 75.19329071044921875 68.02703857421875 80.387237548828125 119.282379150390625 104.1272735595703125 112.29680633544921875 80.79929351806640625 74.44783782958984375 98.31505584716796875 218.0125732421875 247.3609771728515625 259.408843994140625 347.252685546875 377.377166748046875 597.50067138671875 512.828369140625 353.434844970703125 435.80908203125 663.0994873046875 826.95892333984375 853.59320068359375 807.79901123046875 535.6842041015625 373.75872802734375 450.936737060546875 377.966888427734375 222.0831298828125 112.0057373046875 -9999 -9999 -9999 76.23656463623046875 260.469390869140625 304.07806396484375 128.80841064453125 126.578369140625 336.258087158203125 601.8507080078125 665.18414306640625 558.45703125 738.2001953125 684.96759033203125 503.827667236328125 561.19110107421875 302.896636962890625 322.09161376953125 354.89215087890625 124.1644287109375 206.443634033203125 470.306976318359375 355.74786376953125 128.9576416015625 84.6367340087890625 90.45684051513671875 73.48706817626953125 67.60080718994140625 -9999 -9999 -9999 -9999 -9999 -9999 65.431854248046875 66.4981536865234375 -9999 -9999 -9999 -9999 -9999 -9999 -9999 -9999 -9999 -9999 -9999 -9999 -9999 -9999 -9999 -9999 -9999 -9999 -9999 -9999 -9999 -9999 -9999 -9999 -9999 -9999 -9999 -9999 -9999 -9999 -9999 -9999 -9999 -9999 
-9999 -9999 -9999 66.6889801025390625 66.35903167724609375 66.12795257568359375 66.11664581298828125 -9999 -9999 -9999 66.28137969970703125 66.2765045166015625 66.39608001708984375 66.189697265625 67.9364776611328125 68.4062957763671875 75.09909820556640625 78.05783843994140625 79.41262054443359375 85.92425537109375 87.0462188720703125 84.8051300048828125 73.5954742431640625 -9999 -9999 -9999 76.98027801513671875 132.9527130126953125 115.52762603759765625 77.6603851318359375 90.97983551025390625 150.846832275390625 152.3190155029296875 100.5233306884765625 90.90821075439453125 77.0181121826171875 86.99419403076171875 105.9912872314453125 118.05643463134765625 196.6461029052734375 172.7927398681640625 151.0709381103515625 183.6045379638671875 244.1216888427734375 370.86639404296875 313.641448974609375 502.872161865234375 759.0985107421875 844.5595703125 869.38604736328125 778.98187255859375 519.17694091796875 236.2958526611328125 366.62255859375 395.512176513671875 211.1507720947265625 105.28749847412109375 66.7063140869140625 -9999 -9999 -9999 248.6648712158203125 354.65460205078125 252.2943878173828125 300.109649658203125 441.292999267578125 532.326171875 620.5458984375 635.66064453125 510.22802734375 461.244354248046875 402.337066650390625 356.60052490234375 222.1884613037109375 370.104888916015625 284.3851318359375 109.53448486328125 141.0109405517578125 274.60089111328125 198.12725830078125 174.8675689697265625 109.03173828125 70.21123504638671875 -9999 65.8176422119140625 -9999 -9999 72.8234405517578125 79.213958740234375 -9999 -9999 -9999 -9999 -9999 -9999 -9999 -9999 -9999 -9999 -9999 -9999 -9999 -9999 -9999 -9999 -9999 -9999 -9999 -9999 -9999 -9999 -9999 -9999 -9999 -9999 -9999 -9999 -9999 -9999 -9999 -9999 -9999 -9999 -9999 -9999 -9999 -9999 
-9999 -9999 66.31406402587890625 -9999 66.1657562255859375 65.9614715576171875 65.88797760009765625 -9999 -9999 66.5980377197265625 66.4108428955078125 66.57807159423828125 -9999 66.68764495849609375 69.758941650390625 67.93912506103515625 69.98528289794921875 70.445343017578125 77.6428375244140625 77.04953765869140625 73.65702056884765625 72.6068267822265625 66.9785308837890625 -9999 -9999 -9999 82.01102447509765625 84.67931365966796875 75.8264312744140625 71.113983154296875 109.588348388671875 200.764373779296875 168.9259185791015625 131.0738372802734375 86.07320404052734375 93.665679931640625 90.3160552978515625 111.97969818115234375 138.9821014404296875 120.01174163818359375 104.824432373046875 119.31156158447265625 151.83245849609375 132.746063232421875 397.920867919921875 486.593536376953125 602.13323974609375 858.9228515625 747.7247314453125 915.5203857421875 828.68975830078125 603.251708984375 292.269378662109375 530.640380859375 359.781341552734375 247.2051239013671875 133.914520263671875 162.614959716796875 231.0811004638671875 203.8636016845703125 168.6634674072265625 304.029205322265625 480.974609375 561.74835205078125 610.26190185546875 435.99713134765625 474.7886962890625 748.284423828125 692.30682373046875 657.137451171875 465.023681640625 348.239898681640625 289.47021484375 359.190093994140625 416.982330322265625 204.2339019775390625 285.872467041015625 402.641815185546875 233.3303680419921875 201.7805938720703125 164.1612396240234375 84.58820343017578125 -9999 66.60115814208984375 66.49322509765625 -9999 -9999 69.63838958740234375 72.9958038330078125 -9999 -9999 -9999 -9999 -9999 -9999 -9999 -9999 66.272369384765625 -9999 -9999 -9999 -9999 -9999 -9999 -9999 -9999 -9999 -9999 -9999 -9999 -9999 -9999 -9999 -9999 -9999 -9999 -9999 -9999 -9999 -9999 -9999 -9999 -9999 -9999 -9999 -9999 -9999 
-9999 -9999 -9999 65.94455718994140625 66.0741424560546875 -9999 -9999 -9999 66.70671844482421875 66.50499725341796875 66.59525299072265625 67.05463409423828125 72.19800567626953125 69.7230072021484375 69.17620086669921875 -9999 -9999 67.40924835205078125 68.2099761962890625 69.02503204345703125 72.597198486328125 72.23095703125 67.8486175537109375 -9999 -9999 84.8616943359375 82.46224212646484375 80.6320037841796875 -9999 84.20719146728515625 120.67464447021484375 158.6508026123046875 141.57305908203125 82.8368072509765625 81.04842376708984375 84.016204833984375 99.47402191162109375 185.2953338623046875 301.120849609375 190.168792724609375 183.23699951171875 142.185211181640625 126.94963836669921875 115.54000091552734375 247.066741943359375 489.217987060546875 551.08673095703125 860.5506591796875 781.69415283203125 896.2796630859375 927.7979736328125 646.57794189453125 513.672119140625 666.54644775390625 433.613037109375 361.45989990234375 289.3076171875 369.24688720703125 500.062896728515625 478.4334716796875 456.667144775390625 628.67608642578125 702.15277099609375 788.354248046875 870.77484130859375 746.96343994140625 781.25933837890625 919.814453125 914.31280517578125 890.54296875 640.1070556640625 464.8751220703125 435.326446533203125 484.989654541015625 377.409088134765625 335.700408935546875 608.03955078125 671.640625 426.758819580078125 348.718109130859375 150.0394439697265625 73.51918792724609375 66.7048187255859375 67.490814208984375 66.4546966552734375 69.527435302734375 67.41590118408203125 -9999 -9999 -9999 -9999 -9999 -9999 -9999 -9999 -9999 -9999 -9999 -9999 -9999 -9999 -9999 -9999 -9999 -9999 -9999 -9999 -9999 -9999 -9999 -9999 -9999 -9999 -9999 -9999 -9999 -9999 -9999 -9999 -9999 -9999 -9999 -9999 -9999 -9999 -9999 -9999 
-9999 -9999 66.2296600341796875 -9999 -9999 -9999 -9999 -9999 -9999 66.53104400634765625 -9999 66.2040252685546875 -9999 68.17966461181640625 68.010589599609375 66.52918243408203125 66.647491455078125 67.7585906982421875 69.56354522705078125 71.06003570556640625 68.14553070068359375 -9999 -9999 -9999 70.1027679443359375 72.830047607421875 -9999 101.54010009765625 78.67154693603515625 79.707977294921875 105.3469390869140625 135.552337646484375 111.67409515380859375 75.50605010986328125 74.28400421142578125 108.29503631591796875 190.0185394287109375 287.089019775390625 347.18511962890625 280.160308837890625 293.955169677734375 144.2564697265625 109.07442474365234375 168.1151580810546875 244.23687744140625 415.995635986328125 670.37841796875 796.61822509765625 870.45281982421875 760.21527099609375 619.39593505859375 534.43438720703125 741.940185546875 681.48272705078125 570.6407470703125 479.558319091796875 473.98455810546875 566.43096923828125 472.24310302734375 519.884765625 706.878173828125 781.55572509765625 754.574462890625 815.44818115234375 841.49810791015625 628.04229736328125 757.9383544921875 747.6416015625 722.22821044921875 751.48577880859375 474.473968505859375 434.329376220703125 624.62890625 578.20355224609375 472.1160888671875 570.4537353515625 746.02020263671875 577.05145263671875 410.5426025390625 363.161834716796875 106.19232940673828125 69.25664520263671875 69.4938812255859375 -9999 -9999 -9999 66.272125244140625 67.6376953125 67.04621124267578125 -9999 -9999 -9999 -9999 -9999 -9999 -9999 -9999 -9999 -9999 -9999 -9999 -9999 -9999 -9999 -9999 -9999 -9999 -9999 -9999 -9999 -9999 -9999 -9999 -9999 -9999 -9999 -9999 -9999 -9999 -9999 -9999 -9999 -9999 -9999 -9999 -9999 -9999 
-9999 -9999 67.00572967529296875 -9999 -9999 -9999 -9999 -9999 -9999 66.97386932373046875 -9999 66.2903289794921875 -9999 66.1576690673828125 67.2838592529296875 -9999 70.0687103271484375 68.60192108154296875 69.09514617919921875 68.22150421142578125 -9999 68.7270660400390625 -9999 -9999 -9999 72.05029296875 -9999 68.31876373291015625 67.1556396484375 69.6045074462890625 117.87070465087890625 133.1109771728515625 96.79248046875 75.9355621337890625 73.31699371337890625 148.523956298828125 188.9001007080078125 282.822784423828125 228.0739593505859375 301.947906494140625 329.893035888671875 166.187286376953125 187.0782470703125 179.12994384765625 234.604278564453125 334.91033935546875 705.13677978515625 725.10113525390625 782.2916259765625 527.0501708984375 261.51953125 626.7252197265625 830.20989990234375 785.530517578125 659.4154052734375 619.0164794921875 685.519775390625 533.48016357421875 349.301666259765625 683.25787353515625 846.41668701171875 805.69305419921875 754.7601318359375 825.92120361328125 844.51318359375 573.2716064453125 695.14666748046875 620.73834228515625 655.57177734375 548.62890625 350.650848388671875 717.8814697265625 589.00244140625 600.31866455078125 761.81573486328125 789.4166259765625 842.05670166015625 507.641021728515625 445.23040771484375 187.97003173828125 75.0553436279296875 69.1102294921875 68.1647491455078125 -9999 -9999 -9999 66.749114990234375 68.45424652099609375 -9999 -9999 -9999 -9999 -9999 -9999 -9999 -9999 -9999 -9999 -9999 -9999 -9999 -9999 -9999 -9999 -9999 -9999 -9999 -9999 -9999 -9999 -9999 -9999 -9999 -9999 -9999 -9999 -9999 -9999 -9999 -9999 -9999 -9999 -9999 -9999 -9999 -9999 -9999 
-9999 -9999 -9999 66.97162628173828125 -9999 -9999 -9999 -9999 -9999 -9999 66.33612060546875 66.009368896484375 65.99810791015625 65.8852081298828125 66.6145172119140625 68.833282470703125 70.39667510986328125 69.561279296875 67.160308837890625 66.416351318359375 -9999 66.27669525146484375 -9999 -9999 -9999 -9999 -9999 -9999 67.1927642822265625 68.7897796630859375 77.5313568115234375 81.3177337646484375 122.104248046875 101.31853485107421875 89.58902740478515625 91.9597625732421875 87.480621337890625 180.90875244140625 251.7911376953125 402.288543701171875 346.294769287109375 257.501129150390625 275.54205322265625 245.9432525634765625 463.1600341796875 519.779052734375 636.17919921875 650.6871337890625 693.30828857421875 318.16326904296875 298.483978271484375 748.065673828125 859.5208740234375 803.5513916015625 649.7318115234375 574.27105712890625 612.4649658203125 472.5374755859375 631.24530029296875 713.2640380859375 544.993896484375 645.60260009765625 532.52935791015625 592.27264404296875 770.31549072265625 617.2752685546875 723.437744140625 787.6014404296875 840.24945068359375 653.30291748046875 473.168060302734375 537.17950439453125 459.276092529296875 838.1265869140625 748.39715576171875 776.28582763671875 805.090087890625 656.66436767578125 366.565521240234375 111.1550445556640625 80.43017578125 70.00128936767578125 -9999 -9999 -9999 -9999 65.91009521484375 -9999 -9999 -9999 -9999 -9999 -9999 -9999 -9999 -9999 -9999 -9999 -9999 -9999 -9999 -9999 -9999 -9999 -9999 -9999 -9999 -9999 -9999 -9999 -9999 -9999 -9999 -9999 -9999 -9999 -9999 -9999 -9999 -9999 -9999 -9999 -9999 -9999 -9999 -9999 -9999 
-9999 -9999 -9999 -9999 -9999 -9999 -9999 -9999 -9999 66.32694244384765625 66.6046905517578125 66.63925933837890625 66.60849761962890625 66.36812591552734375 67.567535400390625 67.72613525390625 68.63088226318359375 67.54300689697265625 66.4268341064453125 -9999 -9999 -9999 -9999 -9999 -9999 -9999 -9999 -9999 68.88259124755859375 70.0049896240234375 -9999 70.837738037109375 108.68280792236328125 99.90579986572265625 104.373443603515625 93.30804443359375 151.0712432861328125 300.799835205078125 357.879425048828125 407.42401123046875 257.341278076171875 357.56036376953125 317.954071044921875 350.132720947265625 666.0098876953125 571.76080322265625 576.820068359375 436.564422607421875 392.460052490234375 228.151611328125 499.42529296875 755.38336181640625 795.72613525390625 736.49664306640625 638.473388671875 590.3277587890625 333.5516357421875 490.192657470703125 622.73992919921875 577.5537109375 536.70770263671875 551.103515625 523.9017333984375 538.33563232421875 563.9886474609375 568.66729736328125 679.53216552734375 746.74017333984375 821.5186767578125 704.87750244140625 607.025146484375 667.12860107421875 900.7847900390625 898.2061767578125 545.04541015625 550.35906982421875 811.84356689453125 710.26214599609375 286.77490234375 74.94049072265625 67.2165069580078125 -9999 -9999 -9999 -9999 -9999 65.9558563232421875 65.95973968505859375 -9999 -9999 -9999 -9999 -9999 -9999 -9999 -9999 -9999 -9999 -9999 -9999 -9999 -9999 -9999 -9999 -9999 -9999 -9999 -9999 -9999 -9999 -9999 -9999 -9999 -9999 -9999 -9999 -9999 -9999 -9999 -9999 -9999 -9999 -9999 -9999 -9999 -9999 -9999 
-9999 -9999 -9999 -9999 -9999 -9999 68.13043975830078125 -9999 -9999 66.236419677734375 66.3776397705078125 66.51496124267578125 67.14916229248046875 68.131378173828125 67.4884490966796875 67.4133453369140625 68.98821258544921875 66.76023101806640625 -9999 -9999 -9999 -9999 -9999 -9999 -9999 -9999 67.6834716796875 66.98564910888671875 67.97673797607421875 -9999 67.01056671142578125 69.5132598876953125 100.60109710693359375 119.341400146484375 196.633575439453125 244.8048095703125 322.23944091796875 322.525421142578125 351.1668701171875 300.544342041015625 233.7195587158203125 319.268585205078125 204.4475860595703125 310.337249755859375 691.267578125 572.22686767578125 636.15093994140625 514.5279541015625 290.507476806640625 313.84088134765625 569.7142333984375 782.25885009765625 677.66973876953125 543.25933837890625 608.26885986328125 474.65966796875 223.5334320068359375 165.514495849609375 62.27770233154296875 61.345500946044921875 107.0795135498046875 146.8201751708984375 147.1186676025390625 84.86492919921875 57.7781982421875 154.90673828125 483.967926025390625 617.91180419921875 729.03790283203125 636.350341796875 752.91900634765625 912.1614990234375 938.8858642578125 879.37188720703125 795.21697998046875 858.16705322265625 830.14727783203125 565.616943359375 170.087799072265625 66.26019287109375 65.7043304443359375 -9999 -9999 -9999 -9999 -9999 -9999 -9999 -9999 -9999 -9999 66.05023956298828125 66.52371978759765625 65.876312255859375 -9999 -9999 -9999 -9999 -9999 -9999 -9999 -9999 -9999 -9999 -9999 -9999 -9999 -9999 -9999 -9999 -9999 -9999 -9999 -9999 -9999 -9999 -9999 -9999 -9999 -9999 -9999 -9999 -9999 -9999 -9999 -9999 -9999 
-9999 -9999 -9999 -9999 -9999 -9999 -9999 66.34876251220703125 -9999 65.95134735107421875 66.06207275390625 66.46398162841796875 67.2521514892578125 67.24216461181640625 68.1619720458984375 68.4421234130859375 66.98943328857421875 66.55402374267578125 69.31352996826171875 74.97780609130859375 70.11527252197265625 66.90540313720703125 -9999 -9999 -9999 -9999 -9999 67.39571380615234375 67.4326019287109375 68.1459503173828125 70.78833770751953125 76.65355682373046875 161.633636474609375 209.0004119873046875 185.7851715087890625 321.429107666015625 420.167449951171875 340.0167236328125 288.91717529296875 316.16363525390625 289.529693603515625 278.97320556640625 294.68035888671875 375.05047607421875 567.62005615234375 461.2235107421875 559.6180419921875 552.58697509765625 411.47686767578125 746.06207275390625 712.05072021484375 870.27618408203125 747.83685302734375 667.57904052734375 531.30328369140625 236.2754058837890625 92.12796783447265625 -9999 -9999 -9999 -9999 -9999 -9999 60.922641754150390625 -9999 -9999 44.135814666748046875 294.6898193359375 608.49468994140625 676.903564453125 863.72381591796875 883.33392333984375 764.28228759765625 730.85113525390625 913.42755126953125 907.9234619140625 758.21044921875 338.496002197265625 91.0439300537109375 69.29080963134765625 66.454498291015625 -9999 -9999 -9999 -9999 -9999 -9999 -9999 -9999 -9999 67.17917633056640625 68.160736083984375 72.140350341796875 66.78493499755859375 -9999 -9999 -9999 -9999 -9999 -9999 -9999 -9999 -9999 -9999 -9999 -9999 -9999 -9999 -9999 -9999 -9999 -9999 -9999 -9999 -9999 -9999 -9999 -9999 -9999 -9999 -9999 -9999 -9999 -9999 -9999 -9999 -9999 
-9999 -9999 -9999 -9999 -9999 -9999 -9999 -9999 -9999 66.3100433349609375 -9999 65.21993255615234375 67.62689208984375 68.32106781005859375 69.29079437255859375 71.60773468017578125 68.08940887451171875 81.028411865234375 92.43682861328125 109.061431884765625 79.896942138671875 -9999 -9999 -9999 -9999 67.3948974609375 67.43764495849609375 68.2788543701171875 67.56630706787109375 73.68260955810546875 86.33736419677734375 100.74413299560546875 210.01959228515625 169.686370849609375 205.9845733642578125 398.329620361328125 461.544647216796875 326.21966552734375 356.7431640625 387.23480224609375 416.264129638671875 353.3291015625 245.3621063232421875 447.0025634765625 367.6649169921875 184.7693939208984375 280.012115478515625 388.650909423828125 424.835784912109375 700.76885986328125 787.00689697265625 830.49688720703125 656.555908203125 568.37139892578125 240.4375457763671875 56.876708984375 -9999 -9999 -9999 -9999 -9999 -9999 -9999 -9999 -9999 -9999 -9999 96.04659271240234375 404.9791259765625 621.30889892578125 691.9639892578125 836.998779296875 615.18731689453125 723.20245361328125 877.13330078125 924.84088134765625 729.80218505859375 306.932861328125 80.7052764892578125 66.29015350341796875 -9999 -9999 -9999 -9999 -9999 -9999 -9999 65.84053802490234375 -9999 67.845703125 66.948760986328125 69.77019500732421875 75.899749755859375 67.19126129150390625 -9999 -9999 -9999 -9999 -9999 -9999 -9999 -9999 -9999 -9999 -9999 -9999 -9999 -9999 -9999 -9999 -9999 -9999 -9999 -9999 -9999 -9999 -9999 -9999 -9999 -9999 65.81658172607421875 -9999 -9999 -9999 -9999 -9999 -9999 
-9999 -9999 -9999 -9999 -9999 -9999 -9999 68.26520538330078125 67.773284912109375 66.71990203857421875 66.56362152099609375 67.45316314697265625 71.70519256591796875 66.9727630615234375 67.2867431640625 69.4194488525390625 76.91901397705078125 101.1872711181640625 96.48211669921875 116.9604034423828125 76.30359649658203125 66.528717041015625 66.19493865966796875 -9999 67.522735595703125 -9999 -9999 68.3596649169921875 70.68712615966796875 77.11408233642578125 76.0965118408203125 102.46829986572265625 185.1646270751953125 201.1047515869140625 410.94189453125 508.041107177734375 391.161468505859375 415.315032958984375 438.214935302734375 403.678436279296875 635.92431640625 439.36956787109375 236.40911865234375 334.076141357421875 128.0892333984375 73.04181671142578125 126.7792816162109375 245.09332275390625 374.878387451171875 349.46258544921875 305.791534423828125 247.3104705810546875 182.825653076171875 155.170989990234375 62.140865325927734375 -9999 -9999 -9999 -9999 -9999 -9999 -9999 -9999 -9999 -9999 -9999 -9999 53.828884124755859375 316.768096923828125 690.33148193359375 688.37176513671875 792.27166748046875 725.73797607421875 853.9793701171875 928.3447265625 912.14068603515625 645.0050048828125 263.410614013671875 71.08162689208984375 65.90090179443359375 -9999 -9999 -9999 -9999 -9999 -9999 68.55358123779296875 68.9185943603515625 81.50347137451171875 97.7191314697265625 85.7664947509765625 76.81108856201171875 71.15335845947265625 66.1842041015625 -9999 -9999 -9999 -9999 -9999 -9999 -9999 -9999 -9999 -9999 -9999 -9999 -9999 -9999 -9999 -9999 -9999 -9999 -9999 -9999 -9999 -9999 -9999 -9999 -9999 -9999 -9999 -9999 -9999 -9999 -9999 -9999 -9999 
-9999 -9999 -9999 -9999 -9999 -9999 -9999 -9999 -9999 -9999 66.12052154541015625 67.17952728271484375 69.01245880126953125 66.58161163330078125 67.39510345458984375 74.66449737548828125 118.41473388671875 110.3864898681640625 84.87116241455078125 81.181732177734375 67.42098236083984375 67.25125885009765625 -9999 -9999 68.470001220703125 -9999 -9999 68.02649688720703125 99.5305633544921875 118.85680389404296875 142.3922271728515625 166.8930206298828125 124.12760162353515625 208.0479888916015625 425.81878662109375 387.011993408203125 431.389007568359375 550.8206787109375 524.0882568359375 360.4901123046875 435.21258544921875 252.0126800537109375 231.45654296875 159.0108795166015625 -9999 181.2978668212890625 238.8986663818359375 447.741424560546875 545.24554443359375 563.22393798828125 297.28338623046875 123.822357177734375 98.64182281494140625 77.1503143310546875 72.7535247802734375 -9999 -9999 -9999 -9999 -9999 66.0510711669921875 65.98006439208984375 66.68070220947265625 70.72509002685546875 65.99738311767578125 65.87127685546875 -9999 60.948429107666015625 172.1095733642578125 417.778167724609375 748.6580810546875 868.072021484375 900.85888671875 799.23724365234375 902.9454345703125 935.2803955078125 701.05230712890625 241.4353790283203125 71.60741424560546875 -9999 -9999 -9999 -9999 -9999 -9999 66.65290069580078125 81.04319000244140625 77.2501068115234375 80.55902099609375 98.70987701416015625 95.0881195068359375 91.30853271484375 73.833038330078125 -9999 -9999 -9999 -9999 -9999 -9999 -9999 -9999 -9999 -9999 -9999 -9999 -9999 -9999 -9999 -9999 -9999 -9999 -9999 -9999 -9999 -9999 -9999 -9999 -9999 -9999 -9999 -9999 -9999 -9999 -9999 -9999 -9999 -9999 
-9999 -9999 -9999 -9999 -9999 65.91387176513671875 -9999 -9999 -9999 66.02748870849609375 66.1901092529296875 68.81105804443359375 69.7364044189453125 68.39392852783203125 75.08194732666015625 94.42984771728515625 103.28485107421875 83.4932708740234375 79.76042938232421875 70.7097930908203125 69.2240142822265625 -9999 -9999 67.46152496337890625 -9999 67.42034912109375 68.54290008544921875 81.47008514404296875 112.7443389892578125 131.5031890869140625 219.726409912109375 143.6455078125 75.4160614013671875 106.47834014892578125 173.990936279296875 310.601654052734375 474.9957275390625 585.256103515625 536.01263427734375 358.958526611328125 394.608154296875 240.703826904296875 250.551971435546875 275.284332275390625 289.7769775390625 300.741668701171875 378.4156494140625 688.286865234375 703.8443603515625 629.291748046875 717.5364990234375 549.107421875 399.2880859375 261.740203857421875 172.8891143798828125 136.66619873046875 114.38239288330078125 78.60807037353515625 67.085662841796875 66.97106170654296875 -9999 -9999 -9999 -9999 -9999 65.53281402587890625 -9999 103.3611297607421875 224.1253662109375 383.42498779296875 736.51922607421875 890.26678466796875 867.48638916015625 845.81866455078125 929.91827392578125 870.948486328125 695.054443359375 284.115203857421875 71.84745025634765625 66.42840576171875 -9999 -9999 -9999 94.4390716552734375 99.835540771484375 72.28643035888671875 125.66660308837890625 102.9189910888671875 69.998260498046875 83.4459991455078125 103.7770233154296875 87.0727691650390625 72.96221923828125 64.396270751953125 -9999 -9999 -9999 -9999 -9999 -9999 -9999 -9999 -9999 -9999 -9999 -9999 -9999 -9999 -9999 -9999 -9999 -9999 -9999 -9999 -9999 -9999 -9999 -9999 -9999 -9999 -9999 -9999 -9999 -9999 -9999 -9999 -9999 
-9999 -9999 -9999 -9999 -9999 -9999 66.27582550048828125 -9999 65.9944915771484375 65.935760498046875 66.905487060546875 71.8145599365234375 74.84917449951171875 74.597869873046875 95.97509002685546875 98.70220947265625 75.34413909912109375 74.48598480224609375 75.51267242431640625 69.47245025634765625 67.842620849609375 -9999 69.9552459716796875 71.57831573486328125 69.636962890625 -9999 69.607635498046875 114.0413970947265625 165.21722412109375 203.08734130859375 150.08221435546875 79.207427978515625 77.6295623779296875 109.9172515869140625 288.87109375 479.166595458984375 513.0819091796875 412.449859619140625 361.889862060546875 334.7843017578125 507.430511474609375 327.889190673828125 201.4303436279296875 223.067169189453125 323.6231689453125 448.2578125 624.845703125 670.74615478515625 584.97802734375 318.533538818359375 434.570953369140625 794.1949462890625 698.75469970703125 561.33148193359375 323.518524169921875 233.380889892578125 148.4488372802734375 102.67740631103515625 70.27896881103515625 66.30228424072265625 67.963836669921875 69.0806732177734375 89.17496490478515625 74.05730438232421875 -9999 27.240985870361328125 182.06085205078125 430.463775634765625 568.43560791015625 750.58551025390625 837.46087646484375 855.89312744140625 817.53253173828125 917.85064697265625 931.11651611328125 772.79669189453125 619.78558349609375 235.072509765625 77.6443634033203125 66.78206634521484375 -9999 -9999 -9999 120.917327880859375 159.1024169921875 117.72943115234375 263.525054931640625 265.347412109375 112.9790802001953125 81.4437713623046875 124.614532470703125 95.92169952392578125 91.12708282470703125 92.13348388671875 72.5703887939453125 -9999 -9999 -9999 -9999 -9999 -9999 -9999 -9999 -9999 -9999 -9999 -9999 -9999 -9999 -9999 -9999 -9999 -9999 -9999 -9999 66.688720703125 -9999 -9999 -9999 -9999 -9999 -9999 -9999 -9999 -9999 -9999 -9999 
-9999 -9999 -9999 -9999 -9999 -9999 -9999 -9999 66.5750274658203125 67.055816650390625 69.600433349609375 74.08669281005859375 77.42516326904296875 76.9112091064453125 89.64525604248046875 83.722259521484375 68.83734130859375 67.90130615234375 69.57074737548828125 66.82994842529296875 66.531280517578125 66.0436859130859375 67.70754241943359375 70.43303680419921875 72.17610931396484375 69.5964813232421875 69.95882415771484375 94.88336944580078125 176.5226898193359375 181.7942047119140625 105.1847381591796875 84.9281768798828125 107.07700347900390625 204.22357177734375 443.4237060546875 534.659912109375 408.352783203125 259.331298828125 347.409332275390625 424.982635498046875 462.815887451171875 349.165283203125 273.074432373046875 451.830963134765625 631.804443359375 642.5977783203125 637.66229248046875 570.6954345703125 573.79022216796875 532.8065185546875 587.3590087890625 708.92498779296875 603.0318603515625 601.3111572265625 408.201629638671875 277.13116455078125 173.7750701904296875 157.6522064208984375 68.3769073486328125 -9999 67.535308837890625 90.433074951171875 83.44659423828125 73.01964569091796875 77.23671722412109375 286.092315673828125 629.567138671875 630.2802734375 695.15966796875 812.662353515625 835.8663330078125 881.10174560546875 900.17657470703125 934.47540283203125 845.7327880859375 656.561279296875 541.86968994140625 130.6136322021484375 -9999 -9999 -9999 -9999 71.13480377197265625 116.77753448486328125 162.6699981689453125 198.752655029296875 397.867095947265625 317.144775390625 107.93187713623046875 135.848785400390625 207.8231353759765625 120.0781402587890625 99.1476287841796875 99.32190704345703125 69.88530731201171875 -9999 -9999 -9999 -9999 -9999 -9999 -9999 -9999 -9999 -9999 -9999 -9999 -9999 -9999 -9999 -9999 -9999 -9999 -9999 -9999 -9999 -9999 -9999 -9999 -9999 -9999 -9999 -9999 -9999 -9999 -9999 -9999 
-9999 -9999 -9999 -9999 66.02703857421875 -9999 -9999 66.18137359619140625 66.4285736083984375 73.259979248046875 78.700469970703125 86.68304443359375 71.7029571533203125 72.52169036865234375 73.86090087890625 72.85536956787109375 67.6553192138671875 67.08643341064453125 68.03136444091796875 66.6621551513671875 66.51940155029296875 66.49280548095703125 67.8261871337890625 70.63672637939453125 69.89076995849609375 66.6634521484375 67.5357208251953125 84.9875335693359375 159.772705078125 90.11193084716796875 73.13420867919921875 76.23896026611328125 156.8588104248046875 247.91107177734375 420.1363525390625 318.13177490234375 296.16455078125 186.715545654296875 234.656707763671875 353.677764892578125 356.080810546875 214.6977386474609375 448.507781982421875 623.81402587890625 762.59375 714.8155517578125 568.48138427734375 497.568023681640625 457.648284912109375 390.590545654296875 360.901885986328125 422.643768310546875 534.287841796875 512.3594970703125 457.799530029296875 463.52191162109375 243.8253173828125 240.1195526123046875 221.456268310546875 91.4026031494140625 68.01654052734375 80.83402252197265625 96.4001007080078125 203.7643890380859375 502.0482177734375 675.74261474609375 735.40185546875 741.89654541015625 820.757568359375 816.35992431640625 891.673095703125 925.71405029296875 949.61651611328125 943.1826171875 736.318359375 629.1978759765625 537.08111572265625 133.8119354248046875 -9999 -9999 -9999 -9999 69.0237579345703125 103.68260955810546875 122.6430816650390625 281.40887451171875 594.67620849609375 513.8345947265625 227.08306884765625 142.592926025390625 223.0063323974609375 136.7663421630859375 79.24509429931640625 69.212799072265625 66.67725372314453125 -9999 -9999 -9999 -9999 -9999 -9999 -9999 -9999 -9999 -9999 -9999 -9999 -9999 -9999 -9999 -9999 -9999 -9999 -9999 -9999 -9999 -9999 -9999 -9999 -9999 -9999 -9999 -9999 -9999 -9999 -9999 -9999 
-9999 -9999 -9999 66.0488128662109375 -9999 -9999 -9999 66.24868011474609375 67.80553436279296875 67.5529937744140625 64.6478271484375 75.01776885986328125 69.0333404541015625 70.44780731201171875 68.850250244140625 66.88974761962890625 67.11183929443359375 67.41228485107421875 68.406524658203125 67.42177581787109375 -9999 70.8816986083984375 69.34954833984375 68.98877716064453125 68.9084320068359375 67.0880279541015625 73.5075225830078125 103.69586944580078125 129.13287353515625 91.60671234130859375 90.51610565185546875 135.856201171875 242.8065948486328125 331.861175537109375 297.48516845703125 206.5505828857421875 207.8137969970703125 207.68109130859375 222.365081787109375 181.16021728515625 254.837554931640625 390.20977783203125 438.76910400390625 357.372222900390625 623.3944091796875 613.93780517578125 464.10723876953125 344.92572021484375 459.56854248046875 300.9444580078125 333.720703125 201.4350738525390625 321.581787109375 297.31640625 269.00018310546875 382.49237060546875 382.9635009765625 483.458770751953125 637.1834716796875 364.873931884765625 132.7782745361328125 154.889739990234375 281.611297607421875 642.15985107421875 723.1861572265625 626.60052490234375 798.97833251953125 839.56005859375 844.71148681640625 698.08209228515625 840.9766845703125 930.78509521484375 928.33123779296875 896.29193115234375 545.196533203125 620.52130126953125 500.062164306640625 115.776580810546875 -9999 -9999 -9999 -9999 68.361572265625 105.8217926025390625 109.44412994384765625 293.358367919921875 632.3321533203125 576.88372802734375 308.111358642578125 208.296173095703125 224.808868408203125 125.5438385009765625 119.75237274169921875 92.30509185791015625 72.56711578369140625 -9999 -9999 -9999 -9999 -9999 66.1499481201171875 -9999 -9999 -9999 -9999 -9999 -9999 -9999 -9999 -9999 -9999 -9999 -9999 -9999 -9999 -9999 -9999 -9999 -9999 -9999 -9999 -9999 -9999 -9999 -9999 -9999 -9999 
-9999 -9999 -9999 -9999 -9999 66.1242828369140625 66.9901275634765625 68.14111328125 67.26688385009765625 -9999 -9999 70.595550537109375 67.3983917236328125 68.03528594970703125 67.85839080810546875 68.3931121826171875 67.6321868896484375 68.97247314453125 67.1893768310546875 66.3167572021484375 66.9507904052734375 68.84508514404296875 68.13916015625 67.0762786865234375 67.29280853271484375 69.59516143798828125 94.39289093017578125 117.86296844482421875 76.21602630615234375 71.1735992431640625 93.25893402099609375 197.0031280517578125 275.593780517578125 291.283843994140625 251.6314697265625 126.312744140625 177.4738922119140625 258.776397705078125 152.843231201171875 87.7675323486328125 128.133056640625 284.136077880859375 451.141265869140625 429.77850341796875 506.76080322265625 564.8880615234375 336.78814697265625 439.7352294921875 648.08428955078125 462.3602294921875 296.52276611328125 127.9481201171875 114.11576080322265625 125.88874053955078125 174.31488037109375 170.4723358154296875 209.7252044677734375 279.475860595703125 470.70166015625 593.76434326171875 413.85943603515625 412.816314697265625 651.22601318359375 892.12237548828125 831.43280029296875 741.12994384765625 815.5133056640625 522.166259765625 619.92401123046875 793.35186767578125 919.31756591796875 891.20648193359375 771.72735595703125 636.48797607421875 551.17034912109375 568.347412109375 340.2132568359375 -9999 67.84696197509765625 66.89502716064453125 66.068695068359375 66.29154205322265625 71.73613739013671875 77.59864044189453125 85.28882598876953125 316.73760986328125 555.791015625 381.58154296875 359.29150390625 216.1721649169921875 139.8874053955078125 116.01068878173828125 142.5423736572265625 112.49030303955078125 91.6114654541015625 68.49755096435546875 -9999 -9999 -9999 -9999 -9999 -9999 -9999 -9999 -9999 -9999 -9999 -9999 -9999 -9999 -9999 -9999 -9999 -9999 -9999 -9999 -9999 -9999 -9999 -9999 -9999 -9999 -9999 -9999 -9999 -9999 -9999 
-9999 -9999 -9999 -9999 -9999 66.48863983154296875 68.28981781005859375 69.31906890869140625 67.148468017578125 -9999 -9999 66.07959747314453125 66.55810546875 66.67610931396484375 66.5482025146484375 67.3331451416015625 67.20008087158203125 67.2542877197265625 66.8587799072265625 68.3858795166015625 66.58304595947265625 68.74259185791015625 67.11945343017578125 67.67836761474609375 66.65804290771484375 -9999 82.84839630126953125 84.3727264404296875 70.46778106689453125 80.14147186279296875 138.46832275390625 225.0281524658203125 258.20892333984375 185.572174072265625 167.3353729248046875 144.4157867431640625 163.50872802734375 142.516845703125 102.21881866455078125 92.5738372802734375 85.1243133544921875 93.76165771484375 197.7046966552734375 299.68359375 437.7542724609375 418.4241943359375 330.33843994140625 609.190673828125 613.87933349609375 249.8941650390625 120.477874755859375 -9999 -9999 74.35298919677734375 169.8985595703125 155.0899810791015625 78.8420257568359375 94.5367889404296875 172.46514892578125 263.7974853515625 517.76605224609375 668.2596435546875 869.1402587890625 869.81451416015625 795.5343017578125 739.865478515625 668.577392578125 397.30279541015625 351.207855224609375 487.738372802734375 817.2877197265625 743.28802490234375 310.729217529296875 406.3082275390625 731.641357421875 663.23968505859375 271.15081787109375 -9999 -9999 -9999 -9999 -9999 91.7639923095703125 109.5688018798828125 77.26061248779296875 218.549224853515625 459.95233154296875 408.64990234375 328.786773681640625 159.0262298583984375 70.27381134033203125 91.37717437744140625 150.3002471923828125 104.83740997314453125 85.355682373046875 67.23317718505859375 -9999 -9999 -9999 -9999 -9999 -9999 -9999 -9999 -9999 -9999 -9999 -9999 -9999 -9999 -9999 66.74896240234375 66.6302642822265625 -9999 -9999 -9999 -9999 -9999 -9999 -9999 -9999 -9999 -9999 -9999 -9999 -9999 -9999 
-9999 -9999 -9999 -9999 -9999 67.01998138427734375 68.638885498046875 68.6513519287109375 66.48830413818359375 -9999 65.9752349853515625 66.86962127685546875 66.5560455322265625 65.9535675048828125 -9999 66.11017608642578125 66.41191864013671875 67.12352752685546875 66.18323516845703125 66.2210845947265625 67.3739776611328125 71.16062164306640625 70.33902740478515625 68.45825958251953125 66.21327972412109375 68.55939483642578125 88.61481475830078125 94.90009307861328125 81.0694122314453125 101.66994476318359375 140.7402801513671875 130.8489227294921875 153.9610137939453125 134.19891357421875 140.5689697265625 169.7862701416015625 194.20648193359375 127.5954132080078125 95.8049774169921875 92.12007904052734375 74.2498626708984375 77.37410736083984375 81.9031219482421875 137.9964599609375 278.384765625 262.203155517578125 340.705291748046875 448.896209716796875 309.507049560546875 103.7382049560546875 69.39739990234375 67.3211822509765625 -9999 74.4376068115234375 164.6820831298828125 177.514068603515625 78.16412353515625 87.08042144775390625 96.9391632080078125 89.703216552734375 140.319732666015625 235.08154296875 465.527496337890625 430.9476318359375 376.05615234375 293.766815185546875 245.6815643310546875 208.582672119140625 116.24405670166015625 159.2640838623046875 565.807861328125 447.927978515625 259.415008544921875 765.78802490234375 816.55218505859375 647.005615234375 262.111175537109375 -9999 68.00940704345703125 68.195404052734375 -9999 70.56214141845703125 111.8885498046875 131.619873046875 103.126190185546875 207.154022216796875 292.83233642578125 192.0016632080078125 178.0275421142578125 151.6331787109375 142.1682891845703125 160.2220916748046875 161.797271728515625 87.89778900146484375 66.47548675537109375 66.154815673828125 66.41344451904296875 67.7736053466796875 -9999 -9999 -9999 -9999 -9999 -9999 -9999 -9999 -9999 -9999 -9999 -9999 -9999 -9999 -9999 -9999 -9999 -9999 -9999 -9999 -9999 -9999 -9999 -9999 -9999 -9999 -9999 -9999 -9999 
-9999 -9999 -9999 -9999 65.94339752197265625 66.56879425048828125 66.2567291259765625 66.836639404296875 66.8084259033203125 66.6304168701171875 66.5385589599609375 66.8130340576171875 66.16414642333984375 66.0616607666015625 66.47521209716796875 67.3972930908203125 68.36217498779296875 68.892364501953125 66.9900360107421875 66.42822265625 72.84814453125 72.22796630859375 73.76338958740234375 71.18419647216796875 66.54256439208984375 72.99634552001953125 91.69300079345703125 91.69499969482421875 93.610198974609375 99.3757171630859375 119.1899566650390625 87.37548065185546875 110.987701416015625 176.47991943359375 152.248199462890625 200.10986328125 169.9001312255859375 94.5596466064453125 71.4204559326171875 71.0142822265625 67.963348388671875 66.9794464111328125 69.511962890625 108.63988494873046875 161.067901611328125 181.4127655029296875 239.686553955078125 183.6549072265625 76.59822845458984375 69.27947998046875 68.53813934326171875 70.1334075927734375 70.3402862548828125 81.6603240966796875 115.5507049560546875 145.6915435791015625 80.46718597412109375 67.37601470947265625 79.1804656982421875 83.51335906982421875 75.53202056884765625 112.7027587890625 204.67901611328125 141.9536285400390625 82.66738128662109375 72.8033599853515625 -9999 67.5670318603515625 71.45367431640625 119.16048431396484375 270.57855224609375 110.24993133544921875 402.659637451171875 899.2919921875 824.758056640625 683.6392822265625 335.3427734375 -9999 68.05954742431640625 73.2415618896484375 -9999 71.41599273681640625 123.98036956787109375 178.7883758544921875 292.11724853515625 266.83770751953125 115.9902801513671875 123.0635986328125 196.0164642333984375 250.516876220703125 235.6564788818359375 131.9191436767578125 -9999 89.341064453125 103.718994140625 99.30399322509765625 83.74140167236328125 69.25321197509765625 70.398681640625 67.8244171142578125 -9999 65.85125732421875 -9999 -9999 -9999 -9999 -9999 -9999 -9999 68.517059326171875 -9999 -9999 -9999 -9999 -9999 -9999 -9999 -9999 -9999 -9999 -9999 -9999 -9999 -9999 -9999 -9999 -9999 
-9999 -9999 -9999 -9999 66.1218719482421875 66.87542724609375 66.4024200439453125 67.67447662353515625 67.31461334228515625 66.63506317138671875 66.2724761962890625 65.88518524169921875 66.243682861328125 66.34709930419921875 -9999 -9999 67.86948394775390625 69.65924835205078125 67.46441650390625 66.715118408203125 72.81642913818359375 70.29073333740234375 72.00009918212890625 69.4730377197265625 67.5992431640625 85.93807220458984375 102.9598541259765625 93.45748138427734375 99.64708709716796875 122.61722564697265625 139.2030181884765625 98.55014801025390625 124.4159088134765625 192.030548095703125 184.570098876953125 155.0287017822265625 133.052032470703125 67.038665771484375 66.34816741943359375 67.2433013916015625 66.32802581787109375 66.3369903564453125 77.99375152587890625 139.124267578125 172.872222900390625 125.6236419677734375 86.26367950439453125 72.17841339111328125 68.4269561767578125 67.91268157958984375 -9999 -9999 67.2912445068359375 76.4653472900390625 90.3412322998046875 84.57683563232421875 73.79665374755859375 71.42293548583984375 112.05205535888671875 104.6276397705078125 74.21366119384765625 115.3276214599609375 134.5458831787109375 162.4445343017578125 116.19538116455078125 90.76312255859375 94.2166748046875 73.37659454345703125 72.276763916015625 112.1679840087890625 110.45758819580078125 98.52342987060546875 605.26165771484375 916.56695556640625 844.79083251953125 707.55804443359375 438.261932373046875 48.950115203857421875 61.94832611083984375 -9999 -9999 70.36296844482421875 86.85610198974609375 140.7261962890625 348.77252197265625 263.04144287109375 108.46698760986328125 123.3730010986328125 115.90915679931640625 165.5750732421875 181.4101715087890625 178.29351806640625 294.704498291015625 272.44354248046875 261.374847412109375 184.1751861572265625 110.134857177734375 76.54581451416015625 71.91638946533203125 66.78814697265625 68.192169189453125 66.78307342529296875 -9999 -9999 -9999 -9999 -9999 -9999 -9999 -9999 -9999 -9999 -9999 -9999 -9999 -9999 -9999 -9999 -9999 -9999 -9999 -9999 -9999 -9999 -9999 -9999 -9999 
-9999 -9999 -9999 65.998992919921875 -9999 -9999 66.69637298583984375 66.43871307373046875 66.17562103271484375 66.19919586181640625 65.97486114501953125 66.60367584228515625 66.36386871337890625 66.26200103759765625 66.2406463623046875 66.73879241943359375 68.12882232666015625 66.93614959716796875 66.6844635009765625 68.07962799072265625 67.77820587158203125 68.49408721923828125 71.5360870361328125 67.8842620849609375 73.18548583984375 91.36217498779296875 93.40233612060546875 96.3460540771484375 118.31337738037109375 116.78223419189453125 119.07477569580078125 94.85479736328125 116.39478302001953125 196.768402099609375 177.7651214599609375 123.173492431640625 99.15372467041015625 67.9669036865234375 67.8035736083984375 67.47333526611328125 -9999 67.8607025146484375 88.64044952392578125 132.05145263671875 126.36013031005859375 87.246307373046875 -9999 66.129119873046875 -9999 73.86612701416015625 70.934234619140625 66.364990234375 66.5386810302734375 69.944976806640625 65.75844573974609375 70.75830078125 90.76906585693359375 70.4947967529296875 87.27388763427734375 86.7454376220703125 83.63408660888671875 90.25447845458984375 89.88956451416015625 137.2401275634765625 171.0881500244140625 189.289581298828125 146.12109375 75.52848052978515625 68.480316162109375 77.36077117919921875 75.82147979736328125 103.64121246337890625 490.772216796875 872.69415283203125 832.25054931640625 639.91253662109375 492.57354736328125 74.42609405517578125 -9999 66.40474700927734375 65.93012237548828125 68.4128875732421875 72.4748382568359375 163.750701904296875 336.616058349609375 230.9102935791015625 113.43914031982421875 154.1334991455078125 314.865753173828125 556.4696044921875 540.99761962890625 563.31829833984375 427.64691162109375 213.65985107421875 178.282012939453125 141.4442291259765625 145.645172119140625 119.8367919921875 82.07025146484375 78.92752838134765625 76.5238189697265625 67.83773040771484375 -9999 65.8265380859375 -9999 -9999 -9999 -9999 -9999 -9999 -9999 -9999 -9999 -9999 -9999 -9999 -9999 -9999 -9999 -9999 -9999 -9999 -9999 -9999 -9999 -9999 -9999 
-9999 -9999 -9999 -9999 -9999 -9999 67.73455047607421875 -9999 66.281158447265625 66.29608917236328125 66.721893310546875 68.95532989501953125 66.44132232666015625 66.02062225341796875 67.51059722900390625 68.1066436767578125 66.10750579833984375 66.6916961669921875 67.8822479248046875 67.7427978515625 69.0068359375 70.5630340576171875 71.22342681884765625 67.95543670654296875 82.8094635009765625 97.06584930419921875 99.18648529052734375 95.50530242919921875 109.06327056884765625 82.36267852783203125 85.84543609619140625 -9999 87.86499786376953125 198.657440185546875 235.239471435546875 155.05108642578125 75.0025482177734375 69.63681793212890625 68.009521484375 -9999 66.10565185546875 66.5451812744140625 77.928955078125 125.46251678466796875 82.22785186767578125 -9999 -9999 -9999 71.86353302001953125 79.0416717529296875 67.5193328857421875 70.3232879638671875 71.41953277587890625 72.93476104736328125 67.22540283203125 73.1781005859375 80.571258544921875 79.63071441650390625 72.82891082763671875 71.20720672607421875 79.5361480712890625 84.49663543701171875 94.35329437255859375 105.5626220703125 201.2292022705078125 192.398773193359375 103.94683837890625 75.41304779052734375 79.48448944091796875 77.52465057373046875 78.18791961669921875 80.64646148681640625 267.426666259765625 746.81475830078125 662.62164306640625 746.14599609375 550.29937744140625 129.115081787109375 -9999 67.52211761474609375 66.25220489501953125 80.6164398193359375 114.45345306396484375 269.836944580078125 281.052825927734375 213.8115081787109375 307.888946533203125 623.623046875 749.777099609375 729.20465087890625 651.402099609375 445.7899169921875 238.617095947265625 139.9638824462890625 101.46970367431640625 174.490325927734375 252.60968017578125 162.4978485107421875 81.05074310302734375 96.17000579833984375 74.48537445068359375 66.01788330078125 66.572540283203125 67.28814697265625 -9999 -9999 -9999 -9999 -9999 -9999 -9999 -9999 -9999 -9999 -9999 -9999 -9999 -9999 -9999 -9999 -9999 -9999 -9999 -9999 -9999 -9999 -9999 
-9999 65.8290863037109375 -9999 -9999 -9999 66.72620391845703125 -9999 -9999 -9999 -9999 66.22058868408203125 66.48423004150390625 66.2375640869140625 66.22318267822265625 67.13643646240234375 66.78363037109375 66.88562774658203125 71.03326416015625 70.96025848388671875 69.37354278564453125 75.3386077880859375 75.45965576171875 74.4664306640625 68.8636474609375 81.313507080078125 77.30706787109375 80.6058197021484375 81.89287567138671875 91.7836151123046875 78.66271209716796875 72.999603271484375 -9999 95.7638702392578125 152.39508056640625 191.9628143310546875 126.34949493408203125 76.3926849365234375 68.73126220703125 66.553680419921875 65.97232818603515625 66.0621795654296875 68.7740020751953125 77.71413421630859375 92.0571746826171875 75.156768798828125 68.2455902099609375 -9999 -9999 72.00986480712890625 68.743560791015625 66.42952728271484375 66.5223236083984375 67.018463134765625 67.4673004150390625 68.4794158935546875 73.7342071533203125 74.5097198486328125 77.6121673583984375 72.63709259033203125 -9999 -9999 75.58666229248046875 100.8686676025390625 329.677032470703125 528.69097900390625 326.38934326171875 194.7153778076171875 171.616485595703125 137.54779052734375 96.68158721923828125 68.05413818359375 84.4863128662109375 413.803192138671875 808.52630615234375 800.90325927734375 693.04254150390625 392.755950927734375 104.9340057373046875 71.44979095458984375 87.4337310791015625 76.71085357666015625 191.26715087890625 320.010345458984375 230.5624542236328125 226.9127655029296875 592.97576904296875 709.82781982421875 689.555908203125 770.82135009765625 832.21112060546875 664.7025146484375 235.85235595703125 151.6920318603515625 140.51611328125 126.4115753173828125 163.9407501220703125 203.4528656005859375 125.2682952880859375 131.6649627685546875 174.5637969970703125 95.36894989013671875 71.9392242431640625 71.21263885498046875 67.6220550537109375 -9999 -9999 -9999 -9999 -9999 -9999 -9999 66.35742950439453125 -9999 -9999 -9999 -9999 -9999 -9999 -9999 -9999 -9999 -9999 -9999 -9999 -9999 -9999 -9999 
65.873870849609375 -9999 -9999 -9999 -9999 -9999 -9999 -9999 -9999 -9999 -9999 65.98596954345703125 66.3159027099609375 66.59702301025390625 66.3805694580078125 66.7766571044921875 67.546966552734375 77.19730377197265625 75.4434967041015625 70.60854339599609375 72.83510589599609375 72.7682037353515625 75.10283660888671875 72.13330078125 80.290985107421875 73.36237335205078125 74.04161834716796875 94.36159515380859375 85.60540771484375 69.609771728515625 -9999 -9999 104.3384246826171875 143.884552001953125 94.8600311279296875 86.7760009765625 107.4474945068359375 75.04443359375 69.08856201171875 68.695465087890625 69.1476287841796875 74.4508514404296875 79.3317718505859375 75.00914764404296875 72.41483306884765625 66.84493255615234375 -9999 66.664642333984375 67.31488037109375 67.3126068115234375 67.238800048828125 66.45961761474609375 66.14046478271484375 66.4586334228515625 67.28502655029296875 70.98261260986328125 99.7898406982421875 87.90225982666015625 -9999 -9999 61.329914093017578125 73.2336273193359375 117.95465850830078125 475.65740966796875 602.145263671875 404.358673095703125 294.513641357421875 217.3271942138671875 114.89611053466796875 88.4428558349609375 72.03899383544921875 89.60640716552734375 209.221466064453125 400.328399658203125 556.976806640625 285.492218017578125 174.9889068603515625 126.4185638427734375 94.8951568603515625 121.90557861328125 100.89447021484375 200.668182373046875 319.09918212890625 346.854644775390625 645.144775390625 731.56414794921875 619.6414794921875 792.42120361328125 876.5413818359375 780.3043212890625 508.9559326171875 223.2773895263671875 129.0532073974609375 165.776275634765625 379.46234130859375 377.6983642578125 371.421875 309.29388427734375 305.195159912109375 227.35302734375 128.1305694580078125 111.3358306884765625 74.9418182373046875 69.525146484375 73.40488433837890625 66.73027801513671875 -9999 -9999 -9999 -9999 -9999 -9999 -9999 -9999 -9999 -9999 -9999 -9999 -9999 -9999 -9999 -9999 -9999 -9999 -9999 -9999 -9999 
65.87992095947265625 -9999 -9999 -9999 -9999 -9999 -9999 -9999 -9999 -9999 -9999 67.10753631591796875 67.31304168701171875 69.1984100341796875 67.1348114013671875 67.03009033203125 67.405120849609375 71.40380859375 71.4191131591796875 68.22949981689453125 68.21585845947265625 71.07900238037109375 78.77843475341796875 71.76459503173828125 73.38262176513671875 75.187896728515625 74.112823486328125 74.83199310302734375 82.97615814208984375 70.22898101806640625 -9999 71.0296783447265625 97.485137939453125 89.4086456298828125 80.946014404296875 83.49091339111328125 85.9130706787109375 73.30060577392578125 69.882293701171875 71.6442718505859375 68.50916290283203125 72.50946044921875 77.3683929443359375 68.78124237060546875 67.2969207763671875 67.30893707275390625 69.0592803955078125 67.44574737548828125 66.30804443359375 66.6734466552734375 67.13965606689453125 66.9274749755859375 66.03326416015625 -9999 66.326934814453125 73.03253936767578125 125.55450439453125 102.83536529541015625 72.48287200927734375 70.88311767578125 -9999 77.082427978515625 147.003021240234375 193.063995361328125 160.6680145263671875 211.23760986328125 231.6751251220703125 165.0955352783203125 176.3472747802734375 102.7412109375 81.00786590576171875 107.80904388427734375 114.2683563232421875 138.552520751953125 240.570037841796875 133.6557159423828125 105.18373870849609375 162.0403900146484375 121.29000091552734375 81.542816162109375 82.990478515625 107.189697265625 354.0723876953125 705.83624267578125 892.48394775390625 766.87103271484375 781.4927978515625 787.03564453125 805.7730712890625 454.85089111328125 142.5869903564453125 180.7269134521484375 279.222900390625 544.26025390625 829.02996826171875 801.66082763671875 698.59417724609375 456.520599365234375 221.3971099853515625 165.5945281982421875 122.75152587890625 96.78818511962890625 77.85167694091796875 94.56429290771484375 79.9546051025390625 66.32773590087890625 -9999 -9999 -9999 -9999 65.92032623291015625 -9999 -9999 -9999 -9999 -9999 -9999 -9999 -9999 -9999 -9999 -9999 -9999 -9999 -9999 -9999 -9999 
-9999 -9999 -9999 -9999 -9999 -9999 -9999 -9999 -9999 65.89839935302734375 -9999 70.267425537109375 66.46984100341796875 67.2467193603515625 67.15256500244140625 67.402923583984375 67.47693634033203125 67.77825927734375 76.6666259765625 78.4542388916015625 70.73549652099609375 71.7232513427734375 71.0611114501953125 68.95661163330078125 70.77649688720703125 70.92511749267578125 67.53839111328125 67.7064208984375 71.7617034912109375 66.2269439697265625 65.86345672607421875 67.74695587158203125 77.61212158203125 87.839691162109375 91.12322998046875 80.04708099365234375 73.51638031005859375 68.861480712890625 67.8063201904296875 66.716064453125 66.974090576171875 68.08176422119140625 67.7323455810546875 -9999 -9999 75.14025115966796875 70.51580047607421875 66.4727020263671875 66.9742431640625 66.2497406005859375 68.48171234130859375 67.6171112060546875 66.25040435791015625 66.6971588134765625 67.6474456787109375 -9999 96.4820404052734375 93.25732421875 80.12451934814453125 75.59099578857421875 85.22686767578125 135.2635040283203125 377.82177734375 229.3438568115234375 219.720916748046875 311.46295166015625 256.758697509765625 324.179168701171875 454.137786865234375 200.0558319091796875 173.9785308837890625 104.92353057861328125 134.966827392578125 292.135955810546875 436.26580810546875 173.3046112060546875 80.58853912353515625 113.36704254150390625 124.92901611328125 128.9673004150390625 107.23236083984375 160.458465576171875 624.0985107421875 854.76031494140625 925.75836181640625 803.2393798828125 562.42822265625 404.6510009765625 439.527740478515625 375.698455810546875 293.389556884765625 514.09234619140625 740.18182373046875 744.64202880859375 912.10931396484375 884.9615478515625 793.04376220703125 519.876953125 398.531219482421875 311.696990966796875 178.532196044921875 176.7017822265625 131.5765838623046875 110.50621795654296875 70.08016204833984375 67.23281097412109375 66.36051177978515625 66.12284088134765625 -9999 66.17536163330078125 66.4535064697265625 -9999 -9999 -9999 -9999 -9999 -9999 -9999 -9999 -9999 -9999 -9999 -9999 -9999 -9999 -9999 -9999 
-9999 -9999 66.0761260986328125 -9999 -9999 -9999 -9999 -9999 -9999 -9999 70.460845947265625 72.40323638916015625 66.909576416015625 67.56215667724609375 67.41184234619140625 67.56121063232421875 69.18144989013671875 75.104217529296875 105.5035552978515625 99.65679168701171875 71.16666412353515625 66.873260498046875 68.35204315185546875 69.1730194091796875 71.7537994384765625 69.133941650390625 70.61493682861328125 71.2196197509765625 68.8841705322265625 67.29802703857421875 66.363067626953125 71.07611846923828125 80.77974700927734375 83.7134246826171875 71.6393890380859375 68.1558837890625 67.40058135986328125 66.57550811767578125 69.38735198974609375 -9999 67.9549713134765625 67.950103759765625 66.49040985107421875 -9999 -9999 72.33005523681640625 68.5245361328125 67.71738433837890625 67.67279052734375 -9999 79.2980804443359375 75.89908599853515625 66.45455169677734375 67.28099822998046875 69.9758453369140625 101.6115875244140625 87.18575286865234375 114.999420166015625 91.8576202392578125 -9999 67.8547821044921875 166.2061920166015625 307.922698974609375 317.963104248046875 670.1220703125 782.219482421875 687.71429443359375 810.5655517578125 757.25421142578125 512.23004150390625 358.854766845703125 205.7128143310546875 425.545928955078125 640.75244140625 510.1099853515625 129.1219024658203125 70.4749603271484375 158.709930419921875 201.00067138671875 136.2830963134765625 90.9111328125 108.4169921875 522.3369140625 875.84185791015625 832.03173828125 589.89404296875 422.490631103515625 454.37640380859375 552.45147705078125 731.267333984375 629.15728759765625 803.3980712890625 921.31536865234375 930.71240234375 937.66912841796875 865.9334716796875 813.1917724609375 804.13446044921875 775.85345458984375 577.16644287109375 392.396331787109375 293.188751220703125 152.21136474609375 84.19072723388671875 70.078369140625 73.94496917724609375 67.1669921875 -9999 -9999 -9999 69.73645782470703125 70.36110687255859375 -9999 -9999 -9999 -9999 -9999 -9999 -9999 66.15166473388671875 67.00836944580078125 -9999 -9999 -9999 -9999 -9999 -9999 
-9999 -9999 -9999 -9999 -9999 -9999 -9999 -9999 -9999 -9999 69.34693145751953125 68.17456817626953125 66.5988616943359375 67.37067413330078125 67.0182342529296875 68.24777984619140625 74.9255218505859375 78.94635772705078125 82.086517333984375 80.76262664794921875 68.09114837646484375 66.24131011962890625 68.2006988525390625 69.18860626220703125 73.176910400390625 70.61260223388671875 70.033447265625 74.8811798095703125 78.09848785400390625 68.3567047119140625 67.6638641357421875 75.30764007568359375 73.19237518310546875 68.08396148681640625 66.7729339599609375 69.52498626708984375 69.29302215576171875 68.28515625 -9999 -9999 -9999 66.37941741943359375 65.82308197021484375 -9999 65.9225616455078125 68.17989349365234375 -9999 -9999 -9999 -9999 -9999 67.23474884033203125 66.31528472900390625 66.2296142578125 -9999 156.281982421875 87.38521575927734375 139.155303955078125 70.14937591552734375 -9999 95.09546661376953125 372.39117431640625 357.898651123046875 497.56512451171875 923.91741943359375 960.123779296875 704.380615234375 623.7205810546875 477.843902587890625 778.6611328125 405.872711181640625 150.5491943359375 297.46221923828125 698.599609375 653.54998779296875 161.9958038330078125 73.5861968994140625 189.8430328369140625 225.165740966796875 84.74999237060546875 74.954132080078125 145.793914794921875 223.73077392578125 458.0865478515625 685.447509765625 748.998046875 790.14251708984375 858.32281494140625 925.60638427734375 936.1114501953125 901.1053466796875 901.21575927734375 935.64349365234375 912.28497314453125 831.33831787109375 855.493896484375 918.25054931640625 831.58880615234375 612.4873046875 548.6700439453125 399.492889404296875 306.664215087890625 102.30612945556640625 67.0795440673828125 73.447906494140625 72.92777252197265625 -9999 81.64865875244140625 -9999 -9999 67.19274139404296875 70.063873291015625 -9999 -9999 -9999 68.60852813720703125 -9999 -9999 65.86290740966796875 -9999 66.82000732421875 -9999 -9999 -9999 -9999 -9999 -9999 
-9999 -9999 -9999 -9999 -9999 -9999 -9999 -9999 68.22412109375 68.03771209716796875 -9999 66.15213775634765625 66.91526031494140625 66.58603668212890625 66.3007965087890625 70.72611236572265625 72.31915283203125 70.68798828125 -9999 -9999 67.34769439697265625 67.99188232421875 68.73812103271484375 67.4770965576171875 68.5293426513671875 70.18264007568359375 69.92003631591796875 75.975830078125 93.5965728759765625 74.4482269287109375 70.6186370849609375 69.212158203125 67.21376800537109375 66.55001068115234375 66.04058074951171875 67.78508758544921875 72.50513458251953125 70.65865325927734375 74.16243743896484375 71.85219573974609375 68.5765380859375 66.55246734619140625 65.81636810302734375 -9999 -9999 66.815032958984375 -9999 -9999 -9999 67.1701812744140625 -9999 -9999 -9999 -9999 -9999 69.11095428466796875 74.33142852783203125 112.880401611328125 102.431365966796875 205.1858062744140625 525.69415283203125 612.41729736328125 381.510528564453125 393.896026611328125 846.9163818359375 919.8831787109375 676.23443603515625 423.184295654296875 511.881805419921875 817.71624755859375 551.4014892578125 175.102874755859375 114.26210784912109375 424.63946533203125 700.42608642578125 225.57000732421875 86.64896392822265625 75.81822967529296875 80.8034515380859375 68.62889862060546875 82.2855072021484375 182.8450469970703125 336.0706787109375 576.78765869140625 802.28411865234375 863.4246826171875 898.55865478515625 949.6912841796875 948.8316650390625 943.92816162109375 950.33758544921875 935.13226318359375 842.70635986328125 820.84521484375 896.8033447265625 941.51446533203125 864.178955078125 569.001953125 523.02105712890625 442.466094970703125 205.143341064453125 192.6396636962890625 101.6607513427734375 74.074798583984375 77.352386474609375 66.4581298828125 48.397350311279296875 79.30927276611328125 -9999 68.1212005615234375 69.6490325927734375 67.61664581298828125 74.3318939208984375 -9999 66.47005462646484375 -9999 -9999 -9999 -9999 68.2196807861328125 67.42946624755859375 -9999 -9999 -9999 -9999 -9999 -9999 
-9999 -9999 -9999 -9999 -9999 -9999 -9999 -9999 72.32361602783203125 67.05057525634765625 -9999 66.93474578857421875 66.941741943359375 66.15291595458984375 66.73606109619140625 67.4278106689453125 68.03446197509765625 67.14998626708984375 -9999 -9999 68.0731201171875 67.07938385009765625 67.23140716552734375 67.56169891357421875 66.43492889404296875 68.88919830322265625 73.009307861328125 86.1128082275390625 102.259613037109375 93.81240081787109375 88.479217529296875 71.91530609130859375 67.174468994140625 66.6450042724609375 67.5010986328125 71.29241943359375 75.7368621826171875 72.38169097900390625 81.45025634765625 69.1056060791015625 66.77365875244140625 -9999 -9999 -9999 -9999 66.4033203125 -9999 -9999 67.1397552490234375 65.9578399658203125 -9999 -9999 -9999 -9999 157.553924560546875 97.8833465576171875 88.645538330078125 114.010986328125 249.3207855224609375 597.64959716796875 752.46295166015625 654.8809814453125 174.19830322265625 174.1490020751953125 694.30596923828125 831.6796875 738.25909423828125 802.8502197265625 855.5166015625 729.74365234375 517.149658203125 222.5263671875 110.09735107421875 525.347412109375 626.44403076171875 143.468719482421875 73.04482269287109375 71.8754730224609375 70.01253509521484375 66.60872650146484375 80.77338409423828125 392.29266357421875 800.8436279296875 883.11041259765625 895.11669921875 942.31732177734375 952.89605712890625 951.1192626953125 934.578857421875 948.3472900390625 933.32916259765625 822.9156494140625 780.47625732421875 912.55450439453125 938.638671875 910.38018798828125 611.75079345703125 213.85675048828125 248.17987060546875 268.50982666015625 160.5903167724609375 237.96270751953125 136.509765625 99.55062103271484375 87.4626312255859375 69.86598968505859375 67.50070953369140625 66.34696197509765625 -9999 68.04491424560546875 68.03385162353515625 67.13014984130859375 70.7763214111328125 -9999 -9999 -9999 -9999 -9999 -9999 -9999 -9999 -9999 -9999 -9999 -9999 -9999 -9999 
-9999 -9999 -9999 -9999 -9999 -9999 -9999 -9999 -9999 -9999 -9999 -9999 67.2503814697265625 67.0597991943359375 -9999 -9999 -9999 -9999 -9999 73.0877227783203125 71.0870361328125 66.19968414306640625 -9999 71.437225341796875 66.95366668701171875 67.9207763671875 77.0851898193359375 94.758819580078125 86.1082305908203125 86.761932373046875 91.003173828125 79.02114105224609375 67.705078125 66.38094329833984375 68.55568695068359375 67.99492645263671875 69.163299560546875 71.9077301025390625 71.6581878662109375 66.32569122314453125 66.01725006103515625 -9999 -9999 -9999 -9999 -9999 -9999 -9999 -9999 -9999 66.14061737060546875 65.99260711669921875 67.61928558349609375 -9999 -9999 114.57555389404296875 157.0123291015625 229.6332244873046875 688.73162841796875 797.34649658203125 850.10064697265625 797.32330322265625 304.7574462890625 199.0614013671875 687.10888671875 876.34527587890625 877.45001220703125 861.10595703125 936.66351318359375 903.275390625 657.7281494140625 457.62860107421875 406.118896484375 687.61651611328125 739.847412109375 280.3902587890625 113.05973052978515625 147.1255645751953125 106.1260223388671875 83.23047637939453125 98.4962310791015625 518.26458740234375 904.7135009765625 942.78265380859375 955.04669189453125 942.8192138671875 957.8529052734375 860.8966064453125 949.3619384765625 951.9029541015625 771.9344482421875 770.9813232421875 912.140380859375 817.29949951171875 684.9913330078125 601.35638427734375 232.0637054443359375 266.4852294921875 316.28167724609375 202.4882049560546875 198.4732208251953125 286.51544189453125 195.997344970703125 128.9018707275390625 107.31555938720703125 92.1142120361328125 69.48770904541015625 65.96270751953125 65.89861297607421875 -9999 66.470977783203125 66.11299896240234375 -9999 -9999 -9999 -9999 -9999 -9999 69.262420654296875 73.1177215576171875 74.6777191162109375 -9999 -9999 -9999 -9999 -9999 -9999 
-9999 -9999 -9999 -9999 -9999 -9999 -9999 -9999 -9999 -9999 -9999 66.29378509521484375 67.208648681640625 67.1816558837890625 -9999 -9999 -9999 66.40871429443359375 -9999 70.46022796630859375 68.10616302490234375 -9999 -9999 -9999 -9999 70.4913330078125 69.5308990478515625 82.712921142578125 88.63385772705078125 104.31693267822265625 88.62244415283203125 77.71984100341796875 68.52696990966796875 66.24848175048828125 69.294281005859375 69.3126678466796875 78.1259613037109375 87.6193389892578125 73.74395751953125 67.49881744384765625 66.74234771728515625 -9999 -9999 -9999 66.37981414794921875 -9999 -9999 -9999 66.2506866455078125 68.0934295654296875 67.98497772216796875 66.6010284423828125 71.97199249267578125 67.19429779052734375 -9999 158.4468536376953125 271.03851318359375 554.9195556640625 736.21380615234375 797.24114990234375 835.69219970703125 745.66455078125 329.813201904296875 140.63275146484375 480.759613037109375 696.41168212890625 825.61932373046875 676.6781005859375 814.50262451171875 807.68218994140625 667.78387451171875 740.6280517578125 822.35302734375 856.8868408203125 805.374755859375 682.80474853515625 521.81256103515625 304.147369384765625 200.5894927978515625 175.364501953125 131.9337005615234375 425.7833251953125 652.05755615234375 656.028076171875 834.93536376953125 937.39691162109375 935.56414794921875 934.1317138671875 964.0421142578125 955.73358154296875 895.03155517578125 920.79425048828125 932.30303955078125 780.1014404296875 649.61944580078125 575.9442138671875 406.409912109375 474.01611328125 378.1905517578125 117.563751220703125 104.65415191650390625 106.4387664794921875 92.16452789306640625 129.48455810546875 129.19610595703125 89.15424346923828125 68.3073577880859375 -9999 -9999 -9999 66.84880828857421875 66.80370330810546875 -9999 -9999 -9999 -9999 70.21714019775390625 75.18268585205078125 70.2970123291015625 -9999 71.3228759765625 -9999 -9999 -9999 -9999 -9999 -9999 
-9999 -9999 -9999 -9999 -9999 -9999 -9999 -9999 66.127044677734375 -9999 -9999 -9999 67.21930694580078125 66.33667755126953125 -9999 67.48357391357421875 -9999 -9999 -9999 -9999 -9999 -9999 -9999 66.40329742431640625 66.99417877197265625 68.7303466796875 67.96846771240234375 69.1451416015625 77.112274169921875 100.75439453125 88.98724365234375 77.0933990478515625 70.252838134765625 76.34407806396484375 77.93377685546875 80.3274993896484375 72.23494720458984375 72.86885833740234375 67.7818603515625 66.8751983642578125 68.2506561279296875 66.517303466796875 -9999 -9999 66.7072906494140625 -9999 -9999 -9999 -9999 72.68091583251953125 75.50632476806640625 -9999 66.44597625732421875 78.07117462158203125 95.84687042236328125 204.0149688720703125 407.316558837890625 674.11334228515625 614.4820556640625 899.48504638671875 846.698974609375 713.4334716796875 271.36175537109375 91.945556640625 298.77996826171875 542.5655517578125 721.92279052734375 630.525146484375 811.6468505859375 743.614990234375 598.06622314453125 775.6536865234375 750.8597412109375 830.4989013671875 880.05682373046875 846.58697509765625 885.95391845703125 775.671875 639.23199462890625 318.732635498046875 135.307891845703125 128.6761932373046875 111.9582061767578125 136.9002532958984375 513.92828369140625 872.3365478515625 919.03076171875 943.61669921875 954.03753662109375 952.88372802734375 963.52569580078125 926.59918212890625 819.56744384765625 725.9796142578125 646.411376953125 438.2269287109375 244.2623748779296875 305.37994384765625 130.7117156982421875 -9999 -9999 -9999 69.22087860107421875 87.53079986572265625 80.28635406494140625 72.98387908935546875 -9999 -9999 -9999 -9999 83.1137237548828125 79.3125 66.50475311279296875 -9999 -9999 65.95731353759765625 -9999 -9999 67.76587677001953125 -9999 -9999 -9999 -9999 68.5758056640625 -9999 -9999 -9999 
-9999 -9999 -9999 -9999 66.03437042236328125 -9999 -9999 -9999 66.9867095947265625 -9999 66.5268402099609375 67.0336761474609375 -9999 66.176727294921875 -9999 68.01287078857421875 -9999 -9999 -9999 66.38607025146484375 -9999 -9999 66.0263824462890625 66.4727325439453125 67.55562591552734375 68.31331634521484375 66.75441741943359375 -9999 67.1835174560546875 69.1778106689453125 72.99785614013671875 78.25829315185546875 73.22308349609375 102.8961029052734375 91.61954498291015625 77.06177520751953125 67.89661407470703125 68.6661529541015625 -9999 66.96828460693359375 68.311431884765625 66.50756072998046875 66.9346160888671875 68.694915771484375 69.08126068115234375 66.17120361328125 -9999 67.34326171875 98.5675048828125 117.54524993896484375 74.59114837646484375 66.01052093505859375 66.916015625 78.2389984130859375 118.8296661376953125 312.141082763671875 657.073486328125 787.043701171875 891.3675537109375 898.89788818359375 805.08172607421875 698.67236328125 245.6807403564453125 -9999 154.6884613037109375 367.925262451171875 392.24542236328125 421.5521240234375 806.63525390625 738.622314453125 724.7227783203125 849.47332763671875 835.39691162109375 821.2388916015625 919.47320556640625 938.27044677734375 947.57513427734375 931.2244873046875 645.63201904296875 187.975616455078125 100.58699798583984375 180.5428466796875 134.022552490234375 266.309295654296875 729.87445068359375 946.95458984375 951.2845458984375 927.51806640625 913.55474853515625 909.5784912109375 958.97125244140625 852.53070068359375 693.3587646484375 536.0556640625 247.186065673828125 58.941699981689453125 -9999 75.6975250244140625 -9999 -9999 -9999 69.46649169921875 98.42766571044921875 104.6753387451171875 91.16925811767578125 71.0494842529296875 -9999 -9999 73.00443267822265625 94.5025177001953125 115.13397979736328125 100.3310546875 71.4830169677734375 -9999 -9999 66.6126556396484375 67.121185302734375 66.97933197021484375 65.91864776611328125 -9999 -9999 -9999 69.643035888671875 -9999 -9999 -9999 -9999 
-9999 -9999 -9999 -9999 -9999 -9999 -9999 66.20436859130859375 66.60260009765625 67.740814208984375 66.647796630859375 -9999 66.4553070068359375 -9999 -9999 66.48213958740234375 -9999 -9999 -9999 -9999 -9999 -9999 -9999 -9999 -9999 -9999 -9999 -9999 -9999 -9999 65.64829254150390625 71.82474517822265625 86.22049713134765625 97.201080322265625 74.67124176025390625 66.5730743408203125 -9999 -9999 66.63037109375 67.05239105224609375 67.50205230712890625 66.18930816650390625 66.65795135498046875 68.23639678955078125 68.39492034912109375 66.08686065673828125 -9999 67.0123291015625 76.36812591552734375 87.33441162109375 68.54708099365234375 65.79572296142578125 71.77756500244140625 104.3907928466796875 91.75933074951171875 164.0834197998046875 635.47119140625 696.66680908203125 787.791015625 846.76318359375 829.01690673828125 749.180419921875 491.7236328125 340.32415771484375 290.154022216796875 369.697662353515625 190.80084228515625 208.0497894287109375 709.0059814453125 742.17877197265625 769.817138671875 870.00213623046875 869.2264404296875 878.42913818359375 918.9439697265625 921.8443603515625 969.587158203125 851.87322998046875 351.338287353515625 141.4781341552734375 209.2800445556640625 434.844146728515625 296.316009521484375 641.48101806640625 924.29803466796875 956.27386474609375 943.089111328125 895.15765380859375 937.634521484375 897.6016845703125 924.76947021484375 805.35479736328125 473.869598388671875 186.8173828125 82.44280242919921875 -9999 -9999 -9999 -9999 -9999 -9999 74.75402069091796875 170.7447052001953125 188.732208251953125 129.994964599609375 82.94882965087890625 77.18563079833984375 71.63999176025390625 82.25211334228515625 120.7487335205078125 124.866668701171875 105.55377197265625 68.8230133056640625 -9999 -9999 66.683929443359375 71.60602569580078125 69.22754669189453125 66.03722381591796875 67.81987762451171875 -9999 -9999 -9999 -9999 -9999 -9999 -9999 
-9999 -9999 65.9750823974609375 66.928253173828125 -9999 66.83699798583984375 66.90997314453125 66.042510986328125 66.0992279052734375 -9999 -9999 -9999 66.397796630859375 -9999 -9999 -9999 -9999 -9999 -9999 -9999 66.2339630126953125 -9999 -9999 -9999 -9999 66.11582183837890625 66.0764007568359375 66.46044921875 69.17293548583984375 80.885284423828125 70.530181884765625 83.14517974853515625 135.8761444091796875 98.48128509521484375 67.05869293212890625 67.10906219482421875 67.54987335205078125 66.49971771240234375 -9999 -9999 67.3993988037109375 66.20648956298828125 65.94179534912109375 66.57450103759765625 66.54996490478515625 68.801116943359375 66.02019500732421875 67.1968536376953125 67.508270263671875 67.5896453857421875 68.4370880126953125 68.80391693115234375 97.38707733154296875 201.8064727783203125 220.9066925048828125 273.2694091796875 594.510986328125 621.50146484375 812.651611328125 841.24432373046875 842.47705078125 722.0970458984375 641.20184326171875 563.839599609375 302.953948974609375 298.337554931640625 233.332550048828125 259.875335693359375 716.49981689453125 913.7572021484375 846.82623291015625 765.69500732421875 874.14263916015625 922.47930908203125 964.89569091796875 947.86419677734375 948.80560302734375 666.24554443359375 301.468902587890625 189.84857177734375 256.292999267578125 444.62353515625 609.42681884765625 825.107421875 920.62799072265625 941.54888916015625 960.9371337890625 962.11334228515625 984.8267822265625 973.71044921875 890.7008056640625 770.46026611328125 338.19500732421875 91.53118896484375 -9999 -9999 -9999 -9999 -9999 -9999 44.21234130859375 124.22784423828125 306.8551025390625 252.575927734375 172.9022674560546875 113.41669464111328125 130.9151458740234375 96.08809661865234375 84.6514129638671875 108.37939453125 122.77950286865234375 112.64617156982421875 69.05218505859375 -9999 -9999 66.73668670654296875 70.71979522705078125 66.80810546875 65.9518280029296875 66.99475860595703125 67.73850250244140625 68.06249237060546875 -9999 -9999 -9999 -9999 -9999 
-9999 -9999 65.95481109619140625 66.54889678955078125 -9999 66.482879638671875 66.8449554443359375 66.3569793701171875 -9999 -9999 -9999 -9999 66.53627777099609375 -9999 65.96991729736328125 -9999 -9999 -9999 -9999 -9999 -9999 -9999 66.4334564208984375 -9999 65.84270477294921875 65.933563232421875 66.743865966796875 72.00261688232421875 71.8232269287109375 88.299652099609375 76.349578857421875 90.5273590087890625 89.33036041259765625 70.54576873779296875 -9999 70.32659912109375 68.4983367919921875 66.4066314697265625 67.03298187255859375 -9999 65.98526763916015625 67.45824432373046875 67.68572235107421875 67.28556060791015625 66.56134796142578125 68.53774261474609375 65.5362396240234375 -9999 67.65509796142578125 68.73085784912109375 67.93910980224609375 74.7944488525390625 158.623870849609375 260.932525634765625 437.042327880859375 656.90679931640625 745.1500244140625 756.99774169921875 841.6451416015625 852.59063720703125 888.6019287109375 879.41351318359375 797.19732666015625 569.3560791015625 377.182647705078125 350.549072265625 253.2476348876953125 251.5115509033203125 605.03656005859375 917.356689453125 837.58013916015625 729.80450439453125 797.80145263671875 772.3621826171875 916.32537841796875 936.2491455078125 954.11932373046875 492.338897705078125 302.891265869140625 439.706146240234375 307.44879150390625 354.775604248046875 651.867431640625 803.27288818359375 904.66162109375 958.3443603515625 985.23931884765625 999.80242919921875 979.5487060546875 960.5679931640625 876.6533203125 726.60595703125 301.219970703125 64.6338348388671875 -9999 -9999 32.339275360107421875 43.437267303466796875 -9999 80.8016815185546875 103.12473297119140625 174.8359527587890625 322.03167724609375 244.768585205078125 146.261474609375 94.45969390869140625 140.96697998046875 133.5112152099609375 93.34473419189453125 107.984130859375 166.52081298828125 124.49340057373046875 67.21649169921875 -9999 -9999 74.45795440673828125 79.15541839599609375 66.557220458984375 66.08708953857421875 66.27472686767578125 69.6614532470703125 67.4020538330078125 -9999 -9999 -9999 -9999 -9999 
-9999 -9999 -9999 -9999 -9999 -9999 -9999 -9999 -9999 -9999 -9999 -9999 -9999 -9999 -9999 -9999 66.320037841796875 -9999 -9999 -9999 -9999 -9999 -9999 66.49382781982421875 66.966033935546875 66.1218719482421875 68.5491790771484375 71.0663604736328125 67.55559539794921875 69.89786529541015625 82.0848236083984375 77.6097564697265625 67.26935577392578125 -9999 88.143829345703125 81.93316650390625 67.4622802734375 -9999 65.85262298583984375 66.3648681640625 67.58162689208984375 -9999 -9999 65.96002960205078125 66.3858184814453125 66.561187744140625 66.4705047607421875 -9999 -9999 66.3141326904296875 66.4056396484375 80.09136962890625 271.220306396484375 469.082550048828125 631.6119384765625 790.52484130859375 826.6114501953125 783.17327880859375 468.39837646484375 736.8809814453125 895.7481689453125 936.27349853515625 908.89959716796875 752.275390625 669.09552001953125 518.106689453125 373.654541015625 405.503082275390625 460.448486328125 870.227294921875 875.6224365234375 891.8336181640625 858.09033203125 829.19561767578125 891.26123046875 832.168212890625 714.59185791015625 377.205657958984375 548.3583984375 740.3717041015625 695.24969482421875 652.89959716796875 726.66326904296875 905.067138671875 990.2337646484375 966.9158935546875 974.7200927734375 986.50250244140625 966.266845703125 964.49322509765625 903.78375244140625 752.23077392578125 441.45941162109375 249.0704498291015625 142.775634765625 78.02468109130859375 177.19049072265625 182.2418975830078125 118.56903076171875 143.6239776611328125 165.008544921875 162.7612152099609375 347.988800048828125 312.393096923828125 88.68537139892578125 64.50931549072265625 231.6798248291015625 291.113189697265625 187.2418670654296875 191.6965484619140625 161.0695953369140625 122.28633880615234375 68.41825103759765625 -9999 75.21106719970703125 103.7591705322265625 92.69623565673828125 66.442474365234375 -9999 65.90003204345703125 67.85541534423828125 -9999 -9999 66.09294891357421875 -9999 -9999 -9999 
-9999 66.84464263916015625 67.34593963623046875 66.40117645263671875 -9999 -9999 -9999 -9999 -9999 -9999 -9999 -9999 66.37509918212890625 -9999 -9999 -9999 -9999 -9999 -9999 -9999 -9999 66.18679046630859375 66.0841064453125 66.63689422607421875 67.547607421875 67.08838653564453125 67.9254913330078125 69.71063995361328125 67.763916015625 68.4250335693359375 71.82033538818359375 67.1558685302734375 66.68178558349609375 66.72232818603515625 75.8800811767578125 81.120697021484375 69.41837310791015625 66.6100921630859375 -9999 65.0370941162109375 67.1854095458984375 -9999 -9999 -9999 69.28391265869140625 68.36948394775390625 66.70052337646484375 65.96028900146484375 -9999 -9999 66.592132568359375 80.3425445556640625 149.4230804443359375 511.522735595703125 831.9649658203125 802.01995849609375 782.87078857421875 843.70166015625 605.268798828125 750.4224853515625 895.85699462890625 876.72882080078125 668.435546875 356.7230224609375 368.01953125 520.25244140625 320.46533203125 315.608154296875 438.1153564453125 752.8297119140625 741.0059814453125 915.560302734375 935.12158203125 962.6131591796875 934.17852783203125 801.98907470703125 439.140289306640625 403.2972412109375 765.31884765625 926.76397705078125 970.62677001953125 904.98681640625 766.9483642578125 959.9249267578125 967.01568603515625 958.57940673828125 900.01251220703125 943.08990478515625 954.86566162109375 955.14776611328125 789.98199462890625 745.41558837890625 533.4193115234375 519.46722412109375 471.487579345703125 274.344024658203125 220.704864501953125 304.606781005859375 252.966400146484375 261.861053466796875 227.71038818359375 284.340911865234375 391.9576416015625 399.83074951171875 227.262725830078125 218.268646240234375 393.74224853515625 334.373992919921875 319.537384033203125 268.5631103515625 175.859375 107.81507110595703125 -9999 66.58868408203125 84.45281982421875 114.133209228515625 95.5881195068359375 67.24672698974609375 65.91455078125 66.244903564453125 66.0407257080078125 -9999 -9999 65.90545654296875 -9999 -9999 66.012298583984375 
66.29856109619140625 66.10594940185546875 66.191986083984375 -9999 -9999 -9999 -9999 -9999 -9999 -9999 65.99037933349609375 65.85723114013671875 66.10756683349609375 66.37679290771484375 66.529693603515625 -9999 -9999 -9999 -9999 65.9984588623046875 66.03907012939453125 66.45326995849609375 66.28670501708984375 66.54737091064453125 68.1320953369140625 69.435455322265625 68.08222198486328125 68.82962799072265625 67.12450408935546875 66.74439239501953125 67.05814361572265625 66.801910400390625 67.5717926025390625 66.045196533203125 71.5142669677734375 79.430450439453125 79.43062591552734375 75.42798614501953125 -9999 -9999 -9999 66.22904205322265625 -9999 -9999 66.42340087890625 68.67858123779296875 66.559478759765625 -9999 -9999 -9999 83.92821502685546875 121.24788665771484375 150.046966552734375 532.63262939453125 782.53045654296875 770.523681640625 764.4671630859375 880.3966064453125 820.34600830078125 874.90594482421875 894.51177978515625 748.77490234375 204.127105712890625 101.6804962158203125 123.32703399658203125 291.332305908203125 235.04254150390625 618.25482177734375 784.21832275390625 844.335693359375 649.5411376953125 889.74981689453125 865.5562744140625 949.6085205078125 859.9820556640625 752.28399658203125 292.87652587890625 701.36920166015625 988.585205078125 994.13677978515625 989.05859375 924.71978759765625 780.3974609375 937.858154296875 970.40960693359375 964.46063232421875 934.07110595703125 947.41925048828125 959.51593017578125 851.01898193359375 580.50640869140625 465.107421875 580.9937744140625 753.604736328125 782.92767333984375 703.63031005859375 462.79510498046875 396.68701171875 487.982147216796875 462.975677490234375 260.300750732421875 318.148193359375 380.277618408203125 361.05731201171875 540.53643798828125 383.40155029296875 296.131195068359375 195.3554534912109375 264.49591064453125 244.974853515625 208.3465576171875 97.21549224853515625 -9999 80.01110076904296875 100.40665435791015625 101.87699127197265625 85.747589111328125 70.4864044189453125 69.4396514892578125 -9999 72.934539794921875 -9999 -9999 -9999 -9999 -9999 -9999 
-9999 -9999 -9999 -9999 -9999 -9999 -9999 -9999 66.023590087890625 -9999 -9999 66.0008392333984375 -9999 -9999 -9999 -9999 73.600067138671875 -9999 -9999 -9999 66.0203857421875 66.6655731201171875 67.64235687255859375 67.602752685546875 69.04294586181640625 68.95088958740234375 67.50304412841796875 68.5032196044921875 67.235107421875 66.53570556640625 -9999 67.67596435546875 78.00437164306640625 -9999 83.91825103759765625 101.85466766357421875 84.535980224609375 71.0860443115234375 66.43810272216796875 -9999 66.060791015625 -9999 -9999 67.59651947021484375 69.9639892578125 68.41564178466796875 66.99831390380859375 66.24847412109375 -9999 -9999 88.58104705810546875 99.86461639404296875 175.025787353515625 627.83502197265625 703.75439453125 759.08056640625 789.530517578125 859.145263671875 848.7349853515625 863.796630859375 861.42950439453125 650.74432373046875 142.9136810302734375 69.8570098876953125 71.51726531982421875 102.78022003173828125 143.4522552490234375 459.692047119140625 476.688690185546875 732.010498046875 889.6427001953125 914.8082275390625 894.8026123046875 831.59820556640625 765.93035888671875 669.38201904296875 643.97857666015625 942.4307861328125 886.12701416015625 973.791748046875 989.061767578125 980.0499267578125 943.98394775390625 833.90045166015625 909.91778564453125 938.7244873046875 940.588134765625 971.19500732421875 965.67376708984375 742.0751953125 397.355010986328125 252.2114105224609375 607.714599609375 918.40777587890625 929.73345947265625 867.0323486328125 819.89776611328125 771.1090087890625 863.79779052734375 637.30419921875 471.219970703125 507.837646484375 520.16546630859375 628.92169189453125 714.44482421875 339.7060546875 252.48577880859375 271.88946533203125 206.0837860107421875 172.87646484375 168.7581634521484375 82.7447357177734375 73.4708404541015625 112.75997161865234375 114.87314605712890625 101.21990966796875 75.95618438720703125 81.88713836669921875 70.18146514892578125 66.02996063232421875 -9999 -9999 -9999 -9999 -9999 -9999 -9999 
-9999 -9999 -9999 -9999 -9999 -9999 -9999 -9999 65.82840728759765625 -9999 -9999 -9999 -9999 -9999 66.166748046875 -9999 -9999 -9999 -9999 -9999 -9999 66.3473968505859375 67.83686065673828125 67.67502593994140625 68.67368316650390625 68.33661651611328125 71.59932708740234375 -9999 67.76543426513671875 67.62676239013671875 66.44080352783203125 67.73763275146484375 77.50739288330078125 77.34470367431640625 72.0632781982421875 79.15041351318359375 75.86554718017578125 67.267974853515625 66.31667327880859375 69.46413421630859375 66.4745635986328125 67.5146026611328125 67.0074462890625 68.16478729248046875 69.00730133056640625 69.20282745361328125 78.42572784423828125 68.08869171142578125 66.05324554443359375 66.41292572021484375 72.95623779296875 128.3719024658203125 318.044189453125 702.5201416015625 692.12890625 741.72528076171875 781.8763427734375 803.5400390625 859.23486328125 836.84820556640625 876.62847900390625 709.29541015625 239.7223358154296875 73.61087799072265625 66.88083648681640625 67.28150177001953125 72.23220062255859375 120.6990203857421875 200.0708465576171875 548.99749755859375 900.63311767578125 916.0068359375 876.46734619140625 689.7646484375 670.119140625 520.28936767578125 864.27703857421875 995.07208251953125 808.4466552734375 866.2275390625 982.20587158203125 922.100830078125 908.08966064453125 927.46160888671875 829.29730224609375 699.017822265625 799.81878662109375 890.52435302734375 963.7581787109375 893.17608642578125 710.8690185546875 559.53692626953125 690.49615478515625 956.718505859375 961.4595947265625 890.175537109375 926.07916259765625 840.3883056640625 913.7464599609375 842.78033447265625 809.444091796875 826.2293701171875 732.44622802734375 849.693115234375 863.45947265625 559.563720703125 416.363372802734375 362.503570556640625 186.10546875 162.8453216552734375 196.75042724609375 83.9697113037109375 80.75907135009765625 90.75695037841796875 75.63986968994140625 70.53038787841796875 73.83217620849609375 72.92977142333984375 66.0461578369140625 -9999 -9999 63.815364837646484375 -9999 -9999 66.26194000244140625 -9999 -9999 
-9999 -9999 -9999 -9999 -9999 66.2777862548828125 -9999 -9999 -9999 -9999 -9999 -9999 -9999 -9999 -9999 -9999 -9999 -9999 -9999 -9999 -9999 67.7863311767578125 69.9522857666015625 -9999 69.85245513916015625 73.54228973388671875 73.57726287841796875 67.46807861328125 70.0854034423828125 69.34000396728515625 68.8007049560546875 -9999 66.83451080322265625 -9999 66.201873779296875 70.6683807373046875 72.41088104248046875 67.6989898681640625 67.30309295654296875 69.01464080810546875 -9999 67.87802886962890625 67.68779754638671875 76.0499420166015625 79.0459747314453125 75.23163604736328125 79.74304962158203125 67.7520751953125 67.666259765625 71.13924407958984375 92.26952362060546875 153.0774078369140625 241.9099884033203125 493.638092041015625 757.6651611328125 778.18084716796875 816.599609375 820.47637939453125 821.60809326171875 625.5926513671875 835.739990234375 727.18951416015625 342.067840576171875 79.51915740966796875 -9999 74.7056884765625 109.27689361572265625 200.0843353271484375 412.456207275390625 560.8057861328125 845.1260986328125 914.62396240234375 940.187744140625 923.9932861328125 654.039306640625 580.0010986328125 969.0218505859375 979.17584228515625 901.77276611328125 801.7513427734375 946.83331298828125 937.306640625 922.69122314453125 887.95684814453125 740.82073974609375 611.22821044921875 794.4566650390625 838.4532470703125 889.0224609375 750.2916259765625 596.4473876953125 892.98333740234375 730.10614013671875 933.12701416015625 978.6575927734375 969.35760498046875 991.46923828125 968.90478515625 952.2540283203125 955.5731201171875 945.069580078125 966.41632080078125 899.9033203125 788.1500244140625 863.91497802734375 704.08349609375 467.9281005859375 352.54449462890625 217.3256072998046875 176.5422515869140625 106.82721710205078125 76.11318206787109375 85.64586639404296875 79.8849639892578125 80.49987030029296875 76.82225799560546875 71.5850372314453125 69.30075836181640625 66.2990875244140625 -9999 66.740631103515625 66.2832489013671875 -9999 -9999 -9999 -9999 -9999 
-9999 -9999 -9999 -9999 -9999 -9999 -9999 -9999 -9999 -9999 66.01599884033203125 66.0696563720703125 -9999 -9999 67.60748291015625 -9999 -9999 67.2717742919921875 66.754302978515625 67.2886810302734375 68.0779571533203125 67.946197509765625 70.1425323486328125 76.67366790771484375 68.57489013671875 67.80279541015625 70.0984344482421875 70.50421142578125 68.57769012451171875 67.1241302490234375 67.28704071044921875 68.79196929931640625 67.26080322265625 -9999 -9999 67.8802032470703125 67.56305694580078125 66.9066162109375 69.02142333984375 67.42490386962890625 70.35762786865234375 68.93703460693359375 74.58135223388671875 102.02628326416015625 106.0030670166015625 93.5187530517578125 78.827239990234375 72.48529815673828125 82.5687713623046875 139.199951171875 142.0941009521484375 162.8531646728515625 213.2235870361328125 330.162078857421875 519.82769775390625 666.8250732421875 624.34130859375 618.209716796875 674.29034423828125 444.443817138671875 682.3309326171875 540.8602294921875 220.269195556640625 87.317138671875 113.9874267578125 134.74786376953125 142.230438232421875 309.993194580078125 379.430908203125 376.15509033203125 726.7442626953125 906.46954345703125 846.10833740234375 843.38800048828125 365.344512939453125 663.3924560546875 952.61151123046875 1001 810.95721435546875 622.4373779296875 723.88543701171875 918.26934814453125 916.43756103515625 733.5289306640625 412.2042236328125 360.5096435546875 736.69427490234375 845.4757080078125 806.299072265625 829.18194580078125 861.207275390625 959.6009521484375 947.9241943359375 985.655517578125 978.14166259765625 993.747802734375 995.3621826171875 991.73944091796875 973.6343994140625 964.14892578125 968.283447265625 968.38311767578125 904.972900390625 799.78497314453125 835.87640380859375 616.60821533203125 351.417572021484375 380.052276611328125 351.203765869140625 364.827056884765625 315.823486328125 357.05987548828125 286.06256103515625 191.0772552490234375 139.517822265625 133.1890869140625 136.2175445556640625 118.97147369384765625 72.24884796142578125 -9999 -9999 -9999 68.2772979736328125 -9999 -9999 -9999 -9999 
-9999 -9999 -9999 -9999 -9999 -9999 -9999 -9999 -9999 66.4310150146484375 66.68204498291015625 66.29038238525390625 -9999 -9999 -9999 67.3305206298828125 -9999 67.9347991943359375 67.46698760986328125 69.274017333984375 71.38825225830078125 71.04105377197265625 69.37844085693359375 71.46407318115234375 70.26441192626953125 71.06000518798828125 69.06915283203125 67.70831298828125 -9999 -9999 70.5057220458984375 71.908935546875 -9999 -9999 70.52996063232421875 67.4450225830078125 -9999 -9999 66.852447509765625 67.69185638427734375 68.91962432861328125 70.37116241455078125 80.89261627197265625 131.2386474609375 141.6704864501953125 154.2067718505859375 142.0298004150390625 130.86370849609375 117.8739471435546875 252.841705322265625 211.8284149169921875 169.4466094970703125 275.7545166015625 290.9639892578125 326.936370849609375 339.3028564453125 265.16827392578125 259.608917236328125 327.36279296875 287.497222900390625 484.54510498046875 326.742095947265625 251.6447296142578125 155.749114990234375 190.130340576171875 103.12108612060546875 81.98485565185546875 258.9552001953125 442.4876708984375 654.3441162109375 773.3382568359375 803.58013916015625 743.54443359375 559.259765625 479.770904541015625 882.30389404296875 923.83026123046875 998.74468994140625 890.21588134765625 869.56072998046875 812.814208984375 899.81890869140625 819.65179443359375 828.77685546875 565.22576904296875 411.265716552734375 588.05633544921875 615.9063720703125 817.09228515625 823.6490478515625 877.0408935546875 954.68994140625 963.1060791015625 954.7081298828125 915.42950439453125 949.96954345703125 944.80560302734375 947.2138671875 940.90185546875 946.8924560546875 956.50067138671875 965.19183349609375 933.198974609375 890.60479736328125 906.1593017578125 753.899658203125 679.61981201171875 748.300537109375 847.7081298828125 882.04681396484375 826.583740234375 839.9564208984375 683.28668212890625 507.276397705078125 388.1622314453125 281.696197509765625 169.6204681396484375 130.2719268798828125 73.186676025390625 68.29956817626953125 -9999 -9999 -9999 -9999 -9999 -9999 -9999 
-9999 66.074676513671875 -9999 -9999 -9999 -9999 -9999 -9999 -9999 -9999 66.14427947998046875 -9999 -9999 66.77838897705078125 -9999 -9999 69.2372894287109375 67.83962249755859375 67.1853179931640625 69.25157928466796875 68.3432159423828125 67.9149932861328125 69.10506439208984375 74.6279144287109375 76.16706085205078125 72.268798828125 76.7201385498046875 72.46469879150390625 66.97774505615234375 67.19440460205078125 67.9014739990234375 -9999 70.9395294189453125 69.37477874755859375 71.005615234375 67.04962921142578125 66.98667144775390625 71.43454742431640625 68.69396209716796875 71.09905242919921875 76.1376800537109375 90.31682586669921875 95.61466217041015625 116.26537322998046875 168.564697265625 151.839111328125 115.0261383056640625 121.41717529296875 119.1262969970703125 107.7048492431640625 133.22772216796875 172.2740325927734375 224.7216949462890625 217.5494537353515625 222.4234161376953125 223.0197906494140625 116.4330902099609375 126.95800018310546875 94.0879364013671875 109.293670654296875 450.441253662109375 409.024658203125 426.6661376953125 292.3575439453125 237.4311065673828125 197.7413787841796875 159.9390106201171875 451.967559814453125 741.4488525390625 851.08831787109375 641.33099365234375 589.301513671875 541.20526123046875 246.06146240234375 656.97113037109375 916.71954345703125 888.9974365234375 926.14215087890625 940.07257080078125 884.04815673828125 972.41009521484375 950.627197265625 807.6312255859375 809.7474365234375 777.41961669921875 626.2991943359375 660.25848388671875 286.561767578125 616.4046630859375 781.38238525390625 861.67401123046875 889.9671630859375 934.6778564453125 957.03302001953125 917.79248046875 899.95770263671875 874.42059326171875 928.02752685546875 962.53424072265625 956.97344970703125 950.78668212890625 959.42724609375 934.67724609375 778.8944091796875 877.2576904296875 880.88311767578125 875.27496337890625 914.416748046875 906.2728271484375 870.70367431640625 825.00079345703125 882.42919921875 826.04443359375 597.59210205078125 419.3033447265625 283.689971923828125 96.11782073974609375 71.8658905029296875 68.87700653076171875 72.24704742431640625 67.9130859375 66.0045623779296875 66.2607421875 -9999 -9999 -9999 -9999 
66.47455596923828125 -9999 -9999 -9999 -9999 -9999 -9999 -9999 -9999 -9999 -9999 -9999 -9999 -9999 -9999 -9999 70.6522674560546875 68.96251678466796875 -9999 66.89722442626953125 -9999 67.30438232421875 70.07159423828125 81.3682708740234375 84.82416534423828125 67.88880157470703125 71.20655059814453125 70.4111175537109375 68.65582275390625 71.06604766845703125 71.37879180908203125 67.5224456787109375 74.6224517822265625 82.68517303466796875 79.76822662353515625 68.95444488525390625 68.6134490966796875 70.81809234619140625 67.2148895263671875 70.7271575927734375 93.712066650390625 113.50948333740234375 102.77773284912109375 79.66413116455078125 94.8451385498046875 79.11298370361328125 71.80547332763671875 74.57758331298828125 71.07186126708984375 -9999 79.74512481689453125 115.290924072265625 171.4633941650390625 105.4777374267578125 124.27339935302734375 105.28858184814453125 -9999 74.914581298828125 84.250732421875 212.6437835693359375 434.817901611328125 612.593017578125 414.56280517578125 210.545166015625 157.3602447509765625 212.474029541015625 206.620819091796875 223.2026824951171875 383.36834716796875 357.984527587890625 525.5911865234375 609.9866943359375 260.76904296875 383.133331298828125 815.86724853515625 615.32025146484375 535.825439453125 834.467529296875 884.7113037109375 521.3013916015625 821.1571044921875 586.09918212890625 771.44378662109375 817.1591796875 751.67950439453125 846.19769287109375 781.242431640625 496.174835205078125 635.505859375 846.19073486328125 900.30364990234375 717.378173828125 853.498291015625 983.33795166015625 972.78631591796875 908.39202880859375 894.0673828125 952.45263671875 968.1181640625 964.692138671875 944.493896484375 869.59564208984375 930.719482421875 888.7669677734375 861.87994384765625 812.4534912109375 749.677978515625 767.40386962890625 905.1629638671875 870.3514404296875 734.94354248046875 827.99151611328125 714.6826171875 388.375579833984375 267.338409423828125 154.997314453125 70.10822296142578125 -9999 -9999 68.171875 67.53289031982421875 65.9161224365234375 -9999 -9999 -9999 -9999 -9999 
-9999 -9999 -9999 -9999 -9999 -9999 -9999 -9999 -9999 66.660614013671875 -9999 -9999 -9999 -9999 -9999 66.8443450927734375 66.8033905029296875 -9999 66.17803955078125 68.5601654052734375 73.18401336669921875 70.725341796875 90.51331329345703125 82.2068023681640625 72.96492767333984375 68.986297607421875 68.250152587890625 80.055267333984375 89.79682159423828125 92.43737030029296875 90.40561676025390625 83.83289337158203125 87.965118408203125 104.84539031982421875 71.53516387939453125 68.8045501708984375 67.8556671142578125 71.34490966796875 71.08776092529296875 70.1930389404296875 72.96039581298828125 70.39453125 78.5841827392578125 72.03676605224609375 75.41123199462890625 83.66321563720703125 72.676025390625 69.69147491455078125 68.28912353515625 68.7906951904296875 68.37096405029296875 88.1358795166015625 120.11637115478515625 77.9402923583984375 103.05321502685546875 119.8286590576171875 70.82556915283203125 73.17348480224609375 142.24041748046875 359.798431396484375 567.5478515625 613.14044189453125 286.45086669921875 66.87053680419921875 75.99169921875 159.524383544921875 251.6605987548828125 215.9335174560546875 219.647979736328125 254.792572021484375 425.741241455078125 322.902618408203125 237.13421630859375 687.1986083984375 730.61566162109375 340.679229736328125 349.72418212890625 875.32159423828125 967.02142333984375 762.23126220703125 700.50982666015625 758.1998291015625 896.81109619140625 911.80792236328125 927.3104248046875 853.77569580078125 672.752685546875 488.62347412109375 504.678192138671875 798.76214599609375 890.80609130859375 785.9141845703125 897.65081787109375 968.71612548828125 976.32537841796875 921.7054443359375 902.90814208984375 959.4571533203125 968.78961181640625 963.5584716796875 866.12017822265625 824.76568603515625 925.9150390625 879.6640625 711.83978271484375 584.43511962890625 729.31719970703125 753.29779052734375 658.71044921875 824.9725341796875 508.97406005859375 313.531951904296875 214.9875030517578125 101.16613006591796875 80.96858978271484375 87.67545318603515625 77.683441162109375 72.265777587890625 69.5499267578125 66.4267730712890625 65.9350433349609375 65.94699859619140625 65.8240814208984375 -9999 -9999 -9999 65.97882080078125 
65.84020233154296875 -9999 -9999 -9999 -9999 -9999 -9999 -9999 -9999 -9999 -9999 66.6835174560546875 67.044921875 -9999 67.31676483154296875 66.89032745361328125 66.61724853515625 -9999 -9999 69.78252410888671875 80.65576934814453125 73.4093017578125 86.87287139892578125 83.40741729736328125 70.06861114501953125 70.2331085205078125 72.60173797607421875 85.99861907958984375 100.76645660400390625 88.685455322265625 92.32738494873046875 82.314849853515625 76.0713348388671875 77.56894683837890625 69.32263946533203125 71.47429656982421875 66.7830963134765625 70.60507965087890625 73.15888214111328125 68.00698089599609375 67.7873992919921875 69.2375335693359375 67.12931060791015625 67.02468109130859375 85.34217071533203125 157.339813232421875 156.3434600830078125 129.88323974609375 82.26284027099609375 69.59101104736328125 -9999 66.41204071044921875 -9999 98.15062713623046875 245.0697021484375 369.705780029296875 280.47161865234375 246.596160888671875 389.531402587890625 328.103118896484375 340.500213623046875 316.783599853515625 73.331817626953125 -9999 68.7857818603515625 128.3491058349609375 129.7706756591796875 128.6691436767578125 190.2044830322265625 264.19451904296875 173.9864654541015625 90.07424163818359375 340.636077880859375 755.74005126953125 510.973724365234375 300.970611572265625 673.54388427734375 932.4971923828125 930.4735107421875 523.35968017578125 555.05322265625 820.94091796875 816.153564453125 828.48345947265625 641.3839111328125 307.674407958984375 201.534210205078125 446.08740234375 814.9017333984375 950.01275634765625 956.35382080078125 916.19769287109375 936.378173828125 969.613037109375 956.580810546875 969.18511962890625 978.48193359375 976.60546875 941.8499755859375 965.60992431640625 931.15655517578125 911.16278076171875 943.49884033203125 768.935546875 607.343505859375 813.54254150390625 841.1839599609375 661.140869140625 587.55072021484375 468.84521484375 273.02008056640625 214.776611328125 178.2131195068359375 165.156768798828125 186.38641357421875 294.699981689453125 204.767425537109375 149.9828033447265625 109.3861846923828125 70.66054534912109375 66.11530303955078125 67.14302825927734375 -9999 -9999 66.15081787109375 66.95477294921875 66.589752197265625 
-9999 -9999 -9999 -9999 -9999 65.8270721435546875 -9999 -9999 -9999 -9999 -9999 -9999 66.815093994140625 -9999 70.28524017333984375 69.0855712890625 -9999 67.30377960205078125 66.59685516357421875 67.53850555419921875 68.741607666015625 74.9691925048828125 81.1173553466796875 77.9139251708984375 72.38379669189453125 68.05499267578125 67.61927032470703125 74.06109619140625 79.50833892822265625 69.3618316650390625 66.83924102783203125 66.26447296142578125 71.260162353515625 70.42779541015625 69.588043212890625 68.71546173095703125 -9999 67.347747802734375 72.42499542236328125 67.14015960693359375 71.48354339599609375 74.4405059814453125 67.0233306884765625 74.56354522705078125 97.89447784423828125 122.08921051025390625 183.217041015625 219.2123260498046875 94.487396240234375 -9999 -9999 -9999 91.5690460205078125 271.9049072265625 421.61944580078125 534.75982666015625 395.435272216796875 264.90283203125 245.448974609375 118.92568206787109375 80.2635040283203125 89.05603790283203125 69.04354095458984375 -9999 71.4880218505859375 98.900115966796875 77.87786102294921875 70.2633514404296875 92.20572662353515625 128.758697509765625 105.77436065673828125 79.33515167236328125 296.88543701171875 661.70513916015625 451.2091064453125 494.4281005859375 855.67291259765625 949.44091796875 938.34320068359375 722.99957275390625 640.72943115234375 634.61651611328125 619.108642578125 560.12713623046875 162.3662872314453125 81.66759490966796875 194.7413787841796875 564.35797119140625 745.068115234375 895.5689697265625 920.4129638671875 932.71417236328125 920.09844970703125 947.7620849609375 965.88507080078125 984.3199462890625 993.88232421875 929.96185302734375 891.15966796875 948.08599853515625 961.815673828125 969.30291748046875 960.15911865234375 911.4407958984375 855.54388427734375 889.13751220703125 818.70135498046875 636.148193359375 782.96063232421875 797.532470703125 561.67596435546875 205.1815185546875 162.611297607421875 348.200042724609375 373.024169921875 402.694305419921875 271.17156982421875 156.91839599609375 90.2829742431640625 69.563385009765625 67.3174896240234375 66.81774139404296875 -9999 65.849029541015625 66.22348785400390625 66.308837890625 67.30121612548828125 
-9999 -9999 -9999 -9999 -9999 -9999 -9999 -9999 -9999 66.4223785400390625 -9999 66.22777557373046875 66.4656524658203125 67.648590087890625 68.94115447998046875 67.45163726806640625 67.48028564453125 68.20751953125 69.0773773193359375 70.94341278076171875 67.37127685546875 72.17086029052734375 72.9848175048828125 73.499237060546875 -9999 -9999 66.0071258544921875 -9999 -9999 -9999 68.5529937744140625 67.78937530517578125 75.70093536376953125 73.5739288330078125 67.51013946533203125 67.99053192138671875 66.42462158203125 66.0955047607421875 67.021728515625 -9999 67.86761474609375 67.74434661865234375 66.48171234130859375 70.96167755126953125 81.80596160888671875 90.0803375244140625 164.0915679931640625 220.9324951171875 99.4790802001953125 66.40612030029296875 66.54515838623046875 66.81858062744140625 115.9607696533203125 326.234466552734375 231.3698883056640625 120.788360595703125 80.84220123291015625 -9999 74.0798187255859375 70.195709228515625 -9999 67.86986541748046875 -9999 69.470611572265625 75.37114715576171875 80.07538604736328125 70.6854248046875 71.62194061279296875 -9999 106.974365234375 140.3330535888671875 200.43994140625 327.849884033203125 333.351806640625 257.487060546875 585.66387939453125 878.29766845703125 953.0096435546875 920.802490234375 836.13079833984375 537.72802734375 598.23944091796875 784.90203857421875 780.242919921875 259.2708740234375 100.4573211669921875 298.647613525390625 608.879150390625 590.24932861328125 797.7244873046875 586.55517578125 679.94390869140625 912.9268798828125 909.42431640625 909.4512939453125 940.8519287109375 972.65545654296875 918.40203857421875 881.4647216796875 951.846923828125 972.0592041015625 979.67559814453125 956.876708984375 941.46563720703125 917.4967041015625 872.35235595703125 751.2413330078125 699.55126953125 885.46429443359375 844.29718017578125 692.19134521484375 327.326873779296875 356.269989013671875 557.8922119140625 423.383026123046875 305.186798095703125 170.4925689697265625 88.55605316162109375 78.31888580322265625 72.28582763671875 69.8893890380859375 68.80490875244140625 66.98345184326171875 66.02577972412109375 65.81885528564453125 65.87390899658203125 66.25330352783203125 
-9999 -9999 -9999 -9999 -9999 -9999 -9999 67.72550201416015625 67.09915924072265625 -9999 71.77936553955078125 71.56689453125 67.0375518798828125 67.800628662109375 71.49365997314453125 71.34136199951171875 67.6374969482421875 70.43387603759765625 87.96734619140625 81.52011871337890625 71.52040863037109375 67.30454254150390625 69.3406982421875 68.0462188720703125 69.34828948974609375 67.19483184814453125 66.55759429931640625 66.607391357421875 68.20151519775390625 66.68365478515625 69.69014739990234375 72.722412109375 73.0065155029296875 79.49637603759765625 70.35665130615234375 -9999 69.59632110595703125 67.2790069580078125 66.2917938232421875 69.37448883056640625 69.81433868408203125 67.35337066650390625 67.55992889404296875 67.562652587890625 67.6634521484375 69.60066986083984375 97.7075958251953125 165.93536376953125 127.053680419921875 67.8389739990234375 -9999 71.4325408935546875 152.537811279296875 281.628631591796875 103.95420074462890625 66.0913848876953125 -9999 66.576751708984375 66.466339111328125 67.61244964599609375 101.92902374267578125 82.62471771240234375 -9999 65.8819427490234375 100.09754180908203125 89.28905487060546875 84.80692291259765625 114.22798919677734375 68.017578125 81.5962371826171875 146.8595428466796875 268.65435791015625 385.227203369140625 335.443878173828125 343.745452880859375 655.8360595703125 897.57452392578125 920.9296875 923.1365966796875 588.623046875 504.999481201171875 810.276123046875 920.42864990234375 862.8624267578125 468.2750244140625 180.4744720458984375 -9999 355.287994384765625 659.54541015625 736.244140625 301.67950439453125 482.07183837890625 907.51007080078125 757.08245849609375 753.18597412109375 861.50201416015625 954.28192138671875 965.3580322265625 977.784912109375 974.08380126953125 953.67059326171875 962.966064453125 949.98199462890625 955.43499755859375 849.65264892578125 810.48724365234375 726.51885986328125 797.078369140625 805.5848388671875 356.21099853515625 247.3365325927734375 278.481964111328125 604.7376708984375 640.32366943359375 458.756317138671875 206.1602783203125 113.87436676025390625 71.1483917236328125 71.40929412841796875 69.9858245849609375 72.2070465087890625 74.912628173828125 72.4183197021484375 67.83621978759765625 65.8295440673828125 66.00592041015625 66.59294891357421875 
-9999 -9999 -9999 -9999 -9999 -9999 69.04050445556640625 76.787841796875 68.68157958984375 67.23175811767578125 75.1248016357421875 72.81313323974609375 67.67681121826171875 68.59680938720703125 69.630889892578125 67.7356719970703125 68.79143524169921875 73.61353302001953125 78.26013946533203125 65.39588165283203125 67.83785247802734375 71.836669921875 87.9475860595703125 -9999 69.72763824462890625 68.86139678955078125 -9999 68.4747772216796875 71.9810638427734375 -9999 66.602447509765625 69.7540130615234375 67.99523162841796875 70.598907470703125 70.0285186767578125 75.8370513916015625 69.41117095947265625 66.97772216796875 66.86492919921875 68.991790771484375 71.071075439453125 68.04422760009765625 66.3439483642578125 67.78424835205078125 68.68450164794921875 66.10102081298828125 66.7692413330078125 79.34654998779296875 87.3194732666015625 70.129119873046875 61.5541839599609375 73.94873809814453125 108.29828643798828125 134.4835662841796875 82.1619415283203125 -9999 -9999 67.244873046875 67.043975830078125 93.54935455322265625 278.156402587890625 151.4346466064453125 -9999 77.0471038818359375 99.28910064697265625 150.307830810546875 176.6092071533203125 113.83847808837890625 80.2026214599609375 133.805023193359375 265.06781005859375 415.94775390625 353.9766845703125 269.090728759765625 462.541839599609375 574.695068359375 752.495361328125 788.2899169921875 589.96533203125 188.9117431640625 208.498809814453125 637.172607421875 909.56475830078125 878.727294921875 609.887939453125 245.1639862060546875 92.234222412109375 221.9859161376953125 550.2374267578125 640.08349609375 597.86163330078125 796.6981201171875 914.52911376953125 872.72369384765625 887.10009765625 847.88385009765625 933.44537353515625 888.0501708984375 927.40728759765625 929.2879638671875 919.39825439453125 953.05706787109375 940.59942626953125 867.5577392578125 725.720947265625 803.6671142578125 690.58282470703125 640.4527587890625 446.144989013671875 124.478759765625 121.85591888427734375 315.35595703125 490.089111328125 496.351318359375 345.459808349609375 289.686431884765625 231.383026123046875 99.5265655517578125 68.00325775146484375 66.165985107421875 67.90435028076171875 70.20761871337890625 68.0174407958984375 67.138946533203125 -9999 -9999 -9999 
67.6552581787109375 -9999 -9999 67.02620697021484375 67.597991943359375 72.163970947265625 69.21620941162109375 70.56136322021484375 69.04792022705078125 67.735992431640625 69.44547271728515625 67.81386566162109375 68.30019378662109375 66.7838287353515625 67.03096771240234375 68.472015380859375 79.030364990234375 92.609405517578125 74.992919921875 66.1730499267578125 -9999 67.69184112548828125 74.293670654296875 68.09259033203125 80.80045318603515625 74.8463287353515625 -9999 -9999 -9999 -9999 68.58246612548828125 68.06170654296875 -9999 69.29807281494140625 67.9539794921875 74.6516265869140625 70.3798980712890625 67.406463623046875 66.44287109375 67.80352783203125 73.09491729736328125 -9999 66.85666656494140625 69.03746795654296875 65.49364471435546875 65.92690277099609375 -9999 66.70539093017578125 -9999 92.2794189453125 130.7488250732421875 98.50318145751953125 -9999 -9999 -9999 -9999 -9999 -9999 -9999 94.14913177490234375 297.390350341796875 197.2823944091796875 72.44244384765625 117.98291778564453125 107.66613006591796875 139.5230865478515625 115.1530303955078125 94.16861724853515625 162.4869842529296875 304.878021240234375 535.9774169921875 517.59136962890625 400.605804443359375 321.889556884765625 310.968170166015625 364.188385009765625 314.76922607421875 458.504302978515625 475.83966064453125 321.744873046875 251.7686309814453125 630.12451171875 931.23370361328125 903.53143310546875 739.00616455078125 260.7039794921875 125.29901123046875 167.61865234375 369.0341796875 634.831787109375 838.8731689453125 943.0888671875 928.14141845703125 871.14080810546875 710.2158203125 697.20159912109375 904.9588623046875 953.3985595703125 920.166015625 895.3157958984375 872.07745361328125 794.11676025390625 750.91717529296875 813.84405517578125 820.37554931640625 774.56463623046875 507.38946533203125 205.770538330078125 106.14703369140625 117.6126861572265625 247.788177490234375 366.235565185546875 381.12847900390625 452.104339599609375 467.047698974609375 452.996337890625 293.309906005859375 127.2279052734375 76.58213043212890625 66.782745361328125 -9999 -9999 66.4998321533203125 -9999 -9999 -9999 -9999 
67.2082672119140625 66.41275787353515625 -9999 69.27988433837890625 94.1943206787109375 155.3122100830078125 95.11058807373046875 69.6979522705078125 74.1457061767578125 -9999 89.65789031982421875 74.6837005615234375 67.1944427490234375 -9999 68.1160125732421875 70.50547027587890625 79.18924713134765625 86.9598541259765625 85.3550872802734375 75.552734375 67.2733306884765625 65.95404815673828125 67.31952667236328125 71.29791259765625 166.4957122802734375 152.2119140625 77.09478759765625 70.32442474365234375 65.84523773193359375 -9999 66.95650482177734375 66.1506500244140625 67.673004150390625 67.62693023681640625 68.26020050048828125 65.8874664306640625 66.94842529296875 68.71474456787109375 67.1148834228515625 66.682861328125 67.83379364013671875 68.3123016357421875 68.040924072265625 66.89980316162109375 71.1087646484375 67.8908233642578125 -9999 -9999 -9999 75.9750213623046875 149.7688446044921875 138.2712860107421875 -9999 -9999 -9999 -9999 -9999 -9999 72.62116241455078125 141.2574005126953125 298.397979736328125 191.6347808837890625 216.0504608154296875 166.8616790771484375 104.43212127685546875 80.2902679443359375 74.54280853271484375 158.4845733642578125 331.98919677734375 278.972564697265625 443.283538818359375 577.0244140625 339.22991943359375 318.09600830078125 381.13763427734375 508.092803955078125 305.49658203125 404.58135986328125 377.560943603515625 515.7440185546875 564.54205322265625 799.57537841796875 921.67291259765625 893.73211669921875 856.55364990234375 563.36749267578125 393.351531982421875 418.169189453125 658.81640625 870.14996337890625 914.1260986328125 934.12152099609375 934.79705810546875 772.64801025390625 575.82257080078125 798.550048828125 945.90179443359375 933.98828125 885.6890869140625 898.2099609375 863.104248046875 659.1326904296875 687.395751953125 838.094970703125 697.34716796875 397.369140625 174.3358612060546875 84.581298828125 100.7427215576171875 174.4209442138671875 381.444915771484375 252.6934967041015625 216.6787567138671875 197.453521728515625 242.663665771484375 270.4857177734375 240.5314483642578125 158.884796142578125 94.3950958251953125 67.7305908203125 -9999 -9999 -9999 -9999 -9999 -9999 -9999 
67.008636474609375 67.76428985595703125 69.05330657958984375 86.681640625 177.5569915771484375 249.981719970703125 148.91790771484375 90.11293792724609375 103.08292388916015625 110.00557708740234375 111.407806396484375 85.57131195068359375 68.0298309326171875 67.34436798095703125 68.20111083984375 66.94707489013671875 71.1533050537109375 70.22052764892578125 85.98423004150390625 71.32329559326171875 -9999 65.88141632080078125 -9999 71.60178375244140625 171.621734619140625 253.186859130859375 108.9921875 68.07233428955078125 -9999 -9999 66.72116851806640625 -9999 68.3493194580078125 68.01902008056640625 81.35494232177734375 72.6518096923828125 67.3352508544921875 66.66259002685546875 66.674285888671875 66.02291107177734375 66.642608642578125 67.36617279052734375 67.90915679931640625 70.792083740234375 71.66608428955078125 74.19940948486328125 66.70252227783203125 65.912506103515625 -9999 -9999 135.086151123046875 153.8223114013671875 145.96026611328125 85.80821990966796875 -9999 -9999 78.33766937255859375 114.390899658203125 280.18060302734375 337.0699462890625 223.7304840087890625 423.024658203125 601.3616943359375 366.766204833984375 116.500244140625 85.69461822509765625 107.0249481201171875 179.271209716796875 285.63177490234375 235.97808837890625 244.0362396240234375 263.102325439453125 151.0921173095703125 293.09814453125 692.1878662109375 719.10546875 549.6695556640625 451.52423095703125 378.82049560546875 683.8175048828125 693.574462890625 711.67498779296875 636.85308837890625 706.62786865234375 725.94281005859375 721.3804931640625 800.15374755859375 827.54046630859375 831.58428955078125 876.82696533203125 850.62762451171875 840.9833984375 908.545166015625 808.6065673828125 593.049560546875 793.914794921875 931.79071044921875 925.88751220703125 881.36676025390625 930.9091796875 921.2822265625 857.28912353515625 850.2431640625 836.07464599609375 466.35015869140625 271.911285400390625 236.8746337890625 120.77735137939453125 180.9267578125 283.5052490234375 270.066314697265625 155.1902923583984375 125.6659393310546875 104.54052734375 119.9314422607421875 119.52565765380859375 100.15744781494140625 140.7086944580078125 100.85382080078125 68.05838775634765625 -9999 -9999 -9999 -9999 -9999 -9999 -9999 
-9999 -9999 63.91989898681640625 76.68531036376953125 93.38248443603515625 98.94066619873046875 100.64211273193359375 56.81597137451171875 62.60599517822265625 80.11425018310546875 75.170013427734375 70.07171630859375 67.098785400390625 66.20159912109375 66.5348358154296875 -9999 -9999 68.615234375 80.12628173828125 69.6348876953125 66.37039947509765625 -9999 -9999 -9999 80.767181396484375 129.2261810302734375 104.6632080078125 69.82740020751953125 68.9859466552734375 66.61408233642578125 67.565216064453125 -9999 -9999 67.33934783935546875 74.5110321044921875 70.9842529296875 71.19208526611328125 -9999 66.14188385009765625 68.66485595703125 70.6275177001953125 69.1023406982421875 79.619171142578125 76.09142303466796875 72.39929962158203125 77.516326904296875 67.6933135986328125 67.92664337158203125 66.4307708740234375 70.26792144775390625 113.6573486328125 141.0230255126953125 179.9855804443359375 144.532806396484375 78.3627166748046875 -9999 121.7225799560546875 223.7306060791015625 317.21917724609375 499.909912109375 432.485626220703125 657.94940185546875 686.69989013671875 468.045013427734375 226.6017608642578125 202.7808380126953125 256.240081787109375 408.91650390625 218.49407958984375 96.48462677001953125 85.54817962646484375 91.4178466796875 146.7920379638671875 568.73565673828125 904.556884765625 823.5703125 416.398162841796875 442.22125244140625 569.41583251953125 838.7962646484375 812.91375732421875 690.531494140625 366.059234619140625 761.51849365234375 822.34088134765625 814.8612060546875 883.9290771484375 844.29571533203125 733.2650146484375 741.5452880859375 805.30194091796875 877.33367919921875 753.3548583984375 695.30224609375 375.014404296875 316.249053955078125 604.38397216796875 729.01275634765625 793.3106689453125 907.9130859375 910.55584716796875 888.761474609375 837.7955322265625 755.1309814453125 500.98175048828125 405.268218994140625 362.176513671875 220.741546630859375 205.9521942138671875 310.62677001953125 206.354522705078125 169.8428955078125 123.27594757080078125 130.520416259765625 113.49588775634765625 82.56902313232421875 68.9320831298828125 82.07218170166015625 81.46994781494140625 66.35992431640625 -9999 -9999 -9999 -9999 -9999 -9999 67.13216400146484375 
-9999 -9999 -9999 66.0652313232421875 85.17873382568359375 113.95751953125 110.36904144287109375 -9999 -9999 -9999 -9999 66.33008575439453125 65.93149566650390625 66.25608062744140625 67.265869140625 66.876251220703125 -9999 66.147308349609375 66.70619964599609375 67.52093505859375 66.6806488037109375 -9999 -9999 -9999 -9999 70.5457000732421875 93.95375823974609375 74.77043914794921875 66.82387542724609375 66.123138427734375 66.54656982421875 66.35701751708984375 71.62537384033203125 75.78582000732421875 68.6194610595703125 67.64492034912109375 67.7135009765625 -9999 69.13780975341796875 83.09100341796875 68.775909423828125 68.5538177490234375 91.27634429931640625 182.5139923095703125 98.425689697265625 67.9732513427734375 70.76548004150390625 73.2401885986328125 68.47937774658203125 67.86904144287109375 83.9167327880859375 143.26593017578125 187.6466827392578125 179.640289306640625 108.30315399169921875 -9999 113.42236328125 137.1019134521484375 198.11102294921875 365.6666259765625 592.32586669921875 607.795166015625 410.4442138671875 222.3984527587890625 184.51666259765625 408.17327880859375 409.03802490234375 395.046875 147.983154296875 72.51174163818359375 160.8255615234375 157.2583770751953125 214.881866455078125 728.03436279296875 931.86395263671875 905.03814697265625 612.14752197265625 584.622314453125 837.51995849609375 828.12921142578125 845.43914794921875 775.70343017578125 561.08807373046875 893.57135009765625 901.33929443359375 789.594482421875 799.27105712890625 853.393798828125 816.95574951171875 773.81500244140625 752.5662841796875 815.0682373046875 531.01776123046875 264.612274169921875 110.4259185791015625 101.00571441650390625 230.5320892333984375 690.42230224609375 885.07061767578125 891.43951416015625 744.5150146484375 593.548095703125 640.3829345703125 681.02587890625 532.3587646484375 266.906402587890625 207.713134765625 285.65765380859375 316.634796142578125 309.07647705078125 142.832916259765625 138.4632415771484375 96.31565093994140625 103.1765289306640625 94.28829193115234375 77.15189361572265625 67.14813995361328125 70.28165435791015625 73.65845489501953125 66.8831024169921875 -9999 -9999 -9999 -9999 -9999 -9999 -9999 
-9999 -9999 -9999 69.887786865234375 96.55461883544921875 147.053192138671875 149.3265228271484375 87.325927734375 71.35671234130859375 69.61829376220703125 -9999 -9999 65.973602294921875 65.8834075927734375 66.001251220703125 66.03099822998046875 66.5897369384765625 -9999 -9999 -9999 -9999 -9999 -9999 -9999 -9999 -9999 -9999 64.77056884765625 67.5684661865234375 66.29079437255859375 66.40377044677734375 -9999 73.30979156494140625 67.4773406982421875 -9999 67.6261138916015625 68.43927001953125 -9999 67.0694580078125 68.7459869384765625 66.0767669677734375 66.19876861572265625 97.972686767578125 203.7277984619140625 178.689422607421875 93.00801849365234375 92.5237884521484375 129.8567962646484375 84.84398651123046875 -9999 96.1539764404296875 129.6071014404296875 193.09576416015625 217.4176177978515625 121.866455078125 -9999 73.67852020263671875 85.92392730712890625 96.26329803466796875 128.2588958740234375 426.602783203125 474.89959716796875 333.738128662109375 284.32537841796875 422.3795166015625 409.2923583984375 195.36724853515625 121.7023773193359375 86.66068267822265625 70.85352325439453125 138.1367340087890625 126.7234344482421875 228.028350830078125 330.176971435546875 538.161865234375 624.50360107421875 434.624267578125 545.3536376953125 838.4830322265625 664.4588623046875 634.2786865234375 869.02392578125 837.789306640625 926.38055419921875 896.9954833984375 861.54443359375 842.43487548828125 869.28546142578125 713.4942626953125 787.5198974609375 751.62109375 770.62628173828125 751.8028564453125 476.3153076171875 119.1894378662109375 79.6556854248046875 159.978851318359375 361.658172607421875 627.96734619140625 618.90203857421875 282.05023193359375 101.92486572265625 172.09906005859375 453.61578369140625 518.6236572265625 319.215087890625 228.6044769287109375 214.0396270751953125 266.242889404296875 328.409027099609375 112.76172637939453125 70.8764495849609375 74.3725433349609375 77.93829345703125 69.1811370849609375 67.01718902587890625 66.00777435302734375 71.9445648193359375 75.2995758056640625 69.47850799560546875 66.288543701171875 -9999 -9999 -9999 -9999 -9999 -9999 
-9999 67.78399658203125 -9999 65.86960601806640625 74.58193206787109375 96.52454376220703125 110.67716217041015625 98.87957763671875 89.00722503662109375 82.2108917236328125 68.6016845703125 67.92232513427734375 68.40657806396484375 -9999 -9999 66.10276031494140625 -9999 66.23326873779296875 -9999 -9999 -9999 -9999 -9999 -9999 -9999 -9999 -9999 -9999 68.26374053955078125 67.06456756591796875 66.44405364990234375 -9999 67.62200164794921875 68.54233551025390625 66.39150238037109375 66.99506378173828125 -9999 66.32929229736328125 67.4799957275390625 66.27082061767578125 65.90039825439453125 65.87270355224609375 70.2079315185546875 131.8394622802734375 307.10675048828125 165.514190673828125 126.02948760986328125 147.10040283203125 80.7272796630859375 72.65196990966796875 126.8444671630859375 118.70391082763671875 117.46280670166015625 190.644744873046875 110.64739990234375 71.3875274658203125 67.89553070068359375 70.41921234130859375 70.95117950439453125 96.92096710205078125 151.377105712890625 396.814117431640625 280.808563232421875 303.485748291015625 437.09930419921875 243.8513336181640625 133.3145599365234375 74.74221038818359375 66.04918670654296875 78.0551910400390625 140.1846466064453125 92.3949432373046875 105.3658905029296875 150.669219970703125 219.6344451904296875 168.857391357421875 187.357421875 560.989990234375 883.4498291015625 612.009765625 638.1866455078125 928.07037353515625 951.19622802734375 870.93231201171875 906.28997802734375 910.24920654296875 879.93743896484375 916.28851318359375 840.6893310546875 749.48486328125 695.22589111328125 657.0987548828125 544.511474609375 363.989898681640625 142.4192962646484375 163.6255340576171875 246.9174041748046875 187.390411376953125 173.70220947265625 291.60748291015625 258.6220703125 99.34772491455078125 232.081329345703125 394.65240478515625 461.290496826171875 392.376251220703125 352.525482177734375 378.37359619140625 321.52667236328125 270.331024169921875 121.9772796630859375 73.4812164306640625 71.26300811767578125 68.17295074462890625 65.94603729248046875 -9999 67.93634033203125 83.41893768310546875 77.4117431640625 67.36556243896484375 -9999 -9999 -9999 -9999 -9999 -9999 -9999 
-9999 -9999 -9999 -9999 67.08338165283203125 76.6170196533203125 85.72278594970703125 92.123382568359375 92.9719696044921875 82.63220977783203125 71.79561614990234375 67.559478759765625 70.57381439208984375 66.405120849609375 -9999 -9999 -9999 -9999 68.93270111083984375 78.72231292724609375 67.4815216064453125 -9999 -9999 -9999 -9999 -9999 -9999 -9999 67.472503662109375 67.1424713134765625 -9999 -9999 66.980224609375 68.2588043212890625 69.2573394775390625 68.113739013671875 -9999 66.29027557373046875 67.129913330078125 -9999 65.83625030517578125 65.8948822021484375 67.49434661865234375 99.63741302490234375 296.562408447265625 189.8050994873046875 96.4909820556640625 80.16310882568359375 -9999 99.1127471923828125 144.917999267578125 136.9385223388671875 73.0721893310546875 135.2946014404296875 154.2686767578125 78.53873443603515625 -9999 66.2906951904296875 104.37393951416015625 223.3776397705078125 170.622650146484375 301.352935791015625 176.64306640625 319.332672119140625 260.985870361328125 126.089569091796875 90.82625579833984375 69.05928802490234375 -9999 80.26622772216796875 173.415771484375 94.44272613525390625 68.80323028564453125 136.2487945556640625 180.2403411865234375 108.54566192626953125 255.179443359375 806.7110595703125 909.267822265625 736.578369140625 806.28955078125 924.799072265625 972.81610107421875 949.693115234375 957.55645751953125 947.45770263671875 863.50274658203125 740.20294189453125 768.51409912109375 715.540283203125 418.3804931640625 229.2124481201171875 253.3071746826171875 207.1431121826171875 155.6349029541015625 144.77105712890625 149.344146728515625 153.3036956787109375 99.52899932861328125 93.02724456787109375 86.0968780517578125 76.68502044677734375 213.6758270263671875 375.749908447265625 369.843658447265625 348.478302001953125 294.54229736328125 362.459320068359375 269.500213623046875 239.773468017578125 133.7086944580078125 104.96306610107421875 107.1506805419921875 86.91423797607421875 66.64593505859375 66.167938232421875 69.28766632080078125 73.2946319580078125 67.7479400634765625 -9999 -9999 -9999 -9999 -9999 -9999 -9999 -9999 
-9999 -9999 -9999 -9999 -9999 -9999 74.38901519775390625 78.0852813720703125 78.59944915771484375 83.08615875244140625 79.01874542236328125 68.5170135498046875 72.2459259033203125 67.77838134765625 -9999 -9999 -9999 -9999 69.54921722412109375 74.10713958740234375 -9999 -9999 -9999 -9999 -9999 -9999 -9999 -9999 67.3360137939453125 67.20890045166015625 73.836822509765625 -9999 -9999 -9999 70.28116607666015625 70.7497100830078125 65.90863037109375 66.208282470703125 -9999 -9999 66.0679779052734375 66.3814239501953125 67.30777740478515625 80.178314208984375 243.63250732421875 264.42254638671875 86.82300567626953125 66.73137664794921875 63.957714080810546875 176.88287353515625 151.8141937255859375 107.9957733154296875 -9999 116.15683746337890625 230.4510345458984375 109.810791015625 -9999 68.55527496337890625 94.94359588623046875 183.6357269287109375 263.3157958984375 196.8305816650390625 83.05739593505859375 207.8131866455078125 323.59381103515625 321.673614501953125 146.5371246337890625 88.1751708984375 40.963165283203125 58.1855621337890625 62.129451751708984375 93.0334320068359375 75.77104949951171875 141.9346771240234375 157.6005401611328125 122.715118408203125 292.560882568359375 752.25714111328125 832.0401611328125 739.34576416015625 653.3314208984375 862.39453125 934.851318359375 958.08154296875 969.544189453125 968.62591552734375 850.20635986328125 522.829833984375 579.8759765625 500.443817138671875 178.751007080078125 -9999 77.76873779296875 99.64080810546875 132.1381683349609375 80.58058929443359375 77.63714599609375 95.68135833740234375 115.28167724609375 91.87020111083984375 68.34987640380859375 -9999 96.6807708740234375 341.947418212890625 252.027557373046875 269.42486572265625 230.387939453125 188.3074188232421875 110.821319580078125 128.53179931640625 91.81307220458984375 82.63135528564453125 95.5294189453125 75.6887664794921875 66.10625457763671875 65.86348724365234375 -9999 -9999 -9999 -9999 -9999 -9999 -9999 -9999 -9999 -9999 -9999 
-9999 -9999 -9999 -9999 -9999 -9999 -9999 70.52504730224609375 81.7832489013671875 82.81195831298828125 76.2540130615234375 68.880279541015625 69.4469146728515625 67.86651611328125 -9999 -9999 -9999 -9999 -9999 -9999 -9999 -9999 67.34952545166015625 -9999 -9999 -9999 -9999 -9999 -9999 73.193023681640625 91.13238525390625 74.57828521728515625 -9999 -9999 68.157623291015625 67.28487396240234375 -9999 -9999 69.79913330078125 67.33571624755859375 70.25455474853515625 72.57944488525390625 73.6352996826171875 103.34716033935546875 333.0858154296875 421.107635498046875 216.2277069091796875 102.309844970703125 88.3473052978515625 270.95428466796875 253.9834747314453125 99.7066497802734375 76.61544036865234375 127.70957183837890625 224.9669647216796875 123.17034912109375 72.06119537353515625 83.80530548095703125 62.963470458984375 115.9037628173828125 207.6122283935546875 105.81752777099609375 82.989959716796875 141.994873046875 293.55328369140625 538.108154296875 558.37127685546875 490.93988037109375 470.232757568359375 253.083251953125 112.3759307861328125 194.580535888671875 131.6427154541015625 207.4392242431640625 151.9032745361328125 230.1352081298828125 415.2760009765625 282.0872802734375 283.835968017578125 455.917816162109375 829.4954833984375 942.7264404296875 935.06683349609375 936.82427978515625 937.1318359375 939.52886962890625 931.69573974609375 556.8880615234375 196.10211181640625 115.36002349853515625 85.62198638916015625 69.53099822998046875 -9999 134.80950927734375 220.96697998046875 145.58697509765625 72.7834014892578125 68.41196441650390625 71.38205718994140625 75.88637542724609375 87.92388916015625 60.477367401123046875 52.65985107421875 142.3567657470703125 81.76827239990234375 91.56987762451171875 -9999 70.81341552734375 -9999 -9999 67.6713714599609375 -9999 70.59229278564453125 67.35514068603515625 -9999 -9999 -9999 -9999 -9999 -9999 -9999 -9999 -9999 -9999 -9999 -9999 -9999 
-9999 -9999 -9999 -9999 -9999 -9999 -9999 67.1374969482421875 69.5424652099609375 72.55982208251953125 70.19014739990234375 68.63269805908203125 66.7733154296875 65.98610687255859375 -9999 -9999 -9999 -9999 -9999 -9999 -9999 66.61891937255859375 67.8602294921875 67.4947357177734375 66.19062042236328125 -9999 -9999 -9999 -9999 84.1124114990234375 187.09716796875 201.0268402099609375 -9999 -9999 66.08007049560546875 66.017822265625 69.04085540771484375 82.402252197265625 81.37218475341796875 64.563018798828125 88.9062957763671875 103.304290771484375 109.3920745849609375 182.81256103515625 336.874603271484375 333.631927490234375 248.5462799072265625 269.055816650390625 235.4375457763671875 337.984283447265625 312.4320068359375 231.258148193359375 146.329742431640625 119.60225677490234375 230.8602447509765625 198.7853240966796875 109.74590301513671875 72.2540283203125 62.8328857421875 170.57208251953125 135.7099761962890625 72.25905609130859375 96.059173583984375 111.12725067138671875 298.953887939453125 689.488525390625 709.76568603515625 734.281982421875 718.81268310546875 609.05755615234375 457.246612548828125 257.55743408203125 262.86749267578125 362.951385498046875 128.349090576171875 168.171417236328125 279.25457763671875 149.996795654296875 102.53563690185546875 486.375823974609375 889.25592041015625 899.0611572265625 907.6427001953125 959.01025390625 963.8033447265625 963.83746337890625 953.8048095703125 699.18170166015625 156.5924224853515625 75.15876007080078125 100.17577362060546875 96.909515380859375 90.47718048095703125 131.703033447265625 114.199615478515625 146.2605438232421875 86.39605712890625 64.94126129150390625 -9999 66.9072418212890625 75.41358184814453125 88.4003143310546875 70.38088226318359375 70.55388641357421875 66.91961669921875 -9999 -9999 68.57315826416015625 -9999 -9999 -9999 -9999 -9999 -9999 -9999 -9999 -9999 -9999 -9999 -9999 -9999 -9999 -9999 -9999 -9999 -9999 -9999 
-9999 -9999 -9999 -9999 -9999 -9999 -9999 -9999 66.582000732421875 66.89862060546875 66.0922088623046875 67.1850433349609375 66.40128326416015625 66.27063751220703125 -9999 -9999 66.25798797607421875 -9999 -9999 -9999 -9999 -9999 -9999 -9999 -9999 66.02056121826171875 -9999 -9999 -9999 116.18300628662109375 384.65142822265625 444.3990478515625 114.8275146484375 -9999 -9999 -9999 69.34273529052734375 101.40660858154296875 115.36190032958984375 -9999 73.17767333984375 118.3688812255859375 191.985076904296875 289.917327880859375 274.31805419921875 192.4623565673828125 134.6999359130859375 212.8324737548828125 222.01470947265625 304.613922119140625 244.9136962890625 215.609375 103.11188507080078125 127.3020782470703125 235.7147369384765625 278.095550537109375 171.97296142578125 -9999 92.404205322265625 109.46889495849609375 75.918975830078125 71.5460968017578125 109.22602081298828125 88.44681549072265625 225.4849395751953125 730.990478515625 830.138671875 848.63751220703125 826.2645263671875 744.35162353515625 360.196990966796875 126.98223876953125 261.547576904296875 213.6724395751953125 103.09222412109375 91.47601318359375 90.2363739013671875 88.82366180419921875 105.10935211181640625 465.722900390625 853.63397216796875 911.9010009765625 916.17596435546875 936.4493408203125 945.3095703125 856.78662109375 818.91064453125 812.3504638671875 490.332763671875 286.26995849609375 244.6441650390625 178.65631103515625 157.84466552734375 159.568328857421875 -9999 141.4310150146484375 136.0105133056640625 66.56307220458984375 -9999 -9999 67.9701995849609375 68.0789947509765625 67.57212066650390625 67.95733642578125 66.3905487060546875 -9999 68.9644775390625 89.38541412353515625 67.75144195556640625 -9999 -9999 -9999 -9999 -9999 -9999 -9999 -9999 -9999 -9999 -9999 -9999 -9999 -9999 -9999 -9999 -9999 -9999 
-9999 -9999 -9999 -9999 -9999 -9999 -9999 -9999 -9999 -9999 -9999 -9999 -9999 -9999 -9999 -9999 -9999 -9999 -9999 -9999 -9999 -9999 -9999 -9999 -9999 -9999 -9999 -9999 69.85066986083984375 131.5097198486328125 404.91705322265625 550.4681396484375 460.02197265625 351.75213623046875 112.15746307373046875 67.110260009765625 -9999 77.2882843017578125 104.972198486328125 72.2793731689453125 67.96128082275390625 88.204345703125 122.9888763427734375 133.6629486083984375 206.86236572265625 170.3913421630859375 114.39208984375 141.3150634765625 155.6366424560546875 106.136688232421875 107.6005859375 122.45843505859375 69.85347747802734375 94.77162933349609375 193.3209075927734375 197.754180908203125 208.568145751953125 99.08563995361328125 90.56812286376953125 72.47983551025390625 66.3013916015625 72.9262237548828125 116.7448577880859375 95.7517547607421875 128.6579437255859375 464.161468505859375 806.8287353515625 923.74560546875 914.2625732421875 894.037353515625 762.92291259765625 514.6138916015625 594.8389892578125 164.81427001953125 111.21112060546875 77.56302642822265625 67.2505035400390625 88.616424560546875 221.435455322265625 682.83648681640625 707.505126953125 817.33758544921875 872.47003173828125 828.68194580078125 775.5736083984375 729.840087890625 810.12847900390625 836.70550537109375 806.59478759765625 791.15350341796875 622.390625 503.910125732421875 550.48333740234375 546.44964599609375 414.0576171875 186.343994140625 145.6610260009765625 93.85089874267578125 65.239959716796875 67.84686279296875 90.8162078857421875 99.02611541748046875 68.55218505859375 66.477569580078125 65.996368408203125 -9999 76.2830810546875 103.22982025146484375 67.25409698486328125 66.0571136474609375 -9999 -9999 -9999 -9999 -9999 -9999 -9999 -9999 -9999 -9999 66.0281219482421875 -9999 -9999 -9999 -9999 -9999 -9999 
-9999 -9999 -9999 -9999 -9999 -9999 -9999 -9999 -9999 -9999 -9999 -9999 -9999 -9999 -9999 -9999 -9999 -9999 -9999 -9999 -9999 -9999 -9999 -9999 -9999 -9999 -9999 -9999 -9999 74.845245361328125 126.564056396484375 300.9984130859375 463.71063232421875 573.34442138671875 391.189910888671875 37.543163299560546875 -9999 -9999 67.22674560546875 68.71450042724609375 74.48833465576171875 77.66009521484375 76.9613189697265625 88.58309173583984375 97.02935028076171875 121.87467193603515625 100.05483245849609375 98.12387847900390625 136.1664581298828125 339.29656982421875 361.808135986328125 137.9907379150390625 -9999 75.94561767578125 125.36344146728515625 142.2147979736328125 243.574432373046875 146.783172607421875 76.75372314453125 66.56238555908203125 73.109466552734375 85.02861785888671875 174.204833984375 320.592132568359375 247.904083251953125 202.602508544921875 570.95703125 885.859130859375 900.07861328125 901.63690185546875 856.45355224609375 861.004638671875 694.51373291015625 132.4582977294921875 73.2288970947265625 78.6234283447265625 73.9492950439453125 106.555755615234375 233.6744384765625 575.7265625 822.48406982421875 872.7705078125 822.80224609375 712.16461181640625 775.7838134765625 858.14434814453125 845.92681884765625 809.128662109375 787.36639404296875 788.70452880859375 724.8253173828125 568.0177001953125 440.60302734375 322.563201904296875 230.290130615234375 142.6543121337890625 123.23195648193359375 89.39189910888671875 78.50753021240234375 85.05666351318359375 154.33837890625 113.64678192138671875 67.4078216552734375 66.16756439208984375 65.86968231201171875 66.54564666748046875 82.3807373046875 91.2084808349609375 69.719268798828125 67.7749481201171875 -9999 -9999 -9999 66.38382720947265625 -9999 -9999 -9999 -9999 -9999 -9999 -9999 -9999 -9999 -9999 -9999 -9999 -9999 
67.133209228515625 -9999 -9999 -9999 -9999 -9999 -9999 -9999 -9999 -9999 -9999 -9999 -9999 -9999 -9999 -9999 -9999 -9999 -9999 -9999 -9999 -9999 -9999 -9999 -9999 -9999 -9999 -9999 -9999 -9999 -9999 116.125518798828125 236.818115234375 417.775970458984375 544.48876953125 246.061614990234375 129.0348052978515625 76.91533660888671875 -9999 66.086273193359375 -9999 -9999 -9999 79.056610107421875 100.5117340087890625 130.465850830078125 168.768951416015625 274.197418212890625 536.8076171875 787.5482177734375 490.874542236328125 159.85235595703125 154.10003662109375 118.45717620849609375 98.761993408203125 113.5395050048828125 105.31565093994140625 85.32752227783203125 -9999 -9999 76.513824462890625 134.9318084716796875 324.008544921875 317.203338623046875 414.00592041015625 432.453857421875 640.624267578125 871.74102783203125 912.508056640625 871.3302001953125 706.6326904296875 856.05621337890625 686.50714111328125 213.603729248046875 141.4517669677734375 169.5972137451171875 158.258453369140625 259.597808837890625 553.22369384765625 849.95452880859375 837.50103759765625 716.116943359375 672.2127685546875 758.159912109375 895.29632568359375 856.1895751953125 756.26275634765625 666.600341796875 526.15460205078125 562.5755615234375 678.8465576171875 447.192169189453125 97.84650421142578125 71.86865997314453125 71.02544403076171875 68.05532073974609375 88.706878662109375 80.52838897705078125 91.766387939453125 131.6694183349609375 136.22265625 86.8437042236328125 82.40729522705078125 68.47260284423828125 -9999 66.455108642578125 73.20326995849609375 69.43761444091796875 66.090484619140625 66.66690826416015625 65.99582672119140625 -9999 -9999 66.6087799072265625 -9999 -9999 -9999 -9999 -9999 -9999 -9999 -9999 -9999 -9999 -9999 -9999 -9999 
-9999 -9999 -9999 -9999 -9999 -9999 -9999 -9999 -9999 -9999 -9999 -9999 -9999 -9999 -9999 -9999 -9999 -9999 -9999 -9999 -9999 -9999 -9999 65.81676483154296875 -9999 66.77191925048828125 -9999 -9999 -9999 -9999 -9999 103.58812713623046875 177.5111236572265625 244.649810791015625 555.56011962890625 448.940093994140625 350.56591796875 127.55181884765625 -9999 -9999 -9999 66.8092041015625 68.5080108642578125 89.9900665283203125 84.30992889404296875 74.6096649169921875 89.78969573974609375 282.83306884765625 786.0467529296875 885.9007568359375 587.68048095703125 362.5279541015625 362.534637451171875 180.1227569580078125 84.3460693359375 92.64955902099609375 72.51807403564453125 70.9550628662109375 -9999 -9999 -9999 113.67057037353515625 218.205169677734375 138.0298614501953125 188.6809539794921875 366.93890380859375 635.98052978515625 869.53363037109375 951.6773681640625 915.437744140625 900.52960205078125 874.6707763671875 671.41314697265625 383.181610107421875 156.887786865234375 121.9996185302734375 220.89727783203125 547.653076171875 811.91644287109375 917.34423828125 831.62664794921875 608.1983642578125 773.23809814453125 847.46795654296875 834.8184814453125 771.5023193359375 666.488037109375 373.3990478515625 114.384979248046875 271.463470458984375 604.05792236328125 564.26641845703125 156.054412841796875 64.2154998779296875 -9999 65.87683868408203125 69.79979705810546875 68.95590972900390625 75.2556610107421875 110.56121063232421875 106.09365081787109375 98.13797760009765625 96.18389129638671875 74.79006195068359375 -9999 -9999 66.19289398193359375 68.07024383544921875 65.66583251953125 66.26297760009765625 -9999 -9999 -9999 66.882843017578125 -9999 -9999 -9999 -9999 -9999 -9999 -9999 -9999 -9999 -9999 -9999 -9999 -9999 
66.064300537109375 -9999 -9999 -9999 -9999 -9999 -9999 -9999 -9999 -9999 -9999 -9999 -9999 -9999 -9999 -9999 67.17099761962890625 -9999 -9999 -9999 -9999 -9999 -9999 -9999 -9999 -9999 -9999 -9999 -9999 -9999 -9999 89.5587005615234375 96.88780975341796875 98.14461517333984375 390.1885986328125 677.1307373046875 629.9539794921875 147.033050537109375 1 -9999 65.83383941650390625 66.240142822265625 67.01851654052734375 72.55060577392578125 73.902252197265625 69.434814453125 83.5965576171875 236.37188720703125 557.50665283203125 591.47515869140625 402.9290771484375 195.67486572265625 146.8430938720703125 80.1790313720703125 71.67726898193359375 67.57103729248046875 -9999 66.3592376708984375 71.81339263916015625 68.347412109375 72.51435089111328125 76.91066741943359375 102.3345794677734375 117.71762847900390625 165.3415679931640625 303.1336669921875 690.72088623046875 897.05108642578125 934.8612060546875 890.63604736328125 911.7255859375 779.0523681640625 371.482696533203125 156.9543914794921875 61.537433624267578125 -9999 284.926971435546875 601.845947265625 778.7764892578125 904.263916015625 757.8533935546875 688.55438232421875 798.86376953125 748.94830322265625 585.02117919921875 630.67840576171875 478.228485107421875 94.90621185302734375 -9999 162.9632720947265625 427.083282470703125 458.298583984375 362.608917236328125 114.80286407470703125 22.353450775146484375 -9999 -9999 -9999 68.53855133056640625 86.27696990966796875 106.67049407958984375 110.46851348876953125 102.1042327880859375 70.561981201171875 69.3532257080078125 67.61498260498046875 66.61419677734375 66.6068572998046875 -9999 66.5616912841796875 -9999 -9999 -9999 -9999 -9999 -9999 -9999 -9999 -9999 -9999 -9999 -9999 -9999 -9999 -9999 -9999 -9999 
-9999 -9999 -9999 -9999 -9999 -9999 -9999 -9999 -9999 -9999 -9999 -9999 -9999 -9999 -9999 -9999 -9999 -9999 -9999 -9999 -9999 -9999 -9999 -9999 -9999 -9999 -9999 -9999 -9999 -9999 -9999 -9999 68.4115753173828125 82.87290191650390625 340.65625 555.2518310546875 560.28680419921875 342.21661376953125 162.1175384521484375 106.28617095947265625 66.4243011474609375 -9999 67.053436279296875 -9999 -9999 -9999 76.02663421630859375 100.56363677978515625 194.652587890625 175.3852691650390625 103.51621246337890625 72.671142578125 70.67287445068359375 77.56616973876953125 73.00899505615234375 66.088623046875 -9999 71.56215667724609375 77.27962493896484375 71.47576141357421875 77.82767486572265625 -9999 70.0979766845703125 112.05462646484375 178.9003143310546875 259.840301513671875 667.18609619140625 841.50836181640625 909.6541748046875 869.59271240234375 809.02740478515625 578.913818359375 208.1860809326171875 86.23712921142578125 65.08331298828125 69.00466156005859375 245.732147216796875 571.32464599609375 807.239990234375 783.70794677734375 617.5384521484375 724.44781494140625 719.7135009765625 597.79266357421875 408.155242919921875 255.938323974609375 98.2434844970703125 -9999 116.63703155517578125 232.30511474609375 294.277099609375 339.406829833984375 235.1118621826171875 102.41579437255859375 65.7282562255859375 65.8333587646484375 -9999 70.56572723388671875 67.97161865234375 77.86623382568359375 102.0396270751953125 107.31992340087890625 90.1649627685546875 90.91729736328125 76.40149688720703125 74.22171783447265625 68.513580322265625 -9999 -9999 66.0062255859375 -9999 -9999 -9999 -9999 -9999 -9999 -9999 -9999 -9999 -9999 -9999 -9999 -9999 -9999 -9999 -9999 -9999 
-9999 -9999 -9999 -9999 -9999 -9999 -9999 -9999 -9999 -9999 -9999 -9999 -9999 -9999 -9999 -9999 -9999 -9999 -9999 -9999 -9999 -9999 -9999 -9999 -9999 -9999 -9999 -9999 70.1793975830078125 70.03319549560546875 -9999 -9999 68.3015594482421875 81.64874267578125 227.644012451171875 250.629638671875 323.803955078125 328.69891357421875 174.4847564697265625 88.962615966796875 69.21463775634765625 67.48238372802734375 71.113739013671875 83.07932281494140625 72.16387939453125 67.9814453125 82.43697357177734375 90.31435394287109375 163.9269866943359375 106.10901641845703125 78.9845123291015625 78.9728240966796875 68.7241058349609375 76.2577056884765625 68.3568267822265625 -9999 67.09522247314453125 69.32004547119140625 70.61997222900390625 80.12549591064453125 70.58190155029296875 68.0713958740234375 -9999 80.44195556640625 114.913055419921875 170.100494384765625 341.18280029296875 444.966644287109375 834.1080322265625 889.26629638671875 713.71588134765625 303.093231201171875 94.1174163818359375 75.40061187744140625 124.313140869140625 125.8041229248046875 201.412872314453125 437.5582275390625 684.93487548828125 563.690673828125 418.4212646484375 481.07159423828125 538.27435302734375 234.946075439453125 80.0341033935546875 -9999 79.31937408447265625 45.8922882080078125 328.729034423828125 514.06890869140625 357.400421142578125 221.2912139892578125 89.42813873291015625 67.463653564453125 65.99416351318359375 66.08162689208984375 -9999 -9999 66.40460968017578125 68.75626373291015625 88.602783203125 103.6754150390625 73.95735931396484375 83.0941314697265625 74.68474578857421875 69.23052978515625 69.035003662109375 72.6589813232421875 95.8442535400390625 -9999 -9999 -9999 -9999 -9999 -9999 -9999 -9999 -9999 -9999 -9999 -9999 -9999 -9999 -9999 -9999 -9999 -9999 
-9999 -9999 -9999 -9999 -9999 -9999 -9999 -9999 -9999 -9999 -9999 -9999 -9999 -9999 -9999 -9999 -9999 -9999 -9999 -9999 -9999 -9999 -9999 -9999 -9999 -9999 -9999 -9999 84.03646087646484375 79.1275787353515625 -9999 -9999 69.7655792236328125 75.901123046875 106.10668182373046875 96.9686737060546875 145.54718017578125 189.2821044921875 124.50295257568359375 77.6374664306640625 69.102752685546875 84.47820281982421875 122.4168701171875 126.52639007568359375 124.44872283935546875 102.87686920166015625 72.986419677734375 65.92588043212890625 71.78456878662109375 67.93881988525390625 82.3347930908203125 80.216888427734375 66.47393798828125 -9999 -9999 71.21884918212890625 80.114654541015625 97.2238006591796875 92.9788665771484375 70.26136016845703125 66.36342620849609375 67.2225189208984375 -9999 77.1493682861328125 96.67608642578125 121.76399993896484375 215.5709228515625 459.467071533203125 745.75604248046875 809.1922607421875 610.65521240234375 316.073150634765625 92.35958099365234375 79.73473358154296875 117.52825164794921875 123.54448699951171875 200.940277099609375 426.8170166015625 397.016693115234375 201.59759521484375 110.344024658203125 188.6079254150390625 284.55126953125 157.1110687255859375 67.58351898193359375 97.43462371826171875 293.513031005859375 527.88525390625 542.21044921875 494.51287841796875 298.61676025390625 98.455780029296875 67.04598236083984375 66.7606353759765625 66.91318511962890625 67.12300872802734375 66.9076995849609375 -9999 69.478607177734375 68.6829833984375 72.421234130859375 110.71012115478515625 80.0275115966796875 -9999 67.2435455322265625 66.54087066650390625 72.459075927734375 69.06330108642578125 66.094970703125 67.5185089111328125 -9999 -9999 -9999 -9999 -9999 -9999 -9999 -9999 -9999 -9999 -9999 -9999 -9999 -9999 -9999 -9999 -9999 
-9999 -9999 -9999 -9999 -9999 -9999 -9999 -9999 -9999 -9999 -9999 -9999 -9999 -9999 -9999 -9999 -9999 -9999 -9999 66.5273590087890625 -9999 -9999 -9999 -9999 -9999 -9999 -9999 -9999 67.03545379638671875 74.9066162109375 -9999 66.78731536865234375 66.29299163818359375 67.71964263916015625 67.03878021240234375 69.0133514404296875 117.975128173828125 152.4851837158203125 92.4878997802734375 74.88187408447265625 67.2116241455078125 76.41458892822265625 129.911285400390625 172.56304931640625 156.80328369140625 148.0962066650390625 81.776947021484375 -9999 -9999 -9999 -9999 -9999 -9999 81.95458221435546875 81.45226287841796875 90.75087738037109375 76.85345458984375 101.0811004638671875 91.75986480712890625 68.52896881103515625 66.05368804931640625 67.319793701171875 90.27997589111328125 81.93218231201171875 70.9951629638671875 71.98682403564453125 101.98178863525390625 351.283599853515625 619.77252197265625 634.13275146484375 315.534088134765625 171.575164794921875 97.03296661376953125 123.4360809326171875 105.032684326171875 89.5785064697265625 190.4114227294921875 210.590911865234375 107.24161529541015625 70.04852294921875 67.5509490966796875 122.514495849609375 229.17193603515625 258.173583984375 156.8984527587890625 247.2719268798828125 371.53765869140625 528.97955322265625 610.41217041015625 257.584869384765625 108.91918182373046875 66.9727783203125 66.6181182861328125 67.664215087890625 66.22467803955078125 66.2305755615234375 68.75568389892578125 66.4446258544921875 70.68283843994140625 70.13547515869140625 67.87441253662109375 85.75179290771484375 83.500030517578125 67.41599273681640625 69.4492340087890625 71.2675628662109375 70.4915924072265625 66.27518463134765625 65.8968505859375 -9999 -9999 -9999 -9999 -9999 -9999 -9999 -9999 -9999 -9999 -9999 -9999 -9999 -9999 -9999 -9999 -9999 -9999 
-9999 -9999 -9999 -9999 -9999 -9999 -9999 -9999 -9999 -9999 -9999 -9999 -9999 -9999 -9999 -9999 -9999 -9999 -9999 -9999 -9999 -9999 -9999 -9999 -9999 -9999 -9999 -9999 -9999 -9999 -9999 -9999 -9999 -9999 -9999 67.06522369384765625 87.5088958740234375 101.054351806640625 86.52350616455078125 73.919097900390625 66.97710418701171875 -9999 81.8104400634765625 91.9420928955078125 82.94022369384765625 90.716064453125 71.6668243408203125 -9999 -9999 -9999 -9999 66.35356903076171875 68.662872314453125 85.090606689453125 79.4694366455078125 71.03397369384765625 66.57634735107421875 68.2402801513671875 68.59346771240234375 67.0069732666015625 65.99932861328125 -9999 69.88105010986328125 68.920623779296875 66.36618804931640625 -9999 67.98500823974609375 184.524871826171875 497.50408935546875 537.37420654296875 192.9792633056640625 121.31600189208984375 127.26209259033203125 101.73867034912109375 72.6827545166015625 81.30927276611328125 135.5950164794921875 98.5880279541015625 78.51641845703125 74.03258514404296875 65.87087249755859375 -9999 106.3865203857421875 172.0681610107421875 249.926788330078125 520.03399658203125 483.96710205078125 480.71807861328125 376.04534912109375 115.30507659912109375 68.2503204345703125 66.76483154296875 68.049346923828125 70.02459716796875 71.06658172607421875 -9999 72.82782745361328125 75.44834136962890625 75.54093170166015625 75.171142578125 67.1417999267578125 -9999 69.64288330078125 81.17623138427734375 103.356597900390625 104.86110687255859375 74.29451751708984375 -9999 67.12482452392578125 -9999 -9999 -9999 -9999 -9999 -9999 -9999 -9999 -9999 -9999 -9999 -9999 -9999 -9999 -9999 -9999 -9999 -9999 
-9999 -9999 -9999 -9999 -9999 -9999 -9999 -9999 -9999 -9999 -9999 -9999 -9999 -9999 -9999 -9999 -9999 -9999 -9999 -9999 -9999 -9999 -9999 -9999 -9999 -9999 -9999 -9999 -9999 -9999 -9999 -9999 -9999 -9999 -9999 -9999 67.8235321044921875 73.3503570556640625 88.15872955322265625 72.2870025634765625 -9999 -9999 -9999 -9999 -9999 -9999 -9999 -9999 -9999 -9999 -9999 -9999 66.2957305908203125 68.2184906005859375 67.3986053466796875 -9999 -9999 66.2491455078125 66.96302032470703125 66.69797515869140625 66.58495330810546875 -9999 -9999 -9999 -9999 65.4859161376953125 -9999 119.86370849609375 294.427490234375 181.934356689453125 95.3869476318359375 102.85466766357421875 85.582489013671875 68.558868408203125 66.2008209228515625 72.02519989013671875 76.41434478759765625 68.18677520751953125 69.64006805419921875 72.19586181640625 66.42646026611328125 -9999 85.97699737548828125 129.8268280029296875 274.00067138671875 434.837646484375 430.840850830078125 323.820465087890625 103.8959197998046875 69.3145599365234375 68.54514312744140625 -9999 74.3794403076171875 -9999 72.87511444091796875 67.96892547607421875 80.24355316162109375 106.70272064208984375 108.2938232421875 120.19823455810546875 99.6714324951171875 85.04497528076171875 96.88985443115234375 145.3465728759765625 117.11472320556640625 100.8204193115234375 86.1767120361328125 68.5518798828125 -9999 -9999 -9999 66.573333740234375 66.54492950439453125 -9999 -9999 -9999 -9999 -9999 65.818115234375 -9999 -9999 -9999 -9999 -9999 -9999 -9999 -9999 
-9999 -9999 -9999 -9999 -9999 -9999 -9999 -9999 -9999 -9999 -9999 -9999 -9999 -9999 -9999 -9999 -9999 -9999 -9999 -9999 -9999 -9999 -9999 -9999 -9999 -9999 -9999 -9999 -9999 -9999 66.363067626953125 -9999 -9999 -9999 -9999 -9999 -9999 67.5342559814453125 71.18711090087890625 67.566558837890625 -9999 -9999 -9999 -9999 -9999 -9999 -9999 -9999 -9999 -9999 -9999 -9999 -9999 66.90576171875 -9999 -9999 -9999 -9999 -9999 -9999 -9999 66.61057281494140625 66.219512939453125 66.34548187255859375 66.11566162109375 -9999 63.821865081787109375 81.6284637451171875 79.69382476806640625 69.4341888427734375 76.07350921630859375 76.29100799560546875 67.36751556396484375 65.92751312255859375 67.1212158203125 76.54740142822265625 88.80828094482421875 75.14333343505859375 68.911163330078125 -9999 -9999 65.99059295654296875 68.04553985595703125 83.37277984619140625 87.5880279541015625 107.855316162109375 96.04021453857421875 80.02884674072265625 70.4208831787109375 69.49062347412109375 69.23805999755859375 -9999 75.5041046142578125 71.76197052001953125 72.91638946533203125 70.3624725341796875 81.86100006103515625 111.16670989990234375 118.7538909912109375 137.9447784423828125 141.1474151611328125 203.0886383056640625 203.0432281494140625 182.26495361328125 113.07865142822265625 75.38330078125 67.65212249755859375 66.88427734375 -9999 66.0832366943359375 -9999 -9999 -9999 -9999 -9999 -9999 -9999 -9999 -9999 -9999 -9999 -9999 -9999 -9999 -9999 -9999 -9999 
-9999 -9999 -9999 -9999 -9999 -9999 -9999 -9999 -9999 -9999 -9999 -9999 -9999 -9999 -9999 -9999 -9999 -9999 -9999 -9999 -9999 -9999 -9999 -9999 -9999 -9999 -9999 -9999 -9999 -9999 -9999 -9999 -9999 -9999 -9999 -9999 -9999 -9999 -9999 -9999 -9999 -9999 -9999 -9999 -9999 -9999 -9999 -9999 -9999 -9999 -9999 -9999 -9999 -9999 -9999 -9999 -9999 -9999 -9999 -9999 -9999 66.39368438720703125 66.165985107421875 66.876190185546875 71.16497802734375 -9999 66.44573211669921875 75.28011322021484375 152.118438720703125 174.2201385498046875 204.793182373046875 170.7617034912109375 83.0179901123046875 -9999 69.403350830078125 107.1514892578125 160.750823974609375 92.91139984130859375 -9999 -9999 66.5014801025390625 65.87693023681640625 65.11241912841796875 191.3408660888671875 192.6768035888671875 112.9917449951171875 85.11438751220703125 73.244171142578125 79.93243408203125 81.5334320068359375 75.9117279052734375 66.5744476318359375 70.66204833984375 68.74698638916015625 69.3826751708984375 74.97076416015625 82.48973846435546875 99.243072509765625 153.8847198486328125 141.910430908203125 121.4885711669921875 141.5177154541015625 109.9804840087890625 74.56121826171875 71.479949951171875 85.5686492919921875 77.8580169677734375 70.0004730224609375 67.01381683349609375 66.63982391357421875 -9999 -9999 -9999 -9999 65.9152374267578125 66.3681793212890625 -9999 -9999 -9999 -9999 -9999 -9999 -9999 -9999 -9999 -9999 -9999 
-9999 -9999 -9999 -9999 -9999 -9999 -9999 -9999 -9999 -9999 -9999 -9999 -9999 -9999 -9999 -9999 -9999 -9999 -9999 -9999 -9999 -9999 -9999 -9999 -9999 -9999 -9999 -9999 -9999 -9999 -9999 -9999 -9999 -9999 -9999 -9999 -9999 -9999 -9999 -9999 -9999 -9999 -9999 -9999 -9999 -9999 -9999 -9999 -9999 -9999 -9999 -9999 -9999 -9999 -9999 -9999 66.00789642333984375 -9999 -9999 -9999 -9999 66.4701385498046875 68.82550048828125 68.41611480712890625 80.798095703125 -9999 -9999 60.932147979736328125 124.16689300537109375 244.37176513671875 290.96087646484375 257.628143310546875 105.15357208251953125 -9999 75.53546905517578125 85.1520538330078125 94.407379150390625 74.91461181640625 -9999 67.03948211669921875 67.36556243896484375 -9999 161.4470367431640625 447.5931396484375 492.210845947265625 302.83892822265625 102.5566864013671875 74.493133544921875 97.35951995849609375 83.50209808349609375 79.64087677001953125 70.53771209716796875 69.238861083984375 69.85935211181640625 70.7769927978515625 67.00560760498046875 78.7845611572265625 77.62111663818359375 105.1295013427734375 141.018768310546875 143.137969970703125 146.9197998046875 107.71624755859375 66.79093170166015625 65.6537628173828125 83.0648956298828125 122.8674163818359375 131.0023651123046875 84.4860992431640625 67.89173126220703125 66.9266357421875 -9999 -9999 -9999 66.500396728515625 68.02005767822265625 66.61594390869140625 -9999 -9999 -9999 -9999 66.01578521728515625 -9999 -9999 -9999 -9999 -9999 
-9999 -9999 -9999 -9999 -9999 -9999 -9999 -9999 -9999 -9999 -9999 -9999 -9999 -9999 -9999 -9999 -9999 -9999 -9999 -9999 -9999 -9999 -9999 -9999 -9999 -9999 -9999 -9999 -9999 -9999 -9999 68.52875518798828125 -9999 -9999 -9999 -9999 -9999 -9999 -9999 -9999 -9999 -9999 -9999 -9999 -9999 -9999 -9999 -9999 -9999 -9999 -9999 -9999 -9999 -9999 -9999 -9999 -9999 -9999 -9999 -9999 -9999 -9999 -9999 -9999 72.01192474365234375 76.04590606689453125 -9999 -9999 68.8476409912109375 100.64520263671875 144.4583892822265625 139.598846435546875 -9999 70.34813690185546875 105.745697021484375 87.2821807861328125 70.76509857177734375 -9999 67.69228363037109375 68.31597900390625 68.969940185546875 67.2510223388671875 136.657928466796875 326.10955810546875 415.525909423828125 337.29022216796875 121.33826446533203125 98.66100311279296875 135.4110260009765625 81.70703887939453125 68.61333465576171875 78.33896636962890625 77.223297119140625 73.83966827392578125 70.4214019775390625 67.463134765625 77.9859771728515625 75.50801849365234375 77.21002197265625 92.1979522705078125 150.9286651611328125 152.8141937255859375 108.8619384765625 90.56127166748046875 78.7246856689453125 85.31976318359375 128.886383056640625 161.2026824951171875 122.18050384521484375 75.346954345703125 73.825164794921875 71.6922760009765625 67.811737060546875 68.03870391845703125 65.76834869384765625 -9999 66.08533477783203125 67.8753662109375 66.54157257080078125 -9999 66.36447906494140625 67.30236053466796875 -9999 -9999 -9999 66.3946685791015625 66.20526123046875 
-9999 -9999 -9999 -9999 -9999 -9999 -9999 -9999 -9999 -9999 -9999 -9999 -9999 -9999 -9999 -9999 -9999 -9999 -9999 -9999 -9999 -9999 -9999 -9999 -9999 -9999 -9999 -9999 -9999 -9999 -9999 70.29128265380859375 -9999 -9999 -9999 -9999 -9999 -9999 69.11862945556640625 -9999 -9999 -9999 -9999 -9999 -9999 -9999 66.68643951416015625 -9999 -9999 -9999 -9999 -9999 -9999 -9999 -9999 -9999 -9999 -9999 -9999 -9999 -9999 -9999 -9999 -9999 -9999 -9999 77.95603179931640625 -9999 -9999 75.33080291748046875 86.2998199462890625 -9999 -9999 68.483489990234375 78.75966644287109375 72.04511260986328125 66.32297515869140625 -9999 -9999 -9999 65.7612457275390625 89.78515625 252.95941162109375 389.8443603515625 397.113006591796875 312.58685302734375 141.8685150146484375 132.9247283935546875 117.73299407958984375 115.3899688720703125 79.3795623779296875 74.92087554931640625 74.63299560546875 82.9598541259765625 76.23036956787109375 81.3046417236328125 81.3313751220703125 69.7164154052734375 76.1300048828125 83.42116546630859375 115.9765472412109375 93.58889007568359375 78.322113037109375 182.686370849609375 190.39703369140625 109.32038116455078125 113.09039306640625 124.721343994140625 94.88006591796875 75.20247650146484375 68.97258758544921875 70.10117340087890625 72.03163909912109375 76.9261627197265625 69.7572174072265625 72.87109375 70.23186492919921875 66.974639892578125 66.380126953125 66.5716705322265625 67.023223876953125 67.16510772705078125 65.8963470458984375 66.06180572509765625 66.08502197265625 66.68907928466796875 -9999 
-9999 -9999 -9999 -9999 -9999 -9999 -9999 -9999 -9999 -9999 -9999 -9999 -9999 -9999 -9999 -9999 -9999 -9999 -9999 -9999 -9999 -9999 -9999 -9999 -9999 -9999 -9999 -9999 -9999 -9999 -9999 -9999 72.8774261474609375 -9999 -9999 -9999 -9999 -9999 -9999 -9999 -9999 -9999 -9999 -9999 -9999 -9999 -9999 -9999 -9999 -9999 -9999 -9999 -9999 -9999 -9999 -9999 -9999 -9999 -9999 -9999 -9999 -9999 -9999 65.81658935546875 65.81662750244140625 -9999 85.44503021240234375 97.01895904541015625 73.47795867919921875 70.31983184814453125 -9999 -9999 -9999 68.9547119140625 72.71408843994140625 67.2944793701171875 66.13299560546875 66.315216064453125 -9999 -9999 -9999 72.4295806884765625 303.243743896484375 354.8271484375 308.8603515625 329.364471435546875 199.289154052734375 158.777069091796875 117.8346099853515625 118.59183502197265625 114.00335693359375 78.9668731689453125 68.5381011962890625 109.96593475341796875 194.7490997314453125 242.4331512451171875 202.84149169921875 111.86724853515625 89.908660888671875 85.68332672119140625 79.65810394287109375 67.9932861328125 68.33011627197265625 127.3958282470703125 117.535369873046875 82.3463592529296875 88.4173431396484375 83.4629974365234375 73.654754638671875 77.88202667236328125 72.24852752685546875 -9999 -9999 67.7484588623046875 78.18941497802734375 104.2699737548828125 86.06934356689453125 77.4219207763671875 68.67386627197265625 67.62223052978515625 69.34340667724609375 67.9347991943359375 -9999 -9999 66.54030609130859375 -9999 -9999 
-9999 -9999 -9999 -9999 -9999 -9999 -9999 -9999 -9999 -9999 -9999 -9999 -9999 -9999 -9999 -9999 -9999 -9999 -9999 -9999 -9999 -9999 -9999 -9999 -9999 -9999 -9999 -9999 -9999 -9999 -9999 -9999 -9999 66.6995086669921875 66.29824066162109375 -9999 -9999 -9999 -9999 -9999 -9999 -9999 -9999 -9999 -9999 -9999 -9999 -9999 -9999 -9999 -9999 -9999 -9999 -9999 -9999 -9999 -9999 -9999 -9999 -9999 -9999 -9999 -9999 -9999 -9999 -9999 -9999 -9999 71.44269561767578125 68.53839874267578125 -9999 -9999 -9999 -9999 68.28737640380859375 67.92203521728515625 68.25370025634765625 -9999 -9999 -9999 -9999 79.9022979736328125 166.5788421630859375 139.3801727294921875 106.659515380859375 177.4952850341796875 185.4383087158203125 151.1734771728515625 120.0715179443359375 134.1276702880859375 104.3341217041015625 73.2539825439453125 67.1000518798828125 116.84780120849609375 288.149566650390625 392.323760986328125 323.35400390625 188.9578857421875 185.5060272216796875 175.339508056640625 73.2000885009765625 65.71610260009765625 99.87723541259765625 204.436187744140625 92.50234222412109375 66.5097808837890625 69.56707763671875 67.5386505126953125 -9999 -9999 70.13774871826171875 78.775299072265625 67.81676483154296875 67.031280517578125 68.75783538818359375 76.47182464599609375 71.072967529296875 68.4361572265625 70.32781982421875 68.1183013916015625 70.4619598388671875 66.8870849609375 -9999 -9999 -9999 -9999 -9999 
-9999 -9999 -9999 -9999 -9999 -9999 -9999 -9999 -9999 -9999 -9999 -9999 -9999 -9999 -9999 -9999 -9999 -9999 -9999 -9999 -9999 -9999 -9999 -9999 -9999 -9999 -9999 -9999 -9999 -9999 -9999 -9999 -9999 68.6531982421875 67.93316650390625 -9999 -9999 -9999 -9999 -9999 -9999 -9999 -9999 -9999 -9999 -9999 -9999 -9999 -9999 -9999 -9999 -9999 -9999 -9999 -9999 -9999 -9999 -9999 -9999 -9999 -9999 -9999 -9999 -9999 -9999 -9999 -9999 -9999 -9999 -9999 -9999 -9999 -9999 -9999 -9999 67.135406494140625 68.44077301025390625 68.66965484619140625 67.748291015625 -9999 -9999 77.77484130859375 89.4092864990234375 77.39319610595703125 81.76795196533203125 80.24721527099609375 126.25656890869140625 129.2088470458984375 116.318389892578125 103.65740966796875 70.0739898681640625 68.5592193603515625 73.13018798828125 174.6474761962890625 354.646575927734375 431.57379150390625 400.821441650390625 238.0503997802734375 256.109893798828125 239.5504150390625 89.6154327392578125 160.8167724609375 313.791717529296875 319.080047607421875 126.29366302490234375 70.160186767578125 72.75423431396484375 69.1135101318359375 -9999 66.4696044921875 67.9304351806640625 74.98626708984375 78.74301910400390625 70.62653350830078125 76.0247955322265625 76.3087005615234375 -9999 66.3843841552734375 67.7996826171875 66.60638427734375 69.20284271240234375 66.36234283447265625 -9999 -9999 65.8167266845703125 -9999 -9999 
-9999 -9999 -9999 -9999 -9999 -9999 -9999 -9999 -9999 -9999 -9999 -9999 -9999 -9999 -9999 -9999 -9999 -9999 -9999 -9999 -9999 -9999 -9999 -9999 -9999 -9999 -9999 -9999 -9999 -9999 -9999 -9999 -9999 66.64521026611328125 70.2486572265625 67.5548553466796875 -9999 -9999 -9999 65.99210357666015625 -9999 -9999 -9999 -9999 -9999 -9999 -9999 -9999 -9999 -9999 -9999 -9999 -9999 -9999 -9999 -9999 -9999 -9999 -9999 -9999 -9999 -9999 -9999 -9999 -9999 -9999 -9999 -9999 -9999 -9999 -9999 -9999 -9999 67.85202789306640625 70.89957427978515625 68.36090850830078125 67.84006500244140625 68.6916656494140625 -9999 65.43491363525390625 66.5473175048828125 69.43796539306640625 73.15944671630859375 71.15860748291015625 72.0902557373046875 69.5817413330078125 67.4212646484375 74.664306640625 78.1916351318359375 67.0161590576171875 -9999 66.0916748046875 81.4126129150390625 234.028106689453125 347.3575439453125 466.393218994140625 519.70904541015625 456.838348388671875 403.243316650390625 330.642333984375 234.4446563720703125 313.306610107421875 390.041900634765625 315.00860595703125 119.82662200927734375 86.3862762451171875 76.85889434814453125 69.6952056884765625 66.7907867431640625 67.00392913818359375 66.34673309326171875 66.6574554443359375 77.6192626953125 90.81179046630859375 78.88408660888671875 79.01003265380859375 68.3429107666015625 66.16375732421875 66.75702667236328125 67.18657684326171875 68.7673492431640625 77.529510498046875 66.16065216064453125 -9999 -9999 -9999 -9999 
-9999 -9999 -9999 -9999 -9999 -9999 -9999 -9999 -9999 -9999 -9999 -9999 -9999 -9999 -9999 -9999 -9999 -9999 -9999 -9999 -9999 -9999 -9999 -9999 -9999 -9999 -9999 -9999 -9999 -9999 -9999 -9999 -9999 -9999 -9999 74.42203521728515625 69.7293853759765625 -9999 -9999 -9999 -9999 -9999 -9999 -9999 -9999 -9999 -9999 -9999 -9999 -9999 -9999 -9999 -9999 -9999 -9999 -9999 -9999 -9999 -9999 -9999 -9999 66.491119384765625 -9999 -9999 -9999 -9999 -9999 -9999 -9999 -9999 -9999 -9999 -9999 67.58025360107421875 77.11590576171875 78.7853546142578125 71.6124114990234375 66.51538848876953125 66.13198089599609375 68.45166778564453125 72.10137176513671875 68.500518798828125 67.02808380126953125 67.80556488037109375 71.2045745849609375 72.3514251708984375 -9999 68.0733184814453125 66.750640869140625 65.998260498046875 66.54998016357421875 71.8934783935546875 95.57102203369140625 237.126312255859375 321.93426513671875 351.098388671875 399.263275146484375 465.14013671875 429.030364990234375 296.172454833984375 297.103424072265625 318.149078369140625 254.5083465576171875 146.2059478759765625 87.15915679931640625 95.3784637451171875 115.6858367919921875 92.62176513671875 67.00910186767578125 -9999 70.36324310302734375 -9999 67.73651123046875 88.7421875 87.616851806640625 77.76483154296875 66.99570465087890625 -9999 67.9483642578125 69.5463409423828125 71.9987335205078125 78.52435302734375 68.91180419921875 -9999 -9999 -9999 -9999 
-9999 -9999 -9999 -9999 -9999 -9999 -9999 -9999 -9999 -9999 -9999 -9999 -9999 -9999 -9999 -9999 -9999 -9999 -9999 -9999 -9999 -9999 -9999 -9999 -9999 -9999 -9999 -9999 -9999 -9999 -9999 -9999 -9999 -9999 -9999 77.45367431640625 73.436798095703125 66.054473876953125 66.10742950439453125 65.91393280029296875 -9999 -9999 -9999 -9999 -9999 -9999 -9999 -9999 -9999 -9999 -9999 -9999 -9999 -9999 -9999 -9999 -9999 -9999 -9999 -9999 -9999 -9999 -9999 -9999 -9999 -9999 -9999 -9999 -9999 -9999 -9999 -9999 -9999 66.41638946533203125 67.266265869140625 68.5270233154296875 70.5627593994140625 -9999 67.266998291015625 67.21460723876953125 68.11348724365234375 68.07745361328125 -9999 66.5733642578125 80.617706298828125 83.84078216552734375 67.84824371337890625 -9999 75.46273040771484375 72.07854461669921875 66.101531982421875 69.21258544921875 92.20899200439453125 134.243072509765625 187.8184356689453125 193.7547607421875 226.536468505859375 296.256317138671875 223.7875518798828125 222.56304931640625 309.054962158203125 303.3372802734375 276.1475830078125 116.37529754638671875 93.47900390625 120.23851776123046875 125.647125244140625 103.51403045654296875 70.1670074462890625 -9999 -9999 -9999 66.10218048095703125 68.75434112548828125 77.068634033203125 72.60820770263671875 68.4394378662109375 69.7215423583984375 -9999 -9999 -9999 66.7982940673828125 67.331878662109375 71.25273895263671875 -9999 -9999 -9999 
-9999 -9999 -9999 -9999 -9999 -9999 -9999 -9999 -9999 -9999 -9999 -9999 -9999 -9999 -9999 -9999 -9999 -9999 -9999 -9999 -9999 -9999 -9999 -9999 -9999 -9999 -9999 -9999 -9999 -9999 -9999 -9999 -9999 -9999 70.19983673095703125 67.6760101318359375 67.84178924560546875 67.28647613525390625 66.53316497802734375 66.0604095458984375 -9999 -9999 -9999 -9999 -9999 -9999 -9999 -9999 -9999 -9999 -9999 -9999 -9999 -9999 -9999 -9999 -9999 -9999 -9999 -9999 -9999 -9999 -9999 -9999 -9999 -9999 -9999 -9999 -9999 -9999 -9999 -9999 -9999 67.57379913330078125 -9999 -9999 -9999 -9999 67.51000213623046875 71.786865234375 67.611328125 -9999 -9999 67.28099822998046875 77.80075836181640625 75.346710205078125 73.25727081298828125 81.0113983154296875 72.3271636962890625 69.2205047607421875 67.43451690673828125 69.68178558349609375 80.8190765380859375 97.98007965087890625 125.2404937744140625 135.6964569091796875 107.97159576416015625 158.0915374755859375 198.9058074951171875 154.5975189208984375 129.3058929443359375 110.0900115966796875 110.56876373291015625 85.4242401123046875 71.9859619140625 70.605010986328125 77.3717041015625 83.53984832763671875 73.9296417236328125 67.31522369384765625 66.39267730712890625 66.3072509765625 66.2222442626953125 66.01845550537109375 -9999 72.7315521240234375 84.12061309814453125 86.1350555419921875 -9999 -9999 -9999 67.03777313232421875 -9999 -9999 -9999 -9999 -9999 
-9999 -9999 -9999 -9999 -9999 -9999 -9999 -9999 -9999 -9999 -9999 -9999 -9999 -9999 -9999 -9999 -9999 -9999 -9999 -9999 -9999 -9999 -9999 -9999 -9999 -9999 -9999 -9999 -9999 -9999 -9999 -9999 -9999 -9999 66.53863525390625 -9999 66.6036224365234375 68.47332000732421875 68.31970977783203125 -9999 66.753204345703125 -9999 -9999 -9999 -9999 -9999 -9999 -9999 -9999 -9999 -9999 -9999 -9999 -9999 -9999 -9999 -9999 -9999 -9999 -9999 -9999 -9999 -9999 -9999 -9999 -9999 -9999 -9999 -9999 -9999 -9999 -9999 -9999 -9999 -9999 -9999 -9999 -9999 67.9423065185546875 76.96121978759765625 70.7090301513671875 -9999 -9999 -9999 68.56804656982421875 -9999 84.36063385009765625 185.9602508544921875 163.7350616455078125 124.127349853515625 86.720977783203125 82.889007568359375 84.086456298828125 101.821990966796875 83.4492340087890625 143.342864990234375 184.4031829833984375 212.6884307861328125 123.07950592041015625 68.18013763427734375 66.839385986328125 67.5507354736328125 65.387969970703125 80.2312469482421875 109.729522705078125 98.70343017578125 109.240966796875 112.5832366943359375 72.099395751953125 69.26924896240234375 -9999 74.470367431640625 -9999 71.6945343017578125 72.80789947509765625 84.84551239013671875 122.60515594482421875 116.1920928955078125 -9999 67.75182342529296875 -9999 -9999 -9999 -9999 -9999 -9999 -9999 
-9999 -9999 -9999 -9999 -9999 -9999 -9999 -9999 -9999 -9999 -9999 -9999 -9999 -9999 -9999 -9999 -9999 -9999 -9999 -9999 -9999 -9999 -9999 -9999 -9999 -9999 -9999 -9999 -9999 -9999 -9999 -9999 -9999 -9999 -9999 -9999 -9999 -9999 68.98509979248046875 -9999 -9999 65.93613433837890625 -9999 67.59734344482421875 67.06938934326171875 -9999 -9999 -9999 -9999 -9999 -9999 -9999 -9999 -9999 -9999 -9999 -9999 -9999 -9999 -9999 66.43688201904296875 -9999 -9999 -9999 -9999 -9999 -9999 -9999 -9999 -9999 65.90494537353515625 -9999 -9999 -9999 -9999 -9999 -9999 -9999 -9999 68.321319580078125 68.05413818359375 -9999 -9999 -9999 68.781646728515625 77.16625213623046875 153.717041015625 221.460296630859375 217.4224090576171875 159.5130767822265625 124.41664886474609375 169.1704559326171875 174.49871826171875 143.020050048828125 154.022064208984375 316.215728759765625 320.118927001953125 156.593109130859375 73.05443572998046875 67.9380340576171875 70.7849578857421875 79.060546875 61.455417633056640625 128.9216156005859375 204.58868408203125 192.3555145263671875 130.755950927734375 94.48735809326171875 68.92761993408203125 -9999 82.5948028564453125 115.16234588623046875 109.97772216796875 87.20119476318359375 91.7864990234375 107.99529266357421875 151.7093353271484375 102.690338134765625 66.89478302001953125 66.7520751953125 67.3401031494140625 67.6831512451171875 -9999 71.20800018310546875 -9999 -9999 -9999 
-9999 -9999 -9999 -9999 -9999 -9999 -9999 -9999 -9999 -9999 -9999 -9999 -9999 -9999 -9999 -9999 -9999 -9999 -9999 -9999 -9999 -9999 -9999 -9999 -9999 -9999 -9999 -9999 -9999 -9999 -9999 -9999 -9999 -9999 -9999 -9999 -9999 -9999 -9999 -9999 -9999 -9999 -9999 68.13231658935546875 67.76087188720703125 -9999 -9999 -9999 -9999 -9999 -9999 -9999 -9999 -9999 -9999 -9999 -9999 -9999 -9999 -9999 -9999 -9999 -9999 -9999 -9999 -9999 -9999 -9999 -9999 -9999 -9999 -9999 -9999 -9999 -9999 -9999 -9999 -9999 -9999 -9999 -9999 66.26537322998046875 68.9111328125 -9999 66.89031982421875 76.07483673095703125 116.9325714111328125 143.9742889404296875 149.601898193359375 125.1476898193359375 139.927947998046875 174.72637939453125 207.0337982177734375 191.686187744140625 294.41766357421875 340.209869384765625 319.84149169921875 136.10467529296875 68.4906768798828125 71.98912811279296875 121.95652008056640625 154.2421875 111.7076873779296875 108.1327362060546875 126.75943756103515625 115.64006805419921875 78.88089752197265625 67.79744720458984375 68.28560638427734375 66.68929290771484375 68.34252166748046875 83.4169769287109375 80.80710601806640625 70.390106201171875 68.623138427734375 73.04270172119140625 82.5007171630859375 70.91524505615234375 66.10422515869140625 66.2240447998046875 68.44310760498046875 67.22367095947265625 69.8285064697265625 73.79189300537109375 -9999 -9999 -9999 
-9999 -9999 66.80736541748046875 -9999 -9999 -9999 -9999 -9999 -9999 -9999 -9999 -9999 -9999 -9999 -9999 -9999 -9999 -9999 -9999 -9999 -9999 -9999 -9999 -9999 -9999 -9999 -9999 -9999 -9999 -9999 -9999 -9999 -9999 -9999 -9999 66.8966064453125 -9999 -9999 -9999 -9999 -9999 -9999 -9999 -9999 66.5427703857421875 66.7121429443359375 -9999 -9999 -9999 -9999 -9999 -9999 -9999 -9999 -9999 -9999 -9999 -9999 -9999 -9999 -9999 -9999 -9999 -9999 -9999 -9999 -9999 -9999 -9999 -9999 -9999 -9999 -9999 -9999 -9999 -9999 -9999 -9999 -9999 -9999 67.02326202392578125 67.2015533447265625 -9999 -9999 -9999 -9999 65.8657989501953125 66.47727203369140625 72.18111419677734375 77.63983154296875 91.28180694580078125 100.0163421630859375 89.35285186767578125 98.047027587890625 185.1338958740234375 181.4033203125 110.40576934814453125 98.6419219970703125 68.95481109619140625 72.078857421875 127.38945770263671875 141.9658660888671875 119.8925018310546875 94.7733154296875 75.9439697265625 72.66130828857421875 71.02208709716796875 75.96097564697265625 75.63980865478515625 67.5467681884765625 -9999 -9999 -9999 -9999 -9999 66.022369384765625 -9999 -9999 -9999 -9999 -9999 66.5687103271484375 67.67292022705078125 70.1967620849609375 -9999 -9999 -9999 
-9999 -9999 -9999 -9999 -9999 -9999 -9999 -9999 -9999 -9999 -9999 -9999 -9999 -9999 -9999 -9999 -9999 -9999 -9999 -9999 -9999 -9999 -9999 -9999 -9999 -9999 -9999 -9999 -9999 -9999 -9999 -9999 -9999 -9999 -9999 -9999 -9999 67.65663909912109375 -9999 -9999 -9999 -9999 -9999 -9999 66.96150970458984375 73.220001220703125 73.134033203125 67.554901123046875 -9999 -9999 -9999 -9999 -9999 -9999 -9999 -9999 -9999 -9999 -9999 -9999 -9999 -9999 -9999 -9999 -9999 -9999 -9999 -9999 -9999 -9999 -9999 -9999 -9999 -9999 -9999 -9999 67.26453399658203125 -9999 -9999 -9999 66.233612060546875 66.75359344482421875 67.167633056640625 67.82649993896484375 66.15213775634765625 -9999 -9999 66.1634674072265625 67.46309661865234375 68.1220855712890625 73.9854583740234375 87.2601470947265625 71.17783355712890625 68.942352294921875 76.24393463134765625 83.4452362060546875 89.8423004150390625 107.33946990966796875 77.789642333984375 84.84510040283203125 104.947113037109375 82.16095733642578125 91.35237884521484375 77.55817413330078125 -9999 -9999 65.9093475341796875 66.675384521484375 67.177764892578125 66.96971893310546875 -9999 82.454254150390625 -9999 -9999 -9999 65.98358917236328125 -9999 -9999 -9999 -9999 -9999 -9999 66.55532073974609375 68.23351287841796875 70.73148345947265625 -9999 -9999 
-9999 -9999 -9999 -9999 -9999 -9999 -9999 -9999 -9999 -9999 -9999 -9999 -9999 -9999 -9999 -9999 -9999 -9999 -9999 -9999 -9999 -9999 -9999 -9999 -9999 -9999 -9999 -9999 -9999 -9999 -9999 -9999 -9999 -9999 -9999 68.20507049560546875 -9999 -9999 -9999 -9999 -9999 -9999 -9999 -9999 -9999 67.13326263427734375 69.29500579833984375 -9999 -9999 -9999 -9999 -9999 -9999 -9999 -9999 -9999 -9999 -9999 -9999 -9999 -9999 -9999 -9999 -9999 -9999 -9999 -9999 -9999 -9999 -9999 -9999 -9999 -9999 -9999 -9999 66.66892242431640625 -9999 -9999 -9999 -9999 -9999 67.05820465087890625 67.49073028564453125 67.49568939208984375 67.148834228515625 -9999 -9999 67.39466094970703125 68.5841064453125 68.59735870361328125 67.59447479248046875 66.470672607421875 70.70943450927734375 72.06156158447265625 84.87751007080078125 83.8335113525390625 103.3017578125 124.99169921875 94.1984710693359375 147.63037109375 128.9040069580078125 95.716705322265625 77.83129119873046875 -9999 68.5178375244140625 -9999 -9999 65.912811279296875 -9999 67.115814208984375 70.1819610595703125 70.068817138671875 -9999 -9999 67.014739990234375 -9999 -9999 -9999 -9999 -9999 -9999 70.40276336669921875 67.9145660400390625 67.65369415283203125 70.36978912353515625 -9999 -9999 
-9999 -9999 -9999 -9999 -9999 -9999 -9999 -9999 -9999 -9999 -9999 -9999 -9999 -9999 -9999 -9999 -9999 -9999 -9999 -9999 -9999 -9999 -9999 -9999 -9999 -9999 -9999 -9999 -9999 -9999 -9999 -9999 -9999 -9999 -9999 -9999 -9999 -9999 -9999 -9999 -9999 -9999 -9999 -9999 -9999 -9999 -9999 -9999 -9999 -9999 -9999 -9999 -9999 -9999 -9999 -9999 -9999 -9999 -9999 -9999 -9999 -9999 -9999 65.84123992919921875 -9999 -9999 -9999 -9999 65.82323455810546875 -9999 -9999 -9999 -9999 -9999 -9999 -9999 -9999 -9999 -9999 -9999 69.1493682861328125 70.747344970703125 66.2044677734375 68.15648651123046875 67.63887786865234375 68.11675262451171875 65.9585113525390625 69.50423431396484375 67.75489044189453125 65.8933258056640625 65.95583343505859375 66.066680908203125 69.36966705322265625 68.37372589111328125 68.787384033203125 69.61098480224609375 74.48450469970703125 86.33782196044921875 134.9330596923828125 154.1582489013671875 102.48024749755859375 69.43830108642578125 -9999 -9999 -9999 -9999 -9999 -9999 -9999 67.7152862548828125 72.606536865234375 -9999 66.58948516845703125 65.980621337890625 67.1497039794921875 -9999 -9999 -9999 -9999 -9999 -9999 -9999 67.226226806640625 -9999 -9999 -9999 -9999 
-9999 -9999 -9999 -9999 -9999 -9999 -9999 -9999 -9999 -9999 -9999 -9999 -9999 -9999 -9999 -9999 -9999 -9999 -9999 -9999 -9999 -9999 -9999 -9999 -9999 -9999 -9999 -9999 -9999 68.86388397216796875 -9999 -9999 -9999 -9999 -9999 -9999 -9999 -9999 -9999 -9999 -9999 -9999 -9999 -9999 -9999 -9999 65.9998016357421875 66.36975860595703125 -9999 -9999 -9999 -9999 -9999 -9999 -9999 -9999 -9999 -9999 -9999 -9999 -9999 -9999 -9999 -9999 -9999 -9999 -9999 -9999 -9999 -9999 -9999 -9999 -9999 -9999 -9999 -9999 -9999 -9999 -9999 -9999 66.93741607666015625 69.17363739013671875 66.46309661865234375 69.71120452880859375 68.4015655517578125 66.36771392822265625 -9999 -9999 -9999 72.333770751953125 -9999 66.790802001953125 68.43807220458984375 72.1341094970703125 78.88135528564453125 -9999 67.54712677001953125 68.6339263916015625 86.0341033935546875 85.09243011474609375 74.0088958740234375 -9999 -9999 -9999 -9999 -9999 -9999 -9999 -9999 -9999 73.42078399658203125 69.8847198486328125 -9999 -9999 66.970062255859375 -9999 -9999 67.449951171875 66.475372314453125 -9999 -9999 -9999 -9999 -9999 -9999 -9999 -9999 
-9999 -9999 -9999 -9999 -9999 -9999 -9999 -9999 -9999 -9999 -9999 -9999 -9999 -9999 -9999 -9999 -9999 -9999 -9999 -9999 -9999 -9999 -9999 -9999 -9999 -9999 -9999 -9999 -9999 -9999 -9999 -9999 -9999 -9999 -9999 -9999 -9999 -9999 -9999 -9999 -9999 -9999 -9999 -9999 -9999 -9999 -9999 -9999 -9999 66.89774322509765625 67.4120330810546875 -9999 -9999 -9999 -9999 -9999 -9999 -9999 -9999 -9999 -9999 -9999 -9999 -9999 -9999 -9999 -9999 -9999 -9999 -9999 -9999 -9999 -9999 -9999 -9999 -9999 -9999 -9999 -9999 -9999 -9999 67.843048095703125 66.95113372802734375 67.29857635498046875 66.66323089599609375 66.34362030029296875 66.91280364990234375 -9999 -9999 75.3593292236328125 80.48296356201171875 74.67583465576171875 -9999 70.523712158203125 93.14221954345703125 -9999 70.22988128662109375 68.30410003662109375 67.52925872802734375 69.7376251220703125 69.388885498046875 68.7124176025390625 -9999 -9999 -9999 -9999 -9999 -9999 -9999 -9999 68.36878204345703125 68.4583282470703125 -9999 -9999 -9999 -9999 -9999 -9999 -9999 -9999 -9999 -9999 -9999 -9999 -9999 -9999 -9999 
-9999 65.950592041015625 -9999 -9999 -9999 -9999 -9999 -9999 -9999 -9999 -9999 -9999 -9999 -9999 -9999 -9999 -9999 -9999 -9999 -9999 -9999 -9999 -9999 -9999 -9999 -9999 -9999 -9999 -9999 -9999 -9999 -9999 -9999 -9999 -9999 -9999 -9999 -9999 -9999 -9999 -9999 -9999 -9999 -9999 -9999 -9999 -9999 -9999 -9999 -9999 73.00032806396484375 69.3656158447265625 66.373199462890625 -9999 -9999 -9999 -9999 -9999 -9999 -9999 -9999 -9999 -9999 -9999 65.9257354736328125 -9999 -9999 65.821685791015625 -9999 -9999 -9999 -9999 -9999 -9999 -9999 -9999 -9999 -9999 -9999 -9999 69.78054046630859375 70.46642303466796875 69.170013427734375 68.0489501953125 66.99040985107421875 66.29546356201171875 66.617828369140625 66.34088897705078125 66.4188995361328125 -9999 75.330596923828125 72.59227752685546875 69.307159423828125 69.2353057861328125 69.44036102294921875 68.65952301025390625 -9999 67.4630584716796875 67.09114837646484375 69.0744476318359375 83.62567138671875 76.748748779296875 66.80477142333984375 -9999 -9999 -9999 -9999 -9999 -9999 -9999 72.71149444580078125 -9999 -9999 -9999 -9999 -9999 -9999 -9999 -9999 -9999 -9999 -9999 -9999 -9999 -9999 -9999 -9999 
-9999 -9999 -9999 -9999 -9999 -9999 -9999 -9999 -9999 -9999 -9999 -9999 -9999 -9999 -9999 -9999 -9999 -9999 -9999 -9999 -9999 -9999 -9999 -9999 -9999 -9999 -9999 -9999 -9999 -9999 -9999 -9999 -9999 66.704193115234375 -9999 -9999 -9999 -9999 -9999 -9999 -9999 -9999 -9999 -9999 -9999 -9999 -9999 -9999 -9999 -9999 68.49768829345703125 67.1496429443359375 -9999 -9999 -9999 -9999 -9999 -9999 -9999 -9999 -9999 -9999 -9999 -9999 -9999 -9999 -9999 -9999 -9999 -9999 -9999 -9999 -9999 -9999 -9999 -9999 -9999 -9999 -9999 -9999 68.14703369140625 68.05474853515625 66.71897125244140625 66.4317779541015625 66.75707244873046875 66.52640533447265625 -9999 67.10623931884765625 67.00279998779296875 66.660614013671875 68.9883880615234375 66.14081573486328125 -9999 67.17009735107421875 74.8505096435546875 72.618988037109375 -9999 69.2493438720703125 70.07140350341796875 68.871124267578125 77.83728790283203125 73.2748260498046875 74.44049072265625 68.2327117919921875 66.202423095703125 -9999 66.66040802001953125 -9999 -9999 70.2863006591796875 74.92890167236328125 74.4919281005859375 68.66085052490234375 -9999 -9999 -9999 -9999 -9999 -9999 -9999 -9999 -9999 -9999 -9999 -9999 -9999 -9999 
-9999 -9999 -9999 -9999 -9999 -9999 -9999 -9999 -9999 -9999 -9999 -9999 -9999 -9999 -9999 -9999 -9999 -9999 -9999 -9999 -9999 -9999 -9999 -9999 -9999 -9999 -9999 -9999 -9999 -9999 -9999 -9999 -9999 -9999 -9999 -9999 -9999 -9999 -9999 -9999 -9999 -9999 -9999 -9999 -9999 -9999 -9999 -9999 -9999 -9999 66.91297149658203125 -9999 66.19080352783203125 -9999 -9999 -9999 -9999 -9999 -9999 -9999 -9999 -9999 -9999 -9999 -9999 -9999 -9999 -9999 -9999 -9999 -9999 -9999 -9999 -9999 -9999 -9999 -9999 -9999 -9999 -9999 -9999 -9999 -9999 -9999 66.5299835205078125 67.1094207763671875 66.89899444580078125 66.528594970703125 66.12713623046875 -9999 -9999 -9999 66.54338836669921875 67.046295166015625 -9999 70.44741058349609375 69.35076904296875 69.21575927734375 -9999 69.5154876708984375 70.5062408447265625 67.78632354736328125 66.40198516845703125 -9999 66.77666473388671875 67.74477386474609375 68.39104461669921875 69.54042816162109375 71.26568603515625 -9999 73.21944427490234375 -9999 -9999 -9999 -9999 -9999 -9999 -9999 -9999 -9999 -9999 -9999 -9999 -9999 -9999 -9999 -9999 
-9999 -9999 -9999 -9999 -9999 -9999 -9999 -9999 -9999 -9999 -9999 -9999 -9999 -9999 -9999 -9999 -9999 -9999 -9999 -9999 -9999 -9999 -9999 -9999 -9999 -9999 -9999 -9999 -9999 -9999 67.80449676513671875 66.08574676513671875 -9999 -9999 -9999 -9999 -9999 -9999 -9999 -9999 -9999 -9999 -9999 -9999 -9999 -9999 -9999 -9999 66.31842803955078125 -9999 -9999 -9999 -9999 66.10526275634765625 -9999 -9999 -9999 65.81897735595703125 -9999 -9999 -9999 -9999 -9999 -9999 -9999 65.8566131591796875 -9999 -9999 -9999 -9999 -9999 -9999 -9999 -9999 -9999 -9999 -9999 65.99916839599609375 -9999 -9999 -9999 -9999 -9999 -9999 -9999 66.22560882568359375 -9999 -9999 -9999 -9999 -9999 -9999 -9999 66.9464569091796875 69.82100677490234375 70.32184600830078125 67.4548797607421875 66.9308624267578125 68.819732666015625 67.717681884765625 75.71063232421875 74.2801361083984375 66.56642913818359375 68.15178680419921875 68.011260986328125 70.26187896728515625 71.30141448974609375 70.58513641357421875 -9999 -9999 69.90329742431640625 -9999 -9999 -9999 66.22216796875 -9999 -9999 -9999 -9999 -9999 -9999 -9999 -9999 -9999 -9999 -9999 -9999 
-9999 -9999 -9999 -9999 -9999 -9999 -9999 -9999 -9999 -9999 -9999 -9999 -9999 -9999 -9999 -9999 -9999 -9999 -9999 -9999 -9999 -9999 -9999 -9999 -9999 -9999 -9999 -9999 -9999 -9999 66.7548065185546875 -9999 -9999 -9999 -9999 -9999 -9999 -9999 -9999 -9999 -9999 -9999 -9999 -9999 -9999 -9999 -9999 -9999 -9999 -9999 -9999 -9999 -9999 -9999 -9999 -9999 -9999 -9999 66.49485015869140625 65.97129058837890625 -9999 -9999 -9999 -9999 -9999 -9999 -9999 -9999 -9999 -9999 -9999 -9999 -9999 -9999 -9999 -9999 -9999 -9999 -9999 -9999 -9999 -9999 -9999 -9999 -9999 65.94994354248046875 -9999 -9999 -9999 -9999 -9999 -9999 -9999 -9999 68.3228302001953125 68.55092620849609375 67.0996551513671875 67.188018798828125 69.111236572265625 67.57163238525390625 73.06122589111328125 85.51470947265625 78.917236328125 68.9433135986328125 66.72332000732421875 85.7779388427734375 81.44635772705078125 69.09307098388671875 -9999 -9999 -9999 -9999 -9999 -9999 -9999 -9999 -9999 -9999 -9999 -9999 -9999 -9999 -9999 -9999 -9999 -9999 -9999 
-9999 -9999 -9999 -9999 -9999 -9999 -9999 -9999 -9999 -9999 -9999 -9999 -9999 -9999 -9999 -9999 -9999 -9999 -9999 -9999 -9999 -9999 -9999 -9999 -9999 -9999 -9999 -9999 -9999 -9999 -9999 -9999 -9999 -9999 -9999 -9999 69.74626922607421875 -9999 -9999 -9999 -9999 -9999 -9999 -9999 -9999 -9999 -9999 -9999 -9999 -9999 -9999 65.8632049560546875 -9999 -9999 -9999 -9999 -9999 -9999 -9999 -9999 -9999 -9999 -9999 -9999 -9999 -9999 -9999 -9999 -9999 -9999 -9999 -9999 -9999 -9999 -9999 -9999 -9999 -9999 -9999 -9999 -9999 -9999 -9999 -9999 -9999 -9999 -9999 -9999 -9999 -9999 -9999 -9999 -9999 -9999 -9999 66.99277496337890625 72.817901611328125 74.05976104736328125 -9999 65.957733154296875 66.62589263916015625 67.7908935546875 82.7870635986328125 68.42079925537109375 71.2875823974609375 78.1777496337890625 -9999 -9999 -9999 -9999 -9999 -9999 -9999 -9999 -9999 -9999 66.04145050048828125 -9999 -9999 -9999 -9999 -9999 -9999 -9999 -9999 -9999 -9999 
-9999 -9999 -9999 -9999 -9999 -9999 -9999 -9999 -9999 -9999 -9999 -9999 -9999 -9999 -9999 -9999 -9999 -9999 -9999 -9999 -9999 -9999 -9999 -9999 -9999 -9999 -9999 -9999 -9999 -9999 -9999 -9999 -9999 -9999 -9999 -9999 -9999 -9999 -9999 -9999 -9999 -9999 -9999 68.243133544921875 66.56166839599609375 -9999 -9999 -9999 -9999 -9999 -9999 -9999 -9999 -9999 -9999 -9999 -9999 -9999 -9999 -9999 -9999 -9999 -9999 -9999 -9999 -9999 -9999 -9999 -9999 -9999 -9999 -9999 -9999 -9999 -9999 -9999 -9999 -9999 -9999 -9999 -9999 -9999 -9999 -9999 -9999 -9999 -9999 -9999 -9999 -9999 -9999 -9999 -9999 66.05614471435546875 66.50823974609375 67.09748077392578125 67.11476898193359375 69.2435150146484375 68.1134033203125 -9999 67.20868682861328125 69.53964996337890625 78.36179351806640625 74.6292877197265625 68.3514862060546875 71.96231842041015625 72.409698486328125 -9999 -9999 -9999 -9999 -9999 -9999 -9999 -9999 -9999 -9999 -9999 -9999 -9999 -9999 -9999 -9999 -9999 65.90869903564453125 -9999 -9999 
-9999 -9999 -9999 66.01467132568359375 66.3862152099609375 -9999 -9999 -9999 -9999 -9999 -9999 -9999 -9999 -9999 -9999 -9999 -9999 -9999 -9999 -9999 -9999 -9999 -9999 -9999 -9999 -9999 -9999 -9999 -9999 -9999 -9999 -9999 -9999 -9999 -9999 66.821197509765625 -9999 -9999 -9999 -9999 65.99216461181640625 -9999 65.9514007568359375 70.561492919921875 66.89504241943359375 72.36386871337890625 66.29184722900390625 66.2210845947265625 -9999 -9999 -9999 -9999 -9999 -9999 -9999 -9999 -9999 -9999 -9999 -9999 -9999 -9999 -9999 -9999 -9999 -9999 -9999 -9999 -9999 -9999 -9999 -9999 -9999 -9999 -9999 -9999 -9999 -9999 -9999 -9999 -9999 -9999 -9999 -9999 -9999 -9999 -9999 -9999 -9999 -9999 -9999 -9999 -9999 -9999 -9999 -9999 66.084228515625 66.90543365478515625 67.59346771240234375 66.13897705078125 67.53649139404296875 70.86529541015625 74.443450927734375 98.22006988525390625 85.7693939208984375 106.7471771240234375 94.97653961181640625 69.30146026611328125 69.19901275634765625 -9999 -9999 -9999 -9999 -9999 -9999 -9999 -9999 -9999 -9999 -9999 -9999 -9999 -9999 -9999 -9999 -9999 -9999 
-9999 -9999 -9999 -9999 -9999 -9999 -9999 -9999 -9999 -9999 -9999 -9999 -9999 -9999 -9999 -9999 -9999 -9999 -9999 -9999 -9999 -9999 -9999 -9999 -9999 -9999 -9999 -9999 -9999 -9999 -9999 -9999 -9999 -9999 -9999 -9999 -9999 -9999 -9999 -9999 68.81320953369140625 -9999 63.573909759521484375 70.249420166015625 64.7201080322265625 82.1161346435546875 75.74622344970703125 70.43280792236328125 -9999 65.90911865234375 -9999 -9999 -9999 -9999 -9999 -9999 -9999 -9999 -9999 -9999 -9999 -9999 -9999 -9999 65.9683990478515625 -9999 -9999 -9999 -9999 -9999 -9999 -9999 -9999 -9999 -9999 -9999 -9999 -9999 -9999 -9999 -9999 -9999 -9999 -9999 -9999 -9999 -9999 -9999 -9999 -9999 -9999 -9999 -9999 -9999 -9999 -9999 -9999 -9999 -9999 -9999 67.073974609375 68.77519989013671875 76.56951904296875 104.594482421875 88.969207763671875 83.15596771240234375 96.5117950439453125 75.13397216796875 -9999 -9999 -9999 -9999 -9999 -9999 -9999 -9999 -9999 -9999 -9999 -9999 -9999 -9999 -9999 -9999 -9999 -9999 -9999 
-9999 -9999 -9999 -9999 -9999 -9999 -9999 -9999 -9999 -9999 -9999 -9999 -9999 -9999 -9999 -9999 -9999 -9999 -9999 -9999 -9999 -9999 -9999 -9999 -9999 -9999 -9999 -9999 -9999 -9999 -9999 -9999 -9999 -9999 -9999 68.118133544921875 66.5958251953125 -9999 -9999 -9999 -9999 69.97510528564453125 80.2288360595703125 93.48558807373046875 70.8598480224609375 83.7953338623046875 98.86046600341796875 73.02999114990234375 66.320648193359375 65.832061767578125 -9999 -9999 -9999 -9999 -9999 -9999 -9999 -9999 -9999 -9999 -9999 -9999 -9999 -9999 65.845611572265625 -9999 -9999 -9999 -9999 -9999 -9999 -9999 -9999 -9999 -9999 -9999 -9999 -9999 -9999 -9999 -9999 -9999 -9999 -9999 -9999 -9999 -9999 -9999 -9999 -9999 -9999 -9999 -9999 -9999 -9999 -9999 -9999 -9999 -9999 -9999 -9999 66.33063507080078125 72.27198028564453125 100.55756378173828125 105.12126922607421875 94.5953826904296875 157.260467529296875 135.9234161376953125 71.75279998779296875 -9999 -9999 -9999 66.8720245361328125 -9999 -9999 -9999 -9999 -9999 -9999 -9999 -9999 -9999 -9999 -9999 -9999 -9999 -9999 
