ncols        127
nrows        131
xllcorner    -71.681135979344
yllcorner    -16.519694133538
cellsize     0.001836012963
NODATA_value -9999
-9999.0 -9999 -9999 -9999 -9999 -9999 -9999 -9999 -9999 -9999 -9999 1 1 -9999 -9999 1 -9999 -9999 -9999 -9999 -9999 -9999 1 1 -9999 -9999 1 -9999 -9999 -9999 -9999 -9999 1 -9999 -9999 -9999 -9999 -9999 -9999 -9999 -9999 -9999 -9999 -9999 -9999 -9999 -9999 -9999 -9999 -9999 -9999 -9999 -9999 -9999 -9999 -9999 -9999 -9999 -9999 -9999 -9999 -9999 -9999 -9999 -9999 -9999 -9999 -9999 -9999 -9999 -9999 -9999 -9999 -9999 -9999 -9999 -9999 -9999 -9999 -9999 -9999 -9999 -9999 -9999 -9999 -9999 -9999 -9999 -9999 -9999 -9999 -9999 -9999 -9999 -9999 -9999 -9999 -9999 -9999 -9999 -9999 -9999 -9999 -9999 -9999 -9999 -9999 -9999 -9999 -9999 -9999 -9999 -9999 -9999 -9999 -9999 -9999 -9999 -9999 -9999 -9999 -9999 -9999 -9999 -9999 -9999 -9999 
-9999 -9999 -9999 -9999 -9999 -9999 -9999 -9999 -9999 -9999 -9999 1 1 -9999 -9999 -9999 -9999 -9999 -9999 -9999 -9999 -9999 1 1 1 1 1 1 1 -9999 -9999 1 -9999 -9999 -9999 -9999 -9999 -9999 -9999 -9999 -9999 -9999 -9999 -9999 -9999 -9999 -9999 -9999 -9999 -9999 -9999 -9999 -9999 -9999 -9999 -9999 -9999 -9999 -9999 -9999 -9999 -9999 -9999 -9999 -9999 -9999 -9999 -9999 -9999 1 -9999 -9999 -9999 -9999 1 1 -9999 -9999 -9999 -9999 -9999 -9999 -9999 -9999 -9999 -9999 -9999 -9999 -9999 -9999 -9999 1 1 -9999 -9999 -9999 -9999 -9999 -9999 -9999 -9999 -9999 -9999 -9999 -9999 -9999 -9999 -9999 -9999 -9999 -9999 -9999 -9999 1 -9999 -9999 -9999 -9999 -9999 -9999 -9999 -9999 -9999 -9999 -9999 -9999 -9999 
-9999 -9999 -9999 -9999 -9999 -9999 -9999 -9999 -9999 -9999 1 1 1 1 1 1 -9999 -9999 -9999 -9999 -9999 -9999 1 1 1 1 1 -9999 1 -9999 -9999 1 -9999 -9999 -9999 -9999 -9999 -9999 -9999 -9999 -9999 -9999 -9999 -9999 -9999 -9999 -9999 -9999 -9999 -9999 -9999 -9999 -9999 -9999 -9999 -9999 -9999 -9999 -9999 -9999 -9999 -9999 -9999 -9999 -9999 -9999 -9999 -9999 -9999 1 1 -9999 -9999 -9999 1 -9999 -9999 -9999 -9999 -9999 1 -9999 -9999 -9999 -9999 -9999 -9999 -9999 -9999 -9999 -9999 -9999 -9999 -9999 -9999 -9999 -9999 -9999 -9999 -9999 -9999 -9999 -9999 -9999 -9999 -9999 -9999 -9999 -9999 -9999 -9999 -9999 -9999 -9999 -9999 -9999 -9999 -9999 -9999 -9999 1 -9999 -9999 -9999 -9999 -9999 -9999 
1 -9999 -9999 -9999 -9999 -9999 -9999 -9999 -9999 1 -9999 1 93.58603668212890625 175.268218994140625 1 12.322132110595703125 1 -9999 -9999 -9999 1 1 1 1 1 1 1 -9999 1 -9999 1 -9999 -9999 -9999 -9999 -9999 -9999 -9999 -9999 -9999 -9999 -9999 -9999 -9999 -9999 -9999 1 -9999 -9999 -9999 -9999 -9999 -9999 -9999 -9999 -9999 -9999 -9999 -9999 -9999 -9999 -9999 -9999 -9999 -9999 -9999 -9999 -9999 -9999 1 1 1 1 402.908782958984375 118.60546112060546875 -9999 -9999 1 1 -9999 -9999 -9999 -9999 -9999 -9999 -9999 -9999 -9999 1 -9999 -9999 -9999 -9999 -9999 -9999 -9999 -9999 -9999 -9999 -9999 -9999 -9999 -9999 -9999 -9999 -9999 -9999 -9999 -9999 -9999 -9999 -9999 -9999 -9999 -9999 -9999 -9999 1 -9999 -9999 1 -9999 -9999 -9999 -9999 -9999 -9999 
-9999 -9999 -9999 -9999 -9999 -9999 -9999 -9999 -9999 -9999 1 1 94.31571197509765625 324.644683837890625 281.53851318359375 379.64068603515625 100.29424285888671875 -9999 -9999 -9999 1 1 1 1 1 1 1 38.89093017578125 1 1 86.47864532470703125 -9999 -9999 -9999 -9999 -9999 -9999 -9999 -9999 -9999 -9999 -9999 -9999 -9999 -9999 -9999 -9999 -9999 -9999 -9999 1 -9999 -9999 -9999 -9999 -9999 -9999 -9999 -9999 -9999 -9999 -9999 -9999 -9999 -9999 -9999 -9999 -9999 1 1 1 1 203.35430908203125 345.2294921875 155.498138427734375 500.3021240234375 222.22393798828125 1 1 -9999 -9999 -9999 -9999 -9999 -9999 -9999 -9999 1 1 1 -9999 -9999 -9999 1 1 -9999 1 -9999 -9999 -9999 -9999 -9999 -9999 -9999 -9999 -9999 -9999 -9999 -9999 -9999 -9999 -9999 -9999 -9999 -9999 -9999 -9999 -9999 -9999 -9999 -9999 -9999 -9999 -9999 -9999 -9999 -9999 
-9999 -9999 -9999 -9999 -9999 -9999 -9999 1 1 1 1 1 1 138.0975341796875 376.1011962890625 433.616668701171875 147.4475555419921875 -9999 -9999 -9999 1 1 7.2929325103759765625 1 1 1 1 1 59.91271209716796875 151.3633575439453125 207.021697998046875 -9999 -9999 -9999 -9999 -9999 -9999 -9999 -9999 -9999 -9999 -9999 -9999 -9999 -9999 -9999 -9999 -9999 1 -9999 -9999 -9999 -9999 -9999 -9999 -9999 -9999 -9999 -9999 -9999 -9999 -9999 -9999 -9999 -9999 -9999 -9999 -9999 1 1 1 1 243.648773193359375 216.2697296142578125 475.486968994140625 627.73291015625 201.130279541015625 16.098108291625976562 1 1 -9999 -9999 -9999 1 1 -9999 1 1 1 1 1 -9999 -9999 -9999 -9999 -9999 -9999 -9999 -9999 -9999 -9999 -9999 -9999 -9999 -9999 -9999 -9999 -9999 -9999 -9999 -9999 -9999 -9999 -9999 -9999 -9999 -9999 -9999 -9999 -9999 -9999 -9999 -9999 -9999 -9999 -9999 -9999 
-9999 -9999 -9999 -9999 -9999 -9999 -9999 1 1 1 1 1 1 300.0506591796875 507.7410888671875 504.552978515625 143.5989532470703125 -9999 -9999 1 1 1 1 1 1 5.2557053565979003906 1 1 25.9158172607421875 1 60.55857086181640625 -9999 -9999 -9999 -9999 -9999 -9999 1 -9999 -9999 -9999 -9999 -9999 -9999 -9999 -9999 -9999 -9999 -9999 -9999 -9999 -9999 -9999 -9999 1 -9999 -9999 -9999 -9999 -9999 -9999 -9999 -9999 -9999 -9999 -9999 -9999 -9999 -9999 -9999 1 1 118.93004608154296875 359.725433349609375 428.22357177734375 452.745330810546875 1 1 -9999 -9999 -9999 1 1 1 1 -9999 1 202.048614501953125 1 1 1 1 1 1 -9999 -9999 -9999 -9999 -9999 -9999 -9999 -9999 -9999 -9999 -9999 -9999 -9999 -9999 -9999 -9999 -9999 -9999 1 1 -9999 -9999 -9999 -9999 -9999 -9999 -9999 -9999 -9999 -9999 -9999 -9999 -9999 
-9999 -9999 -9999 -9999 -9999 1 -9999 1 1 1 1 1 159.99896240234375 182.11962890625 84.535614013671875 112.96784210205078125 1 -9999 1 1 1 1 1 33.880176544189453125 70.040802001953125 97.73725128173828125 65.96106719970703125 102.607025146484375 114.6888885498046875 130.9368438720703125 155.81365966796875 121.06103515625 1 -9999 -9999 -9999 -9999 1 -9999 -9999 -9999 -9999 -9999 -9999 -9999 -9999 -9999 -9999 -9999 -9999 -9999 -9999 -9999 -9999 -9999 -9999 -9999 -9999 -9999 -9999 -9999 -9999 -9999 -9999 -9999 -9999 -9999 -9999 -9999 -9999 -9999 1 151.398651123046875 465.884033203125 459.5172119140625 106.940185546875 1 -9999 -9999 1 1 1 398.5234375 635.3353271484375 97.78387451171875 1 148.4549713134765625 125.60288238525390625 1 1 1 1 1 1 -9999 -9999 -9999 -9999 -9999 -9999 -9999 -9999 -9999 -9999 -9999 -9999 -9999 -9999 -9999 -9999 -9999 1 1 -9999 -9999 -9999 -9999 -9999 -9999 -9999 -9999 -9999 -9999 -9999 -9999 -9999 -9999 
-9999 -9999 -9999 -9999 1 -9999 -9999 1 1 1 -9999 1 221.364349365234375 6.6457881927490234375 1 -9999 -9999 -9999 -9999 1 1 1 -9999 1 75.1028289794921875 130.4181976318359375 27.7736663818359375 42.982879638671875 110.8542022705078125 190.74176025390625 244.45989990234375 177.056365966796875 25.440912246704101562 -9999 -9999 -9999 -9999 -9999 -9999 -9999 -9999 -9999 -9999 -9999 -9999 -9999 -9999 -9999 -9999 -9999 -9999 -9999 -9999 -9999 -9999 -9999 -9999 -9999 -9999 -9999 -9999 -9999 -9999 -9999 -9999 -9999 -9999 -9999 -9999 -9999 -9999 1 1 434.030303955078125 428.406707763671875 1 1 -9999 -9999 1 1 1 883.13787841796875 672.87457275390625 334.348663330078125 387.14385986328125 486.8787841796875 297.69024658203125 355.508270263671875 55.490467071533203125 1 1 1 -9999 -9999 -9999 -9999 -9999 -9999 -9999 -9999 -9999 -9999 -9999 -9999 -9999 -9999 -9999 -9999 -9999 -9999 -9999 -9999 -9999 -9999 -9999 -9999 -9999 -9999 -9999 -9999 -9999 -9999 -9999 -9999 -9999 -9999 
-9999 -9999 -9999 -9999 -9999 -9999 -9999 1 1 1 1 1 83.9264984130859375 160.8429412841796875 1 -9999 -9999 -9999 1 1 1 -9999 1 1 1 1 73.94232177734375 82.1490020751953125 46.820606231689453125 189.8836822509765625 195.6956939697265625 196.9138641357421875 150.0906829833984375 1 1 1 -9999 -9999 -9999 -9999 -9999 -9999 -9999 -9999 -9999 -9999 -9999 -9999 1 -9999 -9999 -9999 -9999 -9999 -9999 -9999 -9999 -9999 -9999 -9999 -9999 -9999 -9999 -9999 -9999 -9999 -9999 -9999 -9999 -9999 -9999 1 180.74658203125 395.420318603515625 64.23119354248046875 -9999 -9999 -9999 1 1 1 106.6710968017578125 676.29351806640625 601.78765869140625 387.287994384765625 562.548828125 486.9659423828125 380.81085205078125 530.98175048828125 79.50591278076171875 1 1 1 -9999 -9999 -9999 -9999 -9999 -9999 -9999 -9999 -9999 -9999 -9999 -9999 -9999 -9999 -9999 -9999 -9999 -9999 -9999 -9999 -9999 -9999 -9999 -9999 -9999 -9999 -9999 -9999 -9999 -9999 -9999 -9999 -9999 -9999 
-9999 -9999 -9999 1 -9999 -9999 1 1 1 1 1 1 1 -9999 -9999 -9999 -9999 -9999 -9999 253.97479248046875 194.8065948486328125 114.7575531005859375 1 1 1 80.5297698974609375 168.8545074462890625 85.1483154296875 112.8648681640625 144.781890869140625 154.4030609130859375 179.5955352783203125 223.4779510498046875 1 1 1 1 -9999 -9999 -9999 -9999 -9999 -9999 -9999 -9999 -9999 -9999 -9999 -9999 -9999 -9999 -9999 -9999 -9999 -9999 -9999 -9999 -9999 -9999 -9999 -9999 -9999 -9999 -9999 1 -9999 -9999 -9999 -9999 -9999 -9999 -9999 86.7579345703125 59.7999114990234375 1 1 -9999 -9999 -9999 -9999 1 1 343.61431884765625 632.98236083984375 352.749755859375 419.559173583984375 335.339111328125 158.2652587890625 250.503997802734375 1 1 1 1 -9999 -9999 -9999 -9999 -9999 -9999 -9999 -9999 -9999 -9999 -9999 -9999 -9999 -9999 -9999 -9999 -9999 -9999 -9999 -9999 -9999 -9999 -9999 -9999 -9999 -9999 -9999 -9999 -9999 -9999 -9999 -9999 -9999 -9999 
-9999 1 1 1 1 1 1 35.83794403076171875 1 1 1 1 1 -9999 -9999 -9999 -9999 -9999 -9999 -9999 -9999 1 68.99399566650390625 1 157.4171600341796875 95.70702362060546875 234.660308837890625 55.108745574951171875 138.074737548828125 146.737701416015625 170.93780517578125 168.0113372802734375 165.6921844482421875 54.923404693603515625 12.496411323547363281 94.0953216552734375 53.63257598876953125 -9999 -9999 -9999 -9999 -9999 -9999 -9999 -9999 -9999 -9999 -9999 -9999 -9999 -9999 -9999 -9999 -9999 -9999 -9999 -9999 -9999 -9999 -9999 -9999 -9999 -9999 -9999 -9999 -9999 -9999 -9999 -9999 -9999 -9999 -9999 38.433170318603515625 1 14.602103233337402344 1 -9999 -9999 -9999 -9999 150.3397674560546875 545.966552734375 666.88958740234375 806.93603515625 208.704833984375 334.135467529296875 416.298431396484375 76.1432647705078125 1 1 1 1 -9999 -9999 -9999 -9999 -9999 -9999 -9999 -9999 -9999 -9999 -9999 -9999 -9999 -9999 -9999 -9999 1 -9999 -9999 -9999 -9999 -9999 -9999 -9999 -9999 -9999 -9999 -9999 -9999 -9999 -9999 -9999 -9999 -9999 -9999 
1 1 1 1 -9999 -9999 1 60.048145294189453125 1 1 1 1 1 -9999 -9999 -9999 -9999 -9999 -9999 -9999 -9999 1 55.586505889892578125 1 116.56278228759765625 97.0631256103515625 46.26517486572265625 35.292491912841796875 24.509815216064453125 118.86722564697265625 154.4003753662109375 154.2182464599609375 112.108123779296875 80.1981964111328125 98.47426605224609375 150.398193359375 126.15287017822265625 1 -9999 -9999 -9999 -9999 -9999 -9999 -9999 -9999 -9999 -9999 -9999 -9999 -9999 -9999 -9999 -9999 -9999 -9999 -9999 -9999 -9999 -9999 -9999 -9999 -9999 -9999 -9999 -9999 -9999 -9999 -9999 -9999 -9999 -9999 1 1 1 1 -9999 -9999 1 1 387.79339599609375 609.825439453125 405.47576904296875 430.4425048828125 272.506317138671875 314.2535400390625 453.916015625 195.4608917236328125 32.86053466796875 1 -9999 1 -9999 -9999 -9999 -9999 -9999 -9999 -9999 -9999 -9999 -9999 -9999 -9999 -9999 -9999 -9999 -9999 -9999 -9999 -9999 -9999 -9999 -9999 -9999 -9999 -9999 -9999 -9999 -9999 -9999 -9999 -9999 -9999 -9999 -9999 -9999 
1 1 1 1 -9999 -9999 47.245151519775390625 69.48665618896484375 104.04150390625 6.1488356590270996094 1 1 1 -9999 -9999 1 1 1 1 -9999 -9999 1 1 1 39.47791290283203125 1 56.46108245849609375 76.30963897705078125 1 57.700519561767578125 115.71489715576171875 107.32329559326171875 73.558563232421875 84.6336822509765625 160.0141754150390625 167.1516265869140625 153.7834014892578125 50.999927520751953125 -9999 -9999 -9999 -9999 -9999 -9999 -9999 -9999 -9999 -9999 -9999 -9999 -9999 -9999 -9999 -9999 -9999 -9999 1 1 -9999 -9999 -9999 -9999 -9999 -9999 -9999 -9999 -9999 -9999 -9999 -9999 -9999 66.3888397216796875 104.80403900146484375 147.8656768798828125 8.8209285736083984375 1 -9999 -9999 1 1 308.80792236328125 447.949554443359375 419.1021728515625 364.955047607421875 313.322845458984375 310.27862548828125 273.52728271484375 148.842254638671875 35.566822052001953125 1 -9999 1 1 -9999 -9999 -9999 -9999 -9999 -9999 -9999 -9999 -9999 -9999 -9999 1 -9999 -9999 -9999 -9999 -9999 -9999 -9999 -9999 -9999 -9999 -9999 -9999 -9999 -9999 -9999 -9999 -9999 -9999 -9999 -9999 -9999 -9999 
1 1 1 1 1 1 2.9167006015777587891 17.4676513671875 48.91692352294921875 1 1 1 -9999 -9999 1 218.6791839599609375 58.4159698486328125 1 129.1963043212890625 -9999 1 278.888671875 190.8861083984375 347.511962890625 75.22705841064453125 21.14504241943359375 144.8159027099609375 110.48784637451171875 57.522884368896484375 74.3580474853515625 115.61153411865234375 49.20550537109375 4.1099562644958496094 87.339202880859375 136.5120391845703125 141.710845947265625 171.5921783447265625 205.3687896728515625 144.2936859130859375 305.018585205078125 200.4732818603515625 -9999 -9999 -9999 -9999 -9999 -9999 -9999 -9999 -9999 -9999 -9999 1 1 -9999 1 1 -9999 -9999 -9999 -9999 -9999 -9999 -9999 -9999 -9999 -9999 -9999 -9999 -9999 102.77494049072265625 257.5830078125 258.176177978515625 260.82666015625 1 1 -9999 -9999 1 50.303943634033203125 286.917144775390625 298.7509765625 319.324920654296875 294.493194580078125 278.1358642578125 283.399200439453125 230.7560882568359375 37.301502227783203125 1 1 -9999 1 1 -9999 -9999 -9999 -9999 -9999 -9999 -9999 -9999 -9999 -9999 -9999 -9999 -9999 -9999 -9999 -9999 -9999 -9999 -9999 -9999 -9999 -9999 -9999 -9999 -9999 -9999 -9999 -9999 -9999 -9999 -9999 -9999 -9999 -9999 
1 1 -9999 -9999 1 1 1 109.5908966064453125 1 1 1 1 -9999 -9999 68.47031402587890625 176.1773681640625 150.4197845458984375 202.12994384765625 157.8413848876953125 142.540313720703125 242.920623779296875 222.589508056640625 516.7276611328125 570.3424072265625 294.04833984375 67.19690704345703125 83.5476837158203125 107.27698516845703125 168.0220489501953125 188.34405517578125 165.3313751220703125 89.395660400390625 207.9302978515625 200.182830810546875 152.3045806884765625 151.0545806884765625 164.186370849609375 191.672821044921875 215.5079498291015625 245.121124267578125 236.3018646240234375 154.931671142578125 -9999 -9999 -9999 -9999 -9999 -9999 -9999 -9999 -9999 -9999 -9999 -9999 1 10.736102104187011719 1 1 1 1 -9999 1 -9999 -9999 -9999 -9999 1 1 1 187.4373931884765625 233.2659149169921875 231.1365966796875 336.875274658203125 285.257293701171875 143.5908660888671875 1 1 1 200.718994140625 258.04638671875 327.48846435546875 258.222930908203125 202.694183349609375 201.4873809814453125 199.4639739990234375 260.989349365234375 221.0131988525390625 -9999 1 -9999 1 1 1 -9999 -9999 -9999 -9999 -9999 -9999 -9999 -9999 -9999 -9999 -9999 -9999 -9999 -9999 -9999 -9999 -9999 -9999 -9999 -9999 -9999 -9999 -9999 -9999 -9999 -9999 -9999 -9999 -9999 -9999 -9999 -9999 -9999 -9999 
1 1 -9999 1 1 1 1 1 1 1 1 -9999 173.584381103515625 1 186.8032684326171875 186.92681884765625 1 85.69972991943359375 178.76953125 299.789276123046875 360.479461669921875 444.29345703125 337.543487548828125 481.69842529296875 403.643829345703125 300.989044189453125 271.946807861328125 172.4324188232421875 171.5736541748046875 162.30126953125 135.447235107421875 229.805267333984375 272.2835693359375 204.901763916015625 179.565277099609375 135.44720458984375 125.84686279296875 140.7472991943359375 194.541778564453125 195.4362640380859375 204.6510772705078125 216.1922454833984375 14.5071868896484375 -9999 -9999 -9999 -9999 -9999 -9999 -9999 -9999 929.5233154296875 184.91461181640625 49.026309967041015625 98.40978240966796875 74.128143310546875 -9999 1 49.338214874267578125 1 -9999 -9999 1 -9999 -9999 1 8.0043306350708007812 53.901092529296875 168.2185211181640625 269.18658447265625 212.065673828125 196.4431610107421875 200.2223663330078125 240.5932159423828125 183.697113037109375 116.2180328369140625 1 1 238.566070556640625 262.553497314453125 265.8118896484375 228.1566925048828125 212.276519775390625 211.460906982421875 250.19342041015625 330.214752197265625 270.82611083984375 1 1 -9999 1 1 1 -9999 -9999 -9999 -9999 -9999 -9999 -9999 -9999 -9999 1 -9999 -9999 -9999 -9999 -9999 -9999 -9999 -9999 -9999 -9999 -9999 -9999 -9999 -9999 -9999 -9999 -9999 -9999 -9999 -9999 -9999 -9999 -9999 -9999 
-9999 1 1 1 1 -9999 -9999 1 1 1 -9999 -9999 155.0312042236328125 261.22174072265625 345.914398193359375 161.2760162353515625 81.25370025634765625 313.914093017578125 195.9504241943359375 234.17803955078125 409.145904541015625 475.480499267578125 410.207855224609375 340.236297607421875 375.711456298828125 397.69097900390625 335.428558349609375 253.2908782958984375 288.96881103515625 167.169525146484375 1 73.9243011474609375 216.5950775146484375 176.6398773193359375 167.2410736083984375 143.066802978515625 130.0816650390625 119.51895904541015625 108.42629241943359375 158.0028839111328125 192.54034423828125 230.466796875 289.213470458984375 1 1 1 -9999 -9999 -9999 1 1 642.131103515625 380.493927001953125 178.167388916015625 192.5891571044921875 150.026153564453125 1 34.797924041748046875 97.79883575439453125 1 -9999 -9999 -9999 -9999 -9999 1 30.586500167846679688 115.93015289306640625 281.025177001953125 213.0422210693359375 159.925262451171875 194.949432373046875 178.220428466796875 193.4191741943359375 187.07037353515625 207.5048828125 185.7246551513671875 125.7368316650390625 147.087677001953125 159.5365142822265625 162.3292388916015625 191.164031982421875 217.0425872802734375 260.2330322265625 257.342559814453125 400.179290771484375 405.975433349609375 1 -9999 -9999 -9999 -9999 -9999 -9999 -9999 -9999 -9999 1 1 1 -9999 1 -9999 -9999 -9999 -9999 -9999 -9999 -9999 -9999 -9999 -9999 -9999 -9999 -9999 -9999 -9999 -9999 -9999 -9999 -9999 -9999 -9999 -9999 -9999 -9999 -9999 
-9999 1 1 1 -9999 -9999 -9999 1 1 1 -9999 -9999 1.0913083553314208984 302.301300048828125 469.914031982421875 507.72601318359375 156.7207489013671875 161.43902587890625 128.1004486083984375 123.87859344482421875 247.1106414794921875 756.16796875 491.94189453125 456.584197998046875 387.084381103515625 1 367.294219970703125 306.5753173828125 322.3758544921875 20.941129684448242188 1 -9999 1 80.54254913330078125 49.580745697021484375 166.4468231201171875 161.14971923828125 141.6922454833984375 152.2552032470703125 173.9779052734375 216.351959228515625 215.489837646484375 275.749603271484375 315.4305419921875 1 1 1 1 73.6290740966796875 206.937286376953125 244.8629913330078125 274.26458740234375 282.951446533203125 183.9068145751953125 185.3477020263671875 1 1 1 1 -9999 -9999 -9999 -9999 -9999 -9999 -9999 1 37.045398712158203125 162.1078033447265625 148.4590911865234375 150.95391845703125 208.889678955078125 188.0750274658203125 207.9199981689453125 192.9171600341796875 172.11199951171875 150.973785400390625 121.08654022216796875 165.99755859375 87.07515716552734375 94.29904937744140625 125.70583343505859375 209.0184783935546875 287.974212646484375 259.970855712890625 1 -9999 1 -9999 -9999 -9999 -9999 -9999 -9999 -9999 1 1 -9999 -9999 -9999 -9999 -9999 -9999 -9999 -9999 -9999 -9999 -9999 -9999 -9999 -9999 -9999 -9999 -9999 -9999 -9999 -9999 -9999 -9999 -9999 -9999 -9999 -9999 -9999 -9999 -9999 -9999 
-9999 -9999 -9999 -9999 -9999 1 -9999 1 -9999 -9999 -9999 -9999 4.9795527458190917969 415.392852783203125 700.52838134765625 868.7401123046875 423.257598876953125 170.0450439453125 1 171.0224456787109375 658.4544677734375 764.05279541015625 385.389404296875 215.2537689208984375 1 -9999 288.7315673828125 303.490325927734375 361.49267578125 58.64621734619140625 1 -9999 1 1 1 42.69417572021484375 60.310695648193359375 163.9866790771484375 191.8001556396484375 151.7335662841796875 128.4385223388671875 173.7984466552734375 248.528839111328125 296.617767333984375 360.34814453125 183.8208465576171875 197.06414794921875 212.1151275634765625 178.4431304931640625 153.1695556640625 89.85489654541015625 192.7027435302734375 238.0786895751953125 155.215728759765625 203.0481109619140625 105.64539337158203125 1 1 -9999 1 -9999 -9999 -9999 -9999 -9999 -9999 135.5656890869140625 164.0323486328125 173.1735992431640625 142.8661041259765625 138.32275390625 163.948211669921875 162.2984161376953125 139.6088714599609375 166.0966796875 180.7222900390625 151.0368194580078125 109.69347381591796875 144.0511016845703125 217.81854248046875 181.502227783203125 69.19831085205078125 141.4403533935546875 229.5308685302734375 269.055633544921875 139.165252685546875 -9999 -9999 -9999 -9999 -9999 1 1 -9999 -9999 -9999 -9999 -9999 -9999 -9999 -9999 -9999 -9999 -9999 -9999 -9999 -9999 -9999 -9999 -9999 -9999 -9999 -9999 -9999 -9999 -9999 -9999 -9999 -9999 -9999 -9999 -9999 -9999 -9999 -9999 -9999 -9999 
-9999 -9999 -9999 1 1 1 1 1 1 -9999 -9999 1 1 381.6055908203125 1001 862.1524658203125 505.45330810546875 370.92156982421875 39.60919952392578125 419.628692626953125 812.9337158203125 499.763427734375 178.8453826904296875 -9999 -9999 -9999 1 224.43109130859375 304.504791259765625 89.96236419677734375 1 1 44.75045013427734375 66.59908294677734375 1 1 6.6535024642944335938 187.556976318359375 207.2834320068359375 172.0045013427734375 114.3073272705078125 166.593841552734375 236.6634063720703125 273.79608154296875 263.422393798828125 210.972503662109375 123.42847442626953125 178.70849609375 180.449615478515625 165.9801483154296875 92.5562591552734375 146.6611785888671875 88.31900787353515625 115.45665740966796875 161.364654541015625 181.6456451416015625 1 -9999 1 1 8.8510046005249023438 42.752124786376953125 1 -9999 1 162.1134796142578125 210.9220733642578125 164.2170257568359375 182.342926025390625 172.32342529296875 179.582611083984375 135.385040283203125 145.7200164794921875 184.6584625244140625 254.364013671875 232.7656402587890625 188.058349609375 126.71428680419921875 135.5352020263671875 151.315948486328125 183.4545135498046875 1 97.4549407958984375 114.62006378173828125 164.0305023193359375 -9999 -9999 -9999 -9999 -9999 -9999 1 1 -9999 -9999 -9999 -9999 -9999 -9999 -9999 -9999 -9999 -9999 -9999 -9999 -9999 -9999 -9999 -9999 -9999 -9999 -9999 -9999 -9999 -9999 -9999 -9999 -9999 -9999 -9999 -9999 -9999 -9999 -9999 -9999 -9999 -9999 
-9999 -9999 -9999 1 1 1 1 -9999 -9999 -9999 1 1 1 1 499.93377685546875 368.515869140625 517.265625 551.31610107421875 587.2747802734375 687.39208984375 629.26873779296875 610.5684814453125 589.7923583984375 -9999 1 -9999 121.29256439208984375 289.503448486328125 240.589111328125 29.115747451782226562 1 103.69707489013671875 454.572113037109375 284.8741455078125 233.3901824951171875 47.17844390869140625 38.644561767578125 108.63997650146484375 224.0097808837890625 283.980743408203125 178.576873779296875 216.0594940185546875 223.565093994140625 243.0896148681640625 241.89495849609375 167.7984161376953125 159.03887939453125 114.09688568115234375 125.97698974609375 134.0926513671875 126.99444580078125 130.97076416015625 113.1295928955078125 109.66858673095703125 213.474029541015625 234.81005859375 151.469085693359375 -9999 -9999 -9999 1 220.2330780029296875 209.658966064453125 1 30.403472900390625 157.8621673583984375 214.8668365478515625 194.9365081787109375 162.2176666259765625 153.4916229248046875 170.700103759765625 157.1967620849609375 158.44622802734375 136.9982452392578125 228.2064666748046875 142.8905181884765625 67.8074951171875 127.23925018310546875 133.1619873046875 128.8712158203125 121.74362945556640625 3.4098508358001708984 21.90728759765625 1 1 -9999 -9999 -9999 -9999 -9999 -9999 1 1 -9999 -9999 -9999 -9999 -9999 -9999 -9999 -9999 -9999 -9999 -9999 -9999 -9999 -9999 -9999 -9999 -9999 -9999 -9999 -9999 -9999 -9999 -9999 -9999 -9999 -9999 -9999 -9999 -9999 -9999 -9999 -9999 -9999 -9999 
-9999 -9999 -9999 1 1 1 1 -9999 -9999 -9999 1 1 1 1 1 10.622965812683105469 535.56109619140625 861.52996826171875 830.12921142578125 889.328125 764.46575927734375 801.2669677734375 421.35357666015625 -9999 -9999 -9999 133.9551544189453125 312.776123046875 322.8626708984375 58.3880615234375 415.112945556640625 704.5662841796875 469.98779296875 399.18487548828125 220.5722808837890625 82.13832855224609375 185.3427886962890625 311.675140380859375 177.955718994140625 388.84259033203125 326.8804931640625 180.125946044921875 184.4554443359375 190.901397705078125 335.376312255859375 208.3215179443359375 131.1330108642578125 137.26837158203125 139.11114501953125 139.169586181640625 116.974945068359375 133.6085205078125 75.78855133056640625 137.857879638671875 147.0244598388671875 185.901458740234375 92.42313385009765625 1 -9999 -9999 -9999 167.7289581298828125 197.6327362060546875 230.73297119140625 76.40538787841796875 142.3117218017578125 175.7036590576171875 151.3189239501953125 120.60135650634765625 121.04238128662109375 158.501800537109375 134.740570068359375 111.85955810546875 133.667694091796875 207.6735382080078125 69.26169586181640625 6.5614800453186035156 178.548126220703125 180.607940673828125 89.56220245361328125 203.2368011474609375 281.547088623046875 1 -9999 1 -9999 -9999 1 1 -9999 -9999 -9999 -9999 -9999 -9999 -9999 -9999 -9999 -9999 -9999 -9999 -9999 -9999 -9999 -9999 -9999 -9999 -9999 -9999 -9999 -9999 -9999 -9999 -9999 -9999 -9999 -9999 -9999 -9999 -9999 -9999 -9999 -9999 -9999 -9999 -9999 -9999 
-9999 -9999 1 -9999 1 1 1 -9999 -9999 1 1 1 -9999 1 1 1 118.75144195556640625 235.53228759765625 544.62396240234375 672.866455078125 524.90380859375 505.18560791015625 1 -9999 -9999 -9999 245.225128173828125 119.14878082275390625 21.912630081176757812 1 582.32305908203125 641.26116943359375 635.88555908203125 544.37060546875 282.96148681640625 358.75994873046875 184.403411865234375 227.488433837890625 235.86602783203125 206.4603118896484375 362.767822265625 185.7324676513671875 348.212554931640625 62.65724945068359375 231.9550933837890625 199.7554779052734375 146.001983642578125 157.9429168701171875 100.29459381103515625 164.364471435546875 119.42366790771484375 135.0020294189453125 73.357269287109375 142.1212615966796875 152.0024566650390625 173.3271484375 90.4421234130859375 190.0072479248046875 229.7778472900390625 200.2480926513671875 180.1692962646484375 169.45703125 184.7525787353515625 227.52105712890625 178.219268798828125 130.4244842529296875 140.208343505859375 178.4716949462890625 130.640472412109375 104.24312591552734375 125.8588104248046875 106.4975433349609375 137.418701171875 111.94699859619140625 139.41680908203125 68.3377227783203125 110.612640380859375 266.517059326171875 189.735687255859375 146.50579833984375 135.297210693359375 1 -9999 1 1 -9999 -9999 1 1 -9999 -9999 -9999 -9999 -9999 -9999 -9999 -9999 1 -9999 -9999 -9999 -9999 -9999 -9999 -9999 -9999 -9999 -9999 -9999 -9999 -9999 -9999 -9999 -9999 -9999 -9999 -9999 -9999 -9999 -9999 -9999 -9999 -9999 -9999 -9999 -9999 -9999 
-9999 -9999 -9999 1 1 -9999 -9999 -9999 1 1 1 1 105.8119964599609375 1 1 -9999 -9999 1 57.835720062255859375 140.638519287109375 214.8892822265625 378.01708984375 1 -9999 -9999 157.8190765380859375 229.456756591796875 76.85242462158203125 -9999 308.58685302734375 640.5438232421875 560.80999755859375 604.02569580078125 286.5965576171875 175.2178497314453125 339.3011474609375 243.6904144287109375 244.09429931640625 302.758270263671875 257.6553955078125 327.070526123046875 296.583587646484375 178.3138427734375 77.02544403076171875 279.06109619140625 220.272674560546875 214.9638671875 166.2088623046875 111.3587799072265625 158.236358642578125 169.7266845703125 170.6607818603515625 121.610443115234375 139.503387451171875 138.59088134765625 170.9091796875 181.34619140625 193.485321044921875 212.3468017578125 198.490264892578125 232.0966796875 198.82647705078125 219.3110504150390625 276.619537353515625 216.1007843017578125 168.5385589599609375 185.4363250732421875 197.5968017578125 182.517852783203125 156.3990478515625 99.59592437744140625 88.47238922119140625 107.63240814208984375 109.20941162109375 101.4531707763671875 137.54498291015625 194.805938720703125 300.361663818359375 253.8563232421875 195.356781005859375 100.097625732421875 1 1 1 1 1 1 -9999 -9999 -9999 -9999 -9999 -9999 -9999 -9999 -9999 -9999 -9999 -9999 -9999 -9999 -9999 -9999 -9999 -9999 -9999 -9999 -9999 -9999 -9999 -9999 -9999 -9999 -9999 -9999 -9999 -9999 -9999 -9999 -9999 -9999 -9999 -9999 -9999 -9999 -9999 -9999 
-9999 -9999 1 -9999 -9999 -9999 -9999 -9999 -9999 1 -9999 1 -9999 1 1 1 1 1 1 48.3872222900390625 1 -9999 -9999 -9999 1 1 -9999 331.160369873046875 133.8628997802734375 272.68756103515625 578.8505859375 522.28375244140625 439.057373046875 39.640468597412109375 1 243.91021728515625 251.4121246337890625 215.7052764892578125 264.329681396484375 240.027984619140625 295.7747802734375 254.9881439208984375 171.4268341064453125 203.428802490234375 251.0644683837890625 176.71685791015625 206.3940277099609375 167.82122802734375 148.5513916015625 135.5132293701171875 140.7265167236328125 124.6739959716796875 162.112945556640625 149.84869384765625 112.63152313232421875 138.212921142578125 207.8457489013671875 204.3529510498046875 198.75750732421875 150.013458251953125 175.58001708984375 150.58929443359375 170.3936309814453125 188.086883544921875 168.9293365478515625 157.4243316650390625 174.3533935546875 157.0354461669921875 161.631134033203125 171.5763702392578125 114.013336181640625 90.17197418212890625 119.7005615234375 152.5030517578125 280.336090087890625 294.31317138671875 244.7634124755859375 198.9361114501953125 193.14752197265625 228.9602203369140625 75.33203887939453125 1 1 -9999 -9999 -9999 1 1 1 -9999 -9999 -9999 -9999 -9999 -9999 -9999 -9999 -9999 -9999 -9999 -9999 -9999 -9999 -9999 -9999 -9999 -9999 -9999 -9999 -9999 -9999 -9999 -9999 -9999 -9999 -9999 -9999 -9999 -9999 -9999 -9999 -9999 -9999 -9999 -9999 -9999 -9999 
-9999 -9999 1 -9999 -9999 -9999 -9999 -9999 -9999 1 -9999 1 -9999 1 1 -9999 1 1 1 1 -9999 1 -9999 -9999 -9999 1 -9999 1 1 71.10919952392578125 762.0418701171875 503.589447021484375 395.55859375 137.013885498046875 1 229.994781494140625 229.2397613525390625 194.603759765625 172.194183349609375 222.0602874755859375 323.453460693359375 254.4596405029296875 188.647735595703125 335.31842041015625 135.5647735595703125 176.2075042724609375 160.773834228515625 126.83686065673828125 133.47357177734375 113.43547821044921875 200.534820556640625 147.8568572998046875 132.578033447265625 159.575042724609375 172.054168701171875 162.285369873046875 237.0397186279296875 171.7517852783203125 171.118988037109375 183.9393463134765625 170.2020263671875 135.5507965087890625 139.0531158447265625 164.2694091796875 163.8585052490234375 180.92095947265625 166.6343994140625 152.7755279541015625 172.725189208984375 184.7905120849609375 132.5687408447265625 152.2664947509765625 132.8604888916015625 286.198638916015625 316.053985595703125 336.11492919921875 238.9136199951171875 256.80072021484375 242.79083251953125 187.9271087646484375 1 1 1 -9999 -9999 -9999 1 1 -9999 -9999 -9999 -9999 -9999 -9999 -9999 -9999 -9999 -9999 -9999 -9999 -9999 -9999 -9999 -9999 -9999 -9999 -9999 -9999 -9999 -9999 -9999 -9999 -9999 -9999 -9999 -9999 -9999 -9999 -9999 -9999 -9999 -9999 -9999 -9999 -9999 -9999 -9999 
-9999 -9999 -9999 1 -9999 -9999 -9999 -9999 -9999 -9999 1 1 1 1 1 1 1 1 1 1 -9999 1 -9999 -9999 -9999 -9999 -9999 -9999 1 1 241.0889739990234375 256.970001220703125 452.10614013671875 206.9242095947265625 159.1248626708984375 193.1541900634765625 165.5408172607421875 182.4793701171875 157.8115234375 195.452484130859375 216.5514678955078125 168.2220001220703125 242.83587646484375 166.24261474609375 96.1232452392578125 150.168914794921875 120.8392791748046875 70.78115081787109375 107.1352996826171875 8.16577911376953125 182.9754791259765625 161.4737548828125 151.2112884521484375 193.7352294921875 249.8760528564453125 151.840789794921875 201.1188507080078125 219.6054229736328125 238.6801300048828125 229.099151611328125 100.5008392333984375 137.21514892578125 157.1265411376953125 134.4638824462890625 207.0845794677734375 177.8761749267578125 217.6607208251953125 262.4613037109375 242.71539306640625 181.1698150634765625 161.447784423828125 166.51019287109375 180.8622589111328125 223.628448486328125 229.55328369140625 272.5379638671875 194.3743133544921875 229.71783447265625 264.336700439453125 200.377655029296875 1 1 -9999 -9999 -9999 -9999 1 -9999 -9999 -9999 -9999 -9999 -9999 -9999 -9999 -9999 -9999 -9999 -9999 -9999 -9999 -9999 -9999 -9999 -9999 -9999 -9999 -9999 -9999 -9999 -9999 -9999 -9999 -9999 -9999 -9999 -9999 -9999 -9999 -9999 -9999 -9999 -9999 -9999 -9999 -9999 -9999 
-9999 -9999 -9999 -9999 -9999 -9999 -9999 -9999 -9999 1 1 1 1 1 1 1 1 1 1 -9999 -9999 -9999 -9999 -9999 -9999 -9999 -9999 -9999 1 1 -9999 32.5549468994140625 400.346649169921875 246.29443359375 164.19036865234375 64.09259033203125 202.29534912109375 261.98309326171875 240.365264892578125 228.2181854248046875 266.218475341796875 166.75933837890625 121.821075439453125 120.767425537109375 147.840667724609375 167.7741546630859375 226.4472198486328125 63.004852294921875 22.490819931030273438 3.1684055328369140625 127.1337738037109375 144.5061798095703125 123.53374481201171875 149.2802734375 203.204315185546875 196.3192291259765625 186.0029144287109375 256.977203369140625 245.78277587890625 242.058837890625 220.532379150390625 197.759246826171875 212.65216064453125 220.588623046875 223.6676177978515625 229.5806884765625 246.84375 253.31268310546875 244.95849609375 193.783447265625 241.358734130859375 299.11016845703125 230.4572906494140625 197.10675048828125 173.3900604248046875 274.9635009765625 190.0097808837890625 240.11773681640625 247.2059173583984375 219.7676239013671875 1 -9999 -9999 -9999 -9999 -9999 1 1 -9999 -9999 -9999 -9999 -9999 -9999 -9999 -9999 -9999 -9999 -9999 -9999 -9999 -9999 -9999 -9999 -9999 -9999 -9999 -9999 -9999 -9999 -9999 -9999 -9999 -9999 -9999 -9999 -9999 -9999 -9999 -9999 -9999 -9999 -9999 -9999 -9999 -9999 -9999 
-9999 -9999 -9999 -9999 -9999 -9999 1 -9999 -9999 1 1 1 1 1 1 1 1 1 -9999 -9999 -9999 -9999 -9999 -9999 -9999 -9999 1 1 1 -9999 1 1 255.552825927734375 214.3255767822265625 302.62957763671875 261.23687744140625 256.7225341796875 214.561767578125 258.893798828125 194.7709808349609375 221.0380706787109375 138.4712371826171875 75.79874420166015625 176.0924224853515625 165.83880615234375 164.3621063232421875 213.3369598388671875 82.063323974609375 43.61061859130859375 76.59503936767578125 108.02359771728515625 131.4810028076171875 109.5615692138671875 135.111846923828125 175.3531036376953125 207.200927734375 202.8374176025390625 1 1 1 1 152.7067413330078125 168.59698486328125 1 1 1 240.12640380859375 218.002532958984375 240.5744781494140625 289.71142578125 348.988922119140625 311.58563232421875 214.6602325439453125 205.6956787109375 208.5613861083984375 211.57049560546875 178.8177490234375 205.1990966796875 90.9362640380859375 1 1 -9999 -9999 -9999 -9999 -9999 -9999 -9999 -9999 -9999 -9999 1 1 1 -9999 -9999 -9999 -9999 -9999 -9999 -9999 -9999 -9999 -9999 -9999 -9999 -9999 -9999 -9999 -9999 -9999 -9999 -9999 -9999 -9999 -9999 -9999 -9999 -9999 -9999 -9999 -9999 -9999 -9999 -9999 -9999 -9999 
-9999 -9999 -9999 -9999 -9999 -9999 -9999 1 -9999 1 1 1 1 1 1 1 1 1 1 1 1 1 -9999 -9999 -9999 -9999 -9999 1 1 1 1 72.333282470703125 275.51397705078125 377.9459228515625 284.921661376953125 238.9199371337890625 204.88348388671875 173.8412628173828125 110.35918426513671875 203.8965606689453125 192.7894744873046875 140.62371826171875 141.791900634765625 151.7635345458984375 158.5379791259765625 158.758392333984375 179.4704132080078125 124.0086212158203125 116.1644744873046875 155.021636962890625 137.755889892578125 169.8504180908203125 192.3670654296875 197.0515899658203125 205.4720306396484375 208.4989166259765625 52.287506103515625 -9999 -9999 -9999 -9999 -9999 -9999 1 -9999 -9999 1 80.64453887939453125 238.163116455078125 341.113983154296875 290.752685546875 266.149627685546875 239.02630615234375 228.232757568359375 217.48126220703125 194.3084869384765625 147.671844482421875 132.7374420166015625 1 1 1 -9999 -9999 -9999 -9999 -9999 -9999 -9999 -9999 -9999 1 1 116.80877685546875 1 -9999 -9999 -9999 -9999 -9999 -9999 -9999 -9999 -9999 -9999 -9999 -9999 -9999 -9999 -9999 -9999 -9999 -9999 -9999 -9999 -9999 -9999 -9999 -9999 -9999 -9999 -9999 -9999 -9999 -9999 -9999 -9999 -9999 
-9999 -9999 -9999 -9999 -9999 -9999 -9999 -9999 -9999 1 -9999 1 1 1 1 1 1 1 52.539653778076171875 348.093719482421875 69.49903106689453125 -9999 -9999 -9999 -9999 1 1 1 1 109.8851776123046875 151.018707275390625 129.343994140625 272.838592529296875 297.337554931640625 201.673553466796875 198.8129425048828125 195.5388336181640625 165.196075439453125 169.5457305908203125 169.888336181640625 176.317230224609375 167.025604248046875 144.5417938232421875 245.4266815185546875 214.7189788818359375 143.1958465576171875 132.9003753662109375 85.80511474609375 115.1975250244140625 168.4873504638671875 155.840301513671875 187.888214111328125 192.79925537109375 235.8999786376953125 112.992431640625 1 -9999 -9999 -9999 -9999 -9999 -9999 -9999 -9999 -9999 -9999 -9999 1 223.775482177734375 333.77447509765625 261.625762939453125 225.707794189453125 267.094940185546875 256.028778076171875 211.0922698974609375 197.071807861328125 163.18365478515625 94.8701324462890625 79.05391693115234375 1 -9999 -9999 -9999 -9999 -9999 -9999 -9999 1 -9999 1 1 1 184.6680145263671875 1 -9999 -9999 -9999 -9999 -9999 -9999 -9999 -9999 -9999 -9999 -9999 -9999 -9999 -9999 -9999 -9999 -9999 -9999 -9999 -9999 -9999 -9999 -9999 -9999 -9999 -9999 1 -9999 -9999 -9999 -9999 -9999 -9999 
-9999 -9999 -9999 -9999 -9999 -9999 -9999 1 1 1 1 1 1 1 1 1 1 127.10375213623046875 31.529628753662109375 309.642578125 33.53493499755859375 1 1 -9999 1 -9999 -9999 1 117.22369384765625 146.3231353759765625 1 129.0971221923828125 468.059295654296875 376.1734619140625 239.0435791015625 232.7624053955078125 187.946533203125 192.480255126953125 214.0892333984375 146.0754241943359375 180.8924560546875 185.5140838623046875 131.919952392578125 252.719635009765625 336.117279052734375 1 146.0093841552734375 123.7524566650390625 119.05016326904296875 86.6644744873046875 119.24274444580078125 144.611724853515625 89.44072723388671875 185.21832275390625 1 -9999 -9999 -9999 -9999 -9999 -9999 -9999 -9999 -9999 -9999 -9999 -9999 1 247.066070556640625 295.10650634765625 166.5959320068359375 238.4900360107421875 290.035003662109375 266.60400390625 230.4247589111328125 186.28753662109375 155.880950927734375 148.721435546875 1 1 -9999 -9999 -9999 -9999 -9999 -9999 1 1 250.1664276123046875 498.661376953125 150.3827972412109375 134.171478271484375 60.843173980712890625 1 -9999 -9999 -9999 -9999 -9999 -9999 -9999 -9999 -9999 -9999 -9999 -9999 -9999 -9999 -9999 -9999 -9999 -9999 -9999 -9999 -9999 -9999 -9999 -9999 -9999 -9999 -9999 -9999 -9999 -9999 -9999 -9999 -9999 
-9999 -9999 -9999 -9999 -9999 -9999 -9999 -9999 -9999 -9999 1 1 1 1 1 1 79.3687896728515625 80.80389404296875 1 1 1 1 -9999 -9999 1 -9999 -9999 1 491.489776611328125 404.309539794921875 277.957183837890625 348.879302978515625 445.04559326171875 242.52734375 222.5904693603515625 221.4367523193359375 233.39166259765625 222.9296112060546875 223.017486572265625 138.3866119384765625 168.6444854736328125 135.577850341796875 165.084747314453125 181.1157073974609375 -9999 177.3686676025390625 100.28928375244140625 121.889984130859375 159.9694976806640625 202.198822021484375 303.0716552734375 236.9082489013671875 158.52386474609375 1 1 -9999 -9999 -9999 -9999 -9999 1 1 1 1 1 1 -9999 1 246.5922088623046875 283.233367919921875 170.208251953125 205.526031494140625 210.2103118896484375 195.6455230712890625 213.635589599609375 202.718292236328125 178.4718170166015625 264.705413818359375 1 -9999 -9999 -9999 -9999 -9999 -9999 1 80.84978485107421875 1 282.87652587890625 490.080780029296875 252.366058349609375 371.838348388671875 176.647247314453125 -9999 -9999 -9999 -9999 -9999 -9999 -9999 -9999 -9999 -9999 -9999 -9999 -9999 -9999 -9999 -9999 -9999 -9999 -9999 -9999 -9999 -9999 -9999 -9999 -9999 -9999 -9999 -9999 -9999 -9999 -9999 -9999 -9999 -9999 
-9999 -9999 -9999 -9999 -9999 1 -9999 -9999 -9999 1 1 1 1 1 17.634281158447265625 47.710292816162109375 104.02620697021484375 1 1 1 1 -9999 -9999 1 -9999 1 1 298.533599853515625 465.68255615234375 386.70440673828125 292.23486328125 254.0602264404296875 71.8708648681640625 157.9871978759765625 233.1320037841796875 212.8881378173828125 225.0041351318359375 219.5245208740234375 216.22149658203125 190.8694610595703125 190.8993682861328125 157.134124755859375 207.55352783203125 210.1927490234375 277.45257568359375 212.4682159423828125 110.34860992431640625 143.69659423828125 121.6670379638671875 230.9866485595703125 250.9930267333984375 165.481903076171875 137.5235748291015625 121.0357666015625 378.47509765625 250.875274658203125 164.4606475830078125 1 1 1 -9999 -9999 -9999 -9999 -9999 1 -9999 1 201.3191070556640625 219.0204315185546875 179.8716888427734375 196.961181640625 193.6377105712890625 188.46240234375 214.99609375 212.3213653564453125 201.3001556396484375 208.8418426513671875 1 1 -9999 -9999 -9999 150.2163543701171875 256.30487060546875 1 184.2993927001953125 106.02985382080078125 1 97.28710174560546875 437.7264404296875 200.48211669921875 30.936792373657226562 1 -9999 -9999 -9999 -9999 -9999 -9999 -9999 -9999 -9999 -9999 -9999 -9999 -9999 -9999 -9999 -9999 -9999 -9999 -9999 -9999 -9999 -9999 -9999 -9999 -9999 -9999 -9999 -9999 -9999 -9999 -9999 -9999 -9999 
-9999 -9999 -9999 -9999 -9999 -9999 1 -9999 1 1 1 1 6.0433216094970703125 1 99.765228271484375 207.348052978515625 1 1 1 1 1 -9999 1 1 1 -9999 1 627.19268798828125 432.311309814453125 499.42529296875 333.07489013671875 1 1 195.205535888671875 241.3407745361328125 213.368988037109375 206.5904998779296875 174.259613037109375 181.8722686767578125 229.8556976318359375 241.6717071533203125 165.9815826416015625 183.1695709228515625 219.8359527587890625 262.5006103515625 208.930755615234375 196.9027557373046875 130.260589599609375 72.5257415771484375 80.3575897216796875 141.52203369140625 132.9948577880859375 110.89266204833984375 163.69183349609375 416.915008544921875 190.6380615234375 181.0114898681640625 24.423620223999023438 1 1 1 1 1 1 -9999 1 1 250.383697509765625 196.5674591064453125 222.4654693603515625 183.978912353515625 198.40533447265625 172.878448486328125 206.3553314208984375 227.4268951416015625 225.334259033203125 226.4158477783203125 264.640167236328125 114.01753997802734375 1 -9999 -9999 -9999 211.649169921875 410.896270751953125 489.899658203125 304.74432373046875 243.0121612548828125 291.968048095703125 132.758026123046875 429.24249267578125 447.5029296875 510.58795166015625 296.29168701171875 1 -9999 -9999 -9999 -9999 -9999 -9999 -9999 -9999 -9999 -9999 -9999 -9999 -9999 -9999 -9999 -9999 -9999 -9999 -9999 -9999 1 -9999 -9999 -9999 -9999 -9999 -9999 -9999 -9999 -9999 -9999 -9999 
-9999 -9999 -9999 -9999 -9999 -9999 -9999 -9999 1 1 1 1 1 42.245563507080078125 116.4076080322265625 181.0388031005859375 1 1 1 1 1 1 1 1 1 1 1 255.937164306640625 317.105865478515625 330.8778076171875 268.67413330078125 61.6434783935546875 154.8353729248046875 338.83551025390625 259.561798095703125 237.1533203125 239.1920318603515625 176.8544158935546875 216.4013214111328125 277.057281494140625 196.1430206298828125 176.2174530029296875 210.4639434814453125 226.8981170654296875 205.4268341064453125 143.3745880126953125 115.1312255859375 133.63970947265625 131.8080291748046875 30.15453338623046875 88.67967987060546875 134.5326995849609375 250.53045654296875 194.5978851318359375 159.34796142578125 150.8828887939453125 176.1542205810546875 99.0755462646484375 1 -9999 1 1 1 1 1 1 299.0948486328125 310.012420654296875 244.095458984375 220.185760498046875 180.686065673828125 221.77423095703125 223.6494903564453125 218.5476226806640625 196.8559417724609375 177.9070587158203125 212.142364501953125 108.49506378173828125 -9999 -9999 -9999 -9999 1 291.8873291015625 279.1292724609375 225.07061767578125 280.851165771484375 261.78045654296875 289.558258056640625 319.0662841796875 378.90283203125 396.18914794921875 308.76513671875 351.111907958984375 1.8133450746536254883 -9999 -9999 -9999 -9999 -9999 -9999 -9999 -9999 -9999 -9999 -9999 -9999 -9999 -9999 -9999 -9999 -9999 -9999 -9999 -9999 -9999 -9999 -9999 -9999 -9999 -9999 -9999 -9999 -9999 -9999 -9999 -9999 
-9999 -9999 -9999 -9999 1 -9999 -9999 1 1 1 45.71189117431640625 111.92047119140625 1 1 18.216398239135742188 1 1 1 1 1 1 1 1 1 1 1 1 155.9327850341796875 274.85980224609375 172.055511474609375 16.156373977661132812 1 175.7291259765625 383.800750732421875 276.701019287109375 220.9620208740234375 185.854888916015625 152.8349609375 189.59814453125 231.559356689453125 173.3650665283203125 177.6728363037109375 201.5605010986328125 218.6016082763671875 210.1986846923828125 153.2400054931640625 164.27593994140625 92.676788330078125 116.32794952392578125 46.122303009033203125 89.04277801513671875 118.8177490234375 213.499237060546875 221.4971160888671875 190.584625244140625 186.12493896484375 150.262969970703125 177.469329833984375 267.58197021484375 15.503787040710449219 1 1 60.07700347900390625 181.991851806640625 270.66937255859375 295.36041259765625 338.754608154296875 325.66485595703125 249.0029296875 198.611968994140625 228.0540771484375 235.8764190673828125 254.9216461181640625 252.1215362548828125 191.7088165283203125 186.469512939453125 209.4827117919921875 124.2285003662109375 -9999 -9999 -9999 -9999 1 162.4710693359375 208.259979248046875 212.2630767822265625 228.1633758544921875 250.641357421875 232.9642181396484375 241.4596405029296875 382.950042724609375 391.427032470703125 182.4585418701171875 1 1 -9999 -9999 -9999 -9999 -9999 -9999 -9999 -9999 -9999 -9999 -9999 -9999 -9999 -9999 -9999 -9999 -9999 -9999 -9999 -9999 -9999 -9999 -9999 -9999 -9999 -9999 -9999 -9999 -9999 -9999 -9999 -9999 
-9999 -9999 -9999 1 -9999 -9999 -9999 1 1 1 1 1 1 1 1 1 1 1 1 1 -9999 1 1 1 1 1 61.49267578125 289.78582763671875 288.353057861328125 128.58294677734375 91.32049560546875 136.4980316162109375 188.179290771484375 273.0350341796875 236.9751434326171875 255.860992431640625 280.563751220703125 200.3079986572265625 225.186187744140625 181.38653564453125 169.8038482666015625 197.072174072265625 189.363494873046875 173.57452392578125 197.3298797607421875 253.164306640625 150.474395751953125 150.2978515625 81.18752288818359375 92.0528717041015625 101.84354400634765625 38.7706146240234375 149.624237060546875 171.326873779296875 188.19012451171875 170.8460693359375 224.617828369140625 284.07421875 342.521148681640625 381.881805419921875 189.8282928466796875 104.9410400390625 176.7149658203125 250.8285980224609375 244.5027618408203125 254.36212158203125 320.783782958984375 268.7467041015625 203.8379669189453125 134.5043792724609375 221.1543121337890625 245.537200927734375 246.56927490234375 255.523223876953125 193.1942291259765625 207.1053314208984375 226.2173309326171875 74.23131561279296875 -9999 -9999 -9999 -9999 1 88.40711212158203125 87.942779541015625 200.526702880859375 232.1717071533203125 257.665802001953125 175.969940185546875 269.575225830078125 361.24322509765625 336.130126953125 231.5971221923828125 155.6647491455078125 1 -9999 -9999 -9999 -9999 -9999 1 -9999 -9999 -9999 -9999 -9999 -9999 -9999 -9999 -9999 -9999 -9999 -9999 -9999 -9999 -9999 -9999 -9999 -9999 -9999 -9999 -9999 -9999 -9999 -9999 -9999 -9999 
-9999 -9999 -9999 -9999 -9999 1 1 1 1 -9999 -9999 1 1 1 1 1 1 1 1 1 1 1 1 1 1 1 277.77685546875 302.225494384765625 126.76438140869140625 1 197.6445159912109375 215.75274658203125 222.6806182861328125 236.5438232421875 200.6055145263671875 116.2204132080078125 396.660186767578125 292.668060302734375 148.6793975830078125 1 71.2440185546875 187.9229278564453125 210.6749267578125 181.213775634765625 204.092315673828125 196.4051971435546875 94.637908935546875 100.52408599853515625 100.71901702880859375 80.857513427734375 112.8414459228515625 180.224334716796875 2.1538712978363037109 120.43828582763671875 180.73895263671875 129.4992828369140625 157.0248870849609375 239.3634033203125 289.80389404296875 319.008819580078125 278.876678466796875 220.5364837646484375 256.568511962890625 251.09527587890625 245.4425048828125 289.89453125 258.345062255859375 196.4090423583984375 165.172393798828125 185.6826934814453125 234.6226348876953125 231.6696014404296875 216.0343170166015625 228.42987060546875 198.7642364501953125 218.5537567138671875 211.5812530517578125 -9999 1 1 1 1 1 1 1 203.4741668701171875 217.084564208984375 244.867889404296875 271.204132080078125 359.89776611328125 369.575225830078125 320.571441650390625 394.4761962890625 208.03253173828125 52.918560028076171875 1 -9999 -9999 -9999 -9999 -9999 -9999 -9999 -9999 -9999 -9999 -9999 -9999 -9999 -9999 -9999 -9999 -9999 -9999 -9999 -9999 -9999 -9999 -9999 -9999 -9999 -9999 -9999 -9999 -9999 -9999 -9999 
-9999 -9999 -9999 -9999 -9999 1 1 1 1 -9999 -9999 1 1 1 1 1 1 1 1 1 1 1 1 1 1 -9999 131.11627197265625 242.5981597900390625 1 180.4301910400390625 229.87652587890625 335.118377685546875 310.992401123046875 225.995086669921875 167.37261962890625 192.9926605224609375 278.494873046875 380.632781982421875 122.89379119873046875 131.6854705810546875 27.137523651123046875 40.469387054443359375 220.1774139404296875 253.856170654296875 206.1927642822265625 162.2824249267578125 60.84227752685546875 78.62328338623046875 131.4962310791015625 22.9003143310546875 55.5074920654296875 -9999 -9999 1 140.273101806640625 161.118682861328125 97.6350250244140625 109.27079010009765625 163.6873626708984375 221.068267822265625 193.9567108154296875 181.9944915771484375 233.7295074462890625 262.615478515625 260.2584228515625 251.6051025390625 291.522369384765625 244.727294921875 211.3483428955078125 199.291961669921875 220.2923583984375 207.138519287109375 161.9287872314453125 206.8606109619140625 203.4932098388671875 237.034942626953125 221.7142486572265625 -9999 -9999 -9999 -9999 -9999 143.6190643310546875 245.9136505126953125 1 115.564361572265625 186.0262451171875 243.2346038818359375 234.430999755859375 223.4539794921875 1 95.9869232177734375 250.430084228515625 172.1259002685546875 77.31237030029296875 1 -9999 -9999 -9999 -9999 -9999 -9999 -9999 -9999 -9999 -9999 -9999 -9999 -9999 -9999 -9999 1 1 -9999 -9999 -9999 -9999 -9999 -9999 -9999 -9999 -9999 -9999 -9999 -9999 -9999 -9999 
-9999 -9999 -9999 -9999 -9999 1 1 1 1 -9999 1 1 1 1 -9999 1 1 1 1 1 1 1 1 1 1 1 111.072906494140625 493.280609130859375 232.160736083984375 243.5520782470703125 304.792388916015625 326.17498779296875 411.6578369140625 250.0354156494140625 399.624664306640625 424.43524169921875 473.904754638671875 391.398712158203125 332.21014404296875 373.192230224609375 1 1 51.735729217529296875 257.3935546875 228.5643157958984375 142.8673248291015625 144.5545806884765625 180.98114013671875 216.385894775390625 174.1008148193359375 1 1 -9999 1 44.89781951904296875 61.2921295166015625 1 17.563497543334960938 10.021979331970214844 1 89.30701446533203125 188.91876220703125 155.6136627197265625 197.1121063232421875 179.75592041015625 189.798828125 227.07293701171875 233.881927490234375 119.1764984130859375 141.3056640625 235.52276611328125 214.0966796875 327.140716552734375 234.59161376953125 204.84771728515625 227.4292144775390625 209.582122802734375 -9999 1 1 -9999 1 244.120758056640625 152.0977020263671875 110.2951812744140625 198.00531005859375 180.80535888671875 174.5750579833984375 195.019287109375 136.585418701171875 174.2786712646484375 201.425537109375 249.8013763427734375 257.094573974609375 1 1 1 1 -9999 -9999 -9999 -9999 -9999 -9999 -9999 -9999 -9999 -9999 -9999 -9999 -9999 -9999 -9999 -9999 -9999 -9999 -9999 -9999 -9999 -9999 -9999 -9999 -9999 -9999 -9999 -9999 -9999 
-9999 -9999 -9999 -9999 1 1 1 1 1 1 1 1 1 1 1 1 1 1 1 1 34.31452178955078125 14.988823890686035156 120.67284393310546875 22.577190399169921875 1 300.31402587890625 423.7879638671875 276.163421630859375 393.08807373046875 283.99578857421875 552.4532470703125 329.814056396484375 263.218963623046875 330.430572509765625 279.99151611328125 385.787750244140625 417.64019775390625 279.74530029296875 1 1 1 1 1 118.325531005859375 243.1680450439453125 292.836273193359375 296.800323486328125 271.6771240234375 1 1 1 1 1 1 36.64032745361328125 66.52112579345703125 1 1 1 1 1 133.973297119140625 155.8534698486328125 105.68860626220703125 1 1 -9999 1 1 147.6443023681640625 184.8069000244140625 123.54529571533203125 227.940093994140625 229.7391815185546875 205.4150848388671875 232.3843994140625 245.6943817138671875 -9999 1 1 -9999 1 230.0178985595703125 167.1721343994140625 209.171051025390625 195.35968017578125 97.21440887451171875 224.4451446533203125 261.256134033203125 202.798614501953125 256.3748779296875 213.7816619873046875 -9999 82.1596832275390625 112.93434906005859375 120.1078338623046875 183.1506195068359375 1 1 1 -9999 1 -9999 -9999 -9999 -9999 -9999 -9999 -9999 1 -9999 -9999 -9999 -9999 -9999 -9999 -9999 -9999 -9999 -9999 -9999 -9999 -9999 -9999 -9999 -9999 -9999 
-9999 -9999 -9999 -9999 1 1 1 1 1 1 1 1 1 1 -9999 -9999 1 1 1 1 74.65128326416015625 11.6674957275390625 213.0906982421875 1 1 575.41082763671875 553.13043212890625 507.795257568359375 498.45196533203125 496.09674072265625 734.419189453125 592.6265869140625 402.2972412109375 352.028289794921875 393.90826416015625 548.90716552734375 576.543212890625 1 1 1 1 1 63.416980743408203125 221.5950775146484375 255.845428466796875 250.0178985595703125 152.84173583984375 1 1 1 -9999 -9999 1 1 28.512126922607421875 1 1 1 1 94.55519866943359375 1 4.4545807838439941406 96.529937744140625 142.1862640380859375 124.2452392578125 101.8334503173828125 61.32459259033203125 1 1 24.876949310302734375 1.9219154119491577148 92.5110015869140625 272.48297119140625 241.80181884765625 228.186248779296875 258.49859619140625 234.917694091796875 1 1 -9999 -9999 1 63.793548583984375 140.4435272216796875 210.97735595703125 180.9646453857421875 118.8724517822265625 346.384979248046875 247.15985107421875 123.8079986572265625 160.167694091796875 165.387939453125 241.1007843017578125 231.646942138671875 245.986572265625 288.691497802734375 335.44818115234375 5.8174190521240234375 123.85166168212890625 1 1 1 -9999 -9999 -9999 -9999 -9999 -9999 -9999 -9999 -9999 -9999 -9999 -9999 -9999 -9999 -9999 -9999 -9999 -9999 -9999 -9999 -9999 -9999 -9999 -9999 -9999 
-9999 -9999 -9999 1 -9999 -9999 1 1 1 1 1 1 1 1 1 1 1 1 1 1 1 1 132.9997711181640625 1 422.72515869140625 629.22467041015625 442.688018798828125 570.70758056640625 526.38958740234375 464.65643310546875 540.1497802734375 502.46234130859375 528.36712646484375 341.050201416015625 342.01080322265625 484.12457275390625 574.60833740234375 1 1 1 -9999 1 248.4330291748046875 284.5836181640625 338.864898681640625 167.78753662109375 -9999 1 -9999 1 1 1 1 1 1 1 1 1 17.272336959838867188 1 1 1 18.126810073852539062 117.53823089599609375 194.45025634765625 209.11578369140625 98.53366851806640625 1 1 1 1 14.531942367553710938 216.46820068359375 228.67120361328125 211.695648193359375 260.134490966796875 267.708953857421875 1 -9999 1 1 1 1 176.52288818359375 187.37158203125 225.3903656005859375 175.5659942626953125 266.769775390625 232.167449951171875 180.744873046875 215.442535400390625 236.1636199951171875 227.956146240234375 186.286224365234375 251.5989837646484375 308.198883056640625 340.049530029296875 409.973602294921875 140.375274658203125 26.639942169189453125 1 1 -9999 1 -9999 -9999 -9999 -9999 -9999 -9999 -9999 -9999 -9999 -9999 -9999 -9999 -9999 -9999 -9999 -9999 -9999 -9999 -9999 -9999 -9999 -9999 -9999 
-9999 -9999 -9999 -9999 -9999 -9999 1 -9999 1 1 1 1 1 1 1 1 1 1 1 1 65.31839752197265625 42.7202911376953125 77.31316375732421875 1 669.6328125 448.795257568359375 388.350189208984375 265.24017333984375 293.53729248046875 215.9940032958984375 161.800933837890625 -9999 182.019683837890625 274.08734130859375 275.194183349609375 358.415924072265625 161.227630615234375 1 1 -9999 1 1 265.356658935546875 404.307861328125 236.79010009765625 -9999 -9999 -9999 1 1 1 1 1 1 1 1 45.333827972412109375 1 1 1 1 1 88.399017333984375 38.89522552490234375 123.76386260986328125 254.3300323486328125 279.295135498046875 1 1 1 1 27.900539398193359375 142.584625244140625 208.546234130859375 179.093994140625 266.625823974609375 290.0118408203125 167.2659149169921875 -9999 1 1 14.106434822082519531 66.45832061767578125 169.72509765625 133.3194580078125 131.179656982421875 112.161041259765625 228.4381103515625 239.9433746337890625 218.3354034423828125 203.6437530517578125 185.7751007080078125 269.83624267578125 140.2679443359375 143.5038299560546875 196.0502777099609375 223.94781494140625 364.54730224609375 36.22464752197265625 72.2707366943359375 13.586553573608398438 1 1 1 -9999 -9999 -9999 -9999 -9999 -9999 -9999 -9999 -9999 -9999 -9999 -9999 -9999 -9999 -9999 -9999 -9999 -9999 -9999 -9999 -9999 -9999 -9999 
-9999 1 -9999 -9999 -9999 1 -9999 -9999 -9999 -9999 1 1 1 1 1 1 1 4.0812840461730957031 87.32764434814453125 78.214996337890625 374.577789306640625 87.4732818603515625 100.4146575927734375 1 392.958892822265625 59.364986419677734375 159.83837890625 1 20.178155899047851562 4.6626811027526855469 1 -9999 119.62479400634765625 250.0764007568359375 286.197540283203125 270.757659912109375 125.54703521728515625 1 1 1 1 1 18.804843902587890625 220.5474090576171875 7.1200122833251953125 1 -9999 -9999 1 1 1 1 1 1 1 1 1 1 1 -9999 -9999 1 1.8883678913116455078 187.9548492431640625 195.118408203125 213.0177459716796875 289.44189453125 9.3493604660034179688 65.31826019287109375 3.7497625350952148438 1 1 217.6006317138671875 236.4908599853515625 213.297332763671875 251.40496826171875 275.4801025390625 224.971160888671875 1 43.8883514404296875 1 206.374603271484375 219.6867828369140625 197.8392333984375 222.2702484130859375 203.1937255859375 201.1894989013671875 152.2229156494140625 207.2018890380859375 252.9418487548828125 252.0155792236328125 213.306427001953125 318.915435791015625 185.083648681640625 51.296741485595703125 150.8140716552734375 149.0148773193359375 61.4425811767578125 183.541107177734375 295.54669189453125 169.57666015625 1 1 1 -9999 -9999 -9999 -9999 -9999 -9999 -9999 1 -9999 -9999 -9999 -9999 -9999 -9999 -9999 -9999 -9999 -9999 -9999 -9999 -9999 -9999 -9999 
1 -9999 -9999 -9999 -9999 -9999 -9999 -9999 -9999 -9999 -9999 1 1 1 1 1 1 145.2777557373046875 174.0189361572265625 142.2090301513671875 136.989898681640625 1 78.5423126220703125 72.1084136962890625 103.905242919921875 1 1 38.726413726806640625 1 1 -9999 -9999 1 297.681976318359375 166.008087158203125 270.570037841796875 165.88348388671875 35.4583892822265625 1 1 1 2.8689844608306884766 1 1 1 1 -9999 1 1 1 1 1 1 1 1 1 179.7703704833984375 150.17718505859375 -9999 -9999 1 1 110.0809478759765625 269.116363525390625 243.650970458984375 157.3220977783203125 245.814056396484375 177.9155120849609375 144.845855712890625 1 1 1 145.41070556640625 200.0575714111328125 218.2552642822265625 173.124603271484375 144.7704925537109375 209.5555419921875 119.2904815673828125 74.3697662353515625 1 183.978485107421875 204.5453643798828125 172.3493194580078125 220.730010986328125 187.422607421875 168.9935760498046875 202.2850189208984375 228.6641387939453125 244.0272216796875 221.0026397705078125 128.506195068359375 136.2025299072265625 76.74727630615234375 237.9342498779296875 156.267486572265625 150.648712158203125 148.8382568359375 282.23663330078125 240.983612060546875 164.9310760498046875 119.62897491455078125 30.34432220458984375 1 28.722202301025390625 1 -9999 -9999 -9999 -9999 -9999 -9999 -9999 -9999 -9999 -9999 -9999 -9999 -9999 -9999 -9999 -9999 -9999 -9999 -9999 -9999 -9999 
1 -9999 -9999 -9999 -9999 -9999 -9999 -9999 -9999 -9999 -9999 1 1 1 1 1 1 1 1 1 1 1 68.41074371337890625 60.737682342529296875 1 1 1 1 29.33139801025390625 1 -9999 1 257.061065673828125 254.5444488525390625 89.89200592041015625 150.199920654296875 30.801816940307617188 1 1 1 1 1 83.5041351318359375 1 1 1 1 1 1 1 1 1 1 -9999 1 1.6653485298156738281 260.083648681640625 229.4514312744140625 1 1 -9999 1 133.019989013671875 226.4010009765625 164.347930908203125 136.4435272216796875 188.170867919921875 270.8887939453125 165.291839599609375 57.059871673583984375 31.496183395385742188 89.827545166015625 77.28328704833984375 125.00579071044921875 145.2432708740234375 65.931182861328125 1 197.2826385498046875 111.72492218017578125 1 1 175.3890380859375 149.4036102294921875 163.7294769287109375 221.518951416015625 200.5811309814453125 208.4139556884765625 237.408966064453125 231.4814910888671875 190.6435546875 191.3603057861328125 215.3523712158203125 170.227142333984375 194.688232421875 216.9750823974609375 187.0380859375 170.5559844970703125 114.23394775390625 133.702789306640625 199.5492401123046875 49.89879608154296875 1 61.657009124755859375 248.9351959228515625 249.195404052734375 1 -9999 -9999 -9999 -9999 1 -9999 -9999 -9999 -9999 -9999 -9999 -9999 -9999 -9999 -9999 -9999 -9999 -9999 -9999 -9999 -9999 
-9999 -9999 -9999 -9999 -9999 -9999 -9999 -9999 -9999 1 -9999 1 1 1 1 1 1 1 1 120.534698486328125 44.017822265625 1 1 1 1 1 1 1 1 1 1 1 161.6421051025390625 395.409637451171875 298.476715087890625 102.5548095703125 44.0997314453125 1 1 1 1 1 1 -9999 -9999 1 1 1 1 1 1 1 1 1 1 -9999 93.4968719482421875 169.942352294921875 6.6510787010192871094 1 73.6887359619140625 296.11920166015625 238.06268310546875 135.2946624755859375 135.4615020751953125 211.269622802734375 156.1611175537109375 120.363555908203125 188.3810882568359375 247.9241485595703125 153.0124359130859375 34.31768798828125 65.8440399169921875 127.4176025390625 206.4626007080078125 167.4644927978515625 1 47.33036041259765625 142.3117828369140625 35.437061309814453125 1 145.972259521484375 192.9268951416015625 191.83636474609375 240.92816162109375 217.8570709228515625 184.3439483642578125 209.4514923095703125 182.1014404296875 162.4135894775390625 152.636688232421875 219.8072357177734375 227.8649749755859375 220.510650634765625 232.9135284423828125 220.8419036865234375 212.4356842041015625 159.548187255859375 236.0368194580078125 176.289337158203125 86.6666412353515625 185.5525054931640625 311.25201416015625 273.90032958984375 1 1 1 1 -9999 1 1 -9999 -9999 -9999 -9999 -9999 -9999 -9999 -9999 -9999 -9999 -9999 -9999 -9999 -9999 -9999 -9999 
-9999 -9999 1 -9999 -9999 -9999 -9999 -9999 -9999 -9999 1 1 1 1 1 1 1 86.58557891845703125 245.60321044921875 236.2127838134765625 1 1 1 1 1 1 1 1 1 1 1 1 13.569880485534667969 133.5698699951171875 62.41037750244140625 1 1 1 1 -9999 1 1 1 -9999 -9999 1 1 1 1 -9999 72.97280120849609375 43.443523406982421875 1 1 1 89.40285491943359375 53.04488372802734375 134.9177398681640625 194.530303955078125 -9999 1 277.953277587890625 247.55535888671875 132.855712890625 208.602874755859375 230.4307708740234375 189.108062744140625 202.224365234375 244.62744140625 391.511749267578125 245.175384521484375 182.5625 178.0401153564453125 164.2003326416015625 184.0170440673828125 140.1578369140625 1 261.476287841796875 412.966888427734375 153.7538909912109375 2.8446714878082275391 125.51879119873046875 160.23773193359375 221.3876495361328125 206.29400634765625 181.20562744140625 195.974456787109375 234.535247802734375 165.2357635498046875 200.6826629638671875 155.2130126953125 206.913818359375 241.3531646728515625 247.944610595703125 252.278594970703125 210.2083282470703125 208.697509765625 211.3709716796875 204.79010009765625 179.58160400390625 196.1827392578125 290.14453125 234.193878173828125 67.5187225341796875 1 1 1 -9999 -9999 -9999 1 1 -9999 -9999 -9999 -9999 -9999 -9999 -9999 1 1 -9999 -9999 -9999 -9999 -9999 -9999 
-9999 -9999 -9999 -9999 -9999 -9999 -9999 -9999 -9999 -9999 1 1 1 1 1 1 235.6417999267578125 305.05450439453125 267.884124755859375 198.95867919921875 1 1 1 1 1 1 1 1 3.4229230880737304688 1 1 1 1 1 1 1 1 1 -9999 -9999 -9999 1 1 -9999 1 1 -9999 -9999 -9999 -9999 -9999 1 1 1 -9999 96.08042144775390625 55.114070892333984375 237.83074951171875 1 -9999 1 348.820648193359375 289.49517822265625 204.832733154296875 262.87249755859375 261.49609375 223.164337158203125 208.1092529296875 182.7701873779296875 257.46966552734375 230.9257354736328125 121.246826171875 118.1454620361328125 179.5503387451171875 173.7566986083984375 56.961761474609375 1 401.74951171875 539.5091552734375 446.578338623046875 1 116.3168487548828125 138.169921875 181.1302337646484375 186.99176025390625 227.5930328369140625 245.0115203857421875 256.188629150390625 252.84661865234375 249.404937744140625 231.2762908935546875 226.6116485595703125 250.869171142578125 241.6541290283203125 202.0966339111328125 193.849151611328125 230.458282470703125 215.380401611328125 197.790435791015625 177.0119476318359375 211.369232177734375 312.40966796875 242.897430419921875 1 1 1 -9999 22.451177597045898438 -9999 -9999 1 1 -9999 -9999 -9999 1 -9999 -9999 1 -9999 1 -9999 -9999 -9999 -9999 -9999 -9999 
-9999 -9999 -9999 -9999 -9999 -9999 -9999 -9999 1 1 -9999 1 1 1 1 1 69.391815185546875 33.63979339599609375 -9999 -9999 1 1 1 1 1 1 1 79.42708587646484375 236.9261627197265625 26.424779891967773438 1 1 1 1 1 1 1 1 1 1 1 1 1 -9999 -9999 1 -9999 -9999 -9999 1 -9999 -9999 -9999 -9999 -9999 1 22.710971832275390625 269.183807373046875 128.9225006103515625 254.2719268798828125 332.557891845703125 303.12188720703125 236.4762725830078125 164.0822601318359375 248.7689056396484375 261.666961669921875 259.01251220703125 167.609710693359375 181.1161346435546875 231.1057586669921875 359.298095703125 418.31597900390625 114.9207916259765625 154.9538116455078125 161.4365997314453125 65.9162445068359375 1 1 389.129608154296875 1 1 181.9953460693359375 196.5591583251953125 197.66229248046875 231.6165618896484375 247.7678985595703125 252.9125518798828125 273.178436279296875 267.993316650390625 245.768585205078125 245.215301513671875 239.1812286376953125 211.5132293701171875 193.0748748779296875 202.5402679443359375 224.6338043212890625 180.415802001953125 176.1231689453125 161.4521636962890625 149.335968017578125 128.054107666015625 240.8943328857421875 102.05416107177734375 1 189.591705322265625 1 1 1 -9999 1 1 1 16.902996063232421875 -9999 1 -9999 -9999 -9999 -9999 1 1 -9999 -9999 -9999 -9999 -9999 -9999 
-9999 -9999 -9999 -9999 -9999 -9999 -9999 -9999 1 1 -9999 1 1 1 1 1 1 1 -9999 -9999 1 1 1 1 1 1 1 212.3202362060546875 242.306488037109375 391.611480712890625 271.967041015625 18.729536056518554688 1 1 1 1 59.635318756103515625 1 60.330810546875 1 1 -9999 -9999 -9999 -9999 1 -9999 -9999 1 1 -9999 -9999 -9999 -9999 65.63812255859375 1 1 52.62972259521484375 225.4844207763671875 281.116424560546875 301.907135009765625 261.17462158203125 98.14203643798828125 108.3509063720703125 224.580810546875 236.332275390625 285.12939453125 241.57916259765625 236.6800384521484375 209.21185302734375 232.2214813232421875 346.414215087890625 363.57806396484375 246.6200714111328125 133.9524383544921875 1 1 1 1 1 1 286.660888671875 269.021942138671875 231.311614990234375 245.76800537109375 262.77978515625 273.7987060546875 271.340118408203125 247.089111328125 240.84051513671875 223.8700408935546875 204.8681488037109375 197.8013763427734375 211.5802154541015625 225.00457763671875 224.17694091796875 161.094940185546875 42.8242950439453125 140.367767333984375 126.47319793701171875 156.569580078125 298.919891357421875 219.3666229248046875 269.1759033203125 259.171783447265625 1 1 1 -9999 1 1 1 1 -9999 -9999 -9999 -9999 -9999 -9999 -9999 -9999 -9999 -9999 -9999 -9999 -9999 -9999 
-9999 -9999 -9999 -9999 -9999 -9999 -9999 -9999 -9999 -9999 -9999 -9999 1 1 -9999 -9999 -9999 -9999 -9999 90.18193817138671875 15.892672538757324219 1 -9999 1 1 1 88.56890106201171875 181.7660064697265625 60.147838592529296875 293.14007568359375 308.355621337890625 318.072296142578125 1 1 1 1 1 113.93212890625 43.606212615966796875 1 1 -9999 -9999 -9999 -9999 -9999 -9999 -9999 -9999 -9999 1 1 1 -9999 -9999 84.603851318359375 39.79119873046875 68.05368804931640625 249.6184234619140625 265.62322998046875 260.67108154296875 218.0541534423828125 132.7731170654296875 143.82232666015625 229.93072509765625 236.4142913818359375 240.5723114013671875 241.6701812744140625 261.36285400390625 241.987823486328125 214.9821624755859375 265.050537109375 195.209930419921875 222.0218048095703125 218.180450439453125 129.3977203369140625 37.10066986083984375 227.0182037353515625 76.662445068359375 1 1 302.094482421875 287.271240234375 261.4342041015625 282.454559326171875 264.983154296875 276.09857177734375 225.1597900390625 249.3712158203125 236.146209716796875 172.88470458984375 156.89056396484375 223.0122222900390625 183.3776397705078125 161.5385284423828125 176.596282958984375 55.181232452392578125 122.11472320556640625 269.4169921875 197.746826171875 177.8657379150390625 339.269561767578125 291.24139404296875 335.364105224609375 367.360565185546875 321.229278564453125 1 1 1 -9999 1 1 -9999 -9999 -9999 -9999 -9999 -9999 1 1 1 -9999 -9999 -9999 -9999 -9999 -9999 
-9999 -9999 -9999 -9999 -9999 -9999 -9999 -9999 -9999 -9999 -9999 1 1 1 -9999 -9999 -9999 1 -9999 1 1 -9999 -9999 -9999 -9999 1 1 50.72454833984375 113.50438690185546875 318.76544189453125 380.22625732421875 185.277496337890625 1 1 1 1 388.27410888671875 382.24127197265625 109.09407806396484375 1 1 -9999 -9999 -9999 1 -9999 -9999 -9999 1 1 1 1 1 1 -9999 28.00394439697265625 19.798841476440429688 158.417022705078125 203.434814453125 168.7402801513671875 208.6984405517578125 240.3234405517578125 208.7342681884765625 147.724884033203125 222.9770050048828125 208.2073974609375 212.0555419921875 247.3240814208984375 190.4099273681640625 180.04888916015625 177.2712860107421875 183.0966796875 212.91180419921875 225.5921173095703125 204.8384246826171875 154.4971923828125 176.8104705810546875 120.08145904541015625 93.415130615234375 57.111331939697265625 92.31572723388671875 245.8975982666015625 234.1632843017578125 217.9199066162109375 262.253814697265625 268.82684326171875 256.78863525390625 255.6884918212890625 257.298614501953125 235.5779571533203125 208.2874908447265625 213.9903106689453125 258.256011962890625 231.7068634033203125 192.4681243896484375 202.3946075439453125 217.6514739990234375 176.4232025146484375 243.41571044921875 114.7623748779296875 71.0092315673828125 189.5999755859375 104.44405364990234375 225.076202392578125 339.090423583984375 219.2238311767578125 1 -9999 -9999 -9999 1 1 -9999 -9999 -9999 -9999 1 1 1 -9999 1 -9999 -9999 -9999 -9999 -9999 -9999 
-9999 -9999 -9999 -9999 -9999 -9999 -9999 -9999 1 -9999 -9999 -9999 1 1 -9999 1 -9999 -9999 -9999 -9999 -9999 -9999 -9999 1 1 1 1 1 187.1090545654296875 473.818389892578125 400.55072021484375 116.2383575439453125 1 172.6466522216796875 242.6059417724609375 301.724609375 146.2150115966796875 159.1146392822265625 1 1 1 1 -9999 -9999 1 -9999 -9999 -9999 -9999 22.144947052001953125 45.170665740966796875 -9999 1 53.10460662841796875 80.83457183837890625 333.829376220703125 253.4508819580078125 227.2096710205078125 163.808746337890625 208.612457275390625 243.8565521240234375 271.449249267578125 217.2976837158203125 87.5811920166015625 313.488983154296875 191.16571044921875 178.0342254638671875 140.1477813720703125 213.731353759765625 210.67816162109375 161.2988739013671875 176.1385040283203125 162.1301422119140625 181.1392364501953125 204.67376708984375 185.0897369384765625 211.9925384521484375 185.69012451171875 173.2323150634765625 108.04718017578125 69.74654388427734375 1 4.2958559989929199219 126.30751800537109375 186.518585205078125 225.0006866455078125 240.9994354248046875 252.9998626708984375 242.516632080078125 223.0252532958984375 218.1604766845703125 233.7963714599609375 256.193511962890625 249.490142822265625 268.805694580078125 226.0552825927734375 82.80438995361328125 216.6813812255859375 1 -9999 -9999 -9999 1 87.69995880126953125 117.66172027587890625 43.014881134033203125 -9999 -9999 -9999 -9999 422.9432373046875 259.16082763671875 1 -9999 -9999 1 -9999 -9999 1 -9999 -9999 -9999 -9999 1 -9999 -9999 -9999 
-9999 -9999 -9999 -9999 1 -9999 -9999 -9999 1 -9999 1 1 -9999 1 -9999 1 -9999 -9999 -9999 1 -9999 -9999 1 1 1 1 1 -9999 1 1 139.83502197265625 221.3330535888671875 120.72803497314453125 322.879730224609375 232.317413330078125 295.967193603515625 1 1 -9999 1 1 1 1 1 1 1 -9999 1 337.94439697265625 369.738922119140625 3.6056864261627197266 1 1 1 171.4422149658203125 317.430938720703125 229.8064727783203125 231.079620361328125 281.1185302734375 258.251556396484375 245.5344390869140625 273.528350830078125 162.7741546630859375 -9999 182.92608642578125 153.0985107421875 104.62841796875 85.38610076904296875 211.3979034423828125 196.5479736328125 229.0699615478515625 210.1517791748046875 190.745391845703125 141.3212127685546875 214.3304595947265625 246.206939697265625 259.027496337890625 254.807159423828125 171.8919830322265625 23.282207489013671875 1 134.3014068603515625 70.6949462890625 148.1871185302734375 207.5045013427734375 260.3807373046875 268.3375244140625 235.3278961181640625 199.092041015625 183.9556732177734375 215.75408935546875 230.11102294921875 217.309234619140625 230.84234619140625 47.48686981201171875 1 -9999 1 -9999 -9999 -9999 690.27813720703125 274.478057861328125 237.7193450927734375 195.5276336669921875 1 -9999 -9999 85.659912109375 403.854583740234375 644.97772216796875 564.20880126953125 110.824737548828125 -9999 -9999 1 1 1 1 -9999 -9999 -9999 1 -9999 -9999 -9999 -9999 
-9999 -9999 -9999 -9999 -9999 -9999 -9999 1 1 1 1 -9999 1 -9999 -9999 1 -9999 -9999 -9999 -9999 -9999 -9999 -9999 -9999 -9999 -9999 -9999 -9999 -9999 -9999 1 70.455963134765625 235.3803558349609375 390.8770751953125 150.66583251953125 1 -9999 -9999 1 1 1 1 1 1 1 1 -9999 1 75.51340484619140625 192.853973388671875 1 1 1 260.586761474609375 1 72.3334808349609375 159.453857421875 140.38787841796875 264.0069580078125 225.1855316162109375 234.0587158203125 267.65045166015625 226.1357269287109375 328.9744873046875 231.4123992919921875 141.12384033203125 88.98088836669921875 98.764556884765625 216.6849517822265625 180.3006134033203125 209.738494873046875 226.59149169921875 189.2164459228515625 186.83154296875 214.7128143310546875 232.4599761962890625 276.462158203125 225.628814697265625 117.4137420654296875 76.28087615966796875 83.66083526611328125 105.4490509033203125 140.8673553466796875 208.947723388671875 246.1597442626953125 258.747833251953125 258.3172607421875 234.376617431640625 221.4121856689453125 191.3516998291015625 212.7238006591796875 220.237152099609375 150.1826019287109375 125.54448699951171875 1 -9999 -9999 -9999 -9999 -9999 -9999 1 302.564178466796875 287.87237548828125 224.733612060546875 73.08339691162109375 176.559600830078125 20.729093551635742188 219.66009521484375 489.58349609375 649.3704833984375 649.89080810546875 1 -9999 -9999 1 1 1 1 1 -9999 -9999 -9999 -9999 -9999 -9999 -9999 
-9999 -9999 1 1 -9999 1 1 1 1 -9999 -9999 -9999 1 -9999 -9999 -9999 -9999 -9999 -9999 -9999 1 -9999 -9999 -9999 -9999 1 1 1 1 13.265867233276367188 1 229.601654052734375 447.109649658203125 407.758026123046875 1 1 1 1 -9999 -9999 1 1 1 1 1 1 1 1 1 1 1 1 121.9228363037109375 341.27105712890625 130.694915771484375 36.86867523193359375 114.9976959228515625 104.313232421875 152.1544189453125 141.6357421875 219.036773681640625 252.25555419921875 182.931671142578125 281.902069091796875 273.558197021484375 137.686798095703125 101.33209991455078125 148.6593780517578125 238.8619537353515625 245.0533447265625 217.79412841796875 202.612579345703125 196.961517333984375 218.8645477294921875 256.197998046875 261.50933837890625 255.1889801025390625 136.846893310546875 32.262035369873046875 55.90374755859375 34.49646759033203125 52.181430816650390625 149.723907470703125 195.218231201171875 229.6379852294921875 245.152374267578125 265.0457763671875 262.2034912109375 258.57049560546875 243.2732391357421875 212.03875732421875 223.4877471923828125 115.21974945068359375 133.0046234130859375 -9999 -9999 -9999 -9999 -9999 -9999 1 1 253.65802001953125 223.8095703125 285.999664306640625 158.33349609375 434.744659423828125 344.957977294921875 168.5548553466796875 347.840362548828125 538.68817138671875 587.6380615234375 1 -9999 -9999 1 1 1 1 1 1 1 -9999 -9999 -9999 -9999 -9999 
-9999 -9999 1 1 -9999 1 1 1 -9999 -9999 -9999 -9999 1 -9999 1 -9999 -9999 -9999 -9999 -9999 -9999 -9999 1 -9999 1 1 1 1 1 146.7088470458984375 17.787830352783203125 168.4681854248046875 178.0744171142578125 1 -9999 1 1 1 1 -9999 1 1 1 1 1 1 1 -9999 1 1 1 1 146.289764404296875 165.3105010986328125 143.7956695556640625 110.19025421142578125 115.10051727294921875 146.238800048828125 146.1991119384765625 148.67974853515625 204.507171630859375 245.04461669921875 197.0404052734375 238.2500457763671875 201.69061279296875 116.06172943115234375 123.68895721435546875 135.7293243408203125 192.75738525390625 255.010986328125 244.7792205810546875 241.7563934326171875 224.8733978271484375 218.7162628173828125 237.0070037841796875 249.7081298828125 262.27386474609375 97.44116973876953125 30.2710723876953125 145.2915496826171875 52.437091827392578125 39.100208282470703125 155.5399627685546875 194.1199493408203125 216.0650482177734375 259.1563720703125 288.459503173828125 284.00537109375 273.352935791015625 252.4522247314453125 229.9035186767578125 218.099090576171875 149.0777587890625 1 -9999 -9999 1 1 -9999 1 12.1885833740234375 240.0559234619140625 221.1411285400390625 172.7728271484375 405.55694580078125 391.28143310546875 408.4998779296875 296.50299072265625 213.74468994140625 285.362640380859375 433.999847412109375 564.895263671875 1 -9999 -9999 1 22.735094070434570312 1 1 1 1 1 -9999 -9999 -9999 -9999 -9999 
-9999 -9999 -9999 -9999 -9999 -9999 -9999 -9999 -9999 -9999 -9999 -9999 -9999 -9999 -9999 -9999 1 -9999 -9999 -9999 -9999 -9999 -9999 1 1 1 1 13.923150062561035156 1 1 114.2952880859375 1 1 -9999 130.6437835693359375 12.040884017944335938 1 -9999 1 1 1 -9999 -9999 1 1 1 1 -9999 -9999 1 1 65.074920654296875 285.072540283203125 277.26416015625 98.13330841064453125 117.74631500244140625 138.8668060302734375 196.7375640869140625 124.9639739990234375 143.510284423828125 221.4159393310546875 235.17059326171875 224.098114013671875 301.092254638671875 228.2094573974609375 130.11090087890625 217.1531524658203125 166.71484375 105.2573699951171875 231.028564453125 221.7623443603515625 224.06134033203125 251.9627227783203125 269.41925048828125 251.7112884521484375 209.8807220458984375 171.777496337890625 64.28948974609375 125.44516754150390625 152.222686767578125 176.7598114013671875 187.72265625 172.641754150390625 221.817169189453125 262.2188720703125 263.23785400390625 284.50433349609375 293.835662841796875 275.05975341796875 264.233306884765625 259.534454345703125 247.720367431640625 234.54107666015625 187.2692413330078125 104.66620635986328125 1 150.50006103515625 161.4231414794921875 71.64704132080078125 233.3207550048828125 233.72967529296875 160.2357940673828125 246.25946044921875 225.9494781494140625 1 1 324.518280029296875 289.574188232421875 385.84088134765625 397.47052001953125 447.27899169921875 605.79705810546875 1 -9999 110.66424560546875 229.343719482421875 214.8783111572265625 1 -9999 1 1 -9999 -9999 1 -9999 -9999 -9999 
-9999 1 1 1 -9999 -9999 -9999 -9999 -9999 -9999 -9999 -9999 1 -9999 -9999 -9999 -9999 -9999 -9999 -9999 -9999 1 1 1 1 1 1 1 1 1 1 1 1 1 34.22396087646484375 1 1 1 -9999 1 1 -9999 -9999 -9999 1 1 1 1 -9999 -9999 1 45.535614013671875 130.8913116455078125 91.7668914794921875 125.9000244140625 117.976531982421875 147.304473876953125 164.0789947509765625 134.193756103515625 153.3017578125 224.1569061279296875 219.5802154541015625 169.00653076171875 195.45452880859375 186.190032958984375 179.7488861083984375 201.882293701171875 120.76683807373046875 106.4228515625 168.0064239501953125 151.8755950927734375 223.180084228515625 237.4085540771484375 260.129150390625 253.718292236328125 176.4610595703125 146.2403411865234375 145.186676025390625 201.0936431884765625 234.73834228515625 270.48284912109375 254.28436279296875 186.731719970703125 251.7112274169921875 261.9764404296875 265.448486328125 237.0918426513671875 258.384368896484375 260.50079345703125 253.318511962890625 208.78228759765625 231.044219970703125 284.105865478515625 312.893157958984375 239.2499237060546875 169.804656982421875 152.430389404296875 153.512237548828125 138.8792724609375 160.0973358154296875 208.7155609130859375 162.3070526123046875 191.0064239501953125 165.7266693115234375 140.26226806640625 152.9698333740234375 252.3665313720703125 236.9264984130859375 297.03314208984375 406.10791015625 399.25885009765625 411.39459228515625 -9999 1 144.4464569091796875 249.7568817138671875 171.589141845703125 1 1 1 1 -9999 -9999 1 -9999 -9999 1 
1 1 1 -9999 -9999 -9999 -9999 -9999 -9999 -9999 1 1 1 1 1 -9999 -9999 -9999 -9999 1 1 1 1 1 1 1 1 1 1 1 1 1 1 1 1 1 1 1 -9999 -9999 -9999 1 -9999 -9999 1 1 1 -9999 -9999 -9999 1 1 177.73529052734375 65.01415252685546875 92.357391357421875 123.3855743408203125 154.3408050537109375 172.6673583984375 154.5145263671875 186.2788238525390625 225.965972900390625 208.7230377197265625 43.742034912109375 1 69.23540496826171875 150.1802520751953125 124.58052825927734375 215.507293701171875 192.011505126953125 195.7855377197265625 122.72939300537109375 214.30450439453125 205.576995849609375 251.3176727294921875 193.3846588134765625 156.48065185546875 61.161113739013671875 202.31927490234375 262.666351318359375 275.64141845703125 290.2529296875 245.4844970703125 157.706451416015625 218.827423095703125 253.65826416015625 285.218597412109375 264.591400146484375 256.041412353515625 267.053497314453125 206.5138092041015625 89.57000732421875 73.6286468505859375 182.784576416015625 277.523773193359375 276.373779296875 226.7505645751953125 142.2513275146484375 125.13785552978515625 151.2395782470703125 153.4862518310546875 126.9500579833984375 146.3238067626953125 149.8762969970703125 156.85308837890625 243.0323333740234375 199.70916748046875 165.1067962646484375 121.03778076171875 253.299224853515625 320.83563232421875 314.159454345703125 264.819183349609375 -9999 124.4237213134765625 88.28338623046875 141.4228363037109375 114.408782958984375 1 1 -9999 62.3847503662109375 -9999 -9999 -9999 -9999 -9999 -9999 
-9999 -9999 -9999 -9999 -9999 -9999 -9999 -9999 1 -9999 -9999 1 -9999 -9999 -9999 -9999 1 -9999 -9999 -9999 1 1 1 1 1 1 1 1 1 1 -9999 1 1 -9999 2.03882598876953125 8.9844579696655273438 1 1 1 -9999 1 -9999 -9999 1 1 1 1 1 -9999 -9999 90.872528076171875 1 140.7489471435546875 87.24936676025390625 72.34820556640625 121.49845123291015625 145.4615936279296875 151.32196044921875 159.3216094970703125 184.8502349853515625 209.2501068115234375 184.6281280517578125 68.113922119140625 1 1 16.892820358276367188 118.622528076171875 210.4516754150390625 128.9912109375 166.068084716796875 200.239593505859375 225.146240234375 220.9427337646484375 219.9669647216796875 190.300323486328125 198.986968994140625 212.1825103759765625 245.8051300048828125 237.4800262451171875 285.167327880859375 284.480926513671875 257.234771728515625 237.7143707275390625 152.784912109375 212.3109588623046875 265.588287353515625 273.40069580078125 279.09967041015625 276.63189697265625 179.414459228515625 40.064601898193359375 43.350250244140625 148.1349334716796875 243.03448486328125 260.38739013671875 197.544891357421875 161.38299560546875 144.709197998046875 192.30615234375 162.983917236328125 125.35869598388671875 156.232025146484375 206.9842681884765625 167.50469970703125 237.20361328125 257.122894287109375 176.469512939453125 148.5432586669921875 165.5573272705078125 254.2411956787109375 415.405303955078125 265.498779296875 98.6778564453125 299.543487548828125 232.149749755859375 189.3740081787109375 30.32857513427734375 1 1 1 -9999 -9999 -9999 -9999 -9999 -9999 -9999 
-9999 -9999 -9999 -9999 -9999 -9999 -9999 -9999 1 -9999 -9999 -9999 -9999 -9999 1 -9999 -9999 -9999 -9999 -9999 -9999 1 1 1 1 1 19.71587371826171875 -9999 1 1 1 1 4.8977875709533691406 19.81072235107421875 1 1 1 1 1 1 1 1 1 1 1 1 1 1 1 1 1 48.628246307373046875 165.1941680908203125 79.02866363525390625 76.8984832763671875 110.02008819580078125 118.49720001220703125 147.63970947265625 197.908721923828125 207.593475341796875 225.294586181640625 216.0204925537109375 236.9820098876953125 362.1124267578125 1 1 1 163.22503662109375 53.74901580810546875 163.2944488525390625 214.6430206298828125 213.637298583984375 187.2862396240234375 187.5460205078125 190.5706634521484375 175.8457794189453125 241.3815460205078125 275.64483642578125 235.0282745361328125 245.7975006103515625 263.090484619140625 236.16668701171875 212.229827880859375 224.6011810302734375 196.1794586181640625 143.20819091796875 204.2709197998046875 242.3857269287109375 275.638458251953125 256.0313720703125 221.4622344970703125 188.861907958984375 153.93701171875 241.251800537109375 236.2072906494140625 169.0831451416015625 197.582763671875 163.9063568115234375 204.3898162841796875 184.1366729736328125 159.9176788330078125 155.2873687744140625 164.026397705078125 174.418914794921875 188.3648681640625 166.9662628173828125 147.31494140625 166.356842041015625 179.3811187744140625 200.4087677001953125 318.697113037109375 163.1386260986328125 60.016452789306640625 206.4399261474609375 42.429836273193359375 1 1 1 1 -9999 -9999 1 -9999 -9999 1 -9999 -9999 
-9999 -9999 -9999 -9999 -9999 1 -9999 -9999 -9999 -9999 -9999 -9999 -9999 -9999 -9999 -9999 -9999 -9999 -9999 -9999 -9999 1 1 -9999 1 1 21.460336685180664062 1 1 1 1 -9999 1 -9999 1 1 1 1 1 1 -9999 1 1 1 1 1 1 1 1 1 1 1 173.1840362548828125 91.92615509033203125 119.90667724609375 124.15091705322265625 157.6024169921875 180.571807861328125 186.11614990234375 153.8564605712890625 220.3716888427734375 223.541046142578125 192.4017181396484375 1 -9999 1 127.3636322021484375 144.198577880859375 179.5927276611328125 145.2752838134765625 200.1284332275390625 215.998748779296875 237.7581787109375 243.131988525390625 229.0225830078125 205.56683349609375 269.152557373046875 278.6085205078125 292.16632080078125 251.4981842041015625 242.8405609130859375 264.124481201171875 234.571258544921875 213.3139801025390625 193.5560455322265625 167.0907440185546875 204.560821533203125 208.9608917236328125 233.8305816650390625 261.68341064453125 298.270751953125 252.023956298828125 142.507354736328125 226.6556549072265625 246.7777252197265625 222.995941162109375 237.4596099853515625 238.137939453125 230.5123748779296875 228.221435546875 209.248260498046875 213.065582275390625 182.4438018798828125 147.600311279296875 173.103729248046875 174.6829986572265625 152.9937744140625 141.3575439453125 222.181915283203125 191.5213775634765625 85.2294921875 1 1 80.91971588134765625 6.0037527084350585938 1 1 1 1 -9999 1 1 -9999 -9999 -9999 -9999 -9999 
-9999 -9999 -9999 -9999 -9999 -9999 -9999 -9999 -9999 -9999 1 1 -9999 -9999 1 -9999 -9999 1 1 1 1 1 1 66.69725799560546875 1 1 1 1 1 1 1 1 1 -9999 -9999 1 1 1 1 1 1 1 1 1 33.2262725830078125 1 1 1 57.823451995849609375 253.7728729248046875 90.44589996337890625 40.547119140625 135.715606689453125 73.04334259033203125 159.7998504638671875 145.98944091796875 189.3057403564453125 157.5350799560546875 148.7999267578125 123.23490142822265625 230.532196044921875 143.6545257568359375 97.63452911376953125 1 90.38750457763671875 105.02873992919921875 137.6899261474609375 212.8664398193359375 176.40673828125 137.2765350341796875 193.5685577392578125 214.960693359375 200.750152587890625 226.53839111328125 105.88495635986328125 197.066650390625 245.744598388671875 268.812469482421875 279.56573486328125 300.589019775390625 299.370452880859375 263.03326416015625 247.308380126953125 158.3193206787109375 152.9225311279296875 107.72374725341796875 194.255279541015625 217.97198486328125 198.1889495849609375 226.7547760009765625 294.004669189453125 274.235626220703125 262.0445556640625 264.970489501953125 238.8826751708984375 244.1640625 251.6952667236328125 253.2826385498046875 253.5601959228515625 245.57330322265625 235.3131866455078125 224.454803466796875 187.754302978515625 160.5438385009765625 154.5018463134765625 158.7628631591796875 137.3496246337890625 199.5138702392578125 295.213623046875 231.6464385986328125 149.0176544189453125 174.52703857421875 211.618896484375 148.2030792236328125 182.1178131103515625 190.593353271484375 144.2552337646484375 129.3074188232421875 5.185344696044921875 -9999 -9999 -9999 1 -9999 -9999 -9999 -9999 
-9999 -9999 -9999 -9999 -9999 -9999 -9999 -9999 -9999 1 1 1 -9999 -9999 -9999 1 -9999 1 1 1 1 1 1 1 1 1 1 1 -9999 -9999 1 1 -9999 -9999 1 1 -9999 -9999 1 1 1 1 1 51.58984375 111.3093109130859375 55.38469696044921875 3.5402181148529052734 68.0950164794921875 80.27490997314453125 196.642974853515625 121.1389007568359375 198.0548553466796875 124.825775146484375 204.6138153076171875 419.263458251953125 167.342498779296875 240.5972747802734375 109.47090911865234375 103.301513671875 50.0181884765625 193.570892333984375 73.08835601806640625 130.7668609619140625 167.4669036865234375 158.6826324462890625 24.6434478759765625 12.04175567626953125 197.8740081787109375 207.2236328125 206.539154052734375 160.6948699951171875 170.9833831787109375 156.3642578125 163.965118408203125 164.1158294677734375 227.9994964599609375 215.6222991943359375 260.702606201171875 192.98272705078125 249.4543304443359375 278.59271240234375 266.3052978515625 225.8113555908203125 192.6949310302734375 147.690216064453125 97.63500213623046875 139.5192413330078125 164.863525390625 234.820953369140625 226.6183013916015625 243.9038543701171875 283.05560302734375 273.698211669921875 251.2661590576171875 202.69256591796875 225.675567626953125 222.973968505859375 211.9726715087890625 223.2236175537109375 227.743804931640625 233.8234710693359375 238.0994873046875 210.5959014892578125 190.7401275634765625 168.4167938232421875 134.7682647705078125 134.1800994873046875 178.913299560546875 222.6447906494140625 226.908538818359375 199.09613037109375 216.3082275390625 196.8665313720703125 142.3683319091796875 131.0121307373046875 146.695343017578125 107.90137481689453125 131.7147064208984375 1 1 -9999 -9999 -9999 -9999 -9999 -9999 -9999 
-9999 1 -9999 -9999 -9999 -9999 -9999 -9999 -9999 -9999 1 -9999 -9999 1 -9999 -9999 1 1 1 1 1 1 1 1 1 1 108.7426300048828125 1 1 1 1 -9999 1 1 1 1 1 1 1 1 1 107.031036376953125 81.5591278076171875 107.5269775390625 120.8524322509765625 116.1441192626953125 10.178480148315429688 27.246013641357421875 1 105.78334808349609375 305.6837158203125 305.97357177734375 128.9187774658203125 28.341869354248046875 277.353485107421875 293.7943115234375 78.5152435302734375 1.9489557743072509766 1 57.78093719482421875 229.42193603515625 242.2761688232421875 280.845062255859375 280.526123046875 142.7844696044921875 137.75396728515625 112.12570953369140625 192.781219482421875 219.6568603515625 222.4764556884765625 128.7675018310546875 102.88249969482421875 137.712158203125 82.78963470458984375 153.8436431884765625 251.0211944580078125 228.397308349609375 236.94000244140625 217.7993011474609375 212.436798095703125 251.0377197265625 239.2815704345703125 185.8589324951171875 164.7157135009765625 196.2014007568359375 159.31494140625 186.1667938232421875 48.86228179931640625 208.7527618408203125 159.624298095703125 217.30657958984375 244.697235107421875 242.4344482421875 228.1994781494140625 199.041168212890625 194.07989501953125 187.05328369140625 195.485870361328125 226.247314453125 228.4573822021484375 226.53173828125 230.9535675048828125 218.998046875 152.6713104248046875 201.2443084716796875 181.5723114013671875 173.7906646728515625 192.2652130126953125 196.8150177001953125 181.6755218505859375 185.597900390625 225.211151123046875 204.330322265625 111.1640777587890625 115.4337310791015625 121.44574737548828125 71.9630584716796875 13.444263458251953125 1 1 1 1 1 -9999 -9999 -9999 -9999 
1 -9999 -9999 -9999 -9999 -9999 -9999 -9999 -9999 -9999 -9999 -9999 -9999 -9999 -9999 -9999 1 1 -9999 1 -9999 1 1 5.7490024566650390625 136.244232177734375 1 1 1 1 1 1 1 1 1 94.382781982421875 1 1 1 1 1 69.80323028564453125 130.741607666015625 156.75579833984375 21.125820159912109375 25.494464874267578125 1 1 1 1 -9999 70.17365264892578125 126.78224945068359375 138.5841217041015625 137.2829742431640625 256.6807861328125 301.538665771484375 -9999 1 1 264.977752685546875 210.5405731201171875 268.05572509765625 284.10760498046875 233.22265625 241.0760498046875 187.9127349853515625 218.4166412353515625 233.3469085693359375 204.7146453857421875 159.4650115966796875 236.02984619140625 154.112579345703125 90.7344818115234375 147.0136260986328125 212.2241058349609375 156.3713836669921875 185.49237060546875 269.118865966796875 225.3344573974609375 141.9430389404296875 202.633819580078125 117.17250823974609375 175.2790985107421875 181.458404541015625 192.465972900390625 220.0620880126953125 179.049072265625 132.10443115234375 223.8211669921875 197.614990234375 230.7353515625 145.18194580078125 222.1106109619140625 252.75994873046875 233.8093414306640625 225.2637481689453125 226.759765625 206.0741729736328125 220.6162567138671875 229.70989990234375 223.474853515625 227.3170166015625 213.5576324462890625 193.6526947021484375 183.495849609375 177.472259521484375 173.326019287109375 180.015899658203125 197.7642669677734375 189.088104248046875 123.5764923095703125 201.5460968017578125 202.545928955078125 118.6210784912109375 127.7163238525390625 114.9947509765625 1 -9999 -9999 1 1 1 -9999 -9999 -9999 -9999 -9999 
-9999 -9999 -9999 -9999 -9999 -9999 -9999 -9999 -9999 1 -9999 -9999 -9999 -9999 -9999 1 1 -9999 1 1 1 1 117.15322113037109375 14.632374763488769531 1 1 1 8.484310150146484375 72.15677642822265625 64.201446533203125 136.9181365966796875 46.77208709716796875 62.597599029541015625 109.8779296875 1 1 1 1 1 1 1 1 38.614734649658203125 1 1 19.9273529052734375 1 1 1 1 1 33.790164947509765625 164.0909271240234375 73.24505615234375 111.74060821533203125 224.36737060546875 1 1 141.598968505859375 240.0056915283203125 229.2312774658203125 265.43048095703125 171.749755859375 1 359.316680908203125 207.2567596435546875 179.7402496337890625 84.9283905029296875 96.191619873046875 120.86011505126953125 275.032318115234375 205.5572662353515625 83.01548004150390625 182.2671966552734375 178.681488037109375 51.160655975341796875 217.0609130859375 276.558563232421875 246.328765869140625 193.15924072265625 146.2077484130859375 171.489837646484375 228.091400146484375 229.3184967041015625 236.5775909423828125 245.0300750732421875 234.2667999267578125 221.691131591796875 151.1452484130859375 196.9127197265625 215.128021240234375 185.1689300537109375 225.9211883544921875 247.0521087646484375 247.315948486328125 225.1187896728515625 207.8011322021484375 204.0273590087890625 208.4183807373046875 219.231231689453125 172.184967041015625 200.2779388427734375 207.9706268310546875 202.5762176513671875 173.27374267578125 146.8323211669921875 139.97430419921875 159.893402099609375 151.017059326171875 215.6684722900390625 157.2302093505859375 110.21645355224609375 121.07294464111328125 5.8494067192077636719 92.024078369140625 260.1800537109375 143.4493865966796875 1 1 1 1 1 1 -9999 -9999 -9999 1 
1 -9999 -9999 -9999 -9999 -9999 -9999 -9999 -9999 -9999 -9999 1 1 -9999 1 1 1 -9999 -9999 1 36.1463165283203125 1 146.329193115234375 1 1 1 22.905164718627929688 82.9362335205078125 87.171295166015625 1 115.649932861328125 80.74985504150390625 1 48.88803863525390625 1 1 1 1 1 1 1 1 1 1 86.88134765625 158.343780517578125 94.3577423095703125 91.0845489501953125 1 1 -9999 1 -9999 133.4543914794921875 120.43624114990234375 255.5436248779296875 248.06646728515625 231.227813720703125 227.5330810546875 223.6537017822265625 216.938720703125 252.01910400390625 1 -9999 1 278.701507568359375 183.23382568359375 3.0509064197540283203 129.587860107421875 159.8645172119140625 201.4981842041015625 1 144.3519287109375 215.11279296875 223.819793701171875 198.4910888671875 254.382965087890625 237.74481201171875 221.670135498046875 118.274566650390625 117.12693023681640625 184.919586181640625 176.62322998046875 201.66900634765625 221.511016845703125 178.8073883056640625 313.535308837890625 305.006866455078125 247.5059967041015625 256.55657958984375 248.6060333251953125 227.81072998046875 235.03424072265625 244.9473419189453125 238.9640045166015625 232.5031585693359375 227.1899261474609375 224.057342529296875 191.435577392578125 223.5099945068359375 217.831695556640625 202.129547119140625 229.725372314453125 185.1336212158203125 126.70413970947265625 183.950897216796875 199.392730712890625 184.853515625 129.84307861328125 161.237335205078125 139.851318359375 108.1573486328125 133.12841796875 253.5862274169921875 261.016204833984375 320.45245361328125 339.363739013671875 384.800872802734375 433.8828125 14.59429931640625 1 1 -9999 -9999 1 1 1 
-9999 -9999 -9999 -9999 -9999 1 -9999 -9999 -9999 -9999 -9999 -9999 1 -9999 1 1 -9999 1 1 1 1 1 80.01654815673828125 1 1 1 1 1 21.661760330200195312 1 1 1 1 1 1 1 -9999 1 1 1 1 1 1 1 136.838958740234375 167.5816650390625 160.8346710205078125 149.4904937744140625 52.84454345703125 -9999 -9999 -9999 15.832401275634765625 260.276031494140625 212.99676513671875 232.21075439453125 248.255126953125 237.5859527587890625 229.9884796142578125 92.07978057861328125 3.7559647560119628906 63.6623382568359375 1 -9999 1 218.6784515380859375 250.8422698974609375 1 36.451160430908203125 178.0504150390625 532.4720458984375 247.64483642578125 144.1768035888671875 201.522491455078125 178.2763214111328125 150.5230560302734375 209.8779449462890625 220.5589447021484375 211.30670166015625 166.373138427734375 138.4025421142578125 134.3835296630859375 132.93017578125 136.1060333251953125 159.605499267578125 242.30218505859375 438.765869140625 371.19451904296875 334.24310302734375 267.53857421875 246.7398681640625 252.4516754150390625 223.6499176025390625 233.076385498046875 236.854522705078125 232.112396240234375 242.224761962890625 204.7338104248046875 174.7875213623046875 219.3331451416015625 237.3006744384765625 248.0740203857421875 245.09429931640625 206.59783935546875 170.1367340087890625 175.7254486083984375 170.4231414794921875 181.6915435791015625 176.61187744140625 188.1178436279296875 168.6259002685546875 111.7562713623046875 88.78507232666015625 174.760498046875 237.010009765625 294.49676513671875 288.015838623046875 305.090240478515625 308.501220703125 1 1 1 -9999 1 1 1 1 
-9999 -9999 -9999 -9999 -9999 -9999 -9999 -9999 -9999 1 -9999 1 1 1 1 1 1 1 1 1 1 1 1 1 -9999 -9999 1 -9999 -9999 -9999 1 1 76.22412109375 24.845396041870117188 1 1 1 1 1 -9999 1 1 1 1 31.355520248413085938 1 135.1842498779296875 155.6811065673828125 104.73540496826171875 1 1 1 132.5579376220703125 226.1046600341796875 142.7959747314453125 1 1 -9999 1 1 -9999 1 -9999 1 144.6413726806640625 83.12342071533203125 1 1 -9999 183.0842437744140625 251.6930389404296875 106.3759918212890625 139.129974365234375 148.093994140625 45.78157806396484375 81.70424652099609375 199.333282470703125 215.1050872802734375 177.37689208984375 184.6959381103515625 133.6496124267578125 124.15296173095703125 197.9012298583984375 258.507049560546875 292.159423828125 163.570098876953125 457.186859130859375 524.86114501953125 373.7537841796875 299.16473388671875 241.4544830322265625 268.52294921875 244.4376068115234375 234.926788330078125 220.1353912353515625 219.49029541015625 242.62799072265625 209.5583343505859375 200.5201873779296875 240.3276824951171875 253.09014892578125 259.82550048828125 240.77093505859375 219.28857421875 194.1036224365234375 164.022247314453125 150.3887176513671875 200.38043212890625 199.1267852783203125 187.796905517578125 180.2519378662109375 141.9610137939453125 120.3896636962890625 217.9419097900390625 235.053619384765625 301.17999267578125 272.833526611328125 24.823438644409179688 1 53.0212249755859375 1 1 1 1 1 1 1 
-9999 -9999 -9999 -9999 -9999 -9999 -9999 1 1 -9999 1 1 1 1 1 1 1 1 79.4503631591796875 1 1 1 1 1 1 1 1 1 1 1 1 1 1 59.341533660888671875 1 -9999 1 1 1 1 1 1 1 1 1 1 45.392505645751953125 140.14501953125 173.661895751953125 1 -9999 1 156.246002197265625 178.2903289794921875 20.730577468872070312 1 -9999 1 1 1 77.61743927001953125 1 -9999 1 377.136444091796875 336.611907958984375 109.485382080078125 161.991180419921875 1 8.0488147735595703125 146.517791748046875 108.6650390625 114.97939300537109375 61.6859893798828125 34.57572174072265625 83.771392822265625 206.6641693115234375 205.986114501953125 211.648834228515625 144.1183319091796875 123.2844390869140625 198.2912445068359375 233.0041656494140625 289.189422607421875 261.016082763671875 212.12255859375 -9999 342.142364501953125 380.641448974609375 309.203582763671875 247.1282806396484375 271.7203369140625 252.406341552734375 226.6127166748046875 192.4117279052734375 193.125640869140625 240.3826446533203125 242.4353485107421875 262.356292724609375 265.525848388671875 249.32757568359375 245.037200927734375 224.2292022705078125 228.9150848388671875 183.212005615234375 154.5659637451171875 158.7033233642578125 190.837738037109375 166.4495849609375 131.4403076171875 120.3979949951171875 224.6633148193359375 170.4533843994140625 216.1550445556640625 234.31195068359375 280.091705322265625 139.7259063720703125 1 1 1 1 131.2996673583984375 61.091686248779296875 1 1 1 1 
-9999 -9999 -9999 -9999 -9999 -9999 1 38.476551055908203125 1 1 1 1 1 1 1 1 1 1 1 1 1 1 245.9609832763671875 -9999 1 1 -9999 1 1 -9999 1 1 1 1 1 91.74774169921875 1 1 1 1 1 1 1 1 1 1 1 1 127.83844757080078125 1 1 1 117.52002716064453125 122.08038330078125 23.268617630004882812 -9999 -9999 1 1 75.56124114990234375 213.9143524169921875 1 -9999 1 333.7784423828125 317.91021728515625 200.6598663330078125 104.29204559326171875 1 103.814666748046875 191.7967376708984375 113.69281005859375 93.04692840576171875 1 79.08632659912109375 77.70467376708984375 215.217132568359375 203.3097076416015625 178.783203125 356.67193603515625 227.131866455078125 221.4788818359375 246.4900970458984375 295.763763427734375 312.286773681640625 344.00152587890625 373.663299560546875 333.837738037109375 334.868408203125 301.49462890625 265.917083740234375 281.302642822265625 281.082855224609375 263.9505615234375 237.7955474853515625 233.6263427734375 242.5544891357421875 199.8904571533203125 229.2911224365234375 234.23931884765625 221.209014892578125 235.5230712890625 224.8892059326171875 189.274749755859375 157.4105682373046875 157.5419464111328125 165.6910400390625 151.6331787109375 167.7067413330078125 119.42132568359375 61.25415802001953125 184.167266845703125 176.8109893798828125 179.402587890625 182.2113037109375 255.0794219970703125 252.948699951171875 88.20098876953125 1 1 1 1 1 1 -9999 -9999 -9999 
1 -9999 -9999 1 1 1 1 1 1 1 1 1 1 1 1 1 1 12.410044670104980469 1 1 -9999 1 64.6903076171875 1 1 1 -9999 -9999 -9999 -9999 1 1 -9999 1 1 104.217742919921875 1 1 1 1 13.350287437438964844 -9999 1 1 1 1 -9999 1 -9999 111.81510162353515625 184.921051025390625 1 -9999 -9999 -9999 -9999 -9999 -9999 -9999 45.756591796875 208.8564910888671875 271.069915771484375 1 314.81939697265625 85.0807647705078125 78.0395355224609375 46.9241790771484375 1 181.41265869140625 111.04901885986328125 108.321746826171875 94.4203033447265625 144.594818115234375 49.99085235595703125 27.391283035278320312 88.86376953125 287.096038818359375 301.09124755859375 289.97479248046875 439.14349365234375 155.5874481201171875 185.8081512451171875 233.587799072265625 262.233642578125 337.19598388671875 336.9874267578125 313.696990966796875 284.504974365234375 299.29449462890625 233.06524658203125 226.672882080078125 278.660308837890625 282.250640869140625 262.428741455078125 208.123199462890625 251.118560791015625 255.2417449951171875 260.8558349609375 237.2874755859375 220.6007537841796875 209.9085540771484375 208.6798095703125 227.5042572021484375 197.322479248046875 176.8134613037109375 189.112701416015625 226.8898468017578125 146.2175750732421875 48.04766082763671875 21.215669631958007812 104.9268951416015625 132.4556121826171875 115.77796173095703125 171.4204864501953125 260.432464599609375 188.09283447265625 268.762603759765625 403.217315673828125 1 1 -9999 -9999 1 -9999 -9999 -9999 -9999 
1 1 -9999 1 101.2794952392578125 204.9834747314453125 147.4263153076171875 1 1 -9999 127.51755523681640625 1 1 -9999 1 1 1 1 49.059177398681640625 1 1 1 1 1 147.9942169189453125 74.519378662109375 1 1 1 -9999 1 1 1 1 1 1 1 1 1 1 1 1 1 1 30.81165313720703125 1 -9999 -9999 -9999 1 203.6304473876953125 88.66327667236328125 -9999 -9999 -9999 -9999 -9999 -9999 1 235.7677459716796875 216.1450653076171875 169.3860626220703125 188.2161102294921875 156.74981689453125 1 1 1 187.0076446533203125 140.8276519775390625 186.14971923828125 160.9034576416015625 196.601806640625 196.3151092529296875 132.54345703125 124.31839752197265625 243.397674560546875 249.715728759765625 254.0477294921875 329.0018310546875 197.829559326171875 118.84215545654296875 209.17340087890625 234.991241455078125 215.3997344970703125 237.1753387451171875 204.6649169921875 162.9364166259765625 138.457916259765625 186.404998779296875 217.759552001953125 259.43817138671875 286.493804931640625 262.2762451171875 196.55224609375 111.59975433349609375 232.559814453125 284.1478271484375 257.875732421875 237.8467559814453125 243.5824127197265625 206.18634033203125 183.9679718017578125 241.743621826171875 225.4082794189453125 183.7589111328125 136.93017578125 118.5244140625 1 58.16890716552734375 239.371612548828125 141.7066497802734375 87.3811187744140625 69.81740570068359375 104.21807098388671875 162.0232696533203125 165.9263916015625 182.0693359375 239.4790496826171875 192.375885009765625 1 -9999 -9999 -9999 -9999 -9999 -9999 -9999 
1 1 1 57.368679046630859375 238.6809844970703125 282.56475830078125 223.081634521484375 104.352142333984375 188.4607391357421875 220.5547943115234375 130.980194091796875 33.9859619140625 1 1 1 1 1 1 1 1 -9999 1 -9999 1 144.9917449951171875 183.5472412109375 167.559783935546875 1 -9999 -9999 1 -9999 1 1 137.0507354736328125 1 1 1 1 1 1 1 1 1 24.395782470703125 74.455047607421875 1 1 -9999 -9999 208.93292236328125 256.7403564453125 147.7050018310546875 1 -9999 -9999 1 187.1461181640625 280.52874755859375 286.86627197265625 214.82281494140625 206.990447998046875 223.2833404541015625 142.07220458984375 77.06719970703125 1 71.85943603515625 245.2029571533203125 181.945098876953125 153.568084716796875 148.954437255859375 215.310333251953125 170.8707275390625 283.25775146484375 210.2086944580078125 225.5137481689453125 220.25732421875 302.3690185546875 329.48199462890625 192.683990478515625 138.0399017333984375 154.6395111083984375 174.2141265869140625 153.1402435302734375 159.1444091796875 170.608062744140625 182.9824676513671875 185.38507080078125 178.4444122314453125 214.43914794921875 230.76763916015625 254.574127197265625 253.102325439453125 221.829193115234375 163.706390380859375 228.005462646484375 260.883941650390625 254.781219482421875 246.0948486328125 261.34912109375 226.518218994140625 192.7474822998046875 190.62066650390625 203.263824462890625 180.1349029541015625 127.49059295654296875 130.8376617431640625 16.787786483764648438 143.76513671875 199.7200469970703125 154.24468994140625 155.5551605224609375 24.14656829833984375 1 21.454072952270507812 79.74008941650390625 112.52089691162109375 218.8961639404296875 239.945343017578125 1 -9999 -9999 -9999 -9999 -9999 -9999 -9999 
-9999 -9999 1 1 123.385894775390625 136.91943359375 220.90911865234375 1 1 31.210870742797851562 1 1 1 1 1 -9999 -9999 1 1 1 1 -9999 -9999 -9999 1 125.07273101806640625 105.43819427490234375 1 1 1 1 -9999 -9999 1 11.69062042236328125 1 1 -9999 1 1 1 1 16.57068634033203125 1 1 78.1955718994140625 1 1 1 1 106.5200958251953125 106.4793548583984375 129.881683349609375 166.6854248046875 1 -9999 223.9569854736328125 293.19012451171875 294.976043701171875 270.871734619140625 274.011260986328125 226.9751129150390625 189.669036865234375 151.801971435546875 133.6655120849609375 86.0054779052734375 140.38140869140625 240.9370574951171875 266.2662353515625 292.20733642578125 1 33.911712646484375 125.537017822265625 238.6564483642578125 280.68231201171875 272.812530517578125 206.84674072265625 276.063751220703125 306.390380859375 229.6363525390625 187.77960205078125 172.0870361328125 93.1990203857421875 185.3316802978515625 184.536285400390625 197.7184600830078125 208.64263916015625 178.9929351806640625 158.689422607421875 203.3418731689453125 228.29833984375 276.6522216796875 251.29559326171875 252.7054901123046875 187.9398040771484375 73.91710662841796875 197.4305419921875 223.146026611328125 276.881439208984375 249.2373504638671875 234.05419921875 193.7110443115234375 171.71527099609375 163.3740234375 211.126312255859375 184.8477020263671875 151.4750213623046875 60.174983978271484375 68.92115020751953125 143.0529022216796875 209.1087188720703125 160.7950592041015625 114.67194366455078125 1 1 1 1 1 139.56158447265625 1 -9999 -9999 -9999 -9999 -9999 -9999 1 
-9999 -9999 -9999 1 144.6016082763671875 230.428802490234375 231.4183502197265625 -9999 -9999 -9999 -9999 1 1 1 1 1 -9999 1 1 1 1 -9999 -9999 -9999 -9999 1 14.294403076171875 1 1 1 1 1 1 1 1 1 1 -9999 1 48.73889923095703125 1 1 50.594882965087890625 250.8166046142578125 183.8331298828125 1 1 1 1 1 40.867767333984375 109.27259063720703125 154.7140350341796875 189.021514892578125 196.0878448486328125 -9999 188.039520263671875 238.61761474609375 189.1740875244140625 270.50048828125 259.79345703125 185.07537841796875 106.09996795654296875 74.3908538818359375 1.1833271980285644531 104.68512725830078125 175.2889862060546875 210.5978240966796875 166.5623626708984375 49.308185577392578125 135.74072265625 127.9375457763671875 80.73316192626953125 232.3507232666015625 308.580780029296875 302.15118408203125 283.797576904296875 263.535125732421875 265.928375244140625 217.779998779296875 217.309844970703125 170.5308837890625 89.18944549560546875 206.3712158203125 205.799560546875 173.5814056396484375 185.2016448974609375 187.7394561767578125 195.1044921875 257.97235107421875 317.227813720703125 307.7781982421875 253.55224609375 65.7798309326171875 13.94757080078125 1 110.674530029296875 228.2394561767578125 254.021240234375 247.1326904296875 210.6440277099609375 179.64501953125 167.1717071533203125 205.692352294921875 206.236968994140625 180.1881866455078125 173.29791259765625 156.16119384765625 162.124481201171875 169.5113983154296875 184.435882568359375 210.381072998046875 44.887775421142578125 1 1 1 1 1 1 1 -9999 -9999 -9999 -9999 -9999 -9999 -9999 
-9999 -9999 -9999 1 198.9080963134765625 448.581634521484375 450.87738037109375 124.08551025390625 1 1 -9999 -9999 1 1 1 1 1 -9999 -9999 -9999 -9999 -9999 -9999 -9999 -9999 -9999 -9999 1 1 1 1 -9999 1 1 -9999 1 1 -9999 1 1 1 1 112.5698089599609375 258.437774658203125 234.52825927734375 232.6904144287109375 231.085174560546875 190.47509765625 89.63307952880859375 -9999 130.2022247314453125 153.2129974365234375 180.91387939453125 235.1581268310546875 231.6703033447265625 -9999 1 1 11.296968460083007812 85.49527740478515625 216.9199981689453125 204.6953277587890625 186.315948486328125 146.2559814453125 150.450653076171875 138.2503204345703125 112.4550628662109375 52.84368896484375 6.7872915267944335938 54.56299591064453125 161.999908447265625 146.7498626708984375 102.68747711181640625 121.11834716796875 221.5794830322265625 330.6729736328125 457.40802001953125 318.629241943359375 266.19085693359375 191.944488525390625 156.3588714599609375 210.2744140625 199.8181304931640625 207.19915771484375 196.1886749267578125 188.9351654052734375 211.6864013671875 191.1025238037109375 132.346343994140625 330.17022705078125 420.9676513671875 297.0501708984375 250.8021392822265625 196.433807373046875 229.472198486328125 1 63.945545196533203125 163.3365936279296875 205.90435791015625 221.461029052734375 163.76727294921875 1 65.71966552734375 219.9139556884765625 229.3255615234375 201.75091552734375 154.1853485107421875 119.38909149169921875 180.1671295166015625 208.0371551513671875 144.2680816650390625 1 1 1 1 1 1 1 1 1 1 -9999 -9999 -9999 -9999 -9999 -9999 
-9999 1 -9999 1 6.6794404983520507812 197.305389404296875 233.9293365478515625 284.8865966796875 176.8182220458984375 165.6806488037109375 1 1 1 -9999 -9999 1 -9999 1 -9999 -9999 -9999 -9999 -9999 -9999 -9999 -9999 -9999 -9999 1 1 1 -9999 1 1 1 1 -9999 1 1 1 1 1 1 176.4378204345703125 280.6358642578125 281.920440673828125 226.01739501953125 197.638031005859375 27.911554336547851562 1 143.18829345703125 170.5775909423828125 193.594940185546875 276.15582275390625 183.659912109375 1 1 1 1 38.1359100341796875 128.1927032470703125 202.1210174560546875 241.4123382568359375 166.0887908935546875 199.153167724609375 156.6896820068359375 171.3402252197265625 1 1 68.46901702880859375 271.7047119140625 110.53864288330078125 83.26033782958984375 1 85.985504150390625 171.360931396484375 188.341705322265625 296.809539794921875 257.135711669921875 82.33431243896484375 188.971832275390625 224.5600738525390625 235.215606689453125 183.517852783203125 195.8637237548828125 193.3989410400390625 212.3126678466796875 245.6212310791015625 238.62139892578125 295.3624267578125 307.62738037109375 279.953643798828125 242.176025390625 182.6329498291015625 68.4926300048828125 135.0410003662109375 171.9174346923828125 130.5035552978515625 105.0188446044921875 229.2786865234375 259.806060791015625 141.79510498046875 193.428314208984375 170.11962890625 172.212982177734375 194.698699951171875 175.09716796875 179.9573974609375 159.8607940673828125 197.52679443359375 154.56927490234375 1 1 1 1 -9999 1 171.336273193359375 47.0971832275390625 1 -9999 -9999 -9999 -9999 -9999 -9999 -9999 
-9999 -9999 -9999 -9999 1 1 74.5909881591796875 314.89862060546875 240.8354339599609375 176.80963134765625 8.990634918212890625 1 1 1 -9999 -9999 -9999 -9999 1 1 1 -9999 -9999 -9999 -9999 -9999 -9999 -9999 1 1 -9999 -9999 1 1 1 1 -9999 1 1 -9999 1 1 1 31.634668350219726562 254.2318572998046875 283.324737548828125 94.020416259765625 1 -9999 102.67508697509765625 157.262420654296875 177.4931182861328125 1 186.8509063720703125 235.8050689697265625 97.747802734375 -9999 1 223.3710479736328125 345.481842041015625 204.6474151611328125 192.7661590576171875 159.4041900634765625 191.1418914794921875 146.871246337890625 80.96234130859375 47.66530609130859375 1 -9999 1 273.015716552734375 156.33148193359375 1 1 78.731048583984375 55.7467041015625 260.1036376953125 250.6137542724609375 257.862274169921875 278.280670166015625 286.85382080078125 232.8978729248046875 252.5975494384765625 239.4652557373046875 232.9947662353515625 223.1620330810546875 198.0264892578125 235.525909423828125 250.8923797607421875 272.077880859375 244.3564300537109375 210.535675048828125 330.039154052734375 208.5883331298828125 75.10723876953125 138.540802001953125 103.59716033935546875 128.6729278564453125 1 51.102161407470703125 1 1 226.68511962890625 216.3171539306640625 199.7874755859375 204.7827911376953125 241.0465240478515625 229.5684967041015625 214.0880584716796875 242.21685791015625 117.63930511474609375 143.6643218994140625 263.171478271484375 241.7752685546875 1 1 1 86.953765869140625 1 -9999 -9999 -9999 -9999 -9999 -9999 -9999 -9999 
-9999 -9999 -9999 -9999 -9999 -9999 37.46585845947265625 231.10052490234375 154.582977294921875 161.208709716796875 233.8675384521484375 1 1 1 -9999 -9999 -9999 -9999 1 1 -9999 -9999 -9999 -9999 -9999 -9999 -9999 -9999 1 1 1 -9999 -9999 -9999 1 1 1 1 -9999 -9999 1 1 1 1 206.2276153564453125 258.292022705078125 80.14119720458984375 1 1 216.784088134765625 143.9915924072265625 112.34795379638671875 -9999 135.2816009521484375 239.202545166015625 208.5903167724609375 -9999 1 146.11767578125 358.39569091796875 291.2364501953125 204.0506744384765625 1 120.194976806640625 206.4111480712890625 245.01849365234375 118.68491363525390625 30.082742691040039062 1 1 1 108.84485626220703125 22.032182693481445312 162.2179412841796875 183.1549530029296875 23.38631439208984375 194.99371337890625 250.07012939453125 253.2784881591796875 242.4489898681640625 192.1655120849609375 230.9168243408203125 238.4119720458984375 239.2339630126953125 245.7162628173828125 249.549346923828125 215.3359222412109375 243.2559356689453125 244.424407958984375 263.54583740234375 272.600921630859375 -9999 1 120.55944061279296875 103.276702880859375 57.49098968505859375 1 54.15473175048828125 99.1006317138671875 140.8044281005859375 1 -9999 1 208.4117431640625 176.9892578125 277.2410888671875 212.5188751220703125 190.303802490234375 112.44487762451171875 206.6929779052734375 49.153720855712890625 113.6739654541015625 322.671112060546875 192.4337310791015625 1 1 -9999 -9999 -9999 -9999 -9999 -9999 -9999 -9999 -9999 -9999 -9999 
-9999 -9999 -9999 -9999 -9999 -9999 -9999 1 131.439483642578125 234.5131378173828125 224.8943023681640625 1 1 1 -9999 -9999 -9999 -9999 -9999 -9999 -9999 -9999 1 -9999 -9999 -9999 -9999 -9999 -9999 1 47.154300689697265625 1 -9999 -9999 1 1 -9999 -9999 1 1 1 1 1 1 193.54547119140625 236.030120849609375 179.679779052734375 1 1 253.898193359375 200.6063690185546875 18.180837631225585938 1 164.0896453857421875 232.5944976806640625 182.1210784912109375 1 1 1 1 201.57476806640625 55.2412567138671875 1 52.431751251220703125 240.8245086669921875 263.07501220703125 280.3492431640625 288.39251708984375 264.537017822265625 27.083196640014648438 1 360.336212158203125 288.671539306640625 291.213409423828125 254.1232452392578125 196.9940338134765625 225.6852569580078125 228.649627685546875 168.5988311767578125 171.6229400634765625 236.7162933349609375 254.896209716796875 246.1949462890625 244.6649169921875 239.7808685302734375 241.057769775390625 243.095001220703125 167.5589141845703125 113.74549102783203125 233.3469085693359375 132.8450164794921875 1 -9999 106.02906036376953125 145.2517547607421875 143.6012115478515625 23.377531051635742188 1 1 1 39.75726318359375 1 1 95.75836181640625 1 192.63641357421875 -9999 1 -9999 -9999 1 -9999 1 1 -9999 -9999 -9999 -9999 -9999 -9999 -9999 -9999 -9999 -9999 -9999 -9999 -9999 
-9999 -9999 -9999 -9999 -9999 -9999 -9999 1 1 82.909576416015625 1 1 1 1 -9999 -9999 -9999 -9999 -9999 -9999 -9999 1 1 1 1 -9999 -9999 -9999 -9999 92.226837158203125 217.7524871826171875 215.51104736328125 -9999 -9999 1 1 1 1 1 1 39.400302886962890625 94.0040130615234375 56.860179901123046875 114.76735687255859375 204.606536865234375 214.5404052734375 191.7193145751953125 263.251129150390625 271.7218017578125 286.410308837890625 292.18804931640625 235.476287841796875 195.2806396484375 136.4178466796875 245.021392822265625 237.2125244140625 81.7123260498046875 1 1 1 82.21209716796875 1 1 10.510224342346191406 214.3366851806640625 232.4499053955078125 232.7988433837890625 258.238250732421875 273.682098388671875 285.17645263671875 322.37579345703125 259.655548095703125 289.64373779296875 287.264617919921875 97.76152801513671875 229.1235809326171875 298.351806640625 273.065582275390625 248.665557861328125 186.6863555908203125 245.0227508544921875 233.6188812255859375 241.022979736328125 272.752044677734375 268.86236572265625 263.55023193359375 252.5500335693359375 201.500762939453125 39.29993438720703125 1 341.95458984375 145.9958343505859375 18.404249191284179688 98.43732452392578125 1 146.8966827392578125 138.7692413330078125 1 -9999 1 1 48.381839752197265625 1 1 1 -9999 -9999 1 -9999 -9999 -9999 -9999 -9999 -9999 -9999 -9999 -9999 -9999 -9999 -9999 -9999 -9999 -9999 -9999 -9999 -9999 -9999 
-9999 -9999 -9999 -9999 -9999 -9999 -9999 -9999 1 1 1 1 1 1 -9999 -9999 1 -9999 -9999 -9999 -9999 -9999 -9999 -9999 -9999 1 -9999 -9999 -9999 226.32952880859375 207.959442138671875 250.2244415283203125 1 -9999 -9999 -9999 1 24.832569122314453125 1 -9999 1 113.03106689453125 183.537200927734375 218.03271484375 149.2147674560546875 185.5380096435546875 97.8112030029296875 198.8106842041015625 175.2652740478515625 228.9655609130859375 256.052093505859375 224.3634033203125 92.967681884765625 147.8045501708984375 268.14337158203125 241.6113433837890625 186.1702117919921875 -9999 32.740447998046875 86.26584625244140625 1 1 1 1 106.8298187255859375 204.3147125244140625 208.9067840576171875 250.3570404052734375 283.820159912109375 283.83270263671875 268.363983154296875 184.27813720703125 283.872161865234375 235.12335205078125 28.195337295532226562 1 1 215.7554779052734375 118.9335784912109375 184.7610931396484375 230.5399627685546875 248.9427490234375 248.3042144775390625 252.956634521484375 253.373870849609375 223.35455322265625 218.3233489990234375 200.8802947998046875 142.1636505126953125 94.7240142822265625 128.9935302734375 41.79251861572265625 123.162841796875 58.490528106689453125 -9999 171.97479248046875 210.5141143798828125 1 -9999 -9999 1 1 1 1 1 -9999 1 123.71503448486328125 1 -9999 -9999 -9999 -9999 -9999 -9999 -9999 -9999 -9999 -9999 -9999 -9999 -9999 -9999 -9999 -9999 -9999 -9999 
-9999 -9999 -9999 -9999 -9999 -9999 -9999 -9999 -9999 -9999 -9999 -9999 -9999 -9999 -9999 -9999 -9999 -9999 -9999 -9999 -9999 -9999 -9999 -9999 -9999 -9999 -9999 -9999 1 215.07330322265625 200.87823486328125 260.31640625 324.7958984375 272.79864501953125 122.14272308349609375 1 -9999 7.314556121826171875 141.015167236328125 1 1 11.270321846008300781 84.87685394287109375 73.07964324951171875 106.0901641845703125 104.18914031982421875 37.865131378173828125 162.32684326171875 124.090240478515625 54.7993011474609375 43.836212158203125 102.21347808837890625 1 97.81473541259765625 274.9185791015625 202.8286285400390625 212.53271484375 65.21715545654296875 2.3578636646270751953 1 1 1 1 1 62.71317291259765625 182.9021148681640625 231.8332672119140625 257.479949951171875 244.8218994140625 245.12646484375 237.978271484375 231.2285919189453125 275.653656005859375 180.7987518310546875 235.2839202880859375 25.6337890625 1 1 145.2139434814453125 229.7013397216796875 191.65362548828125 199.733306884765625 210.974609375 222.219757080078125 204.3251495361328125 184.2590789794921875 216.7281036376953125 215.9853973388671875 208.0586700439453125 199.2958526611328125 203.6790008544921875 209.0965423583984375 231.343017578125 269.722747802734375 258.86993408203125 194.9499053955078125 219.2116851806640625 113.90178680419921875 1 1 84.4593658447265625 191.9643402099609375 1 1 1 -9999 45.24029541015625 160.4388885498046875 1 1 -9999 -9999 -9999 -9999 -9999 -9999 -9999 -9999 -9999 -9999 1 -9999 -9999 -9999 -9999 -9999 -9999 
-9999 -9999 -9999 -9999 -9999 -9999 -9999 -9999 -9999 -9999 -9999 -9999 -9999 -9999 -9999 -9999 -9999 -9999 -9999 -9999 -9999 -9999 -9999 -9999 -9999 -9999 -9999 -9999 -9999 1 120.43013763427734375 295.6591796875 268.0645751953125 240.50140380859375 209.75750732421875 1 -9999 -9999 1 1 1 1 1 1 1 29.978181838989257812 35.907169342041015625 75.31623077392578125 254.7705841064453125 202.8984222412109375 237.284698486328125 200.4580535888671875 -9999 1 113.36292266845703125 101.57135772705078125 167.2386322021484375 55.72876739501953125 1 1 1 1 19.396762847900390625 98.40157318115234375 120.1889801025390625 77.66234588623046875 234.7734527587890625 241.88671875 219.4774169921875 217.995025634765625 207.930572509765625 221.1378631591796875 243.607391357421875 45.78583526611328125 222.603424072265625 197.9382476806640625 67.54935455322265625 142.9305877685546875 231.8658599853515625 219.010284423828125 227.0676727294921875 210.724151611328125 173.6808929443359375 193.6492462158203125 215.0870208740234375 220.73944091796875 246.4556884765625 256.34417724609375 255.5868377685546875 250.92919921875 277.53240966796875 255.486480712890625 245.5559844970703125 198.2376556396484375 168.37158203125 142.802459716796875 160.42498779296875 1 1 34.195384979248046875 122.24143218994140625 150.5262451171875 1 1 1 1 118.24779510498046875 117.5511016845703125 1 1 -9999 -9999 -9999 1 -9999 -9999 -9999 -9999 -9999 -9999 -9999 -9999 -9999 -9999 -9999 -9999 -9999 
1 -9999 -9999 -9999 -9999 -9999 -9999 -9999 -9999 -9999 -9999 -9999 -9999 -9999 -9999 -9999 -9999 -9999 -9999 -9999 -9999 -9999 -9999 -9999 -9999 -9999 -9999 -9999 -9999 -9999 -9999 91.22438812255859375 110.315582275390625 216.9755401611328125 299.076812744140625 207.1650238037109375 97.01294708251953125 1 -9999 1 -9999 -9999 -9999 1 22.371408462524414062 76.06963348388671875 117.99683380126953125 163.6384429931640625 236.179595947265625 231.4134521484375 218.230010986328125 245.2088775634765625 250.9716796875 180.412872314453125 236.129730224609375 87.6000518798828125 26.311201095581054688 1 -9999 -9999 1 128.666748046875 95.93439483642578125 89.30487060546875 176.194244384765625 185.4756317138671875 273.056549072265625 230.9909210205078125 226.19891357421875 218.1719970703125 149.8798065185546875 212.3372039794921875 263.74578857421875 280.354461669921875 703.43658447265625 362.9346923828125 271.2763671875 182.76776123046875 187.6913299560546875 224.19732666015625 213.1455078125 182.696990966796875 164.8791961669921875 187.763031005859375 237.3335723876953125 267.274078369140625 260.303680419921875 273.8428955078125 273.5880126953125 246.694427490234375 272.186370849609375 254.137359619140625 1 1 1 1 60.147762298583984375 1 1 48.892551422119140625 70.191436767578125 1 1 1 -9999 1 1 1 1 1 1 -9999 -9999 1 -9999 -9999 -9999 -9999 -9999 -9999 -9999 -9999 -9999 -9999 -9999 -9999 -9999 
-9999 -9999 -9999 -9999 -9999 -9999 -9999 -9999 -9999 -9999 -9999 -9999 -9999 -9999 -9999 -9999 -9999 -9999 -9999 -9999 -9999 -9999 -9999 1 -9999 1 -9999 -9999 -9999 -9999 -9999 24.886266708374023438 53.0522918701171875 157.516448974609375 338.2486572265625 292.850250244140625 182.7147216796875 138.736663818359375 -9999 -9999 -9999 1 1 100.04974365234375 15.426678657531738281 1 22.657306671142578125 162.134124755859375 230.1452484130859375 236.6901092529296875 149.1218719482421875 131.1601104736328125 272.662139892578125 233.86212158203125 289.15673828125 23.749761581420898438 1 1 -9999 -9999 -9999 78.5322265625 64.655517578125 1 126.806060791015625 196.319793701171875 199.32525634765625 223.086090087890625 262.664520263671875 250.7515411376953125 217.515533447265625 241.6803131103515625 301.0972900390625 334.10186767578125 491.057769775390625 131.437286376953125 250.018890380859375 236.45977783203125 237.826416015625 247.096771240234375 226.681671142578125 176.4383392333984375 205.9328155517578125 224.2113189697265625 247.392730712890625 268.825439453125 243.9262237548828125 216.0006866455078125 1 220.6905975341796875 267.21380615234375 269.20806884765625 1 1 -9999 1 1 1 1 44.609119415283203125 34.928325653076171875 25.212507247924804688 33.827178955078125 1 -9999 -9999 1 1 1 1 -9999 -9999 -9999 1 -9999 -9999 -9999 -9999 -9999 -9999 -9999 -9999 -9999 -9999 -9999 -9999 -9999 
1 -9999 -9999 -9999 -9999 -9999 -9999 -9999 -9999 -9999 -9999 -9999 -9999 -9999 -9999 -9999 1 -9999 -9999 -9999 -9999 -9999 -9999 -9999 -9999 -9999 -9999 -9999 -9999 -9999 -9999 1 1 23.317453384399414062 288.55731201171875 235.108306884765625 228.952728271484375 1 1 -9999 1 1 1 1 1 1 1 157.3914642333984375 215.327392578125 252.2167510986328125 237.823333740234375 158.7339019775390625 160.9882659912109375 48.93941497802734375 1 1 -9999 1 1 1 1 1 1 62.08289337158203125 73.46590423583984375 134.7513275146484375 173.3647613525390625 226.841644287109375 254.098968505859375 229.21600341796875 242.5405731201171875 242.764434814453125 301.714080810546875 345.980926513671875 1 -9999 289.510009765625 256.69390869140625 208.997833251953125 236.3219757080078125 202.43603515625 209.4826507568359375 244.8450775146484375 228.3583831787109375 190.803985595703125 266.255828857421875 335.625213623046875 1 -9999 286.970367431640625 283.1787109375 252.461578369140625 231.437744140625 1 1 -9999 -9999 -9999 1 1 52.7137603759765625 68.4730377197265625 71.37081146240234375 1 1 1 1 1 -9999 1 -9999 -9999 -9999 -9999 -9999 -9999 -9999 -9999 -9999 -9999 -9999 -9999 -9999 -9999 -9999 -9999 -9999 
-9999 -9999 -9999 -9999 -9999 -9999 -9999 -9999 -9999 -9999 -9999 -9999 -9999 -9999 -9999 -9999 -9999 -9999 -9999 -9999 -9999 -9999 -9999 -9999 -9999 -9999 -9999 -9999 -9999 -9999 -9999 -9999 1 1 130.1846771240234375 204.0557403564453125 240.6540069580078125 237.3091583251953125 101.38054656982421875 2.8907740116119384766 1 -9999 1 -9999 -9999 -9999 1 1 69.457672119140625 174.97528076171875 95.36179351806640625 1 1 1 1 1 -9999 1 1 1 1 -9999 1 103.64138031005859375 168.2621917724609375 106.0665130615234375 163.5106201171875 195.045684814453125 224.685089111328125 229.8155059814453125 250.62481689453125 245.081512451171875 284.034515380859375 183.8191375732421875 1 1 322.05145263671875 314.61712646484375 231.6861419677734375 196.660186767578125 159.074005126953125 215.0794830322265625 240.92083740234375 232.1429290771484375 248.829681396484375 269.771697998046875 1 -9999 28.4356231689453125 320.240814208984375 245.4766387939453125 208.3750152587890625 240.6632843017578125 93.83405303955078125 1 1 -9999 1 1 1 19.738983154296875 68.88373565673828125 18.522253036499023438 55.782863616943359375 18.6589508056640625 1 1 -9999 -9999 1 -9999 -9999 -9999 -9999 -9999 -9999 -9999 -9999 -9999 -9999 -9999 -9999 -9999 -9999 -9999 -9999 -9999 
-9999 -9999 -9999 -9999 -9999 -9999 -9999 -9999 -9999 -9999 -9999 -9999 -9999 -9999 -9999 -9999 -9999 -9999 -9999 -9999 -9999 -9999 -9999 -9999 -9999 -9999 -9999 -9999 1 1 -9999 -9999 1 56.147563934326171875 247.1444854736328125 223.26171875 258.1531982421875 243.9452056884765625 137.0900115966796875 1 1 1 1 1 1 1 1 1 45.63375091552734375 72.979949951171875 1 1 1 1 1 -9999 1 1 1 1 1 1 -9999 1 64.0116729736328125 77.28797149658203125 175.4576873779296875 124.821807861328125 211.7455902099609375 235.125640869140625 260.714263916015625 329.194549560546875 107.1357879638671875 1 195.6559600830078125 190.101776123046875 262.012176513671875 216.7114105224609375 233.4372711181640625 222.79205322265625 288.15643310546875 210.7386474609375 219.6091766357421875 57.60391998291015625 1 -9999 1 1 218.27783203125 232.7996978759765625 184.3947601318359375 137.8835601806640625 7.2910294532775878906 1 1 1 -9999 -9999 1 1 1 56.201595306396484375 1 1 1 1 1 1 202.654266357421875 -9999 -9999 -9999 -9999 -9999 -9999 -9999 -9999 -9999 -9999 -9999 -9999 -9999 -9999 -9999 -9999 -9999 -9999 
-9999 -9999 -9999 -9999 -9999 -9999 -9999 -9999 -9999 -9999 -9999 -9999 -9999 -9999 -9999 -9999 -9999 -9999 -9999 -9999 -9999 -9999 -9999 -9999 -9999 -9999 -9999 -9999 1 1 -9999 -9999 1 1 217.5567474365234375 90.0446014404296875 333.309844970703125 256.36846923828125 125.9527740478515625 1 1 88.5300750732421875 162.678955078125 117.74005126953125 99.46291351318359375 56.198566436767578125 1 1 1 1 50.29030609130859375 53.973834991455078125 1 -9999 -9999 1 77.68419647216796875 123.4377899169921875 107.00954437255859375 1 1 1 -9999 1 1 70.97721099853515625 207.8898773193359375 211.89300537109375 211.692474365234375 206.903076171875 222.38818359375 251.9840240478515625 241.275177001953125 113.40331268310546875 247.4950408935546875 244.4400177001953125 264.97576904296875 233.871429443359375 292.417572021484375 163.56488037109375 90.17002105712890625 104.98653411865234375 163.1466522216796875 23.166418075561523438 1 26.68384552001953125 223.0527801513671875 269.23150634765625 252.225982666015625 215.4200897216796875 206.7772979736328125 48.441986083984375 1 1 1 1 1 -9999 1 1 1 91.8672943115234375 1 -9999 1 1 1 1 1 1 -9999 -9999 -9999 -9999 -9999 -9999 -9999 -9999 -9999 -9999 -9999 -9999 -9999 -9999 -9999 -9999 -9999 
-9999 -9999 -9999 -9999 -9999 -9999 -9999 -9999 -9999 -9999 -9999 -9999 -9999 -9999 -9999 -9999 -9999 -9999 -9999 1 -9999 -9999 -9999 -9999 -9999 -9999 -9999 -9999 1 1 -9999 1 1 1 1 1 215.8613739013671875 254.253326416015625 69.0280609130859375 1 1 14.9982147216796875 247.4650726318359375 190.911590576171875 136.712249755859375 129.6443634033203125 3.3965747356414794922 -9999 -9999 -9999 -9999 -9999 -9999 180.3388824462890625 128.419952392578125 318.631256103515625 46.082134246826171875 140.82159423828125 203.9748077392578125 1 1 1 65.2257080078125 1 1 1 85.09815216064453125 191.950897216796875 170.3365936279296875 193.7426605224609375 273.14544677734375 251.097381591796875 152.2259368896484375 252.878570556640625 204.1621246337890625 169.64520263671875 407.0906982421875 276.354095458984375 247.2484283447265625 1 1 82.4763946533203125 126.84587860107421875 142.9362640380859375 67.26740264892578125 214.3497772216796875 206.361602783203125 220.32806396484375 240.433074951171875 202.1897735595703125 127.21355438232421875 1 1 1 1 1 1 1 1 1 1 73.7932281494140625 1 1 1 1 1 1 1 -9999 -9999 -9999 -9999 -9999 -9999 -9999 -9999 -9999 -9999 -9999 -9999 -9999 -9999 -9999 -9999 -9999 -9999 
-9999 -9999 -9999 -9999 -9999 -9999 -9999 -9999 -9999 -9999 -9999 -9999 -9999 -9999 -9999 -9999 -9999 -9999 -9999 -9999 -9999 -9999 -9999 -9999 -9999 -9999 -9999 -9999 -9999 -9999 -9999 -9999 -9999 -9999 -9999 1 300.057769775390625 209.3412933349609375 37.068981170654296875 1 1 -9999 87.1999664306640625 101.55776214599609375 85.8393402099609375 104.87906646728515625 1 -9999 -9999 -9999 -9999 1 1 184.74139404296875 61.582424163818359375 1 1 1 1 1 1 -9999 1 1 1 -9999 1 104.87873077392578125 208.814422607421875 230.64337158203125 248.7195892333984375 104.2442474365234375 246.094512939453125 166.5835113525390625 90.2717742919921875 265.24127197265625 382.11181640625 190.411041259765625 33.5912933349609375 17.166776657104492188 1 -9999 1 168.8642730712890625 186.1197662353515625 276.1873779296875 261.328765869140625 260.00103759765625 264.09332275390625 252.934600830078125 3.7781054973602294922 1 1 1 1 -9999 1 2.8452346324920654297 23.625986099243164062 207.7881011962890625 1 -9999 1 1 89.36157989501953125 134.00408935546875 55.301647186279296875 -9999 1 -9999 -9999 -9999 -9999 -9999 -9999 -9999 -9999 -9999 -9999 -9999 -9999 -9999 -9999 -9999 -9999 -9999 -9999 
-9999 -9999 -9999 -9999 -9999 -9999 -9999 -9999 -9999 -9999 -9999 -9999 -9999 -9999 -9999 -9999 -9999 -9999 -9999 -9999 -9999 -9999 -9999 -9999 -9999 -9999 -9999 -9999 -9999 -9999 -9999 -9999 -9999 -9999 -9999 -9999 1 26.850482940673828125 268.155181884765625 88.0516204833984375 -9999 -9999 -9999 -9999 -9999 -9999 -9999 -9999 -9999 -9999 -9999 -9999 1 1 1 -9999 -9999 1 1 1 1 -9999 -9999 -9999 -9999 1 -9999 1 199.6866455078125 187.6313934326171875 123.47234344482421875 25.677820205688476562 119.8823699951171875 1 1 136.683258056640625 219.61663818359375 1 1 62.91063690185546875 1 -9999 1 117.5139923095703125 199.7330780029296875 251.6540679931640625 303.39605712890625 289.542633056640625 252.615875244140625 1 1 -9999 1 -9999 1 1 109.8342437744140625 189.260009765625 210.9505157470703125 354.852325439453125 329.489166259765625 306.708221435546875 100.7550048828125 149.218292236328125 100.2718505859375 113.20140838623046875 157.9055328369140625 1 -9999 -9999 -9999 1 1 -9999 -9999 -9999 -9999 -9999 1 -9999 -9999 -9999 -9999 -9999 -9999 -9999 -9999 
-9999 -9999 -9999 -9999 -9999 -9999 -9999 -9999 -9999 -9999 -9999 -9999 -9999 -9999 -9999 -9999 -9999 -9999 -9999 -9999 -9999 -9999 -9999 -9999 -9999 -9999 -9999 -9999 -9999 -9999 1 -9999 -9999 -9999 -9999 -9999 -9999 1 1 1 -9999 -9999 -9999 -9999 -9999 -9999 -9999 -9999 -9999 -9999 -9999 -9999 -9999 1 -9999 -9999 -9999 -9999 -9999 -9999 -9999 1 1 1 1 -9999 1 1 1 1 1 1 1 1 1 1 87.0350799560546875 1 1 -9999 -9999 1 1 39.68393707275390625 79.36168670654296875 136.6403350830078125 165.4365234375 14.3788604736328125 1 1 1 -9999 1 1 4.2068347930908203125 1 93.215301513671875 223.6151580810546875 301.909393310546875 359.192901611328125 406.039642333984375 377.252899169921875 246.1553497314453125 199.922454833984375 112.49405670166015625 1 1 1 -9999 1 -9999 -9999 -9999 -9999 -9999 -9999 -9999 -9999 -9999 -9999 -9999 -9999 -9999 -9999 -9999 -9999 -9999 
-9999 -9999 -9999 -9999 -9999 -9999 -9999 -9999 -9999 -9999 -9999 -9999 -9999 -9999 -9999 -9999 -9999 -9999 -9999 -9999 -9999 -9999 -9999 -9999 -9999 -9999 -9999 -9999 -9999 -9999 -9999 -9999 -9999 -9999 -9999 -9999 -9999 -9999 -9999 -9999 -9999 -9999 -9999 -9999 -9999 -9999 -9999 -9999 -9999 -9999 -9999 -9999 -9999 -9999 -9999 -9999 -9999 -9999 -9999 -9999 -9999 1 1 1 1 -9999 1 1 168.440338134765625 176.3456268310546875 231.579345703125 219.4652099609375 14.8348846435546875 -9999 1 161.68975830078125 253.6494598388671875 171.4760284423828125 -9999 -9999 1 1 1 190.88165283203125 282.06219482421875 158.815582275390625 1 1 123.10495758056640625 47.5552978515625 1 1 1 1 1 1 37.267116546630859375 179.02789306640625 346.449249267578125 337.719573974609375 368.379486083984375 300.67376708984375 137.2322845458984375 1 1 1 1 1 1 1 -9999 -9999 -9999 -9999 1 1 -9999 -9999 -9999 -9999 -9999 -9999 -9999 -9999 -9999 -9999 -9999 
-9999 -9999 -9999 -9999 -9999 -9999 -9999 -9999 -9999 -9999 -9999 -9999 -9999 -9999 -9999 -9999 -9999 -9999 -9999 -9999 -9999 -9999 -9999 -9999 -9999 -9999 -9999 -9999 -9999 -9999 -9999 -9999 -9999 -9999 -9999 -9999 -9999 -9999 -9999 -9999 -9999 -9999 -9999 -9999 -9999 -9999 -9999 -9999 -9999 -9999 -9999 -9999 -9999 -9999 -9999 -9999 1 -9999 -9999 -9999 -9999 1 1 1 1 -9999 -9999 1 202.9487457275390625 205.520416259765625 234.7378387451171875 267.92864990234375 57.797641754150390625 -9999 128.976043701171875 142.2262725830078125 166.52532958984375 1 -9999 1 1 -9999 1 207.55145263671875 243.8837127685546875 261.394775390625 91.0563507080078125 9.436290740966796875 255.9769744873046875 100.88968658447265625 15.064832687377929688 1 1 1 1 1 1 1 252.507476806640625 256.57171630859375 243.472564697265625 299.9442138671875 138.2664794921875 1 1 1 76.15514373779296875 110.48879241943359375 4.6082000732421875 1 1 -9999 -9999 -9999 1 1 1 -9999 -9999 -9999 -9999 1 -9999 -9999 -9999 -9999 -9999 
-9999 -9999 -9999 -9999 -9999 -9999 -9999 -9999 -9999 -9999 -9999 -9999 -9999 -9999 -9999 -9999 -9999 -9999 -9999 -9999 -9999 -9999 -9999 -9999 -9999 -9999 -9999 -9999 -9999 -9999 -9999 1 -9999 -9999 -9999 -9999 -9999 -9999 -9999 -9999 -9999 -9999 -9999 -9999 -9999 -9999 -9999 -9999 -9999 -9999 -9999 -9999 -9999 -9999 -9999 -9999 -9999 -9999 -9999 -9999 -9999 -9999 -9999 -9999 1 1 -9999 -9999 1 49.2593536376953125 119.3549346923828125 186.803253173828125 -9999 1 363.642425537109375 225.79827880859375 1 -9999 1 1 1 1 123.46197509765625 232.7684478759765625 321.94708251953125 281.234771728515625 114.081329345703125 169.00360107421875 260.0438232421875 15.980511665344238281 1 54.693523406982421875 1 1 1 1 1 1 1 174.4239959716796875 306.026611328125 233.1230926513671875 186.396209716796875 249.4302825927734375 1 1 53.58177947998046875 132.3351287841796875 106.04360198974609375 1 1 1 1 1 1 -9999 1 1 1 -9999 1 1 -9999 -9999 -9999 1 1 
-9999 -9999 -9999 -9999 -9999 -9999 -9999 -9999 -9999 -9999 -9999 -9999 -9999 -9999 -9999 -9999 -9999 -9999 -9999 -9999 -9999 -9999 -9999 -9999 -9999 -9999 -9999 -9999 -9999 -9999 -9999 1 -9999 -9999 -9999 -9999 -9999 -9999 1 -9999 -9999 -9999 -9999 -9999 -9999 -9999 1 -9999 -9999 -9999 -9999 -9999 -9999 -9999 -9999 -9999 -9999 -9999 -9999 -9999 -9999 -9999 -9999 -9999 -9999 -9999 1 -9999 -9999 1 33.8538818359375 -9999 -9999 1 1 1 1 -9999 -9999 -9999 1 1 146.7262420654296875 232.985137939453125 354.6607666015625 293.585968017578125 147.8778076171875 194.1322021484375 155.870758056640625 135.0335540771484375 1 1 1 41.798999786376953125 32.6367645263671875 103.47960662841796875 1 1 1 1 268.513946533203125 368.9036865234375 141.5099029541015625 222.96826171875 154.6399688720703125 57.466014862060546875 39.3652191162109375 139.6925811767578125 34.077423095703125 1 1 1 1 1 1 1 1 1 1 1 1 1 1 1 1 1 -9999 
-9999 -9999 -9999 -9999 -9999 -9999 -9999 -9999 -9999 -9999 -9999 -9999 -9999 -9999 -9999 -9999 -9999 -9999 -9999 -9999 -9999 -9999 -9999 -9999 -9999 -9999 -9999 -9999 -9999 -9999 -9999 -9999 1 -9999 -9999 -9999 -9999 -9999 -9999 -9999 -9999 -9999 -9999 -9999 -9999 -9999 -9999 -9999 -9999 -9999 -9999 -9999 -9999 -9999 -9999 -9999 -9999 -9999 -9999 -9999 -9999 -9999 -9999 1 1 -9999 1 1 1 1 -9999 -9999 -9999 1 1 1 1 1 -9999 -9999 -9999 1 165.8809814453125 155.7438507080078125 177.5184478759765625 235.2196807861328125 180.1283416748046875 208.5631561279296875 162.2613372802734375 74.2158203125 36.386260986328125 1 1 344.300079345703125 188.485595703125 198.8364410400390625 147.1576690673828125 25.89366912841796875 30.467012405395507812 1 1 1 1 109.31390380859375 109.779632568359375 1 11.005183219909667969 30.889051437377929688 1 6.5504889488220214844 1 -9999 -9999 1 1 130.962158203125 31.057397842407226562 1 1 1 1 1 -9999 -9999 1 -9999 -9999 
-9999 -9999 -9999 -9999 -9999 -9999 -9999 -9999 -9999 -9999 -9999 -9999 -9999 -9999 -9999 -9999 -9999 -9999 -9999 -9999 -9999 -9999 -9999 -9999 -9999 -9999 -9999 -9999 -9999 -9999 -9999 -9999 -9999 1 1 -9999 -9999 -9999 -9999 -9999 -9999 -9999 -9999 -9999 -9999 -9999 -9999 -9999 -9999 -9999 -9999 -9999 -9999 -9999 -9999 -9999 -9999 -9999 -9999 -9999 -9999 -9999 -9999 -9999 -9999 -9999 -9999 -9999 1 1 -9999 -9999 -9999 -9999 1 1 1 -9999 -9999 -9999 -9999 1 146.4984283447265625 58.33892822265625 1 92.74025726318359375 231.975738525390625 368.486083984375 125.05084228515625 101.44284820556640625 34.19538116455078125 1 1 131.3869476318359375 217.4794921875 213.76446533203125 256.377777099609375 275.28369140625 213.6253509521484375 189.62274169921875 1 1 1 152.9637908935546875 65.77677154541015625 1 1 1 -9999 -9999 1 37.28763580322265625 1 1 1 1 1 1 1 1 1 1 -9999 -9999 -9999 -9999 -9999 
-9999 -9999 -9999 -9999 -9999 -9999 -9999 -9999 -9999 -9999 -9999 -9999 -9999 -9999 -9999 -9999 -9999 -9999 -9999 -9999 -9999 -9999 -9999 -9999 -9999 -9999 -9999 -9999 -9999 -9999 -9999 -9999 -9999 1 1 -9999 -9999 -9999 -9999 -9999 -9999 -9999 -9999 -9999 -9999 -9999 -9999 -9999 -9999 -9999 -9999 -9999 -9999 -9999 -9999 -9999 -9999 -9999 -9999 -9999 -9999 -9999 -9999 -9999 -9999 -9999 -9999 -9999 -9999 -9999 -9999 -9999 -9999 -9999 -9999 1 1 1 1 -9999 -9999 29.828548431396484375 1 1 1 26.892992019653320312 313.49346923828125 289.221710205078125 100.48592376708984375 191.2589263916015625 1 1 1 189.3957672119140625 202.3813323974609375 166.469818115234375 142.876861572265625 169.2280731201171875 259.4971923828125 243.6943817138671875 80.84210968017578125 240.851318359375 213.15667724609375 151.678741455078125 85.71729278564453125 1 1 1 -9999 1 1 6.2352199554443359375 1 1 1 1 -9999 1 1 1 1 1 -9999 -9999 1 -9999 -9999 
-9999 -9999 -9999 -9999 -9999 -9999 -9999 -9999 -9999 -9999 -9999 -9999 -9999 -9999 -9999 -9999 -9999 -9999 -9999 -9999 -9999 -9999 -9999 -9999 -9999 -9999 -9999 -9999 -9999 -9999 -9999 -9999 -9999 1 1 1 -9999 -9999 -9999 1 -9999 -9999 -9999 -9999 -9999 -9999 -9999 -9999 -9999 -9999 -9999 -9999 -9999 -9999 -9999 -9999 -9999 -9999 -9999 -9999 -9999 -9999 -9999 -9999 -9999 -9999 -9999 -9999 -9999 -9999 -9999 -9999 -9999 1 95.12989044189453125 1 1 1 -9999 1 1 1 1 1 1 1 1 1 1 1 -9999 1 78.40018463134765625 217.4359283447265625 195.4626007080078125 149.411895751953125 164.9137420654296875 138.774658203125 185.371368408203125 245.7633514404296875 294.661376953125 258.7802734375 228.884674072265625 162.09130859375 21.24066162109375 1 1 1 1 1 1 1 1 59.545581817626953125 1 1 1 1 1 1 1 18.245351791381835938 1 -9999 -9999 -9999 -9999 
-9999 -9999 -9999 -9999 -9999 -9999 -9999 -9999 -9999 -9999 -9999 -9999 -9999 -9999 -9999 -9999 -9999 -9999 -9999 -9999 -9999 -9999 -9999 -9999 -9999 -9999 -9999 -9999 -9999 -9999 -9999 -9999 -9999 -9999 -9999 1 1 -9999 -9999 -9999 -9999 -9999 -9999 -9999 -9999 -9999 -9999 -9999 -9999 -9999 -9999 -9999 -9999 -9999 -9999 -9999 -9999 -9999 -9999 -9999 -9999 1 -9999 -9999 -9999 -9999 -9999 -9999 -9999 -9999 -9999 -9999 -9999 1 189.194427490234375 244.2885589599609375 61.142578125 1 1 1 1 1 1 1 1 1 -9999 1 1 1 1 1 53.543025970458984375 162.480438232421875 169.610687255859375 153.9725799560546875 213.5096435546875 139.732452392578125 163.5337982177734375 201.3503875732421875 236.1025390625 233.5102996826171875 342.786407470703125 249.7677001953125 36.88336944580078125 76.7413330078125 319.775390625 413.52008056640625 1 -9999 1 -9999 1 40.17655181884765625 49.03961944580078125 9.5098409652709960938 1 -9999 1 1 1 53.446399688720703125 1 -9999 -9999 -9999 -9999 
-9999 -9999 -9999 -9999 -9999 -9999 -9999 -9999 -9999 -9999 -9999 -9999 -9999 -9999 -9999 -9999 -9999 -9999 -9999 -9999 -9999 -9999 -9999 -9999 -9999 -9999 -9999 -9999 -9999 -9999 -9999 -9999 -9999 -9999 -9999 1 1 1 1 1 -9999 -9999 -9999 -9999 -9999 -9999 -9999 -9999 -9999 -9999 -9999 -9999 -9999 -9999 -9999 -9999 -9999 -9999 -9999 -9999 -9999 -9999 -9999 -9999 -9999 -9999 -9999 -9999 -9999 -9999 -9999 -9999 -9999 1 1 1 50.59812164306640625 -9999 1 1 1 1 -9999 1 58.27138519287109375 50.63501739501953125 1 -9999 100.23119354248046875 59.677295684814453125 1 1 56.09686279296875 122.2795562744140625 106.4851226806640625 157.8214111328125 146.7812347412109375 167.016143798828125 181.2446441650390625 243.7905426025390625 282.595916748046875 323.694183349609375 335.71942138671875 275.585968017578125 183.294952392578125 219.74664306640625 343.671661376953125 509.380706787109375 1 -9999 -9999 -9999 1 1 1.4491851329803466797 1 1 1 -9999 -9999 -9999 1 1 1 -9999 -9999 -9999 
-9999 -9999 -9999 -9999 -9999 -9999 -9999 -9999 -9999 -9999 -9999 -9999 -9999 -9999 -9999 -9999 -9999 -9999 -9999 -9999 -9999 -9999 -9999 -9999 -9999 -9999 -9999 -9999 -9999 -9999 -9999 -9999 -9999 -9999 1 1 1 1 1 1 -9999 -9999 -9999 -9999 -9999 -9999 -9999 -9999 -9999 -9999 -9999 -9999 -9999 -9999 -9999 -9999 -9999 -9999 -9999 -9999 -9999 -9999 -9999 -9999 -9999 -9999 -9999 -9999 -9999 -9999 -9999 -9999 -9999 1 -9999 -9999 -9999 -9999 1 106.8108367919921875 1 -9999 -9999 1 73.83718109130859375 1 1 59.697483062744140625 1 1 1 1 1 1 79.32889556884765625 257.534912109375 206.2293548583984375 127.0973663330078125 204.1042327880859375 298.990692138671875 180.539306640625 166.9226531982421875 170.9437408447265625 158.599822998046875 1 1 157.3909759521484375 273.325347900390625 70.85326385498046875 1 1 1 1 1 -9999 1 1 1 -9999 -9999 -9999 1 -9999 -9999 -9999 -9999 -9999 
-9999 -9999 -9999 -9999 -9999 -9999 -9999 -9999 -9999 -9999 -9999 -9999 -9999 -9999 -9999 -9999 -9999 -9999 -9999 -9999 -9999 -9999 -9999 -9999 -9999 -9999 -9999 -9999 -9999 -9999 -9999 -9999 -9999 -9999 1 -9999 1 1 1 -9999 1 -9999 -9999 -9999 -9999 -9999 -9999 -9999 -9999 -9999 -9999 -9999 -9999 -9999 -9999 -9999 -9999 -9999 -9999 -9999 -9999 -9999 -9999 -9999 -9999 -9999 -9999 -9999 -9999 -9999 -9999 -9999 -9999 -9999 -9999 -9999 -9999 -9999 1 176.6048736572265625 40.709171295166015625 -9999 -9999 -9999 1 -9999 1 212.7828369140625 195.47845458984375 185.8822021484375 90.68340301513671875 38.410442352294921875 45.7489776611328125 1 22.720455169677734375 163.1580047607421875 240.9724273681640625 133.0567169189453125 131.688568115234375 1 1 1 1 118.1163482666015625 262.056793212890625 178.4316864013671875 137.1840057373046875 270.196441650390625 1 1 -9999 42.08969879150390625 -9999 1 1 24.256017684936523438 104.735931396484375 105.59815216064453125 -9999 1 -9999 -9999 -9999 -9999 -9999 -9999 -9999 
-9999 -9999 -9999 -9999 -9999 -9999 -9999 -9999 -9999 -9999 -9999 -9999 -9999 -9999 -9999 -9999 -9999 -9999 -9999 -9999 -9999 -9999 -9999 -9999 -9999 -9999 -9999 -9999 -9999 -9999 -9999 -9999 -9999 -9999 -9999 -9999 -9999 -9999 1 -9999 -9999 1 -9999 1 1 -9999 -9999 -9999 -9999 -9999 -9999 -9999 -9999 -9999 -9999 -9999 -9999 -9999 -9999 -9999 1 -9999 -9999 -9999 -9999 -9999 -9999 -9999 -9999 -9999 1 -9999 -9999 -9999 -9999 -9999 -9999 -9999 -9999 1 1 -9999 -9999 -9999 1 145.362701416015625 246.561676025390625 214.989166259765625 250.092132568359375 254.220794677734375 279.954742431640625 282.88458251953125 221.064605712890625 125.98055267333984375 148.7357635498046875 199.38519287109375 184.0926361083984375 93.09795379638671875 1 1 1 222.0581207275390625 1 401.062835693359375 258.573486328125 260.6229248046875 227.3776397705078125 175.187286376953125 1 -9999 48.01955413818359375 185.9136199951171875 182.1002960205078125 69.27593994140625 12.149689674377441406 101.509490966796875 160.256439208984375 69.40164947509765625 1 1 1 1 -9999 1 -9999 -9999 -9999 
-9999 -9999 -9999 -9999 -9999 -9999 -9999 -9999 -9999 -9999 -9999 -9999 -9999 -9999 -9999 -9999 -9999 -9999 -9999 -9999 -9999 -9999 -9999 -9999 -9999 -9999 -9999 -9999 -9999 -9999 -9999 -9999 -9999 -9999 -9999 -9999 -9999 -9999 -9999 -9999 -9999 -9999 -9999 1 1 -9999 -9999 -9999 -9999 -9999 -9999 -9999 -9999 -9999 -9999 -9999 -9999 -9999 -9999 -9999 -9999 -9999 -9999 -9999 -9999 -9999 -9999 -9999 -9999 -9999 -9999 -9999 -9999 -9999 -9999 -9999 -9999 -9999 -9999 -9999 -9999 1 1 -9999 1 63.97040557861328125 225.6749420166015625 300.0096435546875 232.64825439453125 229.5641021728515625 257.20831298828125 326.756591796875 192.8072357177734375 315.683929443359375 201.2889556884765625 163.7802581787109375 205.1070556640625 134.714019775390625 1 1 240.099456787109375 468.121795654296875 434.6107177734375 290.810577392578125 194.6349945068359375 118.94671630859375 45.893707275390625 1 1 1 1 81.48204803466796875 1 1 1 1 31.652269363403320312 1 1 1 1 1 1 36.729686737060546875 -9999 -9999 -9999 
-9999 -9999 1 -9999 -9999 -9999 -9999 -9999 -9999 -9999 -9999 -9999 -9999 -9999 -9999 -9999 -9999 -9999 -9999 -9999 -9999 -9999 -9999 -9999 -9999 -9999 -9999 -9999 -9999 -9999 -9999 -9999 -9999 -9999 -9999 1 -9999 -9999 -9999 -9999 -9999 -9999 -9999 -9999 1 1 -9999 -9999 -9999 -9999 -9999 -9999 -9999 -9999 -9999 -9999 -9999 -9999 -9999 -9999 -9999 -9999 -9999 -9999 -9999 -9999 -9999 -9999 -9999 -9999 -9999 -9999 -9999 -9999 -9999 -9999 -9999 -9999 -9999 -9999 1 1 -9999 -9999 -9999 -9999 1 1 1 11.189633369445800781 162.477691650390625 214.193389892578125 19.893159866333007812 101.326385498046875 252.72686767578125 234.9768218994140625 76.08380889892578125 1 1 1 192.012664794921875 260.777008056640625 386.478057861328125 238.51483154296875 39.3459625244140625 1 1 1 1 1 -9999 -9999 -9999 -9999 -9999 1 -9999 -9999 -9999 -9999 -9999 1 1 1 -9999 -9999 -9999 
-9999 -9999 -9999 -9999 -9999 -9999 -9999 -9999 -9999 -9999 -9999 -9999 -9999 -9999 -9999 -9999 -9999 -9999 -9999 -9999 -9999 -9999 -9999 -9999 -9999 -9999 -9999 -9999 -9999 -9999 -9999 -9999 -9999 -9999 -9999 -9999 -9999 1 -9999 -9999 -9999 -9999 -9999 -9999 1 1 1 1 -9999 -9999 -9999 -9999 -9999 -9999 -9999 -9999 -9999 -9999 -9999 -9999 -9999 -9999 -9999 -9999 -9999 -9999 -9999 -9999 -9999 -9999 -9999 -9999 -9999 -9999 -9999 -9999 1 -9999 -9999 -9999 1 1 1 1 1 -9999 -9999 1 1 1 1 1 1 1 121.17694091796875 110.27301025390625 1 42.859222412109375 1 1 96.75209808349609375 127.291473388671875 371.620330810546875 158.2359161376953125 -9999 -9999 1 1 1 1 -9999 1 -9999 -9999 -9999 1 -9999 -9999 -9999 -9999 -9999 -9999 1 1 1 -9999 -9999 
-9999 -9999 -9999 -9999 -9999 -9999 -9999 -9999 -9999 -9999 -9999 -9999 -9999 -9999 -9999 -9999 -9999 -9999 -9999 -9999 -9999 -9999 -9999 -9999 -9999 -9999 -9999 -9999 -9999 -9999 -9999 -9999 -9999 -9999 -9999 1 -9999 -9999 -9999 -9999 -9999 -9999 -9999 -9999 -9999 1 1 -9999 -9999 -9999 -9999 -9999 -9999 -9999 -9999 -9999 -9999 -9999 -9999 -9999 -9999 -9999 -9999 -9999 -9999 -9999 -9999 -9999 -9999 -9999 -9999 -9999 -9999 -9999 -9999 1 -9999 -9999 -9999 -9999 -9999 1 1 1 1 -9999 -9999 1 1 1 1 1 1 1 1 1 104.45278167724609375 110.6248931884765625 1 135.129913330078125 113.11956024169921875 206.877227783203125 376.090087890625 -9999 1 -9999 -9999 1 -9999 1 1 1 -9999 -9999 1 -9999 -9999 -9999 -9999 -9999 -9999 1 1 1 1 -9999 -9999 
-9999 -9999 -9999 -9999 -9999 -9999 -9999 -9999 -9999 -9999 -9999 -9999 -9999 -9999 -9999 -9999 -9999 -9999 -9999 -9999 -9999 -9999 -9999 -9999 -9999 -9999 -9999 -9999 -9999 -9999 -9999 -9999 -9999 -9999 -9999 -9999 -9999 -9999 -9999 -9999 -9999 -9999 -9999 -9999 -9999 -9999 -9999 -9999 -9999 -9999 -9999 -9999 -9999 -9999 -9999 -9999 -9999 -9999 -9999 -9999 -9999 -9999 -9999 1 -9999 -9999 -9999 -9999 1 -9999 -9999 -9999 -9999 -9999 -9999 -9999 -9999 -9999 -9999 -9999 1 1 1 1 1 1 1 1 1 1 1 1 1 1 1 1 1 27.275510787963867188 17.625125885009765625 82.9957122802734375 102.311737060546875 1 -9999 -9999 -9999 -9999 -9999 -9999 -9999 1 1 -9999 1 1 1 -9999 -9999 -9999 -9999 -9999 -9999 -9999 1 -9999 -9999 -9999 -9999 
-9999 -9999 -9999 -9999 -9999 -9999 -9999 -9999 -9999 -9999 -9999 -9999 -9999 -9999 -9999 -9999 -9999 -9999 -9999 -9999 -9999 -9999 -9999 -9999 -9999 -9999 -9999 -9999 -9999 1 -9999 -9999 -9999 -9999 -9999 -9999 -9999 -9999 -9999 -9999 -9999 -9999 -9999 -9999 -9999 -9999 1 1 -9999 -9999 -9999 -9999 -9999 -9999 -9999 -9999 -9999 -9999 -9999 -9999 -9999 -9999 -9999 -9999 -9999 -9999 -9999 -9999 -9999 -9999 -9999 -9999 -9999 -9999 -9999 -9999 -9999 -9999 -9999 -9999 1 1 1 1 1 1 -9999 -9999 -9999 1 -9999 1 1 1 1 -9999 1 1 1 1 42.29327392578125 -9999 -9999 -9999 -9999 -9999 -9999 -9999 -9999 -9999 1 1 -9999 -9999 1 -9999 -9999 1 1 -9999 -9999 -9999 -9999 -9999 -9999 -9999 -9999 
-9999 -9999 -9999 -9999 -9999 -9999 -9999 -9999 -9999 -9999 -9999 -9999 -9999 -9999 -9999 -9999 -9999 -9999 -9999 -9999 -9999 -9999 -9999 -9999 -9999 -9999 -9999 -9999 -9999 -9999 -9999 -9999 -9999 -9999 -9999 -9999 -9999 -9999 -9999 -9999 -9999 -9999 -9999 -9999 -9999 -9999 -9999 -9999 -9999 1 1 -9999 -9999 -9999 -9999 -9999 -9999 -9999 -9999 -9999 -9999 -9999 -9999 -9999 -9999 -9999 -9999 -9999 -9999 -9999 -9999 -9999 -9999 -9999 -9999 -9999 -9999 -9999 -9999 -9999 -9999 1 1 1 1 1 1 -9999 -9999 43.8404998779296875 77.9059600830078125 42.8347625732421875 -9999 1 20.38967132568359375 -9999 1 1 1 1 1 1 -9999 -9999 -9999 -9999 -9999 -9999 -9999 -9999 1 1 -9999 -9999 -9999 -9999 -9999 -9999 -9999 -9999 -9999 -9999 -9999 -9999 -9999 -9999 -9999 
-9999 1 -9999 -9999 -9999 -9999 -9999 -9999 -9999 -9999 -9999 -9999 -9999 -9999 -9999 -9999 -9999 -9999 -9999 -9999 -9999 -9999 -9999 -9999 -9999 -9999 -9999 -9999 -9999 -9999 -9999 -9999 -9999 -9999 -9999 -9999 -9999 -9999 -9999 -9999 -9999 -9999 -9999 -9999 -9999 -9999 -9999 -9999 -9999 -9999 1 1 1 -9999 -9999 -9999 -9999 -9999 -9999 -9999 -9999 -9999 -9999 -9999 1 -9999 -9999 1 -9999 -9999 -9999 -9999 -9999 -9999 -9999 -9999 -9999 -9999 -9999 -9999 1 1 1 1 1 1 1 1 1 -9999 199.5760040283203125 155.30743408203125 1 1 1 1 -9999 1 1 1 59.694309234619140625 1 1 -9999 -9999 -9999 -9999 -9999 -9999 -9999 1 -9999 -9999 -9999 -9999 -9999 -9999 -9999 -9999 -9999 -9999 -9999 -9999 -9999 -9999 -9999 -9999 
-9999 -9999 -9999 -9999 -9999 -9999 -9999 -9999 -9999 -9999 -9999 -9999 -9999 -9999 -9999 -9999 -9999 -9999 -9999 -9999 -9999 -9999 -9999 -9999 -9999 -9999 -9999 -9999 -9999 -9999 -9999 -9999 -9999 1 -9999 -9999 -9999 -9999 -9999 -9999 -9999 -9999 -9999 -9999 -9999 -9999 -9999 -9999 -9999 -9999 1 1 -9999 -9999 -9999 -9999 -9999 -9999 -9999 -9999 -9999 -9999 -9999 -9999 -9999 -9999 -9999 -9999 -9999 -9999 -9999 -9999 -9999 -9999 -9999 -9999 -9999 -9999 -9999 -9999 1 1 1 1 1 1 -9999 1 1 1 1 1 -9999 1 4.1506047248840332031 1 -9999 1 1 1 1 1 1.9342958927154541016 1 1 -9999 1 -9999 -9999 1 1 1 1 -9999 -9999 -9999 -9999 -9999 -9999 -9999 -9999 -9999 -9999 -9999 -9999 -9999 -9999 
-9999 -9999 -9999 -9999 -9999 -9999 -9999 -9999 -9999 -9999 -9999 -9999 -9999 -9999 -9999 -9999 -9999 -9999 -9999 -9999 -9999 -9999 -9999 -9999 -9999 -9999 -9999 -9999 -9999 -9999 -9999 -9999 -9999 -9999 -9999 -9999 -9999 -9999 -9999 -9999 -9999 -9999 -9999 -9999 -9999 -9999 -9999 -9999 -9999 -9999 1 -9999 1 -9999 -9999 -9999 -9999 -9999 -9999 -9999 -9999 -9999 -9999 -9999 -9999 -9999 -9999 -9999 -9999 -9999 -9999 -9999 -9999 -9999 -9999 -9999 -9999 -9999 -9999 -9999 -9999 -9999 -9999 -9999 1 1 1 1 1 -9999 -9999 -9999 1 1 -9999 1 1 1 -9999 1 1 1 1 -9999 1 1 1 1 1 -9999 1 -9999 -9999 -9999 -9999 -9999 -9999 -9999 -9999 -9999 -9999 -9999 -9999 -9999 -9999 -9999 -9999 
-9999 -9999 -9999 -9999 -9999 -9999 -9999 -9999 -9999 -9999 -9999 -9999 -9999 -9999 -9999 -9999 -9999 -9999 -9999 -9999 -9999 -9999 -9999 -9999 -9999 -9999 -9999 -9999 -9999 -9999 1 1 -9999 -9999 -9999 -9999 -9999 -9999 -9999 -9999 -9999 -9999 -9999 -9999 -9999 -9999 -9999 -9999 1 -9999 -9999 -9999 -9999 1 -9999 -9999 -9999 1 -9999 -9999 -9999 -9999 -9999 -9999 -9999 1 -9999 -9999 -9999 -9999 -9999 -9999 -9999 -9999 -9999 -9999 -9999 1 -9999 -9999 -9999 -9999 -9999 -9999 -9999 1 -9999 -9999 -9999 -9999 -9999 -9999 -9999 1 1 1 1 1 1 1 1 107.33939361572265625 1 1 1 1 1 1 -9999 -9999 1 -9999 -9999 -9999 1 -9999 -9999 -9999 -9999 -9999 -9999 -9999 -9999 -9999 -9999 -9999 -9999 
-9999 -9999 -9999 -9999 -9999 -9999 -9999 -9999 -9999 -9999 -9999 -9999 -9999 -9999 -9999 -9999 -9999 -9999 -9999 -9999 -9999 -9999 -9999 -9999 -9999 -9999 -9999 -9999 -9999 -9999 1 -9999 -9999 -9999 -9999 -9999 -9999 -9999 -9999 -9999 -9999 -9999 -9999 -9999 -9999 -9999 -9999 -9999 -9999 -9999 -9999 -9999 -9999 -9999 -9999 -9999 -9999 -9999 1 1 -9999 -9999 -9999 -9999 -9999 -9999 -9999 -9999 -9999 -9999 -9999 -9999 -9999 -9999 -9999 -9999 -9999 -9999 -9999 -9999 -9999 -9999 -9999 -9999 -9999 1 -9999 -9999 -9999 -9999 -9999 -9999 -9999 -9999 1 1 1 1 1 1 1 37.1915740966796875 26.7079925537109375 1 1 37.176975250244140625 54.404537200927734375 1 -9999 -9999 -9999 -9999 -9999 -9999 -9999 -9999 -9999 -9999 -9999 -9999 -9999 -9999 -9999 -9999 -9999 -9999 -9999 
-9999 -9999 -9999 -9999 -9999 -9999 -9999 -9999 -9999 -9999 -9999 -9999 -9999 -9999 -9999 -9999 -9999 -9999 -9999 -9999 -9999 -9999 -9999 -9999 -9999 -9999 -9999 -9999 -9999 -9999 -9999 -9999 -9999 -9999 -9999 -9999 1 -9999 -9999 -9999 -9999 -9999 -9999 -9999 -9999 -9999 -9999 -9999 -9999 -9999 -9999 1 -9999 -9999 -9999 -9999 -9999 -9999 -9999 -9999 -9999 -9999 -9999 -9999 -9999 -9999 -9999 -9999 -9999 -9999 -9999 -9999 -9999 -9999 -9999 -9999 -9999 -9999 -9999 -9999 -9999 -9999 -9999 -9999 -9999 -9999 -9999 -9999 -9999 -9999 -9999 -9999 -9999 -9999 -9999 1 78.22354888916015625 93.34466552734375 -9999 1 1 1 71.461151123046875 1 1 1 -9999 -9999 -9999 -9999 -9999 -9999 -9999 -9999 -9999 -9999 1 -9999 -9999 -9999 -9999 -9999 -9999 -9999 -9999 -9999 -9999 
-9999 -9999 -9999 -9999 -9999 -9999 -9999 -9999 -9999 -9999 -9999 -9999 -9999 -9999 -9999 -9999 -9999 -9999 -9999 -9999 -9999 -9999 -9999 -9999 -9999 -9999 -9999 -9999 -9999 -9999 -9999 -9999 -9999 -9999 -9999 -9999 -9999 -9999 -9999 -9999 -9999 -9999 -9999 1 1 -9999 -9999 -9999 -9999 -9999 -9999 -9999 -9999 -9999 -9999 -9999 -9999 -9999 -9999 -9999 -9999 -9999 -9999 -9999 -9999 -9999 -9999 -9999 -9999 -9999 -9999 -9999 -9999 -9999 -9999 -9999 -9999 -9999 -9999 -9999 -9999 -9999 -9999 -9999 -9999 -9999 -9999 -9999 -9999 -9999 -9999 -9999 -9999 1 1 1 1 1 1 -9999 1 1 1 1 1 15.330702781677246094 30.56685638427734375 -9999 -9999 -9999 -9999 -9999 -9999 -9999 -9999 -9999 -9999 -9999 -9999 -9999 -9999 -9999 -9999 -9999 1 -9999 -9999 
-9999 -9999 -9999 1 1 -9999 -9999 -9999 -9999 -9999 -9999 -9999 -9999 -9999 -9999 -9999 -9999 -9999 -9999 -9999 -9999 -9999 -9999 -9999 -9999 -9999 -9999 -9999 -9999 -9999 -9999 -9999 -9999 -9999 -9999 1 -9999 -9999 -9999 -9999 1 -9999 1 1 1 1 1 1 -9999 -9999 -9999 -9999 -9999 -9999 -9999 -9999 -9999 -9999 -9999 -9999 -9999 -9999 -9999 -9999 -9999 -9999 -9999 -9999 -9999 -9999 -9999 -9999 -9999 -9999 -9999 -9999 -9999 -9999 -9999 -9999 -9999 -9999 -9999 -9999 -9999 -9999 -9999 -9999 -9999 -9999 -9999 -9999 -9999 -9999 -9999 -9999 1 1 1 1 1 1 1 192.675689697265625 77.493011474609375 347.43798828125 314.02056884765625 1 1 -9999 -9999 -9999 -9999 -9999 -9999 -9999 -9999 -9999 -9999 -9999 -9999 -9999 -9999 -9999 -9999 -9999 -9999 
-9999 -9999 -9999 -9999 -9999 -9999 -9999 -9999 -9999 -9999 -9999 -9999 -9999 -9999 -9999 -9999 -9999 -9999 -9999 -9999 -9999 -9999 -9999 -9999 -9999 -9999 -9999 -9999 -9999 -9999 -9999 -9999 -9999 -9999 -9999 -9999 -9999 -9999 -9999 -9999 1 -9999 1 1 1 1 1 1 -9999 1 -9999 -9999 -9999 -9999 -9999 -9999 -9999 -9999 -9999 -9999 -9999 -9999 -9999 -9999 1 -9999 -9999 -9999 -9999 -9999 -9999 -9999 -9999 -9999 -9999 -9999 -9999 -9999 -9999 -9999 -9999 -9999 -9999 -9999 -9999 -9999 -9999 -9999 -9999 -9999 -9999 -9999 -9999 -9999 -9999 -9999 -9999 -9999 -9999 -9999 1 1 38.516513824462890625 96.07662200927734375 60.212421417236328125 138.8141632080078125 175.4582977294921875 1 -9999 -9999 -9999 -9999 -9999 -9999 -9999 -9999 -9999 -9999 -9999 -9999 -9999 -9999 -9999 -9999 -9999 -9999 -9999 
-9999 -9999 -9999 -9999 -9999 -9999 -9999 -9999 -9999 -9999 -9999 -9999 -9999 -9999 -9999 -9999 -9999 -9999 -9999 -9999 -9999 -9999 -9999 -9999 -9999 -9999 -9999 -9999 -9999 -9999 -9999 -9999 -9999 -9999 -9999 1 1 -9999 -9999 -9999 -9999 1 1 1 1 1 1 1 1 1 -9999 -9999 -9999 -9999 -9999 -9999 -9999 -9999 -9999 -9999 -9999 -9999 -9999 -9999 1 -9999 -9999 -9999 -9999 -9999 -9999 -9999 -9999 -9999 -9999 -9999 -9999 -9999 -9999 -9999 -9999 -9999 -9999 -9999 -9999 -9999 -9999 -9999 -9999 -9999 -9999 -9999 -9999 -9999 -9999 -9999 -9999 -9999 -9999 -9999 -9999 1 1 114.84062957763671875 141.221466064453125 55.49843597412109375 246.5351715087890625 293.483245849609375 1 -9999 -9999 -9999 1 -9999 -9999 -9999 -9999 -9999 -9999 -9999 -9999 -9999 -9999 -9999 -9999 -9999 -9999 
