ncols        127
nrows        131
xllcorner    -71.681135979344
yllcorner    -16.519694133538
cellsize     0.001836012963
NODATA_value -9999
-9999.0 -9999 -9999 -9999 -9999 -9999 -9999 -9999 -9999 -9999 -9999 1.3782912492752075195 1.5829347372055053711 -9999 -9999 2.0878384113311767578 -9999 -9999 -9999 -9999 -9999 -9999 2.0284817218780517578 2.5948741436004638672 -9999 -9999 2.9703099727630615234 -9999 -9999 -9999 -9999 -9999 1.566654205322265625 -9999 -9999 -9999 -9999 -9999 -9999 -9999 -9999 -9999 -9999 -9999 -9999 -9999 -9999 -9999 -9999 -9999 -9999 -9999 -9999 -9999 -9999 -9999 -9999 -9999 -9999 -9999 -9999 -9999 -9999 -9999 -9999 -9999 -9999 -9999 -9999 -9999 -9999 -9999 -9999 -9999 -9999 -9999 -9999 -9999 -9999 -9999 -9999 -9999 -9999 -9999 -9999 -9999 -9999 -9999 -9999 -9999 -9999 -9999 -9999 -9999 -9999 -9999 -9999 -9999 -9999 -9999 -9999 -9999 -9999 -9999 -9999 -9999 -9999 -9999 -9999 -9999 -9999 -9999 -9999 -9999 -9999 -9999 -9999 -9999 -9999 -9999 -9999 -9999 -9999 -9999 -9999 -9999 -9999 
-9999 -9999 -9999 -9999 -9999 -9999 -9999 -9999 -9999 -9999 -9999 1.5173659324645996094 1.8365528583526611328 -9999 -9999 -9999 -9999 -9999 -9999 -9999 -9999 -9999 2.3856611251831054688 2.5074813365936279297 1.4962000846862792969 2.1422121524810791016 2.3698377609252929688 1.6659486293792724609 2.8260097503662109375 -9999 -9999 2.0573282241821289062 -9999 -9999 -9999 -9999 -9999 -9999 -9999 -9999 -9999 -9999 -9999 -9999 -9999 -9999 -9999 -9999 -9999 -9999 -9999 -9999 -9999 -9999 -9999 -9999 -9999 -9999 -9999 -9999 -9999 -9999 -9999 -9999 -9999 -9999 -9999 -9999 -9999 1.2472221851348876953 -9999 -9999 -9999 -9999 1.2067992687225341797 1.2122600078582763672 -9999 -9999 -9999 -9999 -9999 -9999 -9999 -9999 -9999 -9999 -9999 -9999 -9999 -9999 -9999 1.2890580892562866211 1.2639712095260620117 -9999 -9999 -9999 -9999 -9999 -9999 -9999 -9999 -9999 -9999 -9999 -9999 -9999 -9999 -9999 -9999 -9999 -9999 -9999 -9999 1.6214797496795654297 -9999 -9999 -9999 -9999 -9999 -9999 -9999 -9999 -9999 -9999 -9999 -9999 -9999 
-9999 -9999 -9999 -9999 -9999 -9999 -9999 -9999 -9999 -9999 1.5318793058395385742 1.8343862295150756836 2.6631853580474853516 2.9291400909423828125 2.0221226215362548828 1.3989713191986083984 -9999 -9999 -9999 -9999 -9999 -9999 2.1129441261291503906 2.6548023223876953125 1.5692095756530761719 1.4196906089782714844 1.4287554025650024414 -9999 3.0453953742980957031 -9999 -9999 2.0293416976928710938 -9999 -9999 -9999 -9999 -9999 -9999 -9999 -9999 -9999 -9999 -9999 -9999 -9999 -9999 -9999 -9999 -9999 -9999 -9999 -9999 -9999 -9999 -9999 -9999 -9999 -9999 -9999 -9999 -9999 -9999 -9999 -9999 -9999 -9999 -9999 -9999 -9999 1.4368833303451538086 1.4984110593795776367 -9999 -9999 -9999 1.5742398500442504883 -9999 -9999 -9999 -9999 -9999 1.2051942348480224609 -9999 -9999 -9999 -9999 -9999 -9999 -9999 -9999 -9999 -9999 -9999 -9999 -9999 -9999 -9999 -9999 -9999 -9999 -9999 -9999 -9999 -9999 -9999 -9999 -9999 -9999 -9999 -9999 -9999 -9999 -9999 -9999 -9999 -9999 -9999 -9999 -9999 -9999 -9999 1.3919785022735595703 -9999 -9999 -9999 -9999 -9999 -9999 
1.7889020442962646484 -9999 -9999 -9999 -9999 -9999 -9999 -9999 -9999 1.8291825056076049805 -9999 1.7463231086730957031 5.2100825309753417969 6.5992140769958496094 3.3291921615600585938 4.1702117919921875 3.4853422641754150391 -9999 -9999 -9999 3.3156192302703857422 2.4894244670867919922 3.0841884613037109375 2.1411795616149902344 1.8428466320037841797 2.3113734722137451172 1.8867150545120239258 -9999 2.9134824275970458984 -9999 3.9471540451049804688 -9999 -9999 -9999 -9999 -9999 -9999 -9999 -9999 -9999 -9999 -9999 -9999 -9999 -9999 -9999 1.508763432502746582 -9999 -9999 -9999 -9999 -9999 -9999 -9999 -9999 -9999 -9999 -9999 -9999 -9999 -9999 -9999 -9999 -9999 -9999 -9999 -9999 -9999 -9999 1.8021260499954223633 2.4874739646911621094 2.5543041229248046875 3.1725938320159912109 13.395032882690429688 5.5943279266357421875 -9999 -9999 1.2642363309860229492 1.3478000164031982422 -9999 -9999 -9999 -9999 -9999 -9999 -9999 -9999 -9999 1.5431486368179321289 -9999 -9999 -9999 -9999 -9999 -9999 -9999 -9999 -9999 -9999 -9999 -9999 -9999 -9999 -9999 -9999 -9999 -9999 -9999 -9999 -9999 -9999 -9999 -9999 -9999 -9999 -9999 -9999 1.5218892097473144531 -9999 -9999 1.4425979852676391602 -9999 -9999 -9999 -9999 -9999 -9999 
-9999 -9999 -9999 -9999 -9999 -9999 -9999 -9999 -9999 -9999 1.4808969497680664062 1.8894300460815429688 5.2208199501037597656 10.431772232055664062 9.11411285400390625 12.428032875061035156 5.3098359107971191406 -9999 -9999 -9999 2.6143422126770019531 2.9940011501312255859 3.7640743255615234375 3.3399033546447753906 1.9730836153030395508 2.2065675258636474609 2.2220032215118408203 4.4783124923706054688 3.60662841796875 3.9471559524536132812 5.10691070556640625 -9999 -9999 -9999 -9999 -9999 -9999 -9999 -9999 -9999 -9999 -9999 -9999 -9999 -9999 -9999 -9999 -9999 -9999 -9999 1.9711612462997436523 -9999 -9999 -9999 -9999 -9999 -9999 -9999 -9999 -9999 -9999 -9999 -9999 -9999 -9999 -9999 -9999 -9999 1.6981530189514160156 2.4095618724822998047 2.9379105567932128906 3.0310132503509521484 7.1760067939758300781 11.134479522705078125 6.2258162498474121094 18.414197921752929688 7.5965304374694824219 2.7787067890167236328 1.2785667181015014648 -9999 -9999 -9999 -9999 -9999 -9999 -9999 -9999 1.3968242406845092773 1.3283331394195556641 1.7417826652526855469 -9999 -9999 -9999 1.773960113525390625 2.2191593647003173828 -9999 1.5642999410629272461 -9999 -9999 -9999 -9999 -9999 -9999 -9999 -9999 -9999 -9999 -9999 -9999 -9999 -9999 -9999 -9999 -9999 -9999 -9999 -9999 -9999 -9999 -9999 -9999 -9999 -9999 -9999 -9999 -9999 -9999 
-9999 -9999 -9999 -9999 -9999 -9999 -9999 2.2215778827667236328 2.8820428848266601562 1.9247457981109619141 1.511101841926574707 1.8506335020065307617 2.3148128986358642578 5.9178295135498046875 12.28769683837890625 14.797590255737304688 6.0809955596923828125 -9999 -9999 -9999 2.5334799289703369141 3.3210546970367431641 4.115039825439453125 3.0840067863464355469 2.4826869964599609375 2.7818417549133300781 3.0356936454772949219 3.297359466552734375 4.7431674003601074219 6.1509275436401367188 7.2555832862854003906 -9999 -9999 -9999 -9999 -9999 -9999 -9999 -9999 -9999 -9999 -9999 -9999 -9999 -9999 -9999 -9999 -9999 1.5100095272064208984 -9999 -9999 -9999 -9999 -9999 -9999 -9999 -9999 -9999 -9999 -9999 -9999 -9999 -9999 -9999 -9999 -9999 -9999 -9999 1.5258883237838745117 1.893381953239440918 2.7774763107299804688 3.0516104698181152344 8.1088161468505859375 7.4608330726623535156 16.969150543212890625 28.170545578002929688 7.12824249267578125 4.212276458740234375 1.3507577180862426758 1.7577586174011230469 -9999 -9999 -9999 1.4619135856628417969 1.3307135105133056641 -9999 1.4770338535308837891 2.523914337158203125 1.3179442882537841797 1.2042952775955200195 1.4391753673553466797 -9999 -9999 -9999 -9999 -9999 -9999 -9999 -9999 -9999 -9999 -9999 -9999 -9999 -9999 -9999 -9999 -9999 -9999 -9999 -9999 -9999 -9999 -9999 -9999 -9999 -9999 -9999 -9999 -9999 -9999 -9999 -9999 -9999 -9999 -9999 -9999 
-9999 -9999 -9999 -9999 -9999 -9999 -9999 1.8082901239395141602 2.4157755374908447266 1.7765789031982421875 1.6879483461380004883 1.8097931146621704102 2.6068789958953857422 9.6557931900024414062 18.872344970703125 18.674539566040039062 6.0131883621215820312 -9999 -9999 1.8893210887908935547 3.1436388492584228516 3.1927447319030761719 3.2509295940399169922 3.6424307823181152344 3.8917143344879150391 4.0929651260375976562 3.8376970291137695312 3.5231661796569824219 4.3242778778076171875 3.6123232841491699219 4.7516164779663085938 -9999 -9999 -9999 -9999 -9999 -9999 1.7549973726272583008 -9999 -9999 -9999 -9999 -9999 -9999 -9999 -9999 -9999 -9999 -9999 -9999 -9999 -9999 -9999 -9999 1.4505155086517333984 -9999 -9999 -9999 -9999 -9999 -9999 -9999 -9999 -9999 -9999 -9999 -9999 -9999 -9999 -9999 2.1094515323638916016 3.2715249061584472656 5.5995364189147949219 11.660520553588867188 14.540255546569824219 15.750396728515625 1.9913225173950195312 1.5027829408645629883 -9999 -9999 -9999 1.5178855657577514648 1.6225996017456054688 1.9086173772811889648 1.4140818119049072266 -9999 2.5221860408782958984 7.1479201316833496094 1.3634279966354370117 1.4005141258239746094 1.8086332082748413086 1.6878418922424316406 1.4927978515625 1.2682378292083740234 -9999 -9999 -9999 -9999 -9999 -9999 -9999 -9999 -9999 -9999 -9999 -9999 -9999 -9999 -9999 -9999 -9999 -9999 1.9576625823974609375 1.1376267671585083008 -9999 -9999 -9999 -9999 -9999 -9999 -9999 -9999 -9999 -9999 -9999 -9999 -9999 
-9999 -9999 -9999 -9999 -9999 1.7213311195373535156 -9999 1.7238531112670898438 2.3571887016296386719 1.8718624114990234375 2.1472575664520263672 2.7499978542327880859 6.3085718154907226562 6.7347478866577148438 5.0791478157043457031 5.5047936439514160156 2.4854116439819335938 -9999 1.3268709182739257812 2.0993752479553222656 3.9284105300903320312 3.2577219009399414062 1.9908797740936279297 4.4179987907409667969 4.8778786659240722656 5.2715368270874023438 4.8230414390563964844 5.3447732925415039062 5.5319399833679199219 5.796421051025390625 6.23157501220703125 5.6338801383972167969 3.6463830471038818359 -9999 -9999 -9999 -9999 1.5950076580047607422 -9999 -9999 -9999 -9999 -9999 -9999 -9999 -9999 -9999 -9999 -9999 -9999 -9999 -9999 -9999 -9999 -9999 -9999 -9999 -9999 -9999 -9999 -9999 -9999 -9999 -9999 -9999 -9999 -9999 -9999 -9999 -9999 -9999 2.0268342494964599609 6.1515626907348632812 16.442691802978515625 16.103250503540039062 5.4109945297241210938 1.4221516847610473633 -9999 -9999 2.0626266002655029297 1.8923724889755249023 2.2629539966583251953 13.206725120544433594 28.901285171508789062 5.2722320556640625 2.0816862583160400391 6.0988955497741699219 5.7079367637634277344 3.7476422786712646484 2.2769997119903564453 1.9529024362564086914 1.9498686790466308594 1.7048989534378051758 1.3389632701873779297 -9999 -9999 -9999 -9999 -9999 -9999 -9999 -9999 -9999 -9999 -9999 -9999 -9999 -9999 -9999 -9999 -9999 1.5345417261123657227 1.9879220724105834961 -9999 -9999 -9999 -9999 -9999 -9999 -9999 -9999 -9999 -9999 -9999 -9999 -9999 -9999 
-9999 -9999 -9999 -9999 1.6556886434555053711 -9999 -9999 1.4875046014785766602 1.6090366840362548828 1.9360698461532592773 -9999 3.7610611915588378906 7.5767655372619628906 4.1080107688903808594 1.7533278465270996094 -9999 -9999 -9999 -9999 1.8773293495178222656 3.2350721359252929688 2.7824730873107910156 -9999 3.7777221202850341797 4.94701385498046875 5.7877449989318847656 4.3459081649780273438 4.5283555984497070312 5.4716773033142089844 6.9099817276000976562 8.1289730072021484375 6.6342749595642089844 4.3187713623046875 -9999 -9999 -9999 -9999 -9999 -9999 -9999 -9999 -9999 -9999 -9999 -9999 -9999 -9999 -9999 -9999 -9999 -9999 -9999 -9999 -9999 -9999 -9999 -9999 -9999 -9999 -9999 -9999 -9999 -9999 -9999 -9999 -9999 -9999 -9999 -9999 -9999 -9999 2.4838130474090576172 3.8611612319946289062 14.81752777099609375 14.548914909362792969 2.7944300174713134766 1.4024580717086791992 -9999 -9999 1.7617330551147460938 1.8407365083694458008 3.7589182853698730469 67.26923370361328125 32.808017730712890625 10.756752967834472656 12.731319427490234375 17.617000579833984375 9.5847625732421875 11.504729270935058594 4.6858258247375488281 3.0397229194641113281 2.8210675716400146484 1.8611158132553100586 -9999 -9999 -9999 -9999 -9999 -9999 -9999 -9999 -9999 -9999 -9999 -9999 -9999 -9999 -9999 -9999 -9999 -9999 -9999 -9999 -9999 -9999 -9999 -9999 -9999 -9999 -9999 -9999 -9999 -9999 -9999 -9999 -9999 -9999 
-9999 -9999 -9999 -9999 -9999 -9999 -9999 1.7488973140716552734 1.7587636709213256836 2.0202310085296630859 2.1199252605438232422 3.0854098796844482422 5.0704836845397949219 6.3242354393005371094 1.5734293460845947266 -9999 -9999 -9999 1.9401850700378417969 2.1768245697021484375 3.8283338546752929688 -9999 1.871230006217956543 3.0921115875244140625 2.9872391223907470703 3.7874906063079833984 4.9310560226440429688 5.0453042984008789062 4.5759429931640625 6.8923053741455078125 7.0130763053894042969 7.0387010574340820312 6.1280941963195800781 1.0477850437164306641 2.1541056632995605469 1.6646490097045898438 -9999 -9999 -9999 -9999 -9999 -9999 -9999 -9999 -9999 -9999 -9999 -9999 1.663687586784362793 -9999 -9999 -9999 -9999 -9999 -9999 -9999 -9999 -9999 -9999 -9999 -9999 -9999 -9999 -9999 -9999 -9999 -9999 -9999 -9999 -9999 -9999 3.164623260498046875 6.7073264122009277344 13.075206756591796875 4.8000245094299316406 -9999 -9999 -9999 2.3720660209655761719 2.0004231929779052734 2.0103356838226318359 5.4068531990051269531 33.1899261474609375 25.817806243896484375 12.737223625183105469 22.640848159790039062 17.622058868408203125 12.474810600280761719 20.382783889770507812 5.0081505775451660156 3.1313009262084960938 2.6901223659515380859 1.8848458528518676758 -9999 -9999 -9999 -9999 -9999 -9999 -9999 -9999 -9999 -9999 -9999 -9999 -9999 -9999 -9999 -9999 -9999 -9999 -9999 -9999 -9999 -9999 -9999 -9999 -9999 -9999 -9999 -9999 -9999 -9999 -9999 -9999 -9999 -9999 
-9999 -9999 -9999 1.5133769512176513672 -9999 -9999 1.390839695930480957 2.1242282390594482422 2.2959127426147460938 1.7824229001998901367 2.0390372276306152344 2.4975414276123046875 2.555233001708984375 -9999 -9999 -9999 -9999 -9999 -9999 8.3697423934936523438 6.994441986083984375 5.5330262184143066406 2.0549988746643066406 2.3695156574249267578 3.6534090042114257812 5.0225024223327636719 6.4752430915832519531 5.0878820419311523438 5.5031747817993164062 6.0339331626892089844 6.2058768272399902344 6.6844391822814941406 7.6254706382751464844 2.2376036643981933594 1.996226191520690918 2.1030838489532470703 2.1763458251953125 -9999 -9999 -9999 -9999 -9999 -9999 -9999 -9999 -9999 -9999 -9999 -9999 -9999 -9999 -9999 -9999 -9999 -9999 -9999 -9999 -9999 -9999 -9999 -9999 -9999 -9999 -9999 1.5032988786697387695 -9999 -9999 -9999 -9999 -9999 -9999 -9999 5.1109166145324707031 4.7416939735412597656 2.1457846164703369141 1.537433624267578125 -9999 -9999 -9999 -9999 1.8099361658096313477 3.7516779899597167969 11.077498435974121094 28.673046112060546875 11.404057502746582031 14.136841773986816406 10.790544509887695312 6.2765407562255859375 8.2809877395629882812 3.7164242267608642578 3.9463901519775390625 2.7016048431396484375 1.7180098295211791992 -9999 -9999 -9999 -9999 -9999 -9999 -9999 -9999 -9999 -9999 -9999 -9999 -9999 -9999 -9999 -9999 -9999 -9999 -9999 -9999 -9999 -9999 -9999 -9999 -9999 -9999 -9999 -9999 -9999 -9999 -9999 -9999 -9999 -9999 
-9999 2.7705705165863037109 2.7921550273895263672 1.7718317508697509766 1.4930335283279418945 1.6755508184432983398 1.7573369741439819336 4.4414386749267578125 3.8722116947174072266 2.6760380268096923828 2.6720669269561767578 3.3478310108184814453 2.0242717266082763672 -9999 -9999 -9999 -9999 -9999 -9999 -9999 -9999 4.0134396553039550781 4.8637337684631347656 2.9860095977783203125 6.2609415054321289062 5.2413702011108398438 7.8892202377319335938 4.6809172630310058594 5.9174380302429199219 6.06842041015625 6.5152072906494140625 6.4591507911682128906 6.4151325225830078125 4.6785364151000976562 4.1721410751342773438 5.2175741195678710938 4.6619977951049804688 -9999 -9999 -9999 -9999 -9999 -9999 -9999 -9999 -9999 -9999 -9999 -9999 -9999 -9999 -9999 -9999 -9999 -9999 -9999 -9999 -9999 -9999 -9999 -9999 -9999 -9999 -9999 -9999 -9999 -9999 -9999 -9999 -9999 -9999 -9999 4.4727587699890136719 3.7921476364135742188 4.1955447196960449219 2.2467939853668212891 -9999 -9999 -9999 -9999 6.1325550079345703125 21.423692703247070312 32.1503448486328125 51.790683746337890625 7.2924466133117675781 10.749493598937988281 13.988154411315917969 4.9613757133483886719 2.4626841545104980469 2.3023626804351806641 2.6944241523742675781 2.3972713947296142578 -9999 -9999 -9999 -9999 -9999 -9999 -9999 -9999 -9999 -9999 -9999 -9999 -9999 -9999 -9999 -9999 1.2097481489181518555 -9999 -9999 -9999 -9999 -9999 -9999 -9999 -9999 -9999 -9999 -9999 -9999 -9999 -9999 -9999 -9999 -9999 -9999 
2.1706695556640625 2.6330323219299316406 2.2973260879516601562 1.8352953195571899414 -9999 -9999 3.0958878993988037109 4.7449374198913574219 2.9690406322479248047 2.6874470710754394531 2.0286338329315185547 2.0869612693786621094 1.8614916801452636719 -9999 -9999 -9999 -9999 -9999 -9999 -9999 -9999 2.7710995674133300781 4.6870617866516113281 2.8768138885498046875 5.5616831779479980469 5.2614965438842773438 4.5690164566040039062 4.4348921775817871094 4.3080019950866699219 5.5985279083251953125 6.2058277130126953125 6.2025194168090820312 5.4912943840026855469 5.017848968505859375 5.2825412750244140625 6.133602142333984375 5.7169842720031738281 2.1415457725524902344 -9999 -9999 -9999 -9999 -9999 -9999 -9999 -9999 -9999 -9999 -9999 -9999 -9999 -9999 -9999 -9999 -9999 -9999 -9999 -9999 -9999 -9999 -9999 -9999 -9999 -9999 -9999 -9999 -9999 -9999 -9999 -9999 -9999 -9999 3.34607696533203125 3.8515951633453369141 3.393280029296875 2.1561906337738037109 -9999 -9999 1.2566294670104980469 2.2122850418090820312 12.7579498291015625 26.524028778076171875 13.506605148315429688 14.645546913146972656 8.8622617721557617188 10.09577178955078125 15.810802459716796875 7.0081491470336914062 4.4058542251586914062 3.4008443355560302734 -9999 1.4516577720642089844 -9999 -9999 -9999 -9999 -9999 -9999 -9999 -9999 -9999 -9999 -9999 -9999 -9999 -9999 -9999 -9999 -9999 -9999 -9999 -9999 -9999 -9999 -9999 -9999 -9999 -9999 -9999 -9999 -9999 -9999 -9999 -9999 -9999 -9999 -9999 
2.1323292255401611328 1.9801335334777832031 1.7589447498321533203 1.8093481063842773438 -9999 -9999 4.5812468528747558594 4.87038421630859375 5.36658477783203125 4.1026234626770019531 1.9929258823394775391 2.1920306682586669922 1.4642450809478759766 -9999 -9999 1.8732204437255859375 1.5133445262908935547 1.3996278047561645508 1.7638612985610961914 -9999 -9999 2.7442319393157958984 3.4053032398223876953 2.8016798496246337891 4.4854474067687988281 3.5901892185211181641 4.6983356475830078125 4.9636769294738769531 3.7923657894134521484 4.7143721580505371094 5.5482010841369628906 5.4168977737426757812 4.9257931709289550781 5.0805449485778808594 6.3088541030883789062 6.4427914619445800781 6.1946277618408203125 4.6284971237182617188 -9999 -9999 -9999 -9999 -9999 -9999 -9999 -9999 -9999 -9999 -9999 -9999 -9999 -9999 -9999 -9999 -9999 -9999 1.4116454124450683594 1.2903140783309936523 -9999 -9999 -9999 -9999 -9999 -9999 -9999 -9999 -9999 -9999 -9999 -9999 -9999 4.8287549018859863281 5.3782238960266113281 6.08841705322265625 4.1317000389099121094 1.7687531709671020508 -9999 -9999 1.1857897043228149414 1.7820286750793457031 9.9244928359985351562 15.505509376525878906 14.115900993347167969 11.856926918029785156 10.066267013549804688 9.9704294204711914062 8.8903341293334960938 6.1057939529418945312 4.4381833076477050781 2.6036052703857421875 -9999 1.4969435930252075195 1.333492279052734375 -9999 -9999 -9999 -9999 -9999 -9999 -9999 -9999 -9999 -9999 -9999 1.9272044897079467773 -9999 -9999 -9999 -9999 -9999 -9999 -9999 -9999 -9999 -9999 -9999 -9999 -9999 -9999 -9999 -9999 -9999 -9999 -9999 -9999 -9999 -9999 
1.4269344806671142578 1.6430121660232543945 1.7528693675994873047 1.7643617391586303711 1.6992983818054199219 2.8550527095794677734 4.0678133964538574219 4.2276711463928222656 4.6022081375122070312 2.9208037853240966797 1.8591029644012451172 1.8782243728637695312 -9999 -9999 3.7038362026214599609 7.5154051780700683594 4.7236604690551757812 3.0039727687835693359 5.7673659324645996094 -9999 2.9946587085723876953 9.0394010543823242188 6.9129610061645507812 11.215552330017089844 4.9487257003784179688 4.2693729400634765625 6.0345311164855957031 5.4659624099731445312 4.7120695114135742188 4.9367651939392089844 5.5465602874755859375 4.605838775634765625 4.0806188583374023438 5.1192669868469238281 5.8906855583190917969 5.9802541732788085938 6.5278201103210449219 7.2195911407470703125 6.0253615379333496094 9.8072156906127929688 7.1142034530639648438 -9999 -9999 -9999 -9999 -9999 -9999 -9999 -9999 -9999 -9999 -9999 1.211217045783996582 1.2238167524337768555 -9999 2.7979328632354736328 1.6286917924880981445 -9999 -9999 -9999 -9999 -9999 -9999 -9999 -9999 -9999 -9999 -9999 -9999 -9999 5.347320556640625 8.46315765380859375 8.4786281585693359375 8.548145294189453125 3.8983790874481201172 1.4191777706146240234 -9999 -9999 1.6928274631500244141 4.6196918487548828125 9.2679042816162109375 9.6166095733642578125 10.258234024047851562 9.4894838333129882812 9.0183010101318359375 9.166988372802734375 7.7959623336791992188 4.4590663909912109375 2.4919435977935791016 2.0907890796661376953 -9999 1.7333228588104248047 1.4855420589447021484 -9999 -9999 -9999 -9999 -9999 -9999 -9999 -9999 -9999 -9999 -9999 -9999 -9999 -9999 -9999 -9999 -9999 -9999 -9999 -9999 -9999 -9999 -9999 -9999 -9999 -9999 -9999 -9999 -9999 -9999 -9999 -9999 -9999 -9999 
1.5216190814971923828 1.255123138427734375 -9999 -9999 2.6363101005554199219 3.5249898433685302734 3.7257411479949951172 5.4520006179809570312 3.4933631420135498047 2.1207470893859863281 1.941614985466003418 1.6207475662231445312 -9999 -9999 4.8566765785217285156 6.6170129776000976562 6.1339888572692871094 7.14966583251953125 6.2687387466430664062 5.9946961402893066406 8.0907688140869140625 7.6049542427062988281 19.4419097900390625 23.237705230712890625 9.47631072998046875 4.8395705223083496094 5.0651040077209472656 5.4161839485168457031 6.4593548774719238281 6.8607211112976074219 6.4083161354064941406 5.148944854736328125 7.2754559516906738281 7.1080074310302734375 6.1678800582885742188 6.1453785896301269531 6.38674163818359375 6.92922210693359375 7.4436745643615722656 8.1454477310180664062 7.9288120269775390625 6.21549224853515625 -9999 -9999 -9999 -9999 -9999 -9999 -9999 -9999 -9999 -9999 -9999 -9999 2.8669435977935791016 4.1527080535888671875 2.5059657096862792969 1.884817957878112793 2.2325522899627685547 1.4299216270446777344 -9999 2.2873051166534423828 -9999 -9999 -9999 -9999 2.7533464431762695312 3.7357275485992431641 3.9226937294006347656 6.8422007560729980469 7.8557667732238769531 7.8049955368041992188 10.843188285827636719 9.2201356887817382812 6.0130472183227539062 1.5605595111846923828 1.5400016307830810547 1.7267386913299560547 7.1194500923156738281 8.4752407073974609375 10.52587127685546875 8.4798488616943359375 7.1617908477783203125 7.1358866691589355469 7.0926990509033203125 8.552433013916015625 7.5687084197998046875 -9999 1.9935133457183837891 -9999 1.6339415311813354492 1.9719048738479614258 1.5460306406021118164 -9999 -9999 -9999 -9999 -9999 -9999 -9999 -9999 -9999 -9999 -9999 -9999 -9999 -9999 -9999 -9999 -9999 -9999 -9999 -9999 -9999 -9999 -9999 -9999 -9999 -9999 -9999 -9999 -9999 -9999 -9999 -9999 -9999 -9999 
1.2657117843627929688 1.2168265581130981445 -9999 2.84696197509765625 2.0115866661071777344 2.0643949508666992188 2.4472832679748535156 3.6043105125427246094 3.8091018199920654297 3.6338684558868408203 1.8808711767196655273 -9999 6.5663976669311523438 3.9154796600341796875 6.8292822837829589844 6.8317971229553222656 3.49752044677734375 5.0957584381103515625 6.668071746826171875 9.6478986740112304688 11.688618659973144531 15.321550369262695312 10.866176605224609375 17.3191986083984375 13.4268798828125 9.6841945648193359375 8.8469209671020507812 6.5440583229064941406 6.5274629592895507812 6.3514094352722167969 5.8725399971008300781 7.7734422683715820312 8.856151580810546875 7.2094597816467285156 6.6838388442993164062 5.872539520263671875 5.7119479179382324219 5.9635305404663085938 6.988903045654296875 7.007633209228515625 7.2040281295776367188 7.4590859413146972656 4.1944861412048339844 -9999 -9999 -9999 -9999 -9999 -9999 -9999 -9999 78.9176483154296875 6.7909755706787109375 4.6035838127136230469 5.2815771102905273438 4.9336066246032714844 -9999 3.5957207679748535156 4.607509613037109375 3.0628349781036376953 -9999 -9999 1.9038517475128173828 -9999 -9999 3.1212117671966552734 4.1227855682373046875 4.665431976318359375 6.463100433349609375 8.7716732025146484375 7.36670684814453125 7.0287866592407226562 7.1088504791259765625 8.0333919525146484375 6.7664155960083007812 5.5561966896057128906 3.2676794528961181641 3.9781095981597900391 7.983795166015625 8.593784332275390625 8.6806545257568359375 7.7345733642578125 7.3713946342468261719 7.3532795906066894531 8.273097991943359375 10.616962432861328125 8.8162822723388671875 1.5207439661026000977 1.8053486347198486328 -9999 1.5256018638610839844 2.1773240566253662109 1.5049353837966918945 -9999 -9999 -9999 -9999 -9999 -9999 -9999 -9999 -9999 2.2122366428375244141 -9999 -9999 -9999 -9999 -9999 -9999 -9999 -9999 -9999 -9999 -9999 -9999 -9999 -9999 -9999 -9999 -9999 -9999 -9999 -9999 -9999 -9999 -9999 -9999 
-9999 1.7561374902725219727 1.6175245046615600586 1.4061971902847290039 1.6779375076293945312 -9999 -9999 2.7795164585113525391 3.0135207176208496094 1.9070644378662109375 -9999 -9999 6.2173047065734863281 8.558563232421875 11.158740043640136719 6.3322906494140625 5.032680511474609375 10.08499908447265625 7.0184254646301269531 7.8776311874389648438 13.667872428894042969 16.968790054321289062 13.7149200439453125 10.959359169006347656 12.272349357604980469 13.171303749084472656 10.793602943420410156 8.3521680831909179688 9.3273324966430664062 6.4431314468383789062 3.0189623832702636719 4.9308085441589355469 7.4681754112243652344 6.6260890960693359375 6.4444913864135742188 6.0038843154907226562 5.782123565673828125 5.6090021133422851562 5.4339375495910644531 6.2717099189758300781 6.9472055435180664062 7.7891025543212890625 9.3344478607177734375 1.4608777761459350586 1.2558484077453613281 1.0441664457321166992 -9999 -9999 -9999 1.2488180398941040039 1.2884054183959960938 29.571109771728515625 12.462121963500976562 6.656169891357421875 6.9482188224792480469 6.1269392967224121094 2.2220480442047119141 4.4289669990539550781 5.2724552154541015625 2.5988452434539794922 -9999 -9999 -9999 -9999 -9999 3.394317626953125 4.3789243698120117188 5.5516200065612792969 9.0995855331420898438 7.3884482383728027344 6.3072061538696289062 6.9974317550659179688 6.6572170257568359375 6.9654788970947265625 6.834720611572265625 7.266143798828125 6.8073744773864746094 5.7101387977600097656 6.0746164321899414062 6.3000087738037109375 6.3519320487976074219 6.9187002182006835938 7.4782876968383789062 8.5325193405151367188 8.4568958282470703125 13.277489662170410156 13.528439521789550781 1.401379704475402832 -9999 -9999 -9999 -9999 -9999 -9999 -9999 -9999 -9999 1.6509968042373657227 1.9277588129043579102 1.9597471952438354492 -9999 1.5785967111587524414 -9999 -9999 -9999 -9999 -9999 -9999 -9999 -9999 -9999 -9999 -9999 -9999 -9999 -9999 -9999 -9999 -9999 -9999 -9999 -9999 -9999 -9999 -9999 -9999 -9999 
-9999 2.1287417411804199219 1.5376660823822021484 1.2665765285491943359 -9999 -9999 -9999 2.7230603694915771484 2.4618837833404541016 1.4234285354614257812 -9999 -9999 4.0483264923095703125 9.7240667343139648438 16.661479949951171875 18.871404647827148438 6.2481675148010253906 6.3353261947631835938 5.7491636276245117188 5.6796832084655761719 8.195247650146484375 43.5417938232421875 17.9133148193359375 15.949399948120117188 12.728882789611816406 3.1268346309661865234 11.94594573974609375 9.8552074432373046875 10.357365608215332031 4.2670464515686035156 2.9945943355560302734 -9999 2.1711552143096923828 5.0226817131042480469 4.610565185546875 6.429416656494140625 6.3299403190612792969 5.979930877685546875 6.1669893264770507812 6.5740499496459960938 7.4626879692077636719 7.4432673454284667969 8.9517841339111328125 10.133219718933105469 2.9620125293731689453 1.2266546487808227539 1.117359161376953125 1.1505577564239501953 4.9267597198486328125 7.2537403106689453125 8.1390123367309570312 8.9106683731079101562 9.1542339324951171875 6.7706384658813476562 6.7997374534606933594 4.0293736457824707031 2.6672177314758300781 2.7495429515838623047 2.2766361236572265625 -9999 -9999 -9999 -9999 -9999 -9999 -9999 3.3505191802978515625 4.4559755325317382812 6.3477964401245117188 6.0989689826965332031 6.1435708999633789062 7.2965083122253417969 6.8552193641662597656 7.2752308845520019531 6.9550337791442871094 6.5378603935241699219 6.1439275741577148438 5.6342930793762207031 6.4209079742431640625 5.1154718399047851562 5.2205748558044433594 5.709629058837890625 7.2993402481079101562 9.2984704971313476562 8.5256290435791015625 3.6880853176116943359 -9999 1.2410256862640380859 -9999 -9999 -9999 -9999 -9999 -9999 -9999 1.7804696559906005859 1.4370996952056884766 -9999 -9999 -9999 -9999 -9999 -9999 -9999 -9999 -9999 -9999 -9999 -9999 -9999 -9999 -9999 -9999 -9999 -9999 -9999 -9999 -9999 -9999 -9999 -9999 -9999 -9999 -9999 -9999 -9999 -9999 
-9999 -9999 -9999 -9999 -9999 1.3366369009017944336 -9999 1.7359626293182373047 -9999 -9999 -9999 -9999 4.089984893798828125 13.947159767150878906 36.031757354736328125 64.02079010009765625 14.30754852294921875 6.4980459213256835938 3.9668378829956054688 6.5168371200561523438 31.246463775634765625 44.72902679443359375 12.659688949584960938 7.4379596710205078125 3.4273138046264648438 -9999 9.320438385009765625 9.7603540420532226562 11.726491928100585938 4.7266545295715332031 2.3666753768920898438 -9999 2.4579632282257080078 3.3625199794769287109 2.972499847412109375 4.5248012542724609375 4.7483716011047363281 6.38298797607421875 6.931858062744140625 6.157588958740234375 5.7547717094421386719 6.5705590248107910156 8.2309579849243164062 9.5526819229125976562 11.683719635009765625 6.7689065933227539062 7.0418701171875 7.3678059577941894531 6.6616168022155761719 6.1835083961486816406 5.15560150146484375 6.9505782127380371094 7.9719228744506835938 6.2206664085388183594 7.1694083213806152344 5.391101837158203125 2.1707286834716796875 1.6708562374114990234 -9999 1.5292323827743530273 -9999 -9999 -9999 -9999 -9999 -9999 5.8745551109313964844 6.3838458061218261719 6.5584216117858886719 6.0003795623779296875 5.9216976165771484375 6.3822650909423828125 6.3513560295104980469 5.943843841552734375 6.4227838516235351562 6.7068424224853515625 6.1450595855712890625 5.4535951614379882812 6.0211076736450195312 7.4958596229553222656 6.7224016189575195312 4.8664903640747070312 5.9755539894104003906 7.7669572830200195312 8.7681217193603515625 5.9361939430236816406 -9999 -9999 -9999 -9999 -9999 1.451640009880065918 1.3200557231903076172 -9999 -9999 -9999 -9999 -9999 -9999 -9999 -9999 -9999 -9999 -9999 -9999 -9999 -9999 -9999 -9999 -9999 -9999 -9999 -9999 -9999 -9999 -9999 -9999 -9999 -9999 -9999 -9999 -9999 -9999 -9999 -9999 -9999 -9999 
-9999 -9999 -9999 1.608143925666809082 2.0316069126129150391 1.5394562482833862305 1.3730957508087158203 1.9588325023651123047 1.4633245468139648438 -9999 -9999 3.1518294811248779297 2.9125676155090332031 12.506689071655273438 101 62.588054656982421875 18.730176925659179688 12.085432052612304688 4.4870452880859375 14.1400299072265625 52.8653106689453125 18.381481170654296875 6.6695728302001953125 -9999 -9999 -9999 2.0747711658477783203 7.647552490234375 9.7914323806762695312 5.1571607589721679688 1.4912276268005371094 2.5158944129943847656 4.5501942634582519531 4.83156585693359375 2.8115520477294921875 2.6477806568145751953 4.1080942153930664062 6.8446402549743652344 7.2613010406494140625 6.5357828140258789062 5.5259075164794921875 6.4322037696838378906 7.9375624656677246094 8.8977413177490234375 8.6168527603149414062 7.342456817626953125 5.6723356246948242188 6.6668639183044433594 6.7014126777648925781 6.4205784797668457031 5.1949748992919921875 6.0670666694641113281 5.1333804130554199219 5.5441026687622070312 6.3339409828186035156 6.7252669334411621094 2.82674407958984375 -9999 2.0882558822631835938 1.7625906467437744141 4.1320290565490722656 4.5255141258239746094 1.6707268953323364258 -9999 2.6515719890594482422 6.3479022979736328125 7.3413400650024414062 6.3873181343078613281 6.7392201423645019531 6.5419492721557617188 6.6841826438903808594 5.8714818954467773438 6.0504460334777832031 6.7857999801635742188 8.3797626495361328125 7.8438043594360351562 6.8548784255981445312 5.7262377738952636719 5.8740363121032714844 6.1500754356384277344 6.7615342140197753906 3.4011085033416748047 5.2673292160034179688 5.5308513641357421875 6.3838114738464355469 -9999 -9999 -9999 -9999 -9999 -9999 1.3106132745742797852 1.5626609325408935547 -9999 -9999 -9999 -9999 -9999 -9999 -9999 -9999 -9999 -9999 -9999 -9999 -9999 -9999 -9999 -9999 -9999 -9999 -9999 -9999 -9999 -9999 -9999 -9999 -9999 -9999 -9999 -9999 -9999 -9999 -9999 -9999 -9999 -9999 
-9999 -9999 -9999 1.8882396221160888672 2.0852947235107421875 1.8990296125411987305 1.4942868947982788086 -9999 -9999 -9999 3.3354053497314453125 2.9457416534423828125 2.1785326004028320312 3.3656294345855712891 18.391820907592773438 11.992725372314453125 19.476573944091796875 21.808681488037109375 24.5917816162109375 34.4615631103515625 28.316608428955078125 26.59032440185546875 24.8000335693359375 -9999 3.6792731285095214844 -9999 5.6376271247863769531 9.3428897857666015625 8.033290863037109375 4.3616204261779785156 1.6836140155792236328 5.3613376617431640625 15.844763755798339844 9.2091474533081054688 7.85874176025390625 4.5804128646850585938 4.4753222465515136719 5.4372463226318359375 7.637783050537109375 9.18358612060546875 6.6642608642578125 7.4560933113098144531 7.6274867057800292969 8.0949535369873046875 8.065425872802734375 6.4550948143005371094 6.29080963134765625 5.5225839614868164062 5.7140889167785644531 5.8495535850524902344 5.7308626174926757812 5.7969889640808105469 5.5073380470275878906 5.4532079696655273438 7.3980851173400878906 7.892822265625 6.1528291702270507812 -9999 -9999 -9999 2.1515223979949951172 7.5508441925048828125 7.3134407997131347656 3.6656336784362792969 4.376766204833984375 6.2691206932067871094 7.4292693138122558594 6.9971609115600585938 6.3498477935791015625 6.1893396377563476562 6.5106329917907714844 6.2568955421447753906 6.2798752784729003906 5.8989934921264648438 7.7357435226440429688 6.0008058547973632812 4.8477635383605957031 5.7349071502685546875 5.8338232040405273438 5.761959075927734375 5.64493560791015625 4.0730991363525390625 4.2780842781066894531 3.1228895187377929688 2.0794436931610107422 -9999 -9999 -9999 -9999 -9999 -9999 1.1037824153900146484 1.7759873867034912109 -9999 -9999 -9999 -9999 -9999 -9999 -9999 -9999 -9999 -9999 -9999 -9999 -9999 -9999 -9999 -9999 -9999 -9999 -9999 -9999 -9999 -9999 -9999 -9999 -9999 -9999 -9999 -9999 -9999 -9999 -9999 -9999 -9999 -9999 
-9999 -9999 -9999 1.9171953201293945312 1.7415597438812255859 1.592098236083984375 1.6116617918014526367 -9999 -9999 -9999 1.8088710308074951172 1.8389825820922851562 1.9507020711898803711 1.7873858213424682617 3.3009202480316162109 4.1514630317687988281 20.695127487182617188 62.4543609619140625 56.074016571044921875 68.71686553955078125 44.792110443115234375 50.795413970947265625 14.219389915466308594 -9999 -9999 -9999 5.8472261428833007812 10.048979759216308594 10.373280525207519531 4.7232975959777832031 13.934514999389648438 36.529056549072265625 16.6655120849609375 13.234943389892578125 7.5586056709289550781 5.0451536178588867188 6.7996382713317871094 10.014267921447753906 6.6519918441772460938 12.801093101501464844 10.505674362182617188 6.6949739456176757812 6.7817010879516601562 6.91327667236328125 10.79181671142578125 7.2840323448181152344 5.7997064590454101562 5.9036149978637695312 5.9352617263793945312 5.9362683296203613281 5.5682511329650878906 5.8413643836975097656 4.9564733505249023438 5.9137167930603027344 6.0734963417053222656 6.8109602928161621094 5.1930260658264160156 1.2866117954254150391 -9999 -9999 -9999 6.4537720680236816406 7.0538744926452636719 7.7954134941101074219 4.9650020599365234375 5.9907116889953613281 6.6077318191528320312 6.1501288414001464844 5.6264505386352539062 5.6335787773132324219 6.2808995246887207031 5.86053466796875 5.4873986244201660156 5.8423643112182617188 7.2698340415954589844 4.8673458099365234375 4.1070961952209472656 6.663692474365234375 6.7045645713806152344 5.1513576507568359375 7.1734738349914550781 9.1143550872802734375 3.2861652374267578125 -9999 1.2128282785415649414 -9999 -9999 3.1371037960052490234 3.7803347110748291016 -9999 -9999 -9999 -9999 -9999 -9999 -9999 -9999 -9999 -9999 -9999 -9999 -9999 -9999 -9999 -9999 -9999 -9999 -9999 -9999 -9999 -9999 -9999 -9999 -9999 -9999 -9999 -9999 -9999 -9999 -9999 -9999 -9999 -9999 -9999 -9999 -9999 -9999 
-9999 -9999 1.7149971723556518555 -9999 1.6088035106658935547 1.4202152490615844727 1.3595869541168212891 -9999 -9999 2.0075540542602539062 1.8854424953460693359 2.0159976482391357422 -9999 2.1860721111297607422 3.9628770351409912109 3.2027022838592529297 5.5966696739196777344 7.9102230072021484375 21.32819366455078125 32.807117462158203125 19.975862503051757812 18.71361541748046875 2.7233359813690185547 -9999 -9999 -9999 8.1480426788330078125 5.60305023193359375 4.2781453132629394531 3.6142601966857910156 24.187480926513671875 29.48447418212890625 28.954929351806640625 21.310222625732421875 9.1545190811157226562 11.624650001525878906 6.7806506156921386719 7.7188811302185058594 7.9182782173156738281 7.243335723876953125 11.77434539794921875 6.8075327873229980469 11.240567207336425781 4.7792024612426757812 7.8244671821594238281 7.0989022254943847656 6.055419921875 6.2706065177917480469 5.309841156005859375 6.3900918960571289062 5.6074690818786621094 5.8649730682373046875 4.9230356216430664062 5.9873948097229003906 6.1624326705932617188 6.5614018440246582031 5.1641292572021484375 6.894847869873046875 7.7727942466735839844 7.1093988418579101562 6.6958360671997070312 6.4867715835571289062 6.7877011299133300781 7.7196459770202636719 6.6571941375732421875 5.7878499031066894531 5.95420074462890625 6.6621813774108886719 5.7914614677429199219 5.369659423828125 5.7121448516845703125 5.4041838645935058594 5.9061894416809082031 5.4887685775756835938 5.9405307769775390625 4.8548917770385742188 5.4679083824157714844 8.6995859146118164062 6.8892617225646972656 6.0643186569213867188 5.8699884414672851562 3.6742866039276123047 -9999 1.7324976921081542969 1.66135406494140625 -9999 -9999 2.5628993511199951172 3.4000184535980224609 -9999 -9999 -9999 -9999 -9999 -9999 -9999 -9999 1.7099922895431518555 -9999 -9999 -9999 -9999 -9999 -9999 -9999 -9999 -9999 -9999 -9999 -9999 -9999 -9999 -9999 -9999 -9999 -9999 -9999 -9999 -9999 -9999 -9999 -9999 -9999 -9999 -9999 -9999 -9999 
-9999 -9999 -9999 1.4213758707046508789 1.5421723127365112305 -9999 -9999 -9999 1.9915719032287597656 1.9736119508743286133 2.0400042533874511719 2.3557093143463134766 5.3936562538146972656 3.9506080150604248047 3.5440802574157714844 -9999 -9999 3.0450375080108642578 4.71612548828125 5.9616460800170898438 7.4297733306884765625 12.363444328308105469 3.2875425815582275391 -9999 -9999 6.2683286666870117188 7.7652063369750976562 4.9711947441101074219 -9999 9.9176082611083984375 29.413238525390625 22.509883880615234375 26.01245880126953125 9.2586565017700195312 6.5982298851013183594 10.926899909973144531 8.1098489761352539062 8.11988067626953125 9.737995147705078125 8.4650440216064453125 10.511982917785644531 9.5516614913940429688 6.6590623855590820312 4.9735937118530273438 9.0442409515380859375 7.5517497062683105469 7.4314475059509277344 6.4249081611633300781 5.47956085205078125 6.2760081291198730469 6.4919385910034179688 6.509876251220703125 5.6427764892578125 5.94202423095703125 5.9263062477111816406 6.51465606689453125 6.7192850112915039062 6.9668564796447753906 7.3729581832885742188 7.0720243453979492188 7.8278408050537109375 7.07915496826171875 7.52979278564453125 8.9759693145751953125 7.45702362060546875 6.4692072868347167969 6.8015322685241699219 7.0531148910522460938 6.7427258491516113281 6.2422771453857421875 5.2993426322937011719 5.1355943679809570312 5.4216666221618652344 5.446075439453125 5.3273077011108398438 5.9083528518676757812 6.9944281578063964844 9.665195465087890625 8.366695404052734375 7.0059661865234375 5.3068790435791015625 2.7831537723541259766 1.7704588174819946289 2.0381662845611572266 1.6602241992950439453 2.3570642471313476562 1.9699089527130126953 -9999 -9999 -9999 -9999 -9999 -9999 -9999 -9999 -9999 -9999 -9999 -9999 -9999 -9999 -9999 -9999 -9999 -9999 -9999 -9999 -9999 -9999 -9999 -9999 -9999 -9999 -9999 -9999 -9999 -9999 -9999 -9999 -9999 -9999 -9999 -9999 -9999 -9999 -9999 -9999 
-9999 -9999 1.794344782829284668 -9999 -9999 -9999 -9999 -9999 -9999 1.9519661664962768555 -9999 1.7073352336883544922 -9999 2.9235911369323730469 2.8392403125762939453 1.9073065519332885742 1.8062520027160644531 2.7962126731872558594 3.5498912334442138672 4.5955533981323242188 3.2709147930145263672 -9999 -9999 -9999 3.2213015556335449219 3.9671781063079833984 -9999 10.648761749267578125 5.8456654548645019531 8.8672380447387695312 23.908094406127929688 19.803094863891601562 15.062150955200195312 4.4874258041381835938 3.7674582004547119141 8.115306854248046875 8.3041067123413085938 7.4481148719787597656 8.6410160064697265625 8.019527435302734375 9.5275506973266601562 8.3958587646484375 6.5246305465698242188 7.1776127815246582031 8.2952470779418945312 6.6276011466979980469 7.2418913841247558594 6.4555287361145019531 6.1006121635437011719 5.8736624717712402344 5.9631705284118652344 5.6926951408386230469 6.34789276123046875 6.1237640380859375 5.499507904052734375 5.9198107719421386719 7.2736043930053710938 7.197574615478515625 7.0776915550231933594 6.1267118453979492188 6.6053118705749511719 6.1370282173156738281 6.5047402381896972656 6.8554620742797851562 6.4766736030578613281 6.2610735893249511719 6.5813612937927246094 6.2539362907409667969 6.33890533447265625 6.5275149345397949219 5.5212650299072265625 5.1602039337158203125 5.6119251251220703125 6.1714620590209960938 9.0801248550415039062 9.4841508865356445312 8.1365308761596679688 7.08148193359375 6.9598245620727539062 7.753490447998046875 4.9501733779907226562 2.4168622493743896484 2.4684193134307861328 -9999 -9999 -9999 1.6539140939712524414 2.0571398735046386719 1.8923178911209106445 -9999 -9999 -9999 -9999 -9999 -9999 -9999 -9999 -9999 -9999 -9999 -9999 -9999 -9999 -9999 -9999 -9999 -9999 -9999 -9999 -9999 -9999 -9999 -9999 -9999 -9999 -9999 -9999 -9999 -9999 -9999 -9999 -9999 -9999 -9999 -9999 -9999 -9999 
-9999 -9999 2.2622363567352294922 -9999 -9999 -9999 -9999 -9999 -9999 2.0455901622772216797 -9999 1.7241184711456298828 -9999 1.5941561460494995117 1.90727996826171875 -9999 3.5287296772003173828 2.85749053955078125 3.0304648876190185547 2.779453277587890625 -9999 2.7395319938659667969 -9999 -9999 -9999 2.9770722389221191406 -9999 3.1891965866088867188 2.2358253002166748047 4.8923687934875488281 44.423122406005859375 18.615190505981445312 13.081037521362304688 5.8992609977722167969 3.4221107959747314453 7.7779250144958496094 7.7600841522216796875 6.9901990890502929688 6.5394496917724609375 7.5927629470825195312 10.39263153076171875 8.3822259902954101562 6.8669371604919433594 10.789837837219238281 5.8745398521423339844 6.6176037788391113281 6.3229513168334960938 5.7282605171203613281 5.8390841484069824219 5.51215362548828125 7.1155171394348144531 6.088260650634765625 5.8239798545837402344 6.3007216453552246094 6.5367426872253417969 6.35111236572265625 7.946681976318359375 6.5309009552001953125 6.5186967849731445312 6.77129364013671875 6.5010595321655273438 5.874301910400390625 5.9342617988586425781 6.3883032798767089844 6.3805799484252929688 6.7108016014099121094 6.4329729080200195312 6.1763834953308105469 6.5497274398803710938 6.7884674072265625 5.8238229751586914062 6.1671929359436035156 5.8287386894226074219 9.2471923828125 10.153120040893554688 10.817096710205078125 7.9922733306884765625 8.4428052902221679688 8.0875568389892578125 6.8521966934204101562 3.2747039794921875 2.3997528553009033203 2.2926082611083984375 -9999 -9999 -9999 1.8300799131393432617 2.2188391685485839844 -9999 -9999 -9999 -9999 -9999 -9999 -9999 -9999 -9999 -9999 -9999 -9999 -9999 -9999 -9999 -9999 -9999 -9999 -9999 -9999 -9999 -9999 -9999 -9999 -9999 -9999 -9999 -9999 -9999 -9999 -9999 -9999 -9999 -9999 -9999 -9999 -9999 -9999 -9999 
-9999 -9999 -9999 2.0576367378234863281 -9999 -9999 -9999 -9999 -9999 -9999 1.7077846527099609375 1.4781153202056884766 1.4439141750335693359 1.3390735387802124023 1.8899447917938232422 3.1501734256744384766 3.6430594921112060547 3.0985083580017089844 2.1696648597717285156 1.8052145242691040039 -9999 1.6387497186660766602 -9999 -9999 -9999 -9999 -9999 -9999 2.1235432624816894531 2.7421526908874511719 8.045574188232421875 8.44720458984375 15.71752166748046875 7.2534546852111816406 6.2923984527587890625 6.9599633216857910156 6.4122714996337890625 6.7419543266296386719 6.2681894302368164062 7.0079731941223144531 7.4671907424926757812 6.4631667137145996094 8.0886716842651367188 6.4255475997924804688 5.2475371360778808594 6.1294946670532226562 5.6302947998046875 4.8879137039184570312 5.4140000343322753906 4.124546051025390625 6.7519073486328125 6.3359727859497070312 6.1481938362121582031 6.9720644950866699219 8.265045166015625 6.1595196723937988281 7.1279978752136230469 7.53650665283203125 7.986576080322265625 7.7567663192749023438 5.3129453659057617188 5.9027042388916015625 6.2556071281433105469 5.8558421134948730469 7.2569565773010253906 6.6504225730895996094 7.4922819137573242188 8.5913410186767578125 8.0856904983520507812 6.7157649993896484375 6.3354887962341308594 6.4306178092956542969 6.7096314430236816406 7.6289525032043457031 7.7674870491027832031 8.8631305694580078125 6.9854030609130859375 7.7713751792907714844 8.6412038803100585938 7.1121625900268554688 3.3125541210174560547 2.5159747600555419922 -9999 -9999 -9999 -9999 1.3642324209213256836 -9999 -9999 -9999 -9999 -9999 -9999 -9999 -9999 -9999 -9999 -9999 -9999 -9999 -9999 -9999 -9999 -9999 -9999 -9999 -9999 -9999 -9999 -9999 -9999 -9999 -9999 -9999 -9999 -9999 -9999 -9999 -9999 -9999 -9999 -9999 -9999 -9999 -9999 -9999 -9999 
-9999 -9999 -9999 -9999 -9999 -9999 -9999 -9999 -9999 1.7431612014770507812 1.8383654356002807617 1.8438316583633422852 1.8055086135864257812 1.6734163761138916016 2.1953186988830566406 2.4848816394805908203 2.6767680644989013672 2.2284457683563232422 1.6969103813171386719 -9999 -9999 -9999 -9999 -9999 -9999 -9999 -9999 -9999 2.9180433750152587891 2.9229369163513183594 -9999 4.4022231101989746094 13.284665107727050781 8.1747751235961914062 6.3868169784545898438 4.7981863021850585938 7.1532177925109863281 8.5786790847778320312 8.0277967453002929688 7.736019134521484375 8.6915645599365234375 6.4353432655334472656 5.6461915969848632812 5.6291332244873046875 6.0879731178283691406 6.4546322822570800781 7.6945033073425292969 4.7837910652160644531 4.2847685813903808594 4.0705099105834960938 5.7331638336181640625 6.0290904045104980469 5.674053192138671875 6.1136069297790527344 7.1727733612060546875 7.0261788368225097656 6.8130183219909667969 8.447391510009765625 8.1619710922241210938 8.069469451904296875 7.5576920509338378906 7.0565485954284667969 7.3797550201416015625 7.5589799880981445312 7.6298589706420898438 7.7681341171264648438 8.1885461807250976562 8.3527278900146484375 8.1413927078247070312 6.9730696678161621094 8.052211761474609375 9.6274213790893554688 7.7888774871826171875 7.0427684783935546875 6.5626230239868164062 8.92999267578125 6.8948993682861328125 8.0217266082763671875 8.1976404190063476562 7.5402088165283203125 1.825130462646484375 -9999 -9999 -9999 -9999 -9999 1.417670130729675293 1.4200317859649658203 -9999 -9999 -9999 -9999 -9999 -9999 -9999 -9999 -9999 -9999 -9999 -9999 -9999 -9999 -9999 -9999 -9999 -9999 -9999 -9999 -9999 -9999 -9999 -9999 -9999 -9999 -9999 -9999 -9999 -9999 -9999 -9999 -9999 -9999 -9999 -9999 -9999 -9999 -9999 
-9999 -9999 -9999 -9999 -9999 -9999 2.5224950313568115234 -9999 -9999 1.6721391677856445312 1.7596833705902099609 1.792644500732421875 2.2292535305023193359 2.6140947341918945312 2.1428420543670654297 2.1070847511291503906 2.6654577255249023438 1.8124623298645019531 -9999 -9999 -9999 -9999 -9999 -9999 -9999 -9999 2.2779600620269775391 1.9619214534759521484 2.4268767833709716797 -9999 2.0468859672546386719 3.2416796684265136719 8.4104528427124023438 7.4171328544616699219 9.7340707778930664062 8.5589628219604492188 8.4407739639282226562 7.4224262237548828125 8.497386932373046875 6.9936966896057128906 7.569278717041015625 5.9242491722106933594 4.9566140174865722656 6.6153473854064941406 6.4179043769836425781 6.3900470733642578125 7.3950247764587402344 5.0440945625305175781 4.5360956192016601562 4.9676280021667480469 5.4277086257934570312 5.8055410385131835938 5.4515447616577148438 5.8668384552001953125 6.6008734703063964844 7.2594981193542480469 7.1648726463317871094 3.7356259822845458984 1.1777154207229614258 1.1686686277389526367 1.8439184427261352539 6.175140380859375 6.4703230857849121094 1.3678565025329589844 1.1503300666809082031 2.2640526294708251953 8.0219392776489257812 7.5000333786010742188 8.0329313278198242188 9.3489484786987304688 11.268359184265136719 10.01145172119140625 7.4246339797973632812 7.2266926765441894531 7.2892966270446777344 7.3557109832763671875 6.6690258979797363281 7.215908050537109375 5.1713185310363769531 1.2825206518173217773 1.159930109977722168 -9999 -9999 -9999 -9999 -9999 -9999 -9999 -9999 -9999 -9999 1.5735387802124023438 1.9404296875 1.343043208122253418 -9999 -9999 -9999 -9999 -9999 -9999 -9999 -9999 -9999 -9999 -9999 -9999 -9999 -9999 -9999 -9999 -9999 -9999 -9999 -9999 -9999 -9999 -9999 -9999 -9999 -9999 -9999 -9999 -9999 -9999 -9999 -9999 -9999 
-9999 -9999 -9999 -9999 -9999 -9999 -9999 1.7675435543060302734 -9999 1.4346845149993896484 1.5526938438415527344 1.7711669206619262695 2.2041759490966796875 2.2044475078582763672 2.1819219589233398438 2.2883238792419433594 1.8682886362075805664 1.6796307563781738281 2.3282175064086914062 3.6922469139099121094 2.3145487308502197266 1.7308592796325683594 -9999 -9999 -9999 -9999 -9999 2.0524692535400390625 2.0987706184387207031 2.4527864456176757812 3.0240643024444580078 4.9090371131896972656 8.9452457427978515625 12.360620498657226562 9.21051025390625 7.9924273490905761719 7.2090635299682617188 6.5713915824890136719 5.4639568328857421875 7.1877083778381347656 6.9523801803588867188 5.9613895416259765625 5.9816637039184570312 6.1581287384033203125 6.281566619873046875 6.2856321334838867188 6.6819567680358886719 5.6818079948425292969 5.5553445816040039062 6.2171306610107421875 5.9119677543640136719 6.4943113327026367188 6.9436092376708984375 7.0416054725646972656 7.2218337059020996094 7.2879252433776855469 4.6448431015014648438 -9999 -9999 -9999 -9999 -9999 -9999 1.0009027719497680664 -9999 -9999 1.0835262537002563477 5.0241141319274902344 7.9739780426025390625 10.989919662475585938 9.3793516159057617188 8.6897153854370117188 7.9950246810913085938 7.7363615036010742188 7.4882159233093261719 6.9840273857116699219 6.0849752426147460938 5.8266649246215820312 3.1967713832855224609 2.1859290599822998047 1.6417280435562133789 -9999 -9999 -9999 -9999 -9999 -9999 -9999 -9999 -9999 2.2245545387268066406 2.9486091136932373047 5.5656023025512695312 2.0500078201293945312 -9999 -9999 -9999 -9999 -9999 -9999 -9999 -9999 -9999 -9999 -9999 -9999 -9999 -9999 -9999 -9999 -9999 -9999 -9999 -9999 -9999 -9999 -9999 -9999 -9999 -9999 -9999 -9999 -9999 -9999 -9999 -9999 -9999 
-9999 -9999 -9999 -9999 -9999 -9999 -9999 -9999 -9999 1.7398200035095214844 -9999 1.1143738031387329102 1.7700664997100830078 2.2799544334411621094 2.2970154285430908203 2.3727777004241943359 2.0167860984802246094 3.6431360244750976562 4.6480526924133300781 11.23632049560546875 4.8705515861511230469 -9999 -9999 -9999 -9999 2.0756614208221435547 2.0899119377136230469 2.2702176570892333984 2.1467151641845703125 5.4565763473510742188 6.1447343826293945312 5.7698245048522949219 8.8713865280151367188 9.574199676513671875 7.1398758888244628906 7.0788679122924804688 7.0097842216491699219 6.4057621955871582031 6.4884705543518066406 6.4950385093688964844 6.6197557449340820312 6.4403977394104003906 6.0297160148620605469 8.1530733108520507812 7.4259519577026367188 6.0061388015747070312 5.8294110298156738281 5.0972657203674316406 5.5399942398071289062 6.4682297706604003906 6.2320618629455566406 6.85140228271484375 6.95258331298828125 7.9190983772277832031 5.50518035888671875 1.042245030403137207 -9999 -9999 -9999 -9999 -9999 -9999 -9999 -9999 -9999 -9999 -9999 2.7196888923645019531 7.6323556900024414062 10.737215042114257812 8.5692310333251953125 7.6772456169128417969 8.7151336669921875 8.4227752685546875 7.3451089859008789062 7.0420317649841308594 6.3679189682006835938 5.2289972305297851562 5.0018315315246582031 1.5739543437957763672 -9999 -9999 -9999 -9999 -9999 -9999 -9999 1.269040226936340332 -9999 2.4512131214141845703 2.0744035243988037109 3.1991753578186035156 6.7859926223754882812 2.3599135875701904297 -9999 -9999 -9999 -9999 -9999 -9999 -9999 -9999 -9999 -9999 -9999 -9999 -9999 -9999 -9999 -9999 -9999 -9999 -9999 -9999 -9999 -9999 -9999 -9999 -9999 -9999 1.2064453363418579102 -9999 -9999 -9999 -9999 -9999 -9999 
-9999 -9999 -9999 -9999 -9999 -9999 -9999 2.7391991615295410156 2.4674904346466064453 1.9411857128143310547 1.8356896638870239258 2.1873576641082763672 3.0512053966522216797 1.4644223451614379883 1.5184140205383300781 2.306911468505859375 3.3266673088073730469 5.7326679229736328125 4.3900671005249023438 9.9505338668823242188 4.4138822555541992188 1.682861328125 1.5366779565811157227 -9999 2.2469303607940673828 -9999 -9999 2.3426244258880615234 5.5722198486328125 6.0610904693603515625 3.6750090122222900391 5.7657155990600585938 16.560405731201171875 12.290543556213378906 7.9954462051391601562 7.84372711181640625 6.8525938987731933594 6.9459581375122070312 7.4118404388427734375 6.0567159652709960938 6.7102332115173339844 6.8031072616577148438 5.8129100799560546875 8.3375215530395507812 10.817177772521972656 2.8845455646514892578 6.0555500984191894531 5.6776227951049804688 5.6014657020568847656 5.1095757484436035156 5.6045598983764648438 6.0309438705444335938 5.1495976448059082031 6.7971186637878417969 1.0979816913604736328 -9999 -9999 -9999 -9999 -9999 -9999 -9999 -9999 -9999 -9999 -9999 -9999 1.0192674398422241211 8.1941280364990234375 9.5076799392700195312 6.43224334716796875 7.9819416999816894531 9.3583850860595703125 8.701923370361328125 7.7881064414978027344 6.8187971115112304688 6.2328042984008789062 6.1036410331726074219 3.0133879184722900391 1.3398917913436889648 -9999 -9999 -9999 -9999 -9999 -9999 2.4100477695465087891 2.3378660678863525391 8.2724123001098632812 18.314739227294921875 6.1333260536193847656 5.8508882522583007812 4.7553453445434570312 1.6470268964767456055 -9999 -9999 -9999 -9999 -9999 -9999 -9999 -9999 -9999 -9999 -9999 -9999 -9999 -9999 -9999 -9999 -9999 -9999 -9999 -9999 -9999 -9999 -9999 -9999 -9999 -9999 -9999 -9999 -9999 -9999 -9999 -9999 -9999 
-9999 -9999 -9999 -9999 -9999 -9999 -9999 -9999 -9999 -9999 1.5297507047653198242 2.0502686500549316406 2.5991368293762207031 1.5285112857818603516 1.9166858196258544922 2.9484810829162597656 5.0062327384948730469 5.0263533592224121094 3.2436416149139404297 3.1342194080352783203 1.9041607379913330078 1.8934174776077270508 -9999 -9999 2.6448025703430175781 -9999 -9999 3.015529632568359375 17.8866424560546875 13.455792427062988281 9.0133008956909179688 11.264430046081542969 15.359203338623046875 8.0810403823852539062 7.6049761772155761719 7.5784277915954589844 7.8587770462036132812 7.61280059814453125 7.6148290634155273438 5.9227948188781738281 6.4712300300598144531 5.8747620582580566406 6.4036617279052734375 6.7146854400634765625 -9999 6.6404209136962890625 5.3097615242004394531 5.6473093032836914062 6.3080258369445800781 7.1511445045471191406 9.7475595474243164062 7.9434947967529296875 6.2813062667846679688 3.3360531330108642578 3.4273800849914550781 -9999 -9999 -9999 -9999 -9999 1.5195853710174560547 1.435574650764465332 1.8139890432357788086 2.4217011928558349609 1.3412699699401855469 1.2527431249618530273 -9999 1.028502345085144043 8.1822366714477539062 9.162261962890625 6.5011792182922363281 7.2230067253112792969 7.325603485107421875 7.0120229721069335938 7.4016947746276855469 7.1623091697692871094 6.6621842384338378906 8.6510448455810546875 3.7919154167175292969 -9999 -9999 -9999 -9999 -9999 -9999 1.8445054292678833008 5.0269985198974609375 3.9718091487884521484 9.1521015167236328125 17.803785324096679688 8.3284702301025390625 12.120966911315917969 6.6262340545654296875 -9999 -9999 -9999 -9999 -9999 -9999 -9999 -9999 -9999 -9999 -9999 -9999 -9999 -9999 -9999 -9999 -9999 -9999 -9999 -9999 -9999 -9999 -9999 -9999 -9999 -9999 -9999 -9999 -9999 -9999 -9999 -9999 -9999 -9999 
-9999 -9999 -9999 -9999 -9999 1.3961484432220458984 -9999 -9999 -9999 1.4656784534454345703 1.5667829513549804688 2.51734161376953125 2.8518135547637939453 2.4672682285308837891 4.2295489311218261719 4.587066650390625 5.3663516044616699219 3.8891210556030273438 2.5739755630493164062 2.0519425868988037109 2.2263498306274414062 -9999 -9999 2.2040944099426269531 -9999 2.0038952827453613281 2.5968182086944580078 9.6100740432739257812 16.431833267211914062 12.713335990905761719 9.4228191375732421875 8.37194061279296875 4.9027318954467773438 6.2714209556579589844 7.8525629043579101562 7.3850126266479492188 7.6608638763427734375 7.5346608161926269531 7.4597454071044921875 6.9126172065734863281 6.913234710693359375 6.2557463645935058594 7.2672076225280761719 7.3252158164978027344 8.9991970062255859375 7.375659942626953125 5.4637918472290039062 6.0148978233337402344 5.6436934471130371094 7.8014340400695800781 8.2934284210205078125 6.4111585617065429688 5.907985687255859375 5.6334714889526367188 12.381627082824707031 8.2904310226440429688 6.3919019699096679688 3.8800327777862548828 1.9530423879623413086 1.669285893440246582 -9999 -9999 -9999 -9999 -9999 1.0996611118316650391 -9999 2.8588261604309082031 7.1322836875915527344 7.5231714248657226562 6.6899218559265136719 7.0396986007690429688 6.97003173828125 6.8631429672241210938 7.4321713447570800781 7.3723921775817871094 7.131877899169921875 7.2954573631286621094 3.2600417137145996094 1.6754164695739746094 -9999 -9999 -9999 6.130344390869140625 8.4299325942993164062 3.5301785469055175781 6.7785520553588867188 5.396999359130859375 2.8576979637145996094 5.2648296356201171875 14.996966361999511719 7.1143918037414550781 4.3830585479736328125 1.0515586137771606445 -9999 -9999 -9999 -9999 -9999 -9999 -9999 -9999 -9999 -9999 -9999 -9999 -9999 -9999 -9999 -9999 -9999 -9999 -9999 -9999 -9999 -9999 -9999 -9999 -9999 -9999 -9999 -9999 -9999 -9999 -9999 -9999 -9999 
-9999 -9999 -9999 -9999 -9999 -9999 1.7110468149185180664 -9999 1.4680894613265991211 1.3831360340118408203 1.9413156509399414062 3.4959747791290283203 4.1014809608459472656 3.5116813182830810547 5.3018841743469238281 7.2627139091491699219 3.6932816505432128906 2.5182139873504638672 2.661228179931640625 2.2368936538696289062 2.0411808490753173828 -9999 2.7050800323486328125 3.7731375694274902344 2.9075949192047119141 -9999 3.2648880481719970703 28.119356155395507812 14.734857559204101562 18.3609771728515625 10.713463783264160156 3.8806641101837158203 3.6370425224304199219 7.002796173095703125 8.0517702102661132812 7.3957395553588867188 7.246173858642578125 6.5795340538024902344 6.7297983169555664062 7.7746348381042480469 8.0599212646484375 6.4206056594848632812 6.7558054924011230469 7.5417690277099609375 8.5923824310302734375 7.2974114418029785156 7.0384669303894042969 5.7851114273071289062 4.9116640090942382812 5.0200853347778320312 5.9769730567932128906 5.8310041427612304688 5.4722781181335449219 6.3774499893188476562 14.016139030456542969 6.9078431129455566406 6.7126064300537109375 4.3070063591003417969 2.7296831607818603516 1.5791883468627929688 1.3448429107666015625 1.2482235431671142578 2.0406544208526611328 3.0170011520385742188 -9999 1.0105996131896972656 2.2227294445037841797 8.2779302597045898438 7.0314030647277832031 7.6020946502685546875 6.772090911865234375 7.0702242851257324219 6.5526971817016601562 7.2410483360290527344 7.717437744140625 7.6685442924499511719 7.6937704086303710938 8.6493024826049804688 5.5213313102722167969 1.7959570884704589844 -9999 -9999 -9999 7.3574566841125488281 13.745512962341308594 17.793165206909179688 9.7987871170043945312 8.0930347442626953125 9.4149789810180664062 5.8270115852355957031 14.588503837585449219 15.482911109924316406 19.050848007202148438 9.5429525375366210938 3.8247938156127929688 -9999 -9999 -9999 -9999 -9999 -9999 -9999 -9999 -9999 -9999 -9999 -9999 -9999 -9999 -9999 -9999 -9999 -9999 -9999 -9999 1.9971739053726196289 -9999 -9999 -9999 -9999 -9999 -9999 -9999 -9999 -9999 -9999 -9999 
-9999 -9999 -9999 -9999 -9999 -9999 -9999 -9999 1.8715386390686035156 2.330364227294921875 3.3168697357177734375 3.3957870006561279297 3.6556115150451660156 4.5192856788635253906 5.5592126846313476562 6.7131514549255371094 2.6307017803192138672 2.1777837276458740234 3.0785717964172363281 1.9431471824645996094 1.7353761196136474609 1.4706561565399169922 2.1787221431732177734 3.2579524517059326172 3.4929902553558349609 2.6254582405090332031 3.0569708347320556641 8.4204015731811523438 10.186791419982910156 10.639247894287109375 8.7577829360961914062 4.7658519744873046875 6.2137393951416015625 10.910776138305664062 8.5148897171020507812 7.9494376182556152344 7.9990725517272949219 6.6303043365478515625 7.4638018608093261719 8.98816680908203125 7.0224733352661132812 6.6177988052368164062 7.3312067985534667969 7.7050495147705078125 7.220851898193359375 6.0092635154724121094 5.5389432907104492188 5.8418917655944824219 5.8110303878784179688 4.37383270263671875 5.13858795166015625 5.8570089340209960938 8.2816600799560546875 6.9900760650634765625 6.2965216636657714844 6.14229583740234375 6.6165590286254882812 5.2915396690368652344 1.4474160671234130859 -9999 1.5324256420135498047 3.7502970695495605469 3.3064768314361572266 3.0592753887176513672 1.3388887643814086914 3.2642855644226074219 9.6269598007202148438 9.96209716796875 8.1199092864990234375 7.5497622489929199219 6.7061204910278320312 7.5861825942993164062 7.6294393539428710938 7.5124135017395019531 7.0374803543090820312 6.6510319709777832031 7.3684115409851074219 5.4350023269653320312 -9999 -9999 -9999 -9999 2.8746311664581298828 9.4126071929931640625 9.0461559295654296875 7.6624097824096679688 9.0946664810180664062 8.5733194351196289062 9.3444852828979492188 10.2498779296875 12.398634910583496094 13.107660293579101562 9.923160552978515625 11.344740867614746094 4.0560197830200195312 -9999 -9999 -9999 -9999 -9999 -9999 -9999 -9999 -9999 -9999 -9999 -9999 -9999 -9999 -9999 -9999 -9999 -9999 -9999 -9999 -9999 -9999 -9999 -9999 -9999 -9999 -9999 -9999 -9999 -9999 -9999 -9999 
-9999 -9999 -9999 -9999 1.5254671573638916016 -9999 -9999 1.6514353752136230469 1.7866410017013549805 3.5669939517974853516 4.5621294975280761719 5.4883532524108886719 3.1156101226806640625 3.4138705730438232422 4.2361187934875488281 3.2800247669219970703 2.1244416236877441406 1.9603660106658935547 2.1633026599884033203 1.8137148618698120117 1.7777948379516601562 1.8443624973297119141 2.3939530849456787109 2.8274490833282470703 2.4708101749420166016 1.7753897905349731445 2.3594903945922851562 6.2337512969970703125 8.9271230697631835938 6.5367684364318847656 4.2129302024841308594 3.5124075412750244141 6.6082305908203125 12.595205307006835938 8.9782381057739257812 7.5675349235534667969 6.8100152015686035156 6.1774573326110839844 6.8864350318908691406 7.8150453567504882812 6.5621380805969238281 6.6464133262634277344 7.1374535560607910156 7.513641357421875 7.3253469467163085938 6.1847834587097167969 6.3884263038635253906 5.1967406272888183594 5.55794525146484375 4.5672369003295898438 5.14383697509765625 5.5977339744567871094 7.3986482620239257812 7.5798144340515136719 6.9067411422729492188 6.8154950141906738281 6.1311793327331542969 6.6424036026000976562 8.7282619476318359375 4.2056188583374023438 2.2255530357360839844 3.0998752117156982422 4.7453150749206542969 6.7321906089782714844 8.8120059967041015625 9.5152235031127929688 10.907978057861328125 10.465421676635742188 8.2429351806640625 7.0746045112609863281 7.7321610450744628906 7.9185290336608886719 8.39414215087890625 8.3222169876098632812 6.9299669265747070312 6.8224949836730957031 7.3095574378967285156 5.6854028701782226562 -9999 -9999 -9999 -9999 2.4414737224578857422 6.3545823097229003906 7.2826824188232421875 7.3710956573486328125 7.7347302436828613281 8.2844800949096679688 7.8485503196716308594 8.0546970367431640625 12.560821533203125 12.908044815063476562 6.7415370941162109375 2.7663354873657226562 1.8917366266250610352 -9999 -9999 -9999 -9999 -9999 -9999 -9999 -9999 -9999 -9999 -9999 -9999 -9999 -9999 -9999 -9999 -9999 -9999 -9999 -9999 -9999 -9999 -9999 -9999 -9999 -9999 -9999 -9999 -9999 -9999 -9999 -9999 
-9999 -9999 -9999 1.5139750242233276367 -9999 -9999 -9999 1.7441971302032470703 2.4872345924377441406 2.0134279727935791016 1.1090257167816162109 3.9283783435821533203 2.7574791908264160156 3.6879162788391113281 3.0034613609313964844 1.8599370718002319336 1.9512614011764526367 2.0867171287536621094 2.4108598232269287109 2.1751689910888671875 -9999 2.9462485313415527344 2.988124847412109375 3.2813875675201416016 2.5319337844848632812 1.9957627058029174805 4.7638697624206542969 9.3511171340942382812 9.309452056884765625 5.7571692466735839844 5.1769170761108398438 5.8904461860656738281 6.8573513031005859375 8.8767862319946289062 7.9451165199279785156 8.4184284210205078125 9.0865488052368164062 7.1106767654418945312 7.6650981903076171875 6.7200908660888671875 6.4934182167053222656 7.0420393943786621094 6.8816151618957519531 6.5662064552307128906 7.0474772453308105469 8.3489208221435546875 6.134967803955078125 6.1318039894104003906 5.0317492485046386719 5.1876096725463867188 5.3332090377807617188 4.4768519401550292969 6.1197504997253417969 6.5227031707763671875 6.8575725555419921875 6.5134410858154296875 7.6518874168395996094 9.18625640869140625 11.039113998413085938 12.517790794372558594 6.8911662101745605469 5.3803181648254394531 6.6275639533996582031 8.2892427444458007812 8.1300401687622070312 8.3797140121459960938 10.305502891540527344 8.7597494125366210938 7.1864428520202636719 5.8565287590026855469 7.5719451904296875 8.155834197998046875 8.1816616058349609375 8.4096860885620117188 6.960796356201171875 7.2574095726013183594 7.6891331672668457031 4.9350237846374511719 -9999 -9999 -9999 -9999 2.6947972774505615234 5.1346521377563476562 5.1279554367065429688 7.1153440475463867188 7.8296294212341308594 8.4653148651123046875 6.6129469871520996094 8.7822246551513671875 11.71715545654296875 10.817617416381835938 7.8159441947937011719 6.2288565635681152344 3.2516121864318847656 -9999 -9999 -9999 -9999 -9999 1.5453085899353027344 -9999 -9999 -9999 -9999 -9999 -9999 -9999 -9999 -9999 -9999 -9999 -9999 -9999 -9999 -9999 -9999 -9999 -9999 -9999 -9999 -9999 -9999 -9999 -9999 -9999 -9999 
-9999 -9999 -9999 -9999 -9999 1.5859152078628540039 2.2438955307006835938 2.7889101505279541016 2.2856819629669189453 -9999 -9999 3.7430365085601806641 2.2035784721374511719 2.6228964328765869141 2.4736986160278320312 2.5445697307586669922 2.1675930023193359375 2.5160841941833496094 2.0955576896667480469 1.6942381858825683594 1.8850930929183959961 2.4716601371765136719 2.5329682826995849609 2.3735187053680419922 2.0892858505249023438 2.6766157150268554688 9.0082578659057617188 9.7217588424682617188 5.7270646095275878906 3.6849265098571777344 7.0541234016418457031 7.4491834640502929688 7.6070547103881835938 7.9346671104431152344 7.1170263290405273438 5.5562343597412109375 13.127585411071777344 9.4355669021606445312 6.1028919219970703125 4.0310344696044921875 4.8942012786865234375 6.8521113395690917969 7.3358716964721679688 6.7166419029235839844 7.1919384002685546875 7.0279879570007324219 5.2255702018737792969 5.3132953643798828125 5.3162317276000976562 5.02710723876953125 5.5028066635131835938 6.6969308853149414062 4.0596547126770019531 5.62381744384765625 6.7071743011474609375 5.772411346435546875 6.253742218017578125 8.0032606124877929688 9.3516445159912109375 10.248023033142089844 9.0390634536743164062 7.5577859878540039062 8.4367742538452148438 8.296031951904296875 8.153469085693359375 9.35428619384765625 8.4830379486083984375 7.02806854248046875 6.405315399169921875 6.8065237998962402344 7.8883142471313476562 7.817668914794921875 7.4555258750915527344 7.7409987449645996094 7.0778341293334960938 7.5125532150268554688 7.35594940185546875 -9999 2.0969414710998535156 1.6992663145065307617 1.3727033138275146484 1.6414122581481933594 3.6244473457336425781 3.7018041610717773438 3.9617848396301269531 7.1785912513732910156 7.4792370796203613281 8.1391344070434570312 8.826602935791015625 11.666935920715332031 12.033452987670898438 10.298607826232910156 13.035474777221679688 7.2776961326599121094 4.652881622314453125 2.4397671222686767578 -9999 -9999 -9999 -9999 -9999 -9999 -9999 -9999 -9999 -9999 -9999 -9999 -9999 -9999 -9999 -9999 -9999 -9999 -9999 -9999 -9999 -9999 -9999 -9999 -9999 -9999 -9999 -9999 -9999 -9999 -9999 
-9999 -9999 -9999 -9999 -9999 1.8873591423034667969 3.20310211181640625 3.0407178401947021484 2.3036272525787353516 -9999 -9999 1.5694353580474853516 1.9200966358184814453 2.0234835147857666016 1.8546479940414428711 2.4399080276489257812 2.2700717449188232422 2.2218897342681884766 2.0967586040496826172 3.5094146728515625 1.8141336441040039062 2.5643415451049804688 2.2991852760314941406 2.803302764892578125 2.0051736831665039062 -9999 5.7994260787963867188 8.0827913284301757812 3.4930181503295898438 6.7010259628295898438 7.775127410888671875 10.783003807067871094 9.9928083419799804688 7.6839456558227539062 6.4469919204711914062 6.9566035270690917969 9.0283555984497070312 12.467679977416992188 5.6636228561401367188 5.8089723587036132812 4.3384857177734375 4.497531890869140625 7.5495710372924804688 8.3666906356811523438 7.2375073432922363281 6.3510575294494628906 4.7553339004516601562 4.9958200454711914062 5.8057966232299804688 4.2894678115844726562 4.6860446929931640625 -9999 -9999 3.1667840480804443359 5.9553208351135253906 6.3293628692626953125 5.2700128555297851562 5.4470281600952148438 6.3773660659790039062 7.5699715614318847656 6.9766836166381835938 6.7322435379028320312 7.866870880126953125 8.595428466796875 8.5331878662109375 8.30902862548828125 9.4018964767456054688 8.1356306076049804688 7.3507838249206542969 7.0890412330627441406 7.5521998405456542969 7.2581343650817871094 6.344455718994140625 7.2520661354064941406 7.1790022850036621094 7.9465661048889160156 7.5848035812377929688 -9999 -9999 -9999 -9999 -9999 6.0135402679443359375 8.1652441024780273438 3.3586606979370117188 5.5458116531372070312 6.8134918212890625 8.098545074462890625 7.8837075233459472656 7.62491607666015625 3.0627741813659667969 5.2455167770385742188 8.2791090011596679688 6.5381293296813964844 4.9775757789611816406 2.1001172065734863281 -9999 -9999 -9999 -9999 -9999 -9999 -9999 -9999 -9999 -9999 -9999 -9999 -9999 -9999 -9999 1.9381780624389648438 1.8999084234237670898 -9999 -9999 -9999 -9999 -9999 -9999 -9999 -9999 -9999 -9999 -9999 -9999 -9999 -9999 
-9999 -9999 -9999 -9999 -9999 2.1554472446441650391 3.0526165962219238281 3.0378220081329345703 1.874711155891418457 -9999 1.4534798860549926758 2.0729584693908691406 1.9583480358123779297 1.4507315158843994141 -9999 1.559420466423034668 1.7760975360870361328 2.0971205234527587891 1.635625004768371582 1.7620400190353393555 2.3791806697845458984 3.7625877857208251953 4.0102987289428710938 3.4357111454010009766 1.6573991775512695312 2.8227353096008300781 5.4750928878784179688 17.992540359497070312 7.8293681144714355469 8.1064167022705078125 9.8002634048461914062 10.482293128967285156 13.779443740844726562 8.2690877914428710938 13.253742218017578125 14.362369537353515625 16.881189346313476562 12.906868934631347656 10.684185028076171875 12.173651695251464844 3.3135592937469482422 3.6136295795440673828 4.6378293037414550781 8.4582233428955078125 7.7441630363464355469 6.0004010200500488281 6.0299406051635742188 6.7120013236999511719 7.4634537696838378906 6.5764422416687011719 2.4574310779571533203 1.8942159414291381836 -9999 2.7952837944030761719 4.552021026611328125 4.7612357139587402344 3.8920464515686035156 4.2287511825561523438 4.1448583602905273438 3.5449004173278808594 5.1476612091064453125 6.8724908828735351562 6.2279238700866699219 7.0428814888000488281 6.6876225471496582031 6.890560150146484375 7.7091426849365234375 7.8705258369445800781 5.6034955978393554688 5.9732151031494140625 7.9099926948547363281 7.4120073318481445312 10.514313697814941406 7.8875679969787597656 7.2082881927490234375 7.7174921035766601562 7.3117470741271972656 -9999 2.0410456657409667969 2.1819312572479248047 -9999 3.7486846446990966797 8.1205377578735351562 6.1641492843627929688 5.4629597663879394531 7.0617532730102539062 6.7084975242614746094 6.5856814384460449219 6.9988942146301269531 5.8919382095336914062 6.5799055099487304688 7.1345624923706054688 8.2631511688232421875 8.450443267822265625 1.7596591711044311523 1.551232457160949707 1.7408939599990844727 2.3140151500701904297 -9999 -9999 -9999 -9999 -9999 -9999 -9999 -9999 -9999 -9999 -9999 -9999 -9999 -9999 -9999 -9999 -9999 -9999 -9999 -9999 -9999 -9999 -9999 -9999 -9999 -9999 -9999 -9999 -9999 
-9999 -9999 -9999 -9999 1.4421200752258300781 1.9860765933990478516 1.6735235452651977539 2.0646879673004150391 1.9480426311492919922 1.9819136857986450195 1.8234455585479736328 2.0046191215515136719 1.6320279836654663086 1.5604066848754882812 1.8221602439880371094 2.2084815502166748047 2.6040339469909667969 2.6214222908020019531 2.1797053813934326172 1.8910024166107177734 4.4231853485107421875 4.1998615264892578125 5.6276049613952636719 4.28575897216796875 2.1131777763366699219 9.6637554168701171875 14.332209587097167969 8.96327972412109375 12.977293968200683594 9.1840152740478515625 21.891450881958007812 10.603520393371582031 8.611446380615234375 10.624211311340332031 9.07041168212890625 12.675913810729980469 14.049132347106933594 9.0634775161743164062 3.9692676067352294922 3.3986456394195556641 2.1476356983184814453 1.9103025197982788086 2.8230512142181396484 5.5898404121398925781 8.0968961715698242188 9.4405221939086914062 9.5581340789794921875 8.8395366668701171875 3.251117706298828125 2.4899449348449707031 2.2639553546905517578 2.4234142303466796875 2.9608256816864013672 4.0260329246520996094 4.451091766357421875 4.8305234909057617188 3.2735898494720458984 2.0585930347442626953 2.5218360424041748047 3.6170797348022460938 2.7907660007476806641 5.8475332260131835938 6.2323021888732910156 5.3917641639709472656 3.8313329219818115234 3.5764882564544677734 -9999 2.0872156620025634766 2.7527794837951660156 6.0844864845275878906 6.7887988090515136719 5.6742415428161621094 7.7294826507568359375 7.7718796730041503906 7.2205967903137207031 7.8347024917602539062 8.1597614288330078125 -9999 1.6531047821044921875 2.9288990497589111328 -9999 2.6357684135437011719 7.7784719467163085938 6.4431815147399902344 7.30269622802734375 7.0060272216796875 5.2637476921081542969 7.6478786468505859375 8.5594701766967773438 7.1640372276306152344 8.4317483901977539062 7.4049601554870605469 -9999 5.0454549789428710938 5.5042672157287597656 5.6184864044189453125 6.7554249763488769531 2.3779337406158447266 3.5363130569458007812 2.4666707515716552734 -9999 1.2878546714782714844 -9999 -9999 -9999 -9999 -9999 -9999 -9999 2.3349657058715820312 -9999 -9999 -9999 -9999 -9999 -9999 -9999 -9999 -9999 -9999 -9999 -9999 -9999 -9999 -9999 -9999 -9999 
-9999 -9999 -9999 -9999 1.607670903205871582 2.3180711269378662109 1.7896616458892822266 2.3798248767852783203 2.0687608718872070312 1.9710133075714111328 1.6648528575897216797 1.3511893749237060547 1.7138823270797729492 1.7938355207443237305 -9999 -9999 2.3257644176483154297 2.5988457202911376953 2.2729027271270751953 2.1179406642913818359 4.9407968521118164062 4.162975311279296875 7.3895292282104492188 3.828998565673828125 3.2422671318054199219 23.634662628173828125 21.940896987915039062 18.87572479248046875 18.302087783813476562 18.1604156494140625 40.4314727783203125 25.036678314208984375 13.368599891662597656 11.377887725830078125 13.011637687683105469 21.634431838989257812 23.7243194580078125 1.2776331901550292969 1.6675343513488769531 2.0284388065338134766 1.6349146366119384766 1.6650509834289550781 4.7892389297485351562 7.5820646286010742188 8.418025970458984375 8.2686433792114257812 6.1775798797607421875 3.218585968017578125 2.3440473079681396484 2.1619331836700439453 -9999 -9999 1.9364044666290283203 3.7008385658264160156 4.3545446395874023438 3.7588586807250976562 2.9747278690338134766 2.7823872566223144531 3.7038948535919189453 5.2243504524230957031 2.4145019054412841797 4.0843272209167480469 5.2535719871520996094 5.9885268211364746094 5.68567657470703125 5.3330559730529785156 4.7616620063781738281 3.1508183479309082031 2.7868554592132568359 4.3122439384460449219 4.0571780204772949219 5.1943120956420898438 8.8616209030151367188 8.063129425048828125 7.7352681159973144531 8.4870500564575195312 7.8954129219055175781 1.0333231687545776367 1.0078232288360595703 -9999 -9999 2.7457537651062011719 4.7942233085632324219 5.9582700729370117188 7.3425645828247070312 6.7116727828979492188 5.5986118316650390625 11.175440788269042969 8.196483612060546875 5.6785302162170410156 6.3116998672485351562 6.4093837738037109375 8.0458650588989257812 7.8171296119689941406 8.1670684814453125 9.3192758560180664062 10.79427337646484375 4.0990362167358398438 5.6792430877685546875 1.9019093513488769531 2.5253036022186279297 1.8751283884048461914 -9999 -9999 -9999 -9999 -9999 -9999 -9999 -9999 -9999 -9999 -9999 -9999 -9999 -9999 -9999 -9999 -9999 -9999 -9999 -9999 -9999 -9999 -9999 -9999 -9999 
-9999 -9999 -9999 1.4772323369979858398 -9999 -9999 2.0610482692718505859 1.9317072629928588867 1.6048082113265991211 1.6281594038009643555 1.4542667865753173828 1.9488816261291503906 1.8156123161315917969 1.7329999208450317383 1.653439640998840332 1.8515024185180664062 2.3399944305419921875 1.9887702465057373047 2.0793941020965576172 3.794078826904296875 3.2557892799377441406 3.3786571025848388672 5.8310871124267578125 3.0589723587036132812 14.282837867736816406 28.312408447265625 15.241510391235351562 23.266073226928710938 20.0745391845703125 16.37665557861328125 21.013156890869140625 18.546016693115234375 20.206676483154296875 10.987696647644042969 11.021245002746582031 17.45800018310546875 23.571346282958984375 1.8845137357711791992 2.2553255558013916016 2.0953071117401123047 -9999 2.49407196044921875 8.2285394668579101562 9.2008266448974609375 10.911793708801269531 6.45488739013671875 -9999 1.5326495170593261719 -9999 3.2228233814239501953 2.7737345695495605469 1.6220502853393554688 1.6910932064056396484 2.9098942279815673828 1.187485814094543457 1.6163474321365356445 4.0136899948120117188 2.6383688449859619141 4.2254710197448730469 3.7879455089569091797 3.4367327690124511719 3.3163232803344726562 4.2351064682006835938 5.5772428512573242188 6.9869899749755859375 7.3014807701110839844 5.2834291458129882812 3.0414321422576904297 2.1930367946624755859 2.955783843994140625 2.8261742591857910156 4.1947622299194335938 7.4653110504150390625 7.7466797828674316406 7.3584880828857421875 8.5299291610717773438 8.7316884994506835938 1.3532898426055908203 -9999 1.6517127752304077148 1.384105682373046875 2.2427270412445068359 3.0741002559661865234 6.6237921714782714844 6.8408589363098144531 7.6698508262634277344 6.605037689208984375 8.7063808441162109375 7.8295283317565917969 6.7072920799255371094 7.442203521728515625 7.9254689216613769531 7.7298598289489746094 6.8187704086303710938 8.308872222900390625 9.9055385589599609375 10.952867507934570312 13.704526901245117188 5.957088470458984375 4.3326921463012695312 3.8247787952423095703 2.3205230236053466797 -9999 1.2372050285339355469 -9999 -9999 -9999 -9999 -9999 -9999 -9999 -9999 -9999 -9999 -9999 -9999 -9999 -9999 -9999 -9999 -9999 -9999 -9999 -9999 -9999 -9999 -9999 
-9999 -9999 -9999 -9999 -9999 -9999 2.4683613777160644531 -9999 1.7272866964340209961 1.7076858282089233398 1.988665461540222168 3.0577924251556396484 1.8249880075454711914 1.5171495676040649414 2.4666857719421386719 2.4698343276977539062 1.4884052276611328125 1.8896632194519042969 2.7029535770416259766 3.7768688201904296875 4.8144741058349609375 4.5251226425170898438 4.9775867462158203125 3.0438771247863769531 32.4500885009765625 15.548397064208984375 12.780826568603515625 8.665340423583984375 9.4612026214599609375 7.4546175003051757812 6.3420705795288085938 -9999 6.7327475547790527344 8.9057750701904296875 8.9363813400268554688 11.611898422241210938 6.3313899040222167969 2.4292783737182617188 2.3084659576416015625 -9999 1.5143833160400390625 1.8132320642471313477 8.6684589385986328125 13.455718040466308594 7.9406313896179199219 -9999 -9999 -9999 2.9485862255096435547 3.6025321483612060547 2.0381956100463867188 2.9292755126953125 2.8840107917785644531 3.8161556720733642578 1.700420379638671875 2.9344339370727539062 4.5574316978454589844 3.4096100330352783203 2.7016663551330566406 2.4961638450622558594 3.0424487590789794922 3.2181601524353027344 5.1345353126525878906 4.4783649444580078125 5.6778092384338378906 8.378887176513671875 9.050815582275390625 3.1059632301330566406 3.2173318862915039062 3.0884175300598144531 3.2461457252502441406 4.3473901748657226562 5.9954686164855957031 7.2889637947082519531 6.6744952201843261719 8.7025089263916015625 9.3577089309692382812 6.4449634552001953125 -9999 2.0465247631072998047 1.6063851118087768555 4.1900200843811035156 4.8296837806701660156 6.4919085502624511719 5.8364815711975097656 5.8004884719848632812 5.4921240806579589844 7.7411923408508300781 8.0174541473388671875 7.50759124755859375 7.1822500228881835938 6.8083972930908203125 8.7893190383911132812 5.9552316665649414062 6.011524200439453125 7.0205235481262207031 7.6363468170166015625 11.84148406982421875 4.4460878372192382812 4.9081835746765136719 4.1842360496520996094 1.4327929019927978516 1.7574293613433837891 2.2651793956756591797 -9999 -9999 -9999 -9999 -9999 -9999 -9999 -9999 -9999 -9999 -9999 -9999 -9999 -9999 -9999 -9999 -9999 -9999 -9999 -9999 -9999 -9999 -9999 
-9999 1.2551199197769165039 -9999 -9999 -9999 1.989959716796875 -9999 -9999 -9999 -9999 1.644320368766784668 1.8466507196426391602 1.6881183385848999023 1.6811314821243286133 2.2473013401031494141 2.0385541915893554688 1.8726600408554077148 4.080310821533203125 5.1191005706787109375 4.9901289939880371094 12.227827072143554688 5.1211953163146972656 5.3116483688354492188 3.8638508319854736328 12.971894264221191406 4.7360172271728515625 6.3055968284606933594 3.9639561176300048828 4.2583565711975097656 4.0865688323974609375 3.4642741680145263672 -9999 5.6107053756713867188 8.2701282501220703125 9.2471609115600585938 8.8144140243530273438 5.7070188522338867188 2.7615106105804443359 1.7902368307113647461 1.4261606931686401367 1.4997578859329223633 2.9658551216125488281 4.2427730560302734375 7.5580363273620605469 4.1131601333618164062 2.3245768547058105469 -9999 -9999 2.7460880279541015625 2.2396111488342285156 1.6854099035263061523 1.7393336296081542969 1.8781372308731079102 2.1370985507965087891 2.4959893226623535156 3.5348105430603027344 2.8872764110565185547 3.1254131793975830078 2.8385443687438964844 -9999 -9999 3.0891594886779785156 4.056819915771484375 6.8527636528015136719 7.0009703636169433594 7.3879022598266601562 9.3410968780517578125 4.1374826431274414062 4.814472198486328125 4.076747894287109375 2.2813422679901123047 3.8113682270050048828 7.4909205436706542969 7.9333848953247070312 7.3941397666931152344 8.3039236068725585938 8.9443073272705078125 7.6600971221923828125 3.9085805416107177734 4.5395259857177734375 3.3321728706359863281 7.2414679527282714844 7.5383629798889160156 7.0582399368286132812 7.5975966453552246094 7.1725454330444335938 7.1295094490051269531 6.1664071083068847656 7.2595191001892089844 8.3432159423828125 8.3195095062255859375 7.3943428993225097656 10.245008468627929688 6.7943940162658691406 4.6322588920593261719 6.1410603523254394531 6.1088714599609375 4.7632117271423339844 6.7632756233215332031 9.520763397216796875 6.489063262939453125 3.2646801471710205078 3.4625339508056640625 2.1605527400970458984 -9999 -9999 -9999 -9999 -9999 -9999 -9999 1.7178009748458862305 -9999 -9999 -9999 -9999 -9999 -9999 -9999 -9999 -9999 -9999 -9999 -9999 -9999 -9999 -9999 
1.3372209072113037109 -9999 -9999 -9999 -9999 -9999 -9999 -9999 -9999 -9999 -9999 1.4765934944152832031 1.7427731752395629883 1.8810313940048217773 1.7282166481018066406 1.8921434879302978516 2.2158267498016357422 6.0426545143127441406 6.5748486518859863281 5.9889230728149414062 5.8988504409790039062 4.0029864311218261719 4.9946908950805664062 4.9059696197509765625 5.3645081520080566406 3.3418905735015869141 3.7490849494934082031 4.4763154983520507812 4.0092725753784179688 2.8955419063568115234 -9999 -9999 3.9615330696105957031 9.584514617919921875 6.4211072921752929688 8.8092975616455078125 6.4187498092651367188 4.43688201904296875 2.624958038330078125 2.4738557338714599609 2.93807220458984375 4.0673022270202636719 3.8996713161468505859 3.5815038681030273438 3.6922967433929443359 2.0362629890441894531 -9999 1.9148412942886352539 1.9818329811096191406 2.0758254528045654297 2.0325517654418945312 1.7396715879440307617 1.5357276201248168945 1.6875233650207519531 1.9834029674530029297 2.9896717071533203125 6.6879096031188964844 6.1296429634094238281 -9999 -9999 1.0063014030456542969 1.7545692920684814453 5.4596228599548339844 8.7697687149047851562 8.1088705062866210938 6.2591962814331054688 8.1627531051635742188 6.6511988639831542969 6.0350575447082519531 3.6117429733276367188 3.1781783103942871094 3.9866726398468017578 6.0449953079223632812 7.1053371429443359375 7.5057702064514160156 6.5574707984924316406 6.0337328910827636719 7.3111615180969238281 5.605327606201171875 4.9369258880615234375 3.7371828556060791016 6.7720823287963867188 7.2017393112182617188 6.5424504280090332031 7.5622181892395019531 6.8418993949890136719 6.4779019355773925781 7.152996063232421875 7.7465138435363769531 8.118213653564453125 7.5684661865234375 5.7558946609497070312 5.8854041099548339844 4.9697370529174804688 7.9684085845947265625 6.2398700714111328125 6.1380934715270996094 6.1057229042053222656 9.1339111328125 8.0429830551147460938 6.4007635116577148438 5.6107726097106933594 4.3760690689086914062 3.0072515010833740234 4.3570055961608886719 1.9228205680847167969 -9999 -9999 -9999 -9999 -9999 -9999 -9999 -9999 -9999 -9999 -9999 -9999 -9999 -9999 -9999 -9999 -9999 -9999 -9999 -9999 -9999 
1.3432396650314331055 -9999 -9999 -9999 -9999 -9999 -9999 -9999 -9999 -9999 -9999 2.1262469291687011719 2.2637867927551269531 3.0467014312744140625 2.0438237190246582031 1.9122389554977416992 2.0905041694641113281 3.9040255546569824219 3.6232571601867675781 2.7246255874633789062 2.6921663284301757812 3.0252611637115478516 4.8558750152587890625 4.7539629936218261719 3.3677804470062255859 3.5556454658508300781 3.4177739620208740234 3.3382561206817626953 4.3641519546508789062 2.8036181926727294922 -9999 3.0644042491912841797 8.4495725631713867188 8.3844127655029296875 5.1561398506164550781 6.1300501823425292969 4.3814649581909179688 3.7307307720184326172 3.6938843727111816406 3.7243709564208984375 2.8297719955444335938 3.8457016944885253906 5.0644865036010742188 2.7751841545104980469 2.0712609291076660156 2.2968332767486572266 3.3510999679565429688 2.4284803867340087891 1.6328688859939575195 1.8269734382629394531 1.9764170646667480469 1.8937604427337646484 1.4733970165252685547 -9999 1.6453561782836914062 4.0544409751892089844 8.5285930633544921875 7.7650809288024902344 3.0496726036071777344 2.8988924026489257812 -9999 3.1277937889099121094 5.8314280509948730469 7.6934237480163574219 6.3897805213928222656 5.8895158767700195312 6.8571786880493164062 8.8179922103881835938 6.4075694084167480469 4.7060742378234863281 4.38967132568359375 5.15520477294921875 4.9771718978881835938 5.6981334686279296875 6.0420475006103515625 4.8226428031921386719 3.7402596473693847656 7.0464801788330078125 5.4852900505065917969 3.0285251140594482422 2.8368294239044189453 6.6015763282775878906 6.1158094406127929688 6.3781566619873046875 7.5803160667419433594 7.1165056228637695312 7.2860608100891113281 7.9556422233581542969 7.8131933212280273438 6.9079561233520507812 6.9227571487426757812 7.4401760101318359375 6.5015416145324707031 6.9919652938842773438 7.4767613410949707031 6.8340625762939453125 6.5078611373901367188 5.5247483253479003906 5.8429579734802246094 7.0945124626159667969 4.6145763397216796875 3.9786946773529052734 4.7660298347473144531 8.241222381591796875 8.247802734375 1.4473685026168823242 -9999 -9999 -9999 -9999 1.3928284645080566406 -9999 -9999 -9999 -9999 -9999 -9999 -9999 -9999 -9999 -9999 -9999 -9999 -9999 -9999 -9999 -9999 
-9999 -9999 -9999 -9999 -9999 -9999 -9999 -9999 -9999 1.3644556999206542969 -9999 3.1103186607360839844 1.8649680614471435547 2.3361477851867675781 2.157806396484375 2.1319544315338134766 2.1423118114471435547 2.3348531723022460938 3.3249478340148925781 5.62537384033203125 4.5411257743835449219 3.7621738910675048828 3.5778646469116210938 2.9447507858276367188 3.4224925041198730469 2.7633492946624755859 2.1641361713409423828 2.1147398948669433594 3.0356686115264892578 1.6386219263076782227 1.3082451820373535156 2.1451654434204101562 6.3391094207763671875 13.074756622314453125 9.608364105224609375 5.3439812660217285156 4.5421385765075683594 3.0036590099334716797 2.6503481864929199219 2.0421810150146484375 2.0327060222625732422 2.4446127414703369141 2.3000833988189697266 -9999 -9999 4.0076208114624023438 3.1119241714477539062 1.7649503946304321289 1.9875837564468383789 1.6188530921936035156 2.6172740459442138672 2.250255584716796875 1.5616142749786376953 1.8519175052642822266 2.1436367034912109375 -9999 5.2087721824645996094 6.4960751533508300781 4.1080679893493652344 3.6396155357360839844 4.9275774955749511719 9.5378093719482421875 7.9715337753295898438 5.869945526123046875 5.8727827072143554688 7.3490386009216308594 6.2379245758056640625 5.6226115226745605469 6.8614788055419921875 8.215709686279296875 6.1806659698486328125 4.4232234954833984375 4.8214802742004394531 5.7378559112548828125 7.2433857917785644531 6.4487390518188476562 3.2915589809417724609 4.5823121070861816406 5.9907131195068359375 4.4366259574890136719 3.6481535434722900391 6.0548949241638183594 6.9552364349365234375 6.9326081275939941406 8.0416202545166015625 7.4967336654663085938 6.7794508934020996094 7.3088693618774414062 6.7343840599060058594 6.3535084724426269531 6.1738748550415039062 7.5411128997802734375 7.727718353271484375 7.5571947097778320312 7.8473386764526367188 7.5647816658020019531 7.3749356269836425781 6.3002247810363769531 7.9224042892456054688 6.6192088127136230469 5.1096067428588867188 6.8038859367370605469 10.000963211059570312 8.900615692138671875 3.6640536785125732422 2.1087694168090820312 1.7195314168930053711 1.4965398311614990234 -9999 1.5907808542251586914 1.819311976432800293 -9999 -9999 -9999 -9999 -9999 -9999 -9999 -9999 -9999 -9999 -9999 -9999 -9999 -9999 -9999 -9999 
-9999 -9999 1.5655443668365478516 -9999 -9999 -9999 -9999 -9999 -9999 -9999 2.9981544017791748047 3.1633920669555664062 2.0012698173522949219 2.5023980140686035156 2.2631869316101074219 2.2663221359252929688 3.0412316322326660156 5.1084442138671875 8.1574831008911132812 7.9266576766967773438 3.0153360366821289062 2.0507731437683105469 2.7371671199798583984 2.9925920963287353516 2.9365770816802978516 2.5740413665771484375 3.0879557132720947266 2.9327509403228759766 2.5505826473236083984 2.1196508407592773438 1.6847634315490722656 3.2752187252044677734 4.1840505599975585938 5.8407111167907714844 4.7759470939636230469 2.2680401802062988281 2.1837732791900634766 1.9523071050643920898 3.4223079681396484375 -9999 2.3491168022155761719 2.4099271297454833984 1.7707589864730834961 -9999 -9999 3.1274101734161376953 2.4339847564697265625 2.2702538967132568359 2.2397685050964355469 -9999 4.9177737236022949219 4.5340337753295898438 1.707551121711730957 2.0530261993408203125 2.6509997844696044922 5.1490492820739746094 4.6544928550720214844 5.8635416030883789062 6.9886631965637207031 -9999 1.5456411838531494141 9.01319122314453125 8.2064256668090820312 5.8286581039428710938 7.2902078628540039062 7.7882485389709472656 6.8763728141784667969 7.1516933441162109375 8.133144378662109375 12.91156768798828125 8.146800994873046875 6.7436208724975585938 6.6536574363708496094 6.3870043754577636719 6.7728590965270996094 5.953327178955078125 2.8106279373168945312 8.5652818679809570312 13.837975502014160156 6.1940927505493164062 4.0670418739318847656 5.7065548896789550781 6.3129987716674804688 7.5773005485534667969 7.2397122383117675781 6.7164793014526367188 7.0189304351806640625 7.8862128257751464844 6.4065113067626953125 7.1186742782592773438 6.2206172943115234375 7.2532277107238769531 8.0520753860473632812 8.2162256240844726562 8.32623291015625 7.3255600929260253906 7.292285919189453125 7.3512854576110839844 7.2070398330688476562 6.6841626167297363281 7.0233082771301269531 9.3615808486938476562 7.8780117034912109375 4.8438863754272460938 3.2349958419799804688 3.5432567596435546875 2.1166145801544189453 -9999 -9999 -9999 2.8109633922576904297 2.7079117298126220703 -9999 -9999 -9999 -9999 -9999 -9999 -9999 1.5798768997192382812 2.3942427635192871094 -9999 -9999 -9999 -9999 -9999 -9999 
-9999 -9999 -9999 -9999 -9999 -9999 -9999 -9999 -9999 -9999 2.8495290279388427734 2.3190855979919433594 1.942828059196472168 2.4495496749877929688 2.1142482757568359375 2.5619649887084960938 7.91286468505859375 9.8083200454711914062 8.7364177703857421875 7.0819611549377441406 2.7929160594940185547 1.6230074167251586914 2.54032135009765625 3.00077056884765625 3.2604806423187255859 2.9556539058685302734 2.7382035255432128906 3.1922059059143066406 4.0732393264770507812 2.4345250129699707031 2.2532398700714111328 3.1638796329498291016 2.7188465595245361328 2.2966985702514648438 1.9683623313903808594 3.6581020355224609375 2.7695567607879638672 2.684078216552734375 -9999 -9999 -9999 1.7161262035369873047 1.236994624137878418 -9999 1.3799293041229248047 2.4170205593109130859 -9999 -9999 -9999 -9999 -9999 2.14279937744140625 1.6434599161148071289 1.5943847894668579102 -9999 5.2469024658203125 4.6809859275817871094 7.9658908843994140625 1.2928198575973510742 -9999 1.6749215126037597656 11.2623291015625 9.3426485061645507812 7.2079634666442871094 8.602245330810546875 8.5658054351806640625 7.6182208061218261719 7.2793779373168945312 6.7477869987487792969 8.4602060317993164062 7.79998779296875 5.6368865966796875 5.586956024169921875 6.6835422515869140625 6.5697474479675292969 4.7048053741455078125 3.8951268196105957031 13.344973564147949219 20.968448638916015625 15.436240196228027344 3.3647210597991943359 5.5577683448791503906 5.9190721511840820312 6.7149748802185058594 6.8331193923950195312 7.7213344573974609375 8.1427145004272460938 8.42691802978515625 8.3407745361328125 8.2531061172485351562 7.8083148002624511719 7.6983475685119628906 8.29027557373046875 8.0594882965087890625 7.1489505767822265625 6.9744400978088378906 7.7889008522033691406 7.4408059120178222656 7.0572080612182617188 6.6334013938903808594 7.3512468338012695312 10.037411689758300781 8.0901947021484375 1.858504176139831543 3.43239593505859375 3.2400617599487304688 -9999 4.2843141555786132812 -9999 -9999 2.1342713832855224609 2.5779993534088134766 -9999 -9999 -9999 2.4959969520568847656 -9999 -9999 1.3083301782608032227 -9999 2.1692407131195068359 -9999 -9999 -9999 -9999 -9999 -9999 
-9999 -9999 -9999 -9999 -9999 -9999 -9999 -9999 2.4844667911529541016 2.5099349021911621094 -9999 1.5920904874801635742 2.1690611839294433594 1.8808878660202026367 1.7495839595794677734 3.9275150299072265625 4.8691029548645019531 4.4151320457458496094 -9999 -9999 2.4032378196716308594 2.4665286540985107422 2.8178133964538574219 2.3291094303131103516 2.5226054191589355469 2.6375865936279296875 2.6065230369567871094 5.0070481300354003906 7.9439287185668945312 4.3301897048950195312 3.1852900981903076172 2.7968661785125732422 2.1581435203552246094 1.8229774236679077148 1.4831776618957519531 2.416778564453125 4.0176587104797363281 3.6324987411499023438 3.9530782699584960938 3.8847455978393554688 2.81829833984375 1.8191320896148681641 1.2034648656845092773 -9999 -9999 2.0451500415802001953 -9999 -9999 -9999 1.8640073537826538086 -9999 -9999 -9999 -9999 -9999 2.43549346923828125 4.2872939109802246094 8.77159881591796875 5.7628116607666015625 8.3773908615112304688 10.695949554443359375 9.7490940093994140625 7.9330320358276367188 6.3847842216491699219 8.2370195388793945312 8.57032012939453125 8.5004940032958984375 6.4515023231506347656 6.7146940231323242188 7.8042626380920410156 11.644629478454589844 14.079953193664550781 5.535610198974609375 6.2158956527709960938 6.3352808952331542969 4.8224434852600097656 3.1801447868347167969 3.9613585472106933594 12.812923431396484375 2.7077398300170898438 3.5208098888397216797 6.7322602272033691406 7.0312285423278808594 7.0544991493225097656 7.8164067268371582031 8.2117748260498046875 8.342464447021484375 8.8807315826416015625 8.7393665313720703125 8.1616163253784179688 8.1477975845336914062 7.9988088607788085938 7.3544402122497558594 6.9583134651184082031 7.1584811210632324219 7.6522583961486816406 6.7007398605346679688 6.6159501075744628906 6.3355708122253417969 6.1146016120910644531 5.7483949661254882812 8.0407886505126953125 5.3363962173461914062 3.4002237319946289062 6.8863024711608886719 1.3104462623596191406 1.0085405111312866211 3.8335733413696289062 -9999 2.2426853179931640625 2.9284417629241943359 2.4034802913665771484 4.2213149070739746094 -9999 1.7983227968215942383 -9999 -9999 -9999 -9999 2.4818198680877685547 2.4260947704315185547 -9999 -9999 -9999 -9999 -9999 -9999 
-9999 -9999 -9999 -9999 -9999 -9999 -9999 -9999 3.1774120330810546875 2.0476813316345214844 -9999 2.0177037715911865234 2.0722651481628417969 1.6365884542465209961 2.0408482551574707031 2.4600963592529296875 2.8457617759704589844 2.3736555576324462891 -9999 -9999 2.7733123302459716797 2.1172533035278320312 2.2417502403259277344 2.4139945507049560547 1.7941486835479736328 2.6264069080352783203 3.9981949329376220703 7.3723669052124023438 8.0755834579467773438 12.915715217590332031 8.8474740982055664062 4.2419209480285644531 2.2327554225921630859 2.0246226787567138672 2.3159341812133789062 3.6238167285919189453 4.7395443916320800781 3.8357479572296142578 4.7486348152160644531 3.0897424221038818359 1.9813178777694702148 -9999 -9999 -9999 -9999 1.7479631900787353516 -9999 -9999 2.0248072147369384766 1.4036866426467895508 -9999 -9999 -9999 -9999 4.8187341690063476562 4.0094594955444335938 3.4415338039398193359 4.6491999626159667969 7.6720409393310546875 9.10216522216796875 9.7120714187622070312 8.55731964111328125 5.2775769233703613281 5.4327707290649414062 7.651027679443359375 7.9295473098754882812 9.2164659500122070312 8.0576410293579101562 7.93796539306640625 7.3035941123962402344 7.8308162689208984375 11.176480293273925781 11.804863929748535156 8.1829357147216796875 5.8471803665161132812 3.9519512653350830078 2.4589269161224365234 3.935314178466796875 2.8167629241943359375 1.4656095504760742188 3.2283072471618652344 9.2605113983154296875 8.767208099365234375 7.809154510498046875 8.161602020263671875 8.5997858047485351562 8.8978137969970703125 8.8303194046020507812 8.194705963134765625 8.0394659042358398438 7.6345458030700683594 7.2087311744689941406 7.0574393272399902344 7.355926513671875 7.6608738899230957031 7.6416573524475097656 6.3289213180541992188 4.5264024734497070312 5.956958770751953125 5.7222619056701660156 6.2453989982604980469 9.621692657470703125 7.5310597419738769531 8.7713832855224609375 8.504665374755859375 2.5655579566955566406 1.6396523714065551758 1.6454782485961914062 -9999 2.3134944438934326172 2.4955761432647705078 2.2315766811370849609 3.7551922798156738281 -9999 -9999 -9999 -9999 -9999 -9999 -9999 -9999 -9999 -9999 -9999 -9999 -9999 -9999 
-9999 -9999 -9999 -9999 -9999 -9999 -9999 -9999 -9999 -9999 -9999 -9999 2.27754974365234375 2.3142263889312744141 -9999 -9999 -9999 -9999 -9999 5.1603484153747558594 4.2099738121032714844 1.6085656881332397461 -9999 3.9141187667846679688 2.067676544189453125 2.4343678951263427734 5.1369876861572265625 6.7276730537414550781 4.7462410926818847656 9.4494781494140625 9.9104127883911132812 10.217837333679199219 2.8156378269195556641 1.8223826885223388672 3.0346314907073974609 2.6486158370971679688 3.4775452613830566406 5.5199832916259765625 4.536041259765625 1.7501405477523803711 1.471812129020690918 -9999 -9999 -9999 -9999 -9999 -9999 -9999 -9999 -9999 1.5771049261093139648 1.4455977678298950195 2.0904078483581542969 -9999 -9999 5.0801196098327636719 4.4892611503601074219 4.8510718345642089844 8.2585134506225585938 8.67559814453125 8.5440473556518554688 7.5012044906616210938 5.8272662162780761719 6.0170993804931640625 7.7764096260070800781 7.9315319061279296875 8.0328779220581054688 8.0598840713500976562 8.5622873306274414062 8.0677165985107421875 7.4318585395812988281 8.6602678298950195312 7.0028882026672363281 7.5918774604797363281 7.5040717124938964844 5.7707190513610839844 4.45664215087890625 7.7078609466552734375 4.9685616493225097656 3.5082502365112304688 3.8293149471282958984 9.7177705764770507812 9.2781305313110351562 8.56417083740234375 9.1401014328002929688 8.658466339111328125 8.9614772796630859375 7.6644840240478515625 8.2522525787353515625 7.9250478744506835938 6.5528187751770019531 6.2512793540954589844 7.6147074699401855469 6.7599883079528808594 6.3371796607971191406 6.6252331733703613281 4.6818490028381347656 5.6509566307067871094 8.7779264450073242188 7.056285858154296875 6.6502170562744140625 10.925805091857910156 9.3936586380004882812 10.791399955749511719 11.948481559753417969 10.319986343383789062 3.2521157264709472656 1.4198027849197387695 1.3576358556747436523 -9999 1.7464095354080200195 1.5668692588806152344 -9999 -9999 -9999 -9999 -9999 -9999 2.7288200855255126953 3.4052503108978271484 3.3705976009368896484 -9999 -9999 -9999 -9999 -9999 -9999 
-9999 -9999 -9999 -9999 -9999 -9999 -9999 -9999 -9999 -9999 -9999 1.6858127117156982422 2.230560302734375 2.3558914661407470703 -9999 -9999 -9999 2.0211212635040283203 -9999 3.5991904735565185547 2.6940186023712158203 -9999 -9999 -9999 -9999 3.3965594768524169922 2.6506452560424804688 4.6250104904174804688 5.5132393836975097656 10.240168571472167969 12.451416969299316406 6.7983164787292480469 2.9871616363525390625 1.6850372552871704102 4.0020599365234375 3.7927124500274658203 12.777697563171386719 12.532252311706542969 5.4442858695983886719 2.5388736724853515625 2.0691246986389160156 -9999 -9999 -9999 1.6858767271041870117 -9999 -9999 -9999 1.6229423284530639648 2.4890584945678710938 2.6195349693298339844 1.8029143810272216797 2.8291232585906982422 1.7452384233474731445 -9999 4.348598480224609375 4.2540450096130371094 6.2793369293212890625 7.1777424812316894531 6.4730601310729980469 7.2923064231872558594 8.02677154541015625 7.2930936813354492188 6.0859169960021972656 7.6138944625854492188 7.2815299034118652344 7.366481781005859375 8.2006101608276367188 6.9031395912170410156 6.6934423446655273438 6.6385040283203125 6.7543416023254394531 7.3855404853820800781 7.6745500564575195312 7.2080869674682617188 6.2075877189636230469 6.6294407844543457031 5.6180615425109863281 5.2075715065002441406 4.7067403793334960938 5.1914539337158203125 8.1648426055908203125 7.877277374267578125 7.4981589317321777344 8.5858449935913085938 8.7619199752807617188 8.4424905776977539062 8.41396331787109375 8.4557523727416992188 7.9113245010375976562 7.2832860946655273438 7.4096269607543945312 8.480712890625 7.8185558319091796875 6.9457063674926757812 7.1553502082824707031 7.4920721054077148438 6.6218352317810058594 8.10303497314453125 5.5331029891967773438 4.8910107612609863281 6.8864727020263671875 5.3727254867553710938 7.6625394821166992188 10.919600486755371094 7.5278048515319824219 2.4640605449676513672 -9999 -9999 -9999 1.9780478477478027344 1.9645099639892578125 -9999 -9999 -9999 -9999 2.8515784740447998047 3.4552147388458251953 3.0641987323760986328 -9999 3.1723904609680175781 -9999 -9999 -9999 -9999 -9999 -9999 
-9999 -9999 -9999 -9999 -9999 -9999 -9999 -9999 1.5687069892883300781 -9999 -9999 -9999 2.0166418552398681641 1.7471616268157958984 -9999 2.4146072864532470703 -9999 -9999 -9999 -9999 -9999 -9999 -9999 1.7505143880844116211 2.0671303272247314453 2.6300935745239257812 2.3643314838409423828 2.6651563644409179688 6.8355083465576171875 16.87640380859375 13.293419837951660156 5.5565199851989746094 3.6000123023986816406 6.5482058525085449219 8.0829839706420898438 9.7065219879150390625 6.0591807365417480469 6.2922091484069824219 2.7203917503356933594 2.4501354694366455078 3.3288180828094482422 1.8472849130630493164 -9999 -9999 1.8610751628875732422 -9999 -9999 -9999 -9999 4.2808051109313964844 4.5554056167602539062 -9999 1.5622541904449462891 4.6552548408508300781 5.0267844200134277344 10.739081382751464844 8.3562765121459960938 7.7123456001281738281 6.3796453475952148438 7.2904181480407714844 8.1139736175537109375 8.8333024978637695312 7.4840593338012695312 5.1227478981018066406 10.071526527404785156 6.9187350273132324219 6.6535410881042480469 5.9531536102294921875 7.403835296630859375 7.3359432220458984375 6.3327159881591796875 6.6162509918212890625 6.3482136726379394531 6.7151546478271484375 7.2045192718505859375 6.7945170402526855469 7.365081787109375 6.8066744804382324219 6.5595607757568359375 5.4280734062194824219 4.8738970756530761719 4.0122323036193847656 4.08261871337890625 5.7195315361022949219 6.8234920501708984375 7.6607832908630371094 8.0433721542358398438 8.3447027206420898438 8.080776214599609375 7.6150088310241699219 7.5036182403564453125 7.8684740066528320312 8.4270448684692382812 8.2552642822265625 8.7613468170166015625 7.6853504180908203125 5.0545701980590820312 7.4701242446899414062 3.3299901485443115234 -9999 -9999 -9999 2.9136075973510742188 5.1244578361511230469 5.5792164802551269531 4.5287494659423828125 -9999 -9999 -9999 -9999 14.2929534912109375 8.5043783187866210938 1.8290041685104370117 -9999 -9999 1.4501643180847167969 -9999 -9999 2.3086850643157958984 -9999 -9999 -9999 -9999 2.3606238365173339844 -9999 -9999 -9999 
-9999 -9999 -9999 -9999 1.525149226188659668 -9999 -9999 -9999 2.1061215400695800781 -9999 1.7776308059692382812 1.894715428352355957 -9999 1.6586703062057495117 -9999 2.7095606327056884766 -9999 -9999 -9999 1.7573549747467041016 -9999 -9999 1.4737312793731689453 1.7787976264953613281 2.3013281822204589844 2.5270547866821289062 1.8726903200149536133 -9999 2.1159331798553466797 3.60451507568359375 5.9477486610412597656 7.5760469436645507812 5.6284966468811035156 10.373838424682617188 7.8331041336059570312 9.5332803726196289062 2.3625595569610595703 2.6539111137390136719 -9999 2.4202427864074707031 3.2196917533874511719 1.8680212497711181641 1.9838032722473144531 2.5966157913208007812 2.9140903949737548828 1.5918678045272827148 -9999 2.0996823310852050781 10.879994392395019531 12.039759635925292969 4.0752005577087402344 1.4745506048202514648 2.1582367420196533203 3.2438158988952636719 6.5249271392822265625 10.197222709655761719 7.7734708786010742188 7.8036417961120605469 9.1022243499755859375 8.4805955886840820312 8.155765533447265625 8.8903636932373046875 6.3602509498596191406 -9999 6.75091552734375 6.1822228431701660156 5.3755407333374023438 5.0912766456604003906 7.3518824577331542969 7.0309929847717285156 7.7560777664184570312 7.3243112564086914062 6.91005706787109375 5.9734849929809570312 7.4172420501708984375 8.1725835800170898438 8.5008859634399414062 8.3911876678466796875 6.5336084365844726562 4.2938556671142578125 3.8092873096466064453 5.8530888557434082031 4.8867440223693847656 6.0941300392150878906 7.2661352157592773438 8.5364046096801757812 8.7486724853515625 7.9052939414978027344 7.0847935676574707031 6.7716226577758789062 7.4492139816284179688 7.7806758880615234375 7.4843206405639648438 7.7980089187622070312 4.5842700004577636719 1.1292920112609863281 -9999 2.1190686225891113281 -9999 -9999 -9999 34.80039215087890625 8.9165658950805664062 7.9631829261779785156 7.0095491409301757812 3.9563002586364746094 -9999 -9999 5.0951890945434570312 13.436024665832519531 29.8564453125 22.7666168212890625 5.4712176322937011719 -9999 -9999 1.8447284698486328125 2.0232338905334472656 1.9423024654388427734 1.3802934885025024414 -9999 -9999 -9999 3.903240203857421875 -9999 -9999 -9999 -9999 
-9999 -9999 -9999 -9999 -9999 -9999 -9999 1.6583250761032104492 1.8493071794509887695 2.2235300540924072266 1.8785583972930908203 -9999 1.823979496955871582 -9999 -9999 1.9365386962890625 -9999 -9999 -9999 -9999 -9999 -9999 -9999 -9999 -9999 -9999 -9999 -9999 -9999 -9999 1.1791123151779174805 4.883502960205078125 7.9065585136413574219 12.885205268859863281 6.1384005546569824219 1.8431047201156616211 -9999 -9999 1.9054708480834960938 2.1602702140808105469 2.2556145191192626953 1.602563023567199707 1.8027254343032836914 2.4327974319458007812 2.7373981475830078125 1.5035845041275024414 -9999 1.9456763267517089844 4.95267486572265625 6.9537205696105957031 2.7112548351287841797 1.1818720102310180664 3.3464415073394775391 8.5418262481689453125 3.9799525737762451172 4.9090399742126464844 6.2984795570373535156 5.9573068618774414062 8.6324129104614257812 7.6650829315185546875 7.874767303466796875 8.73011016845703125 7.6872282028198242188 10.575414657592773438 7.811550140380859375 5.9700593948364257812 5.1429419517517089844 5.2868828773498535156 7.4702048301696777344 6.6984477043151855469 7.3151936531066894531 7.6978759765625 6.8785967826843261719 6.8298578262329101562 7.4258136749267578125 7.836505889892578125 8.9715890884399414062 7.6754050254821777344 5.5752544403076171875 4.9632787704467773438 5.0667104721069335938 5.3880934715270996094 5.9656109809875488281 7.2977848052978515625 8.1714019775390625 8.4935665130615234375 8.4823122024536132812 7.8824009895324707031 7.5778641700744628906 6.9225792884826660156 7.3813509941101074219 7.5509371757507324219 6.1297402381896972656 5.7069768905639648438 2.9004304409027099609 -9999 -9999 -9999 -9999 -9999 -9999 2.8050999641418457031 9.7320766448974609375 9.295520782470703125 7.6545763015747070312 4.9192867279052734375 6.6245131492614746094 4.264629364013671875 7.537754058837890625 17.774641036987304688 30.302358627319335938 30.355632781982421875 1.5839639902114868164 -9999 -9999 1.8262985944747924805 3.1958980560302734375 2.5362493991851806641 1.5125724077224731445 2.3071148395538330078 -9999 -9999 -9999 -9999 -9999 -9999 -9999 
-9999 -9999 1.4402010440826416016 1.9747965335845947266 -9999 1.8499619960784912109 1.8713436126708984375 1.5132448673248291016 1.5556523799896240234 -9999 -9999 -9999 1.7568290233612060547 -9999 -9999 -9999 -9999 -9999 -9999 -9999 1.6641687154769897461 -9999 -9999 -9999 -9999 1.5434682369232177734 1.5515083074569702148 1.7988985776901245117 3.0845382213592529297 4.1806731224060058594 1.9437918663024902344 7.7686295509338378906 15.463040351867675781 13.606645584106445312 2.1594004631042480469 1.9930450916290283203 2.1953024864196777344 1.7660949230194091797 -9999 -9999 2.1510105133056640625 1.5915553569793701172 1.3880199193954467773 1.7650973796844482422 1.8752751350402832031 3.2003986835479736328 1.315119624137878418 1.8185058832168579102 2.0666098594665527344 2.0565512180328369141 2.2771308422088623047 1.7222665548324584961 5.6478424072265625 10.99539947509765625 5.7923717498779296875 4.4538440704345703125 5.5368280410766601562 5.3707289695739746094 6.1651721000671386719 5.9789485931396484375 7.5235438346862792969 8.3256435394287109375 6.7510275840759277344 9.124416351318359375 8.891185760498046875 5.9107828140258789062 5.3254790306091308594 6.102535247802734375 7.9910125732421875 8.143756866455078125 7.4953060150146484375 7.1600356101989746094 7.0397057533264160156 7.519622802734375 8.4271612167358398438 8.5661554336547851562 8.4010457992553710938 5.8964056968688964844 4.3987460136413574219 4.6911473274230957031 4.4253602027893066406 4.64349365234375 6.121532440185546875 7.0030622482299804688 7.7694878578186035156 8.1462268829345703125 8.6601409912109375 8.5845117568969726562 8.48892974853515625 8.0995025634765625 7.3661088943481445312 7.6256976127624511719 5.5403461456298828125 5.8311686515808105469 -9999 -9999 -9999 -9999 -9999 -9999 1.0040396451950073242 3.8979933261871337891 8.3615970611572265625 7.6331448554992675781 9.2414655685424804688 6.277797698974609375 14.852025985717773438 11.1248779296875 6.4695186614990234375 11.227270126342773438 20.911302566528320312 24.621717453002929688 2.1423077583312988281 -9999 -9999 1.8501503467559814453 2.8017492294311523438 1.8577381372451782227 1.4263745546340942383 2.0233180522918701172 2.3779170513153076172 2.5579154491424560547 -9999 -9999 -9999 -9999 -9999 
-9999 -9999 1.4354758262634277344 1.8095363378524780273 -9999 1.7294999361038208008 1.8982552289962768555 1.7784030437469482422 -9999 -9999 -9999 -9999 1.9076905250549316406 -9999 1.495179295539855957 -9999 -9999 -9999 -9999 -9999 -9999 -9999 1.7447777986526489258 -9999 1.2814005613327026367 1.3948119878768920898 2.0527703762054443359 3.6845245361328125 3.9806215763092041016 6.0679097175598144531 4.2312808036804199219 6.4678640365600585938 6.6543345451354980469 3.9392826557159423828 -9999 2.8019678592681884766 2.3660171031951904297 1.7000674009323120117 1.9638468027114868164 -9999 1.4408783912658691406 2.3087849617004394531 2.4699785709381103516 2.0844991207122802734 1.8602919578552246094 2.6742334365844726562 1.1384779214859008789 -9999 2.1209185123443603516 2.3037283420562744141 2.0978248119354248047 3.3902451992034912109 6.0605010986328125 6.4079217910766601562 6.016632080078125 5.4613251686096191406 5.5384569168090820312 6.059600830078125 6.0588998794555664062 6.1028981208801269531 7.2009119987487792969 8.1435394287109375 7.0413694381713867188 7.9760947227478027344 7.1402416229248046875 5.5537114143371582031 5.676586151123046875 5.8773407936096191406 6.9517130851745605469 8.3964490890502929688 8.13692474365234375 8.0620088577270507812 7.6578245162963867188 7.5162487030029296875 7.9458889961242675781 8.2607870101928710938 8.586376190185546875 5.267124176025390625 4.3752055168151855469 6.0428972244262695312 4.6467471122741699219 4.4808545112609863281 6.2265791893005371094 6.9800906181335449219 7.4562182426452636719 8.5042619705200195312 9.3125410079956054688 9.1842899322509765625 8.885532379150390625 8.3306751251220703125 7.7757658958435058594 7.5022249221801757812 6.10999298095703125 1.1669455766677856445 -9999 -9999 1.0002310276031494141 1.0008478164672851562 -9999 3.3116192817687988281 4.1687340736389160156 8.0202121734619140625 7.5716423988342285156 6.5506501197814941406 13.510149955749511719 12.901993751525878906 13.63933563232421875 9.54925537109375 7.4041333198547363281 9.2231588363647460938 14.816058158874511719 22.818838119506835938 1.6626772880554199219 -9999 -9999 3.963871002197265625 4.287570953369140625 1.4865605831146240234 1.3308644294738769531 1.6401190757751464844 2.8855953216552734375 2.2042479515075683594 -9999 -9999 -9999 -9999 -9999 
-9999 -9999 -9999 -9999 -9999 -9999 -9999 -9999 -9999 -9999 -9999 -9999 -9999 -9999 -9999 -9999 1.8952190876007080078 -9999 -9999 -9999 -9999 -9999 -9999 1.762684941291809082 1.9557704925537109375 1.5538301467895507812 2.8822491168975830078 4.1879796981811523438 2.3641490936279296875 2.8336131572723388672 5.5257172584533691406 3.9153342247009277344 2.0110795497894287109 -9999 5.7915167808532714844 4.1671009063720703125 2.0731251239776611328 -9999 1.2327750921249389648 1.4274573326110839844 2.1987409591674804688 -9999 -9999 1.4034345149993896484 1.6782716512680053711 1.7895222902297973633 1.7098407745361328125 -9999 -9999 1.6215186119079589844 1.6898708343505859375 4.8112335205078125 9.2148351669311523438 8.9939374923706054688 5.277446746826171875 5.5805692672729492188 5.9310536384582519531 7.0349860191345214844 5.6974477767944335938 6.0116372108459472656 7.5779500007629394531 7.9015030860900878906 7.6398296356201171875 9.6873235702514648438 7.7358136177062988281 5.782611846923828125 7.4807887077331542969 6.4344987869262695312 5.3851580619812011719 7.8024296760559082031 7.5859093666076660156 7.6389775276184082031 8.3181591033935546875 8.777988433837890625 8.3117380142211914062 7.3183298110961914062 6.5313978195190429688 4.8007979393005371094 5.70534515380859375 6.1664032936096191406 6.6284456253051757812 6.8480215072631835938 6.5481114387512207031 7.5871701240539550781 8.584918975830078125 8.6119480133056640625 9.1985578536987304688 9.470020294189453125 8.9326572418212890625 8.6384449005126953125 8.5141725540161132812 8.21057891845703125 7.8863530158996582031 6.8387722969055175781 5.376117706298828125 3.4236927032470703125 6.1354279518127441406 6.3350300788879394531 4.8996839523315429688 7.8570795059204101562 7.86687469482421875 6.3129625320434570312 8.1738996505737304688 7.6828813552856445312 3.51351165771484375 1.1548820734024047852 10.427611351013183594 9.3449497222900390625 12.678079605102539062 13.161940574645996094 15.471593856811523438 26.167604446411132812 3.6331834793090820312 -9999 5.4687132835388183594 7.7625374794006347656 7.42952728271484375 1.30516815185546875 -9999 1.3445341587066650391 2.4144093990325927734 -9999 -9999 1.5613625049591064453 -9999 -9999 -9999 
-9999 1.997969508171081543 2.1743493080139160156 1.7686368227005004883 -9999 -9999 -9999 -9999 -9999 -9999 -9999 -9999 1.8604446649551391602 -9999 -9999 -9999 -9999 -9999 -9999 -9999 -9999 1.6174973249435424805 1.5396622419357299805 1.8507225513458251953 2.1775476932525634766 2.0124480724334716797 2.5493412017822265625 3.3291966915130615234 2.3886547088623046875 2.4506990909576416016 3.5104310512542724609 2.0342581272125244141 1.9513902664184570312 1.8639924526214599609 4.4221034049987792969 3.4526469707489013672 2.5154242515563964844 1.812768101692199707 -9999 1.084717869758605957 2.0313162803649902344 -9999 -9999 -9999 2.4868707656860351562 2.3936870098114013672 1.8204824924468994141 1.415798187255859375 -9999 -9999 1.7822986841201782227 4.5599384307861328125 5.7956585884094238281 5.1834311485290527344 5.7128224372863769531 5.5842518806457519531 6.0784583091735839844 6.3847227096557617188 5.8512654304504394531 6.1859011650085449219 7.6411929130554199219 7.5359315872192382812 6.4781494140625 7.0080161094665527344 6.8168168067932128906 6.6874828338623046875 7.1443514823913574219 5.629123687744140625 5.4030356407165527344 6.459056854248046875 6.1601467132568359375 7.6185851097106933594 7.9556322097778320312 8.529788970947265625 8.3631458282470703125 6.6225781440734863281 6.0596280097961425781 6.0410518646240234375 7.1274590492248535156 7.8910970687866210938 8.8069210052490234375 8.3777112960815429688 6.8278269767761230469 8.311737060546875 8.578502655029296875 8.670917510986328125 7.9479460716247558594 8.4840650558471679688 8.5395631790161132812 8.3528776168823242188 7.2941484451293945312 7.8028016090393066406 9.1871614456176757812 10.052678108215332031 8.0004873275756835938 6.4934339523315429688 6.1701502799987792969 6.1897130012512207031 5.9312682151794433594 6.3103952407836914062 7.292682647705078125 6.3515176773071289062 6.9154448509216308594 6.4157843589782714844 5.9551334381103515625 6.1798954010009765625 8.3284826278686523438 7.9439373016357421875 9.5650920867919921875 13.534234046936035156 13.238102912902832031 13.767704010009765625 -9999 1.7709741592407226562 6.0280423164367675781 8.2620229721069335938 6.5277614593505859375 1.6494814157485961914 1.2880934476852416992 1.5789183378219604492 1.4897449016571044922 -9999 -9999 1.3755495548248291016 -9999 -9999 1.4338544607162475586 
1.6815944910049438477 1.5493086576461791992 1.6089211702346801758 -9999 -9999 -9999 -9999 -9999 -9999 -9999 1.4768775701522827148 1.3157796859741210938 1.6034008264541625977 1.851421356201171875 2.0068864822387695312 -9999 -9999 -9999 -9999 1.4785722494125366211 1.5070912837982177734 1.8016993999481201172 1.691516876220703125 1.8377070426940917969 2.5221271514892578125 2.9838416576385498047 2.7456338405609130859 2.8679549694061279297 2.1837370395660400391 1.8233407735824584961 1.9210782051086425781 1.872664332389831543 2.2029421329498291016 1.4895235300064086914 3.0561051368713378906 3.3723208904266357422 3.5285952091217041016 3.8814480304718017578 -9999 -9999 -9999 1.5805811882019042969 -9999 -9999 1.7279552221298217773 2.5341134071350097656 1.7862045764923095703 -9999 -9999 -9999 3.9803395271301269531 3.9944608211517333984 6.6476445198059082031 4.8104252815246582031 5.1920638084411621094 5.6716361045837402344 6.2047457695007324219 6.54860687255859375 6.2079029083251953125 6.8186202049255371094 7.6832661628723144531 7.2928466796875 4.5377182960510253906 3.9555490016937255859 4.8669910430908203125 6.1296977996826171875 5.6911640167236328125 7.4436597824096679688 6.9362363815307617188 7.0149621963500976562 5.6609473228454589844 7.4166607856750488281 7.2241139411926269531 8.3016986846923828125 6.9647603034973144531 6.243770599365234375 4.7595157623291015625 7.1537318229675292969 8.5967769622802734375 8.9487819671630859375 9.36474609375 8.15451812744140625 6.2662572860717773438 7.5187778472900390625 8.3616037368774414062 9.219024658203125 8.6480007171630859375 8.4231023788452148438 8.7140169143676757812 7.2445020675659179688 5.1514706611633300781 4.926753997802734375 6.7480754852294921875 9.001186370849609375 8.9691295623779296875 7.7015967369079589844 5.9896597862243652344 5.7003002166748046875 6.1487026214599609375 6.1892423629760742188 5.730129241943359375 6.0611023902893066406 6.1242575645446777344 6.2505927085876464844 8.0935344696044921875 7.0979161262512207031 6.4040775299072265625 5.6335043907165527344 8.352382659912109375 10.307188034057617188 10.092783927917480469 8.6540842056274414062 -9999 5.6885972023010253906 5.1328663825988769531 5.9752497673034667969 5.5275106430053710938 3.1169030666351318359 2.6113619804382324219 -9999 4.7756094932556152344 -9999 -9999 -9999 -9999 -9999 -9999 
-9999 -9999 -9999 -9999 -9999 -9999 -9999 -9999 1.5143175125122070312 -9999 -9999 1.4955947399139404297 -9999 -9999 -9999 -9999 3.8740625381469726562 -9999 -9999 -9999 1.4819415807723999023 1.8958215713500976562 2.4489846229553222656 2.3107831478118896484 2.8122174739837646484 2.9391329288482666016 2.3606421947479248047 2.7993576526641845703 2.2306168079376220703 1.8076963424682617188 -9999 2.1260702610015869141 3.6184766292572021484 -9999 4.0584259033203125 4.1334886550903320312 3.7916324138641357422 3.2133901119232177734 1.6901382207870483398 -9999 1.5246869325637817383 -9999 -9999 2.1833720207214355469 3.024456024169921875 2.475177764892578125 2.0170185565948486328 1.6459701061248779297 -9999 -9999 5.1703906059265136719 3.6341786384582519531 5.9635591506958007812 5.1179752349853515625 4.90924072265625 5.6409616470336914062 6.0458917617797851562 6.1501836776733398438 6.2960343360900878906 6.7896742820739746094 7.30443572998046875 6.7851872444152832031 4.8518815040588378906 2.8237042427062988281 2.848911285400390625 4.2212009429931640625 5.5946016311645507812 7.3309359550476074219 5.76395416259765625 6.4222426414489746094 7.1092176437377929688 7.6641688346862792969 7.5670928955078125 7.54476165771484375 6.9008817672729492188 7.082561492919921875 7.3693041801452636719 8.1625299453735351562 7.9573678970336914062 9.2175540924072265625 9.197887420654296875 8.454090118408203125 7.9630618095397949219 6.1765527725219726562 7.3721609115600585938 8.6746616363525390625 8.8868474960327148438 9.0453243255615234375 8.9763126373291015625 6.68084716796875 4.4925932884216308594 4.5328831672668457031 6.0932025909423828125 8.0935878753662109375 8.536579132080078125 7.0520181655883789062 6.3342823982238769531 6.0326561927795410156 6.9423456192016601562 6.3641772270202636719 5.7039251327514648438 6.2392210960388183594 7.2547655105590820312 6.4495043754577636719 7.9506578445434570312 8.45117950439453125 6.6227440834045410156 6.100467681884765625 6.4125838279724121094 8.3765993118286132812 13.947722434997558594 8.67226409912109375 5.2855858802795410156 9.6404809951782226562 7.8291058540344238281 6.8818306922912597656 4.3758831024169921875 3.8252251148223876953 2.9641733169555664062 1.4674326181411743164 -9999 -9999 -9999 -9999 -9999 -9999 -9999 
-9999 -9999 -9999 -9999 -9999 -9999 -9999 -9999 1.2548511028289794922 -9999 -9999 -9999 -9999 -9999 1.5821529626846313477 -9999 -9999 -9999 -9999 -9999 -9999 1.6883604526519775391 2.3873703479766845703 2.3073427677154541016 2.7358286380767822266 2.6523506641387939453 4.2531023025512695312 -9999 2.3954050540924072266 2.3156619071960449219 1.6829267740249633789 2.1106972694396972656 4.0891032218933105469 4.2541799545288085938 2.7991960048675537109 3.2056555747985839844 3.3738214969635009766 2.013980865478515625 1.6363147497177124023 2.7667546272277832031 1.7655071020126342773 2.2139945030212402344 2.0440931320190429688 2.3892540931701660156 2.5162432193756103516 2.2130093574523925781 3.9490261077880859375 2.3211257457733154297 1.4716302156448364258 1.6781042814254760742 2.9066011905670166016 4.5985798835754394531 6.4057259559631347656 5.0014786720275878906 4.9718332290649414062 5.4586758613586425781 5.5925917625427246094 6.0844049453735351562 7.0597095489501953125 7.2680816650390625 7.6676211357116699219 7.4552140235900878906 7.9452829360961914062 11.749723434448242188 1.8742721080780029297 1.9588249921798706055 3.2953937053680419922 6.368694305419921875 4.663486480712890625 6.3699955940246582031 7.4242482185363769531 7.4017329216003417969 6.83911895751953125 6.8444166183471679688 6.9064531326293945312 6.6105146408081054688 8.0527744293212890625 8.9488763809204101562 7.898075103759765625 8.1623392105102539062 8.6080331802368164062 7.9255433082580566406 7.3703560829162597656 7.651500701904296875 7.0232396125793457031 6.0063548088073730469 7.1957998275756835938 8.0775403976440429688 8.948699951171875 8.4228420257568359375 7.5790133476257324219 6.8713254928588867188 6.1974139213562011719 8.0495805740356445312 7.926525115966796875 6.4796147346496582031 7.05281829833984375 6.3814787864685058594 7.1983723640441894531 6.7752704620361328125 6.3070659637451171875 6.2219724655151367188 6.3837342262268066406 6.5826382637023925781 6.8611469268798828125 6.4392704963684082031 6.078643798828125 6.42771148681640625 6.6801857948303222656 7.1128268241882324219 10.237964630126953125 6.3670754432678222656 4.7445230484008789062 7.2428913116455078125 4.5215501785278320312 2.7869429588317871094 3.7611782550811767578 3.5098044872283935547 1.4842470884323120117 -9999 -9999 1.0557265281677246094 -9999 -9999 1.6294857263565063477 -9999 -9999 
-9999 -9999 -9999 -9999 -9999 1.7616877555847167969 -9999 -9999 -9999 -9999 -9999 -9999 -9999 -9999 -9999 -9999 -9999 -9999 -9999 -9999 -9999 2.2254278659820556641 2.7985630035400390625 -9999 2.9354343414306640625 3.5251631736755371094 4.2729735374450683594 2.3928048610687255859 3.1826605796813964844 2.7313759326934814453 2.4710483551025390625 -9999 1.8798501491546630859 -9999 1.566086888313293457 2.7407212257385253906 3.1530785560607910156 2.281726837158203125 2.0375461578369140625 2.5839595794677734375 -9999 2.2092685699462890625 2.2426357269287109375 3.3677732944488525391 3.5039591789245605469 2.7884953022003173828 3.8162813186645507812 2.1650614738464355469 2.1380672454833984375 2.8462083339691162109 3.2822575569152832031 4.0255589485168457031 6.558624267578125 5.1857576370239257812 5.6152443885803222656 5.6841340065002441406 6.2643451690673828125 6.7038450241088867188 6.8153166770935058594 6.1959528923034667969 7.5540146827697753906 7.62693023681640625 6.94432830810546875 3.9349002838134765625 -9999 3.4874546527862548828 5.7369632720947265625 6.023693084716796875 6.684383392333984375 6.0426111221313476562 7.1068472862243652344 7.4547243118286132812 7.9641265869140625 8.0960025787353515625 7.7549610137939453125 7.2238926887512207031 8.7707509994506835938 9.0315418243408203125 9.4208049774169921875 8.306301116943359375 8.088787078857421875 8.6355447769165039062 7.8870787620544433594 7.3945116996765136719 6.96833038330078125 6.4416346549987792969 7.2020735740661621094 7.2980742454528808594 7.8692941665649414062 8.5707550048828125 9.602176666259765625 8.3197231292724609375 5.9941210746765136719 7.6993765830993652344 8.1868896484375 7.6143317222595214844 7.9568719863891601562 7.9733653068542480469 7.7901825904846191406 7.736095428466796875 7.3043951988220214844 7.38896942138671875 6.741241455078125 6.083705902099609375 6.5570659637451171875 6.5877871513366699219 6.1803288459777832031 5.9741158485412597656 7.5955624580383300781 6.9260883331298828125 5.0890407562255859375 3.4653506278991699219 3.9564530849456787109 5.0279817581176757812 4.1010522842407226562 2.808074951171875 3.1856443881988525391 2.7703294754028320312 1.757174372673034668 -9999 1.8087309598922729492 1.5696158409118652344 -9999 -9999 -9999 -9999 -9999 
-9999 -9999 -9999 -9999 -9999 -9999 -9999 -9999 -9999 -9999 1.5230650901794433594 1.5250592231750488281 -9999 -9999 2.2624230384826660156 -9999 -9999 2.0988702774047851562 1.8676079511642456055 2.1527180671691894531 2.4256448745727539062 2.3605251312255859375 3.2228116989135742188 4.8328795433044433594 2.5718951225280761719 2.6036298274993896484 2.7514970302581787109 2.9064667224884033203 2.536590576171875 1.9777257442474365234 2.0510931015014648438 2.5356307029724121094 2.0712137222290039062 -9999 -9999 2.1702034473419189453 2.1324799060821533203 1.9326093196868896484 2.585094451904296875 2.0584375858306884766 3.0587029457092285156 2.5204164981842041016 3.0963263511657714844 3.9237587451934814453 4.4102053642272949219 3.8627557754516601562 3.1141526699066162109 2.7277894020080566406 4.7159662246704101562 8.3645486831665039062 5.1641840934753417969 4.4984807968139648438 5.8771071434020996094 4.9187388420104980469 6.3048834800720214844 6.0551981925964355469 6.8804292678833007812 6.2631077766418457031 6.1050395965576171875 5.6691794395446777344 7.7906527519226074219 6.0141611099243164062 5.2700057029724121094 3.4022760391235351562 5.1633353233337402344 5.3816595077514648438 5.9108366966247558594 7.38452911376953125 6.6215124130249023438 5.90375518798828125 6.9685907363891601562 7.4313764572143554688 7.1201157569885253906 7.6966347694396972656 5.3947758674621582031 7.0419230461120605469 8.1610164642333984375 8.7615308761596679688 9.0584239959716796875 9.6720752716064453125 9.6352634429931640625 8.6065130233764648438 8.2002153396606445312 6.2775363922119140625 6.1790404319763183594 5.423076629638671875 6.9829158782958984375 7.499340057373046875 7.0656404495239257812 7.7016949653625488281 9.4750194549560546875 8.9098691940307617188 8.5803050994873046875 8.6581277847290039062 7.9915180206298828125 8.1216144561767578125 8.3113298416137695312 8.3519563674926757812 8.3590841293334960938 8.1567354202270507812 7.9049391746520996094 7.6481027603149414062 6.8486676216125488281 6.3186788558959960938 6.2076725959777832031 6.2857146263122558594 5.90500640869140625 7.0937600135803222656 9.5108613967895507812 7.8171176910400390625 6.108921051025390625 6.5847454071044921875 7.356784820556640625 6.09441375732421875 6.7347116470336914062 6.9069209098815917969 6.0246868133544921875 5.7692155838012695312 4.0922055244445800781 -9999 -9999 -9999 2.2546589374542236328 -9999 -9999 -9999 -9999 
-9999 -9999 -9999 -9999 -9999 -9999 -9999 -9999 -9999 1.9068733453750610352 2.0715429782867431641 1.6903362274169921875 -9999 -9999 -9999 2.2430720329284667969 -9999 2.3245015144348144531 2.2027747631072998047 3.0511646270751953125 3.3114697933197021484 3.0415856838226318359 2.8535146713256835938 3.3778898715972900391 2.6800136566162109375 3.5564706325531005859 2.6120698451995849609 2.2308008670806884766 -9999 -9999 2.78986358642578125 2.9973649978637695312 -9999 -9999 2.7985494136810302734 2.0271954536437988281 -9999 -9999 1.8722754716873168945 2.126861572265625 2.4015707969665527344 2.6645326614379882812 3.5308992862701416016 4.6359772682189941406 5.4787874221801757812 4.6844649314880371094 4.0744981765747070312 4.851627349853515625 5.0189251899719238281 7.032993316650390625 5.6351399421691894531 7.0628018379211425781 5.6951823234558105469 7.2032208442687988281 14.123287200927734375 6.4464192390441894531 8.0334911346435546875 5.4501361846923828125 5.3553194999694824219 4.6160831451416015625 6.968639373779296875 4.9193544387817382812 5.7935757637023925781 6.4487853050231933594 6.2842340469360351562 4.3095455169677734375 4.167110443115234375 7.0589756965637207031 7.2599945068359375 7.2450542449951171875 6.3214840888977050781 6.5160851478576660156 6.2416400909423828125 6.3825826644897460938 6.3854150772094726562 7.7308788299560546875 7.4462475776672363281 8.5448780059814453125 6.9563970565795898438 8.2543573379516601562 9.0310993194580078125 8.6938962936401367188 7.6796598434448242188 6.9504156112670898438 6.0853013992309570312 5.2700123786926269531 5.9422974586486816406 6.3994903564453125 7.8930845260620117188 7.6985030174255371094 8.1151485443115234375 9.1571989059448242188 8.8950433731079101562 8.3003854751586914062 7.1617560386657714844 7.676494598388671875 7.6138243675231933594 7.3646402359008789062 7.6195912361145019531 7.7248730659484863281 7.8691239356994628906 7.9724292755126953125 7.3341240882873535156 6.9099483489990234375 6.4668831825256347656 5.8610048294067382812 5.8510341644287109375 6.6709170341491699219 7.6062288284301757812 7.7052931785583496094 7.0848798751831054688 7.4617013931274414062 7.0377035140991210938 5.9916982650756835938 5.7976818084716796875 6.0676708221435546875 5.4258198738098144531 5.8094630241394042969 3.6725809574127197266 2.5529589653015136719 -9999 -9999 -9999 -9999 -9999 -9999 -9999 
-9999 1.5231877565383911133 -9999 -9999 -9999 -9999 -9999 -9999 -9999 -9999 1.6441031694412231445 -9999 -9999 1.9300866127014160156 -9999 -9999 2.6971070766448974609 2.3342759609222412109 2.0324988365173339844 2.8592021465301513672 2.4971723556518554688 2.3567004203796386719 2.5137715339660644531 3.6964592933654785156 3.5366189479827880859 3.3610348701477050781 5.4388365745544433594 3.9585595130920410156 1.8907355070114135742 1.9432134628295898438 2.2217609882354736328 -9999 2.9257245063781738281 2.5304172039031982422 3.3454530239105224609 2.0385658740997314453 1.7962362766265869141 3.0269575119018554688 2.3901197910308837891 2.8682653903961181641 3.7505321502685546875 5.4123935699462890625 5.0369825363159179688 5.4200396537780761719 5.6305069923400878906 5.5550212860107421875 4.1465768814086914062 4.3397502899169921875 4.0415334701538085938 5.3932170867919921875 9.8276882171630859375 9.8366250991821289062 5.7627496719360351562 4.3525514602661132812 8.9964313507080078125 9.4687976837158203125 4.9943132400512695312 4.0574665069580078125 3.9098620414733886719 4.7154150009155273438 7.7643847465515136719 8.0748348236083984375 9.094493865966796875 9.0854864120483398438 5.99895477294921875 5.9119348526000976562 5.4915699958801269531 6.9522085189819335938 7.5376801490783691406 7.6023478507995605469 5.7602353096008300781 5.3489532470703125 5.9112176895141601562 5.0543608665466308594 6.1957201957702636719 8.2941455841064453125 7.7402324676513671875 7.9442644119262695312 7.4954237937927246094 7.3749608993530273438 8.2945661544799804688 8.0012607574462890625 6.8100972175598144531 6.3967046737670898438 7.023700714111328125 6.2959108352661132812 6.8163447380065917969 4.6015210151672363281 7.2934999465942382812 6.3016333580017089844 7.48426055908203125 8.1348819732666015625 8.0787448883056640625 7.7355790138244628906 7.0837125778198242188 6.9792542457580566406 6.8343720436096191406 7.0086731910705566406 7.6898336410522460938 7.7416462898254394531 7.6964793205261230469 7.8006486892700195312 7.5226616859436035156 6.1745004653930664062 7.1306824684143066406 6.7238016128540039062 6.570407867431640625 6.9414958953857421875 7.0366177558898925781 6.725864410400390625 6.8048052787780761719 7.6656794548034667969 7.1970849037170410156 5.4765172004699707031 5.54373931884765625 5.6401076316833496094 4.9039883613586425781 4.1826543807983398438 3.0339319705963134766 3.1966905593872070312 2.221195220947265625 1.4358216524124145508 1.6198866367340087891 -9999 -9999 -9999 -9999 
1.7688935995101928711 -9999 -9999 -9999 -9999 -9999 -9999 -9999 -9999 -9999 -9999 -9999 -9999 -9999 -9999 -9999 3.0269792079925537109 2.8241779804229736328 -9999 1.8997839689254760742 -9999 2.1273744106292724609 2.5243849754333496094 4.0982961654663085938 5.8861150741577148438 2.2426860332489013672 3.6895837783813476562 3.0117480754852294922 2.5829875469207763672 3.172237396240234375 3.0367577075958251953 2.0989165306091308594 3.3077483177185058594 3.7138545513153076172 5.2218084335327148438 2.4863839149475097656 2.3208525180816650391 2.6942753791809082031 1.891728520393371582 2.6185848712921142578 4.8746638298034667969 5.7931532859802246094 6.248809814453125 4.269153594970703125 4.3193922042846679688 3.2800281047821044922 2.9560825824737548828 2.8704729080200195312 2.4560818672180175781 -9999 4.8796772956848144531 5.7273592948913574219 5.9261898994445800781 5.9038653373718261719 8.4396886825561523438 9.7008724212646484375 -9999 2.5892808437347412109 3.8687868118286132812 8.6583223342895507812 7.3329005241394042969 8.7410535812377929688 9.1872110366821289062 7.8547320365905761719 8.0452566146850585938 6.8519034385681152344 7.5094366073608398438 7.8577055931091308594 7.2054052352905273438 6.2986860275268554688 7.9222359657287597656 6.2006006240844726562 5.1683812141418457031 6.0733046531677246094 7.3702287673950195312 6.2417707443237304688 6.8026676177978515625 8.76983642578125 7.6685490608215332031 5.9842929840087890625 7.1604924201965332031 5.5714030265808105469 6.5994267463684082031 6.7215261459350585938 6.9456615447998046875 7.5469350814819335938 6.6736054420471191406 5.8160109519958496094 7.6334137916564941406 7.0534996986389160156 7.7954702377319335938 6.0409684181213378906 7.5939211845397949219 8.33855438232421875 7.8687849044799804688 7.6669034957885742188 7.7018117904663085938 7.2349252700805664062 7.5596127510070800781 7.7711877822875976562 7.6253991127014160156 7.7148613929748535156 7.3999528884887695312 6.9703440666198730469 6.7623658180236816406 6.6424612998962402344 6.5613799095153808594 6.6927866935729980469 7.0566549301147460938 6.8759636878967285156 5.6747503280639648438 7.1371450424194335938 7.1586027145385742188 5.5945782661437988281 5.7427992820739746094 5.53678131103515625 2.6388039588928222656 -9999 -9999 2.3517518043518066406 2.150432586669921875 1.3830875158309936523 -9999 -9999 -9999 -9999 -9999 
-9999 -9999 -9999 -9999 -9999 -9999 -9999 -9999 -9999 1.9731038808822631836 -9999 -9999 -9999 -9999 -9999 1.9032822847366333008 1.8967803716659545898 -9999 1.5711857080459594727 2.5323259830474853516 3.6911020278930664062 2.9722182750701904297 5.5710954666137695312 4.1958823204040527344 3.3381159305572509766 2.2164864540100097656 2.3624041080474853516 4.1280221939086914062 4.9066290855407714844 4.7996301651000976562 5.8976235389709472656 4.5753374099731445312 4.778415679931640625 5.4564638137817382812 2.9153649806976318359 2.3607099056243896484 2.1035737991333007812 2.8760740756988525391 2.7776329517364501953 2.3578326702117919922 2.8801190853118896484 2.8318493366241455078 4.4749603271484375 3.1430339813232421875 3.58231353759765625 4.2555050849914550781 2.7569108009338378906 2.4869692325592041016 2.3423089981079101562 2.6237998008728027344 2.3319258689880371094 4.4169249534606933594 6.3849472999572753906 4.9214992523193359375 5.4855356216430664062 7.6460738182067871094 1.4805912971496582031 2.8598029613494873047 5.97830963134765625 8.0189809799194335938 7.759883880615234375 8.6704359054565429688 6.5308618545532226562 1.218451380729675293 11.645319938659667969 7.2607183456420898438 6.6873116493225097656 5.0847449302673339844 5.2485513687133789062 5.6306314468383789062 8.9318981170654296875 7.2236847877502441406 5.0575590133666992188 6.7377033233642578125 6.6663298606872558594 4.6305336952209472656 7.4787020683288574219 8.9742717742919921875 8.1756353378295898438 6.9600687026977539062 6.0590519905090332031 6.5258455276489257812 7.7330384254455566406 7.7619423866271972656 7.9354844093322753906 8.143177032470703125 7.8797631263732910156 7.5842723846435546875 6.1470074653625488281 7.038677215576171875 7.4351339340209960938 6.7961192131042480469 7.6822218894958496094 8.1937770843505859375 8.2004060745239257812 7.6635303497314453125 7.2726273536682128906 7.1905345916748046875 7.2861576080322265625 7.5279736518859863281 6.5392713546752929688 7.1100354194641113281 7.2763400077819824219 7.1592535972595214844 6.5603652000427246094 6.0700945854187011719 5.9501547813415527344 6.3066163063049316406 6.1447048187255859375 7.4472866058349609375 6.2575097084045410156 5.4617333412170410156 5.6340732574462890625 4.0993819236755371094 5.1871891021728515625 8.5311260223388671875 6.0105719566345214844 2.6942591667175292969 2.3690564632415771484 1.8522876501083374023 1.4112532138824462891 1.4023057222366333008 1.2388554811477661133 -9999 -9999 -9999 1.4304287433624267578 
1.2817076444625854492 -9999 -9999 -9999 -9999 -9999 -9999 -9999 -9999 -9999 -9999 1.9045891761779785156 2.0665242671966552734 -9999 2.1297118663787841797 1.9594973325729370117 1.8305883407592773438 -9999 -9999 2.8000805377960205078 4.4451456069946289062 3.4386646747589111328 6.0611972808837890625 3.8521254062652587891 2.5709130764007568359 2.7517087459564208984 4.2895231246948242188 5.0564365386962890625 5.1168532371520996094 3.709468841552734375 5.5471696853637695312 5.0255937576293945312 3.9627461433410644531 4.60184478759765625 2.5906126499176025391 3.0942008495330810547 1.7444709539413452148 3.0847885608673095703 3.2925479412078857422 2.1603639125823974609 2.2344079017639160156 2.7518560886383056641 2.0388574600219726562 1.9595841169357299805 5.1126880645751953125 6.2779870033264160156 5.221439361572265625 5.1734781265258789062 3.9319069385528564453 2.6229686737060546875 -9999 1.4675630331039428711 -9999 5.8387603759765625 5.6237845420837402344 8.4102144241333007812 8.219295501708984375 7.8071627616882324219 7.7199282646179199219 7.6295371055603027344 7.4759392738342285156 8.3196001052856445312 1.4549057483673095703 -9999 3.1547353267669677734 9.034149169921875 6.7570972442626953125 4.0692505836486816406 5.7738871574401855469 6.3060812950134277344 7.1361184120178222656 3.6034860610961914062 6.0263833999633789062 7.4347920417785644531 7.6333818435668945312 7.0720415115356445312 8.3802509307861328125 7.9638018608093261719 7.583789825439453125 5.589023590087890625 5.5706758499145507812 6.7910761833190917969 6.6257624626159667969 7.1397786140441894531 7.5801334381103515625 6.6688208580017089844 10.072994232177734375 9.8068552017211914062 8.2051849365234375 8.4364643096923828125 8.232906341552734375 7.726444244384765625 7.8982186317443847656 8.1411142349243164062 7.9935030937194824219 7.8375363349914550781 7.7118830680847167969 7.6388850212097167969 6.9243135452270507812 7.6262121200561523438 7.4961581230163574219 7.1496572494506835938 7.7715535163879394531 6.7954049110412597656 5.726070404052734375 6.771526336669921875 7.0911836624145507812 6.7897410392761230469 5.7781424522399902344 6.3315711021423339844 5.9480299949645996094 5.4297766685485839844 5.8332571983337402344 8.359752655029296875 8.5531415939331054688 10.29474639892578125 10.929068565368652344 12.635758399963378906 14.810414314270019531 4.19545745849609375 1.5645042657852172852 2.1349303722381591797 -9999 -9999 1.5894474983215332031 1.976948857307434082 1.9024579524993896484 
-9999 -9999 -9999 -9999 -9999 1.2427250146865844727 -9999 -9999 -9999 -9999 -9999 -9999 1.9184465408325195312 -9999 3.0101408958435058594 2.5972235202789306641 -9999 2.0092055797576904297 1.7731925249099731445 2.1804358959197998047 2.5931491851806640625 3.4749152660369873047 5.0153021812438964844 3.8840372562408447266 2.7165575027465820312 2.237331390380859375 2.2553029060363769531 3.6975071430206298828 4.2752757072448730469 2.5466899871826171875 1.8992470502853393555 1.5829254388809204102 3.8083434104919433594 3.0471470355987548828 2.6585950851440429688 2.6339442729949951172 -9999 2.1447443962097167969 3.2922406196594238281 2.0074088573455810547 3.1134049892425537109 3.6810283660888671875 2.0214717388153076172 3.6923265457153320312 5.8962697982788085938 6.4509682655334472656 6.3240814208984375 6.1173610687255859375 4.6519379615783691406 -9999 -9999 -9999 4.2092986106872558594 8.5336503982543945312 7.3874344825744628906 7.8305606842041015625 8.2240514755249023438 7.9599409103393554688 7.7777757644653320312 5.1880030632019042969 4.0768146514892578125 4.7924857139587402344 2.5356469154357910156 -9999 3.2963671684265136719 7.51538848876953125 8.2895908355712890625 2.4339857101440429688 4.4488139152526855469 6.6538605690002441406 20.483884811401367188 8.2086772918701171875 6.0233111381530761719 7.136638641357421875 6.6583209037780761719 6.1358404159545898438 7.3182687759399414062 7.5583004951477050781 7.3498606681823730469 6.428020477294921875 5.9230685234069824219 5.8544802665710449219 5.8299136161804199219 5.883758544921875 6.3012852668762207031 8.07547760009765625 15.047846794128417969 12.095998764038085938 10.753157615661621094 8.7270908355712890625 8.185939788818359375 8.3306608200073242188 7.6294493675231933594 7.8512325286865234375 7.9421925544738769531 7.8282155990600585938 8.0735645294189453125 7.2058200836181640625 6.5898261070251464844 7.5302968025207519531 7.9530134201049804688 8.219486236572265625 8.144779205322265625 7.2463335990905761719 6.4998059272766113281 6.608158111572265625 6.5053071975708007812 6.7261843681335449219 6.6255393028259277344 6.8560948371887207031 6.4708752632141113281 5.4857811927795410156 5.1401109695434570312 6.5892987251281738281 7.9459619522094726562 9.489589691162109375 9.2996759414672851562 9.8094186782836914062 9.9149427413940429688 2.9667637348175048828 2.192188262939453125 1.9534058570861816406 -9999 1.2910399436950683594 1.6966724395751953125 1.7139281034469604492 2.4786214828491210938 
-9999 -9999 -9999 -9999 -9999 -9999 -9999 -9999 -9999 1.7182173728942871094 -9999 1.6154841184616088867 1.8196662664413452148 2.187946319580078125 2.4971644878387451172 2.1158607006072998047 2.0189538002014160156 2.2153568267822265625 2.4649853706359863281 3.0656292438507080078 2.0601956844329833984 4.0380549430847167969 3.8255867958068847656 3.6954569816589355469 -9999 -9999 1.4445168972015380859 -9999 -9999 -9999 2.5283753871917724609 2.1477897167205810547 4.962493896484375 4.3118791580200195312 2.0794532299041748047 2.2584345340728759766 1.7542747259140014648 1.5317778587341308594 1.9526129961013793945 -9999 2.4095335006713867188 2.3229186534881591797 1.7062782049179077148 3.2712938785552978516 4.3880076408386230469 3.6470580101013183594 5.868068695068359375 6.2291545867919921875 5.3771748542785644531 1.6871161460876464844 1.7387503385543823242 2.0967314243316650391 5.8236413002014160156 7.6865029335021972656 5.9991555213928222656 1.9149929285049438477 1.5671981573104858398 -9999 3.5970320701599121094 2.8272573947906494141 -9999 2.3711178302764892578 -9999 2.8886904716491699219 6.0314645767211914062 5.0590882301330566406 2.6887941360473632812 2.5401074886322021484 -9999 6.7540917396545410156 8.3112726211547851562 5.4023156166076660156 5.9355859756469726562 6.0924744606018066406 4.5629963874816894531 5.039028167724609375 7.0899195671081542969 7.4346189498901367188 6.640583038330078125 6.7865567207336425781 5.8420586585998535156 5.6841673851013183594 7.059551239013671875 8.487270355224609375 9.4206018447875976562 6.3751654624938964844 15.980883598327636719 19.9730377197265625 12.195576667785644531 9.6290645599365234375 8.0545701980590820312 8.7536897659301757812 8.1284189224243164062 7.8956317901611328125 7.548610687255859375 7.5338797569274902344 8.0835294723510742188 7.3112230300903320312 7.1152048110961914062 8.0268754959106445312 8.3470182418823242188 8.5218105316162109375 8.0377559661865234375 7.5292801856994628906 6.9797496795654296875 6.3836565017700195312 6.1334323883056640625 7.1122221946716308594 7.0855312347412109375 6.8495373725891113281 6.6974797248840332031 5.9846053123474121094 5.6230325698852539062 7.4986577033996582031 7.898685455322265625 9.6899852752685546875 8.8712472915649414062 4.3116254806518554688 3.7043316364288330078 4.6541910171508789062 2.8056366443634033203 2.521427154541015625 2.1797597408294677734 1.4705648422241210938 1.2165426015853881836 1.3233069181442260742 1.6724283695220947266 
-9999 -9999 -9999 -9999 -9999 -9999 -9999 2.1968595981597900391 1.9701256752014160156 -9999 3.1055867671966552734 3.2113592624664306641 1.9508131742477416992 2.1105873584747314453 2.7522976398468017578 2.617748260498046875 2.0456984043121337891 2.8479058742523193359 5.007373809814453125 3.8324251174926757812 2.7802572250366210938 2.1579697132110595703 2.6902141571044921875 2.20607757568359375 2.5869016647338867188 2.0050213336944580078 1.7621004581451416016 1.7647989988327026367 2.3274474143981933594 1.8520274162292480469 2.9931266307830810547 3.7978024482727050781 3.2855682373046875 4.7357110977172851562 3.1825437545776367188 -9999 3.0103061199188232422 2.1515533924102783203 1.6454787254333496094 2.9122328758239746094 3.0506031513214111328 2.1723315715789794922 2.1476287841796875 2.138942718505859375 2.1986720561981201172 2.7161753177642822266 4.5581603050231933594 5.953105926513671875 6.5679044723510742188 2.2187359333038330078 -9999 3.1155507564544677734 6.2394771575927734375 6.6585979461669921875 4.2646460533142089844 1.2365963459014892578 -9999 1.5772079229354858398 1.7179231643676757812 2.2004117965698242188 4.9818143844604492188 2.3831279277801513672 -9999 1.2004969120025634766 12.328563690185546875 10.834143638610839844 5.4503607749938964844 6.3456196784973144531 2.3046419620513916016 4.1232705116271972656 6.0645308494567871094 5.4376344680786132812 5.5365381240844726562 4.76641082763671875 4.4263081550598144531 5.0682802200317382812 7.2477803230285644531 7.23300933837890625 7.3574490547180175781 6.0222864151000976562 5.669986724853515625 7.0678067207336425781 7.8495054244995117188 9.3337488174438476562 8.55313873291015625 7.3679709434509277344 -9999 11.025847434997558594 12.468027114868164062 9.9368276596069335938 8.195690155029296875 8.8407201766967773438 8.3295011520385742188 7.6983723640441894531 6.9445357322692871094 6.959369659423828125 8.0282230377197265625 8.0787668228149414062 8.588558197021484375 8.6729888916015625 8.251148223876953125 8.1433544158935546875 7.6428689956665039062 7.7524261474609375 6.7566585540771484375 6.2088379859924316406 6.2846155166625976562 6.9119625091552734375 6.4294691085815429688 5.8048586845397949219 5.6231670379638671875 7.6529436111450195312 6.5058884620666503906 7.4582471847534179688 7.8808474540710449219 9.0732336044311523438 5.9458642005920410156 2.6593325138092041016 2.918666839599609375 3.4267437458038330078 3.3420016765594482422 5.8024997711181640625 4.7586050033569335938 2.5948846340179443359 1.2529566287994384766 1.4704647064208984375 1.8842573165893554688 
-9999 -9999 -9999 -9999 -9999 -9999 2.5529856681823730469 4.4732847213745117188 2.4476256370544433594 2.0212190151214599609 3.4169919490814208984 3.2182269096374511719 2.1172232627868652344 2.2877323627471923828 2.5153183937072753906 2.0543549060821533203 2.4914455413818359375 3.7062420845031738281 3.3887805938720703125 1.1549724340438842773 2.2923591136932373047 2.9927713871002197266 8.1664285659790039062 -9999 2.4954659938812255859 2.3521139621734619141 -9999 1.8574397563934326172 2.6503100395202636719 -9999 1.7777084112167358398 2.9582822322845458984 2.4295635223388671875 3.1949753761291503906 3.1460444927215576172 5.1831517219543457031 2.9055032730102539062 1.9902198314666748047 1.9337841272354125977 3.0136585235595703125 3.5263588428497314453 2.5159866809844970703 1.7524104118347167969 2.4383203983306884766 2.2845885753631591797 1.4645831584930419922 1.772030949592590332 4.0145406723022460938 5.7448215484619140625 2.9609370231628417969 1.0381104946136474609 2.2787811756134033203 5.5769519805908203125 5.6503992080688476562 4.2936997413635253906 -9999 -9999 1.9860949516296386719 2.1256704330444335938 4.9533352851867675781 7.4079275131225585938 3.29615020751953125 -9999 2.906158447265625 10.737349510192871094 10.21262359619140625 7.1181874275207519531 5.3704056739807128906 3.6348569393157958984 5.3631281852722167969 6.9317874908447265625 5.516208648681640625 5.2021665573120117188 3.9946997165679931641 5.0022840499877929688 4.9830269813537597656 7.4371361732482910156 7.175045013427734375 6.6683421134948730469 11.547489166259765625 7.7105231285095214844 7.5793957710266113281 8.1796770095825195312 9.5272226333618164062 10.033535003662109375 11.091128349304199219 12.192041397094726562 10.739366531372070312 10.774470329284667969 9.6995344161987304688 8.6834764480590820312 9.107433319091796875 9.1012163162231445312 8.6309099197387695312 7.9650354385375976562 7.8643984794616699219 8.0817117691040039062 7.1017765998840332031 7.7612962722778320312 7.8791027069091796875 7.573200225830078125 7.9100003242492675781 7.6581921577453613281 6.8797931671142578125 6.2608208656311035156 6.2632341384887695312 6.4151105880737304688 6.1557817459106445312 6.4533491134643554688 5.6074314117431640625 4.7607374191284179688 6.7758874893188476562 6.6294507980346679688 6.6806116104125976562 6.736583709716796875 8.39821624755859375 8.34339141845703125 5.1316781044006347656 2.0819270610809326172 1.5593596696853637695 2.0992939472198486328 3.0204586982727050781 2.3914649486541748047 2.0720934867858886719 -9999 -9999 -9999 
2.2188277244567871094 -9999 -9999 1.956232905387878418 2.1170294284820556641 3.0730226039886474609 2.502170562744140625 2.7899713516235351562 2.3980898857116699219 2.0826432704925537109 2.6396489143371582031 2.1583764553070068359 2.3259832859039306641 1.8562129735946655273 1.957785487174987793 2.2551763057708740234 4.0165042877197265625 4.1711850166320800781 3.1058850288391113281 1.2578783035278320312 -9999 2.1944091320037841797 4.8061199188232421875 2.3426845073699951172 3.8647277355194091797 3.1370792388916015625 -9999 -9999 -9999 -9999 2.4855625629425048828 2.3373026847839355469 -9999 2.5862574577331542969 2.3841624259948730469 5.3692722320556640625 3.1575472354888916016 2.2942478656768798828 1.7449210882186889648 2.4519007205963134766 4.1816105842590332031 -9999 1.9650313854217529297 2.7964231967926025391 1.159846186637878418 1.291545867919921875 -9999 1.7113397121429443359 -9999 5.4867024421691894531 6.7911057472229003906 2.7776505947113037109 -9999 -9999 -9999 -9999 -9999 -9999 -9999 4.5626854896545410156 7.2957792282104492188 8.82293701171875 2.6689629554748535156 10.113756179809570312 5.0869183540344238281 4.9876856803894042969 4.577236175537109375 3.7581961154937744141 6.7206125259399414062 5.4747195243835449219 5.43231964111328125 5.2223615646362304688 6.0306468009948730469 4.6157379150390625 4.3414444923400878906 5.1412482261657714844 9.2730684280395507812 9.6872930526733398438 9.35662841796875 15.066378593444824219 6.2274456024169921875 6.8090677261352539062 7.8634748458862304688 8.5853099822998046875 10.854214668273925781 10.847043037414550781 10.078116416931152344 9.1985750198364257812 9.6329736709594726562 7.8509659767150878906 7.6997790336608886719 9.0329942703247070312 9.1343088150024414062 8.5904779434204101562 7.2796835899353027344 8.2966251373291015625 8.4024095535278320312 8.5489149093627929688 7.9526925086975097656 7.55925750732421875 7.3189439773559570312 7.2918972969055175781 7.7192521095275878906 7.047321319580078125 6.6294994354248046875 6.8764681816101074219 7.7048559188842773438 6.0592260360717773438 4.5912938117980957031 4.2701792716979980469 5.3801021575927734375 5.821918487548828125 5.5492024421691894531 6.5245079994201660156 8.5377655029296875 6.8555836677551269531 8.7601795196533203125 13.408390045166015625 3.5430908203125 1.8731766939163208008 -9999 -9999 1.7406117916107177734 -9999 -9999 -9999 -9999 
1.9811731576919555664 1.694393157958984375 -9999 2.4093008041381835938 5.3246850967407226562 7.211231231689453125 6.0806188583374023438 2.5504145622253417969 3.5880656242370605469 -9999 5.73950958251953125 3.3877770900726318359 1.9671672582626342773 -9999 2.2995457649230957031 2.5783555507659912109 3.1783273220062255859 4.032649993896484375 4.6039972305297851562 3.5810215473175048828 1.9541682004928588867 1.3873567581176757812 1.924294590950012207 2.8999187946319580078 6.0907011032104492188 4.9389829635620117188 3.5240221023559570312 2.5736553668975830078 1.2909806966781616211 -9999 1.9519158601760864258 1.3790938854217529297 2.3261730670928955078 2.1862804889678955078 2.3365356922149658203 1.211501002311706543 1.5796319246292114258 2.8250665664672851562 2.1402471065521240234 1.9217896461486816406 2.4050199985504150391 2.669391632080078125 2.3416888713836669922 1.9507960081100463867 4.3815813064575195312 2.4572150707244873047 -9999 -9999 -9999 3.6305468082427978516 7.1819629669189453125 5.1383509635925292969 -9999 -9999 -9999 -9999 -9999 -9999 1.4541203975677490234 7.915904998779296875 7.4580221176147460938 6.4854121208190917969 6.8581042289733886719 6.2487001419067382812 3.6837961673736572266 3.4132807254791259766 3.0449995994567871094 6.83344268798828125 5.9649229049682617188 6.8159985542297363281 6.3253602981567382812 7.0321264266967773438 7.026092529296875 5.8233976364135742188 5.6868734359741210938 8.1025867462158203125 8.2609796524047851562 8.3716192245483398438 10.576329231262207031 7.0580353736877441406 5.598125457763671875 7.3027482032775878906 7.8971834182739257812 7.4412412643432617188 7.9499716758728027344 7.2043275833129882812 6.3632879257202148438 5.9240202903747558594 6.8211836814880371094 7.4945220947265625 8.5116472244262695312 9.255695343017578125 8.5864381790161132812 7.0310826301574707031 5.4833307266235351562 7.8388886451721191406 9.1883602142333984375 8.4707889556884765625 7.9662804603576660156 8.1071691513061523438 7.2373671531677246094 6.7718706130981445312 8.0616941452026367188 7.6702675819396972656 6.7676596641540527344 5.8978295326232910156 5.5930280685424804688 3.8559701442718505859 4.7204504013061523438 8.0034618377685546875 5.9801812171936035156 5.1198697090148925781 4.8748555183410644531 5.3692770004272460938 6.3462185859680175781 6.4195613861083984375 6.7337412834167480469 8.0060882568359375 6.9437923431396484375 2.3080930709838867188 -9999 -9999 -9999 -9999 -9999 -9999 -9999 
1.9143307209014892578 2.0494656562805175781 2.2148611545562744141 4.710071563720703125 7.9865970611572265625 9.1432332992553710938 7.6163110733032226562 5.3713226318359375 6.8631091117858886719 7.5582051277160644531 5.7971467971801757812 4.4192614555358886719 2.3071339130401611328 2.0074720382690429688 2.2511198520660400391 1.8479251861572265625 2.4445321559906005859 2.4082674980163574219 3.7951183319091796875 2.9756505489349365234 -9999 1.3238189220428466797 -9999 3.0126700401306152344 6.0376224517822265625 6.7633991241455078125 6.4505519866943359375 2.0185718536376953125 -9999 -9999 1.9042468070983886719 -9999 1.6345525979995727539 2.4434421062469482422 5.8998913764953613281 2.8249166011810302734 1.9202330112457275391 1.8615794181823730469 1.841399073600769043 1.4566748142242431641 1.7674603462219238281 2.30834197998046875 2.5816566944122314453 2.8741707801818847656 4.3066854476928710938 4.9380984306335449219 1.8564399480819702148 1.3662630319595336914 -9999 -9999 7.2974591255187988281 8.4412364959716796875 6.08556365966796875 3.8668348789215087891 -9999 -9999 3.9614078998565673828 6.8362636566162109375 9.0855607986450195312 9.2664356231689453125 7.4282817840576171875 7.2549004554748535156 7.6209712028503417969 5.9865407943725585938 4.9741730690002441406 3.9649248123168945312 4.902576446533203125 8.1474895477294921875 6.7312550544738769531 6.1907248497009277344 6.1077938079833984375 7.4392309188842773438 6.513916015625 9.1629571914672851562 7.3255677223205566406 7.6727237701416015625 7.5513987541198730469 9.7261295318603515625 10.592394828796386719 6.9501886367797851562 5.9168400764465332031 6.2101755142211914062 6.5786485671997070312 6.1829781532287597656 6.2927594184875488281 6.5088624954223632812 6.7520475387573242188 6.8004941940307617188 6.6616425514221191406 7.419677734375 7.7962360382080078125 8.3851776123046875 8.3473300933837890625 7.5874466896057128906 6.3777232170104980469 7.7310190200805664062 8.5496549606323242188 8.3905181884765625 8.1697778701782226562 8.5619249343872070312 7.696163177490234375 6.951507568359375 6.9074845314025878906 7.1740560531616210938 6.69515228271484375 5.739063262939453125 5.7947607040405273438 4.2200198173522949219 6.0160975456237792969 7.0981473922729492188 6.2029995918273925781 6.226856231689453125 4.3038096427917480469 3.829914093017578125 4.2729020118713378906 5.0114288330078125 5.4977707862854003906 7.5203423500061035156 8.0175027847290039062 2.4633550643920898438 -9999 -9999 -9999 -9999 -9999 -9999 -9999 
-9999 -9999 1.0317338705062866211 2.5520725250244140625 5.6716413497924804688 5.8976459503173828125 7.56632232666015625 1.0658489465713500977 1.0821892023086547852 4.3862972259521484375 3.444805145263671875 2.5928623676300048828 1.9784148931503295898 1.5495190620422363281 1.7049585580825805664 -9999 -9999 2.14662933349609375 3.2016980648040771484 2.410793304443359375 1.630025029182434082 -9999 -9999 -9999 3.8938660621643066406 5.6992316246032714844 5.3879270553588867188 2.3943221569061279297 2.5273232460021972656 1.7634668350219726562 2.15311431884765625 -9999 -9999 2.1145384311676025391 4.1632304191589355469 3.8462972640991210938 3.0340943336486816406 -9999 1.5353456735610961914 2.2264451980590820312 2.4259631633758544922 2.4758822917938232422 4.2175803184509277344 3.7621629238128662109 3.7914736270904541016 4.9898581504821777344 2.1752457618713378906 2.0963926315307617188 1.6907465457916259766 2.6604778766632080078 5.4045305252075195312 5.4039044380187988281 5.7787861824035644531 6.433940887451171875 3.9504148960113525391 -9999 7.6365594863891601562 9.450954437255859375 9.5038061141967773438 8.8175268173217773438 8.9036760330200195312 7.7068514823913574219 6.8878917694091796875 6.1588206291198730469 5.8423275947570800781 5.1001324653625488281 5.9571948051452636719 8.0418386459350585938 8.6928462982177734375 9.4220104217529296875 3.8220758438110351562 4.4183754920959472656 5.7068543434143066406 7.9859986305236816406 9.0898962020874023438 8.8706712722778320312 7.2517638206481933594 8.9605093002319335938 9.8494930267333984375 7.7694497108459472656 6.8491840362548828125 6.5373778343200683594 5.2043981552124023438 6.7994132041931152344 6.78333282470703125 7.0556864738464355469 7.2910809516906738281 6.6724939346313476562 6.2843594551086425781 7.1757388114929199219 7.7379040718078613281 8.976879119873046875 8.301136016845703125 8.3371591567993164062 6.8524565696716308594 4.9307098388671875 7.0496029853820800781 7.6177983283996582031 8.983264923095703125 8.2488641738891601562 7.8746590614318847656 6.9715600013732910156 6.5301961898803710938 6.3714871406555175781 7.3458628654479980469 6.789623260498046875 6.1529364585876464844 4.7465963363647460938 4.862751007080078125 6.0036416053771972656 7.3013248443603515625 6.3233456611633300781 5.5316720008850097656 3.8064720630645751953 3.6808292865753173828 4.0071210861206054688 2.3700811862945556641 3.9385588169097900391 5.9430279731750488281 1.6913816928863525391 -9999 -9999 -9999 -9999 -9999 -9999 2.0237784385681152344 
-9999 -9999 -9999 1.2679206132888793945 6.0307660102844238281 7.7882022857666015625 7.8116917610168457031 -9999 -9999 -9999 -9999 1.6222369670867919922 1.3846967220306396484 1.6054238080978393555 1.988415837287902832 1.8474378585815429688 -9999 1.5324550867080688477 1.7651821374893188477 2.0489249229431152344 1.7912600040435791016 -9999 -9999 -9999 -9999 2.5826315879821777344 4.1921138763427734375 2.9279088973999023438 1.9252378940582275391 1.5215547084808349609 1.7265429496765136719 1.6229567527770996094 3.1173262596130371094 3.2572426795959472656 2.3208901882171630859 2.2245163917541503906 2.2217164039611816406 -9999 2.7528872489929199219 4.5999698638916015625 2.3407196998596191406 2.3279469013214111328 4.6233701705932617188 8.2889375686645507812 6.7691540718078613281 3.3797817230224609375 3.2754356861114501953 3.2974042892456054688 2.3676891326904296875 2.1860964298248291016 4.502399444580078125 5.4470562934875488281 6.2115311622619628906 6.8745975494384765625 7.0213131904602050781 -9999 6.8544940948486328125 7.9850521087646484375 6.877727508544921875 8.8074016571044921875 8.520969390869140625 6.7942266464233398438 5.3980755805969238281 4.9372158050537109375 4.0493059158325195312 5.3764066696166992188 6.5996198654174804688 7.3341665267944335938 6.4316067695617675781 4.6071314811706542969 5.8775343894958496094 5.7464632987976074219 5.0253596305847167969 7.8338990211486816406 9.91741943359375 9.7194967269897460938 9.1783542633056640625 8.6198511123657226562 8.6837787628173828125 7.4949860572814941406 7.4843344688415527344 6.5073781013488769531 5.1459593772888183594 7.2413945198059082031 7.2289514541625976562 6.5663399696350097656 6.7967815399169921875 6.8483643531799316406 7.00067901611328125 8.473308563232421875 10.190703392028808594 9.8924703598022460938 8.35887908935546875 4.8206238746643066406 4.188251495361328125 4.0029802322387695312 5.4688735008239746094 7.7365193367004394531 8.370937347412109375 8.19580078125 7.3351883888244628906 6.685420989990234375 6.4431729316711425781 7.2266206741333007812 7.2384700775146484375 6.6962118148803710938 6.5608344078063964844 6.2379260063171386719 6.3481078147888183594 6.4878129959106445312 6.7813062667846679688 7.3293752670288085938 4.5518965721130371094 3.6709148883819580078 3.1578540802001953125 2.8968274593353271484 1.9795336723327636719 2.2253673076629638672 2.5997297763824462891 1.8481236696243286133 -9999 -9999 -9999 -9999 -9999 -9999 -9999 
-9999 -9999 -9999 2.9847760200500488281 7.0808873176574707031 15.537549972534179688 15.654526710510253906 5.6830644607543945312 2.8727617263793945312 2.6497063636779785156 -9999 -9999 1.4276201725006103516 1.3421914577484130859 1.4406467676162719727 1.4640616178512573242 1.7497012615203857422 -9999 -9999 -9999 -9999 -9999 -9999 -9999 -9999 -9999 -9999 1.0625400543212890625 1.8859729766845703125 1.6097543239593505859 1.6073656082153320312 -9999 3.4305751323699951172 1.3449257612228393555 -9999 1.581900477409362793 2.3966121673583984375 -9999 2.0268878936767578125 2.4632084369659423828 1.489438176155090332 1.5713201761245727539 5.4985384941101074219 8.4854602813720703125 7.8860449790954589844 7.8420076370239257812 7.8037743568420410156 6.9044833183288574219 5.1523852348327636719 -9999 5.7841362953186035156 6.1842947006225585938 6.7106604576110839844 7.9012026786804199219 7.8176856040954589844 -9999 3.2483873367309570312 3.3239941596984863281 4.1588864326477050781 5.0928363800048828125 7.4755158424377441406 7.204986572265625 6.81937408447265625 6.0599040985107421875 6.1345419883728027344 5.9204530715942382812 5.4967370033264160156 4.6519269943237304688 4.1095461845397949219 4.6739110946655273438 6.3457827568054199219 6.0686354637145996094 5.3459935188293457031 5.634807586669921875 7.5817065238952636719 10.632358551025390625 15.992453575134277344 10.235775947570800781 8.690822601318359375 6.9348478317260742188 6.2415418624877929688 7.3270196914672851562 7.1002359390258789062 7.2594594955444335938 7.0234332084655761719 6.8728270530700683594 7.3582825660705566406 6.9174294471740722656 5.820079803466796875 10.615468025207519531 14.201592445373535156 9.5656023025512695312 8.2885694503784179688 7.0285897254943847656 7.7655711174011230469 3.3815658092498779297 4.7962369918823242188 6.3707857131958007812 7.2312302589416503906 7.5789852142333984375 6.3788661956787109375 4.0329804420471191406 4.8198213577270507812 7.5435504913330078125 7.7621088027954101562 7.1415343284606933594 6.2019219398498535156 5.6069130897521972656 6.69579315185546875 7.277797698974609375 6.0249123573303222656 2.9788546562194824219 2.9979212284088134766 3.7507503032684326172 2.3583314418792724609 1.8608326911926269531 1.4466937780380249023 3.5957772731781005859 3.9965221881866455078 3.1407134532928466797 1.6774953603744506836 -9999 -9999 -9999 -9999 -9999 -9999 
-9999 2.1322953701019287109 -9999 1.2125471830368041992 4.10837554931640625 7.0469603538513183594 7.8716626167297363281 9.2095050811767578125 6.6295928955078125 6.4149141311645507812 2.4521822929382324219 2.3983042240142822266 2.5057024955749511719 -9999 -9999 1.5254099369049072266 -9999 1.6117573976516723633 -9999 -9999 -9999 -9999 -9999 -9999 -9999 -9999 -9999 -9999 2.0746781826019287109 1.8667225837707519531 1.6612209081649780273 -9999 2.0531535148620605469 2.3120458126068115234 1.4677203893661499023 1.6106507778167724609 -9999 1.7058155536651611328 2.1512262821197509766 1.6118239164352416992 1.3440276384353637695 1.3125705718994140625 3.7334764003753662109 6.6221222877502441406 9.08858489990234375 9.1249380111694335938 7.6844658851623535156 7.0539865493774414062 4.3475189208984375 3.1431009769439697266 6.0060071945190429688 6.5082764625549316406 6.9691405296325683594 8.9630680084228515625 6.7656664848327636719 2.9882233142852783203 2.2520117759704589844 2.5336863994598388672 3.143218994140625 4.4691567420959472656 5.7506928443908691406 7.1494741439819335938 8.0535326004028320312 6.4226350784301757812 7.0860915184020996094 6.2475981712341308594 6.522960662841796875 3.4755747318267822266 1.3137563467025756836 4.8566594123840332031 8.8402919769287109375 5.4667544364929199219 5.0610284805297851562 3.3472840785980224609 5.0998468399047851562 6.5233597755432128906 6.8606729507446289062 9.5584096908569335938 8.4515132904052734375 5.0479216575622558594 6.8735790252685546875 7.6505460739135742188 7.9025874137878417969 6.7628083229064941406 7.0166044235229492188 6.9650578498840332031 7.3721985816955566406 8.1579332351684570312 7.9851441383361816406 9.5152845382690429688 9.8877887725830078125 9.0693445205688476562 8.0723619461059570312 6.7450337409973144531 4.8569769859313964844 5.865634918212890625 6.5341005325317382812 5.7891716957092285156 5.38150787353515625 7.7610025405883789062 8.52130126953125 5.9817194938659667969 6.9656696319580078125 6.499477386474609375 6.5398130416870117188 6.9921846389770507812 6.5958719253540039062 6.6916241645812988281 6.3060121536254882812 7.0516362190246582031 6.2088985443115234375 3.6415643692016601562 3.6206080913543701172 2.6774294376373291016 1.4003945589065551758 -9999 2.1792948246002197266 6.522884368896484375 4.5793976783752441406 2.2659382820129394531 -9999 -9999 -9999 -9999 -9999 -9999 -9999 
-9999 -9999 -9999 -9999 2.0203239917755126953 4.0404186248779296875 4.9399676322937011719 10.116276741027832031 8.039340972900390625 6.6294240951538085938 4.1335558891296386719 2.3966450691223144531 3.9429023265838623047 1.7896077632904052734 -9999 -9999 -9999 -9999 2.4783422946929931641 3.8665225505828857422 2.2229428291320800781 -9999 -9999 -9999 -9999 -9999 -9999 -9999 1.9863175153732299805 1.880770564079284668 -9999 -9999 1.8488396406173706055 2.2795894145965576172 2.4820997714996337891 2.2258365154266357422 -9999 1.6572936773300170898 1.9823517799377441406 -9999 1.2642726898193359375 1.3538264036178588867 2.0681922435760498047 4.3913106918334960938 8.3763589859008789062 9.1648664474487304688 5.2164711952209472656 2.3416988849639892578 -9999 5.3458056449890136719 6.2581005096435546875 6.642871856689453125 3.5440840721130371094 6.8302516937255859375 7.9168057441711425781 5.271694183349609375 -9999 1.7285841703414916992 7.6229987144470214844 11.143411636352539062 7.2039484977722167969 6.9518957138061523438 6.2975611686706542969 6.9182429313659667969 6.0707836151123046875 5.0285811424255371094 4.5865035057067871094 2.2362437248229980469 -9999 2.7983384132385253906 8.8762559890747070312 6.2410407066345214844 2.356510162353515625 3.5418140888214111328 4.9973235130310058594 4.6891241073608398438 8.529117584228515625 8.2837781906127929688 8.4704370498657226562 9.0223550796508789062 9.2660770416259765625 7.8469643592834472656 8.3343954086303710938 8.0057516098022460938 7.8492803573608398438 7.618167877197265625 7.0622014999389648438 7.9100689888000488281 8.2908658981323242188 8.8505115509033203125 8.1263990402221679688 7.3327922821044921875 10.611069679260253906 7.2898883819580078125 4.9470744132995605469 5.9254450798034667969 5.3598165512084960938 5.7586641311645507812 3.8073487281799316406 4.6297922134399414062 2.935276031494140625 2.4688043594360351562 7.70006561279296875 7.4619030952453613281 7.0995831489562988281 7.2068810462951660156 8.0445308685302734375 7.7678461074829101562 7.4118142127990722656 8.0733699798583984375 5.5788583755493164062 6.0143327713012695312 8.6101846694946289062 8.0624742507934570312 1.942732691764831543 1.5691677331924438477 2.9150300025939941406 5.1137280464172363281 2.4065434932708740234 -9999 -9999 -9999 -9999 -9999 -9999 -9999 -9999 
-9999 -9999 -9999 -9999 -9999 -9999 4.46105194091796875 7.8041386604309082031 6.2091474533081054688 6.3310379981994628906 7.8701806068420410156 3.0101571083068847656 4.0009913444519042969 2.4236888885498046875 -9999 -9999 -9999 -9999 2.5661675930023193359 2.8988068103790283203 -9999 -9999 -9999 -9999 -9999 -9999 -9999 -9999 1.9250614643096923828 1.8201192617416381836 2.82183837890625 -9999 -9999 -9999 2.7027411460876464844 2.6599631309509277344 1.361449122428894043 1.572510838508605957 -9999 -9999 1.473710179328918457 1.6333403587341308594 1.947314143180847168 3.2044689655303955078 7.2382659912109375 8.4816522598266601562 5.0170497894287109375 1.3629115819931030273 1.1206812858581542969 7.4724445343017578125 6.0200643539428710938 5.49505615234375 -9999 5.8697233200073242188 7.9993295669555664062 7.2899317741394042969 -9999 2.3290309906005859375 6.0574617385864257812 11.611148834228515625 9.3935146331787109375 7.1910381317138671875 3.5726573467254638672 5.6198916435241699219 7.2422642707824707031 8.1428880691528320312 5.5956020355224609375 4.3729872703552246094 1.0195608139038085938 1.0561399459838867188 1.1295075416564941406 5.4404211044311523438 4.2795138359069824219 6.3498530387878417969 6.755512237548828125 4.2950530052185058594 6.9983587265014648438 8.2699680328369140625 8.3518505096435546875 8.0791044235229492188 6.9394288063049316406 7.7997765541076660156 7.9800391197204589844 8.0000972747802734375 8.160308837890625 8.256763458251953125 7.4398059844970703125 8.0990734100341796875 8.12808990478515625 8.620136260986328125 8.8648586273193359375 -9999 3.5021598339080810547 5.6257734298706054688 5.35494232177734375 4.7116560935974121094 3.8173518180847167969 4.6686787605285644531 5.2919154167175292969 5.9645204544067382812 1.8283814191818237305 -9999 1.8220452070236206055 7.2860121726989746094 6.6329550743103027344 8.99329376220703125 7.3767876625061035156 6.9009532928466796875 5.4965772628784179688 7.2484087944030761719 4.6051869392395019531 5.5159115791320800781 10.367014884948730469 6.9449925422668457031 1.5332009792327880859 1.3075183629989624023 -9999 -9999 -9999 -9999 -9999 -9999 -9999 -9999 -9999 -9999 -9999 
-9999 -9999 -9999 -9999 -9999 -9999 -9999 3.4085984230041503906 5.8048443794250488281 7.8856816291809082031 7.6583104133605957031 2.9679009914398193359 3.1743280887603759766 2.5307359695434570312 -9999 -9999 -9999 -9999 -9999 -9999 -9999 -9999 2.2579288482666015625 -9999 -9999 -9999 -9999 -9999 -9999 2.8270764350891113281 4.5801110267639160156 3.6454384326934814453 -9999 -9999 2.1773223876953125 1.9735200405120849609 -9999 -9999 2.9179346561431884766 2.1538550853729248047 2.9376695156097412109 3.0724608898162841797 2.7197518348693847656 3.5118448734283447266 6.9681096076965332031 7.9222421646118164062 6.6861109733581542969 3.2251932621002197266 2.3268072605133056641 8.3677721023559570312 7.1170449256896972656 4.2357168197631835938 3.9412062168121337891 6.3849229812622070312 7.8397169113159179688 6.7347769737243652344 2.9189717769622802734 3.3607828617095947266 1.052094578742980957 2.611064910888671875 7.1377587318420410156 4.6826205253601074219 3.3013834953308105469 4.646678924560546875 8.0390729904174804688 8.6076221466064453125 9.0804958343505859375 9.310596466064453125 8.6465482711791992188 4.3378529548645019531 2.0320160388946533203 11.683274269104003906 9.318695068359375 9.3928394317626953125 8.3735628128051757812 7.0403914451599121094 7.6767201423645019531 7.7461719512939453125 6.4703583717346191406 6.5284137725830078125 7.9388432502746582031 8.39348602294921875 8.1722841262817382812 8.1340770721435546875 8.0134744644165039062 8.04480743408203125 8.0950860977172851562 6.4505357742309570312 5.5170397758483886719 7.8577055931091308594 5.8284778594970703125 2.6992018222808837891 -9999 5.3969869613647460938 6.0421967506408691406 6.0132279396057128906 4.2949519157409667969 2.3730840682983398438 3.0345463752746582031 3.74050140380859375 4.4888477325439453125 1.0802578926086425781 1.059743046760559082 5.242130279541015625 4.0276622772216796875 6.9492001533508300781 -9999 1.9519078731536865234 -9999 -9999 2.2509632110595703125 -9999 3.5070924758911132812 2.1498844623565673828 -9999 -9999 -9999 -9999 -9999 -9999 -9999 -9999 -9999 -9999 -9999 -9999 -9999 
-9999 -9999 -9999 -9999 -9999 -9999 -9999 2.2092397212982177734 3.5465323925018310547 5.0560588836669921875 4.020198822021484375 2.5436406135559082031 1.7581028938293457031 1.4282950162887573242 -9999 -9999 -9999 -9999 -9999 -9999 -9999 1.9149118661880493164 2.5677485466003417969 2.522777557373046875 1.677215576171875 -9999 -9999 -9999 -9999 5.1901535987854003906 7.49436187744140625 7.443744659423828125 -9999 -9999 1.4439712762832641602 1.4469636678695678711 2.3679492473602294922 3.4641368389129638672 3.7612118721008300781 1.0646821260452270508 4.4845032691955566406 5.2162299156188964844 4.7034916877746582031 5.5331816673278808594 7.2030634880065917969 7.421947479248046875 6.9301843643188476562 8.612300872802734375 8.8407602310180664062 9.25328826904296875 9.421443939208984375 7.9088716506958007812 7.0043697357177734375 5.8890776634216308594 8.1429605484008789062 7.9508738517761230469 5.0391421318054199219 2.7958636283874511719 1.0969105958938598633 3.2521481513977050781 5.0461950302124023438 2.6200163364410400391 3.6167135238647460938 4.1502227783203125 7.4173817634582519531 7.83626556396484375 7.8445978164672851562 8.4802484512329101562 8.89459991455078125 9.217815399169921875 10.357362747192382812 8.5173492431640625 9.3469762802124023438 9.2779397964477539062 5.2718987464904785156 7.7573428153991699219 9.6046113967895507812 8.8776264190673828125 8.234409332275390625 6.8269038200378417969 8.142993927001953125 7.86421966552734375 8.0439510345458984375 8.8690099716186523438 8.762882232666015625 8.6202526092529296875 8.3331785202026367188 7.136173248291015625 4.4832825660705566406 3.1164333820343017578 11.019278526306152344 6.0553112030029296875 4.2382416725158691406 5.2819886207580566406 2.6665885448455810547 6.0712337493896484375 5.92937469482421875 1.0639162063598632812 -9999 1.8998442888259887695 3.694393157958984375 4.595485687255859375 2.5956952571868896484 2.5447633266448974609 1.8517142534255981445 -9999 -9999 2.4051177501678466797 -9999 -9999 -9999 -9999 -9999 -9999 -9999 -9999 -9999 -9999 -9999 -9999 -9999 -9999 -9999 -9999 -9999 -9999 -9999 
-9999 -9999 -9999 -9999 -9999 -9999 -9999 -9999 1.8885909318923950195 2.0342769622802734375 1.5338464975357055664 2.1694023609161376953 1.6899614334106445312 1.6281177997589111328 -9999 -9999 1.6362485885620117188 -9999 -9999 -9999 -9999 -9999 -9999 -9999 -9999 1.4877750873565673828 -9999 -9999 -9999 7.691753387451171875 7.2760949134826660156 8.2738857269287109375 1.6549948453903198242 -9999 -9999 -9999 2.4259853363037109375 4.3117308616638183594 3.7949762344360351562 -9999 3.0004208087921142578 5.5057883262634277344 6.7631974220275878906 7.5007185935974121094 6.1124377250671386719 6.8035917282104492188 5.2726397514343261719 7.0788197517395019531 6.5991563796997070312 7.7536163330078125 8.4233789443969726562 7.6459817886352539062 5.2010045051574707031 6.0873317718505859375 8.7434225082397460938 8.0584344863891601562 6.8164143562316894531 -9999 4.4044270515441894531 5.1038608551025390625 3.1639037132263183594 2.2811090946197509766 3.5003979206085205078 3.4907691478729248047 5.4092955589294433594 7.1967473030090332031 7.2968845367431640625 8.2772541046142578125 9.1789989471435546875 9.1793575286865234375 8.7493886947631835938 6.7781233787536621094 9.180484771728515625 7.9003648757934570312 4.3508367538452148438 3.5527689456939697266 4.0241484642028808594 7.4492449760437011719 5.5995931625366210938 6.7878732681274414062 7.7908368110656738281 8.241413116455078125 8.2252902984619140625 8.3435945510864257812 8.3542985916137695312 7.6226172447204589844 7.5073170661926269531 7.1228971481323242188 5.9881329536437988281 5.2268404960632324219 5.7639927864074707031 4.5137238502502441406 5.6680049896240234375 4.7246298789978027344 -9999 6.5352087020874023438 7.3323159217834472656 1.2396889925003051758 -9999 -9999 2.2037811279296875 2.3139364719390869141 2.1650354862213134766 2.1802308559417724609 1.6649262905120849609 -9999 2.8962099552154541016 5.6770119667053222656 1.700072169303894043 -9999 -9999 -9999 -9999 -9999 -9999 -9999 -9999 -9999 -9999 -9999 -9999 -9999 -9999 -9999 -9999 -9999 -9999 
-9999 -9999 -9999 -9999 -9999 -9999 -9999 -9999 -9999 -9999 -9999 -9999 -9999 -9999 -9999 -9999 -9999 -9999 -9999 -9999 -9999 -9999 -9999 -9999 -9999 -9999 -9999 -9999 2.6886410713195800781 7.4339051246643066406 7.1228528022766113281 8.5347127914428710938 10.436751365661621094 8.8702898025512695312 5.6514110565185546875 1.7273846864700317383 -9999 4.1152749061584472656 5.968173980712890625 3.5398740768432617188 2.2487640380859375 4.1585927009582519531 5.0840101242065429688 4.9192352294921875 5.3979249000549316406 5.3688359260559082031 4.4658794403076171875 6.3518872261047363281 5.6831421852111816406 4.6769433021545410156 4.5388817787170410156 5.3388085365295410156 2.7610599994659423828 5.2726926803588867188 8.92874908447265625 7.1646833419799804688 7.3770952224731445312 4.8131260871887207031 4.0618343353271484375 3.0681104660034179688 1.5806651115417480469 2.5899837017059326172 3.6890175342559814453 3.7381412982940673828 4.7799406051635742188 6.7504343986511230469 7.8215651512145996094 8.4604740142822265625 8.1379880905151367188 8.1455812454223632812 7.9694795608520507812 7.8071813583374023438 8.9491214752197265625 6.7083659172058105469 7.9042339324951171875 4.32100677490234375 1.8633813858032226562 3.5435004234313964844 6.0415315628051757812 7.7709851264953613281 6.9288249015808105469 7.0984296798706054688 7.3425035476684570312 7.5964341163635253906 7.1969733238220214844 6.7777390480041503906 7.4711794853210449219 7.4544234275817871094 7.2782688140869140625 7.0891237258911132812 7.1830110549926757812 7.3010573387145996094 7.8099007606506347656 8.7862339019775390625 8.496761322021484375 6.9974417686462402344 7.5275282859802246094 5.519504547119140625 1.0805759429931640625 2.4678499698638916016 5.0780625343322753906 6.9352588653564453125 2.1126413345336914062 1.7267800569534301758 1.437923431396484375 -9999 4.5562701225280761719 6.3167309761047363281 1.4690424203872680664 1.2734292745590209961 -9999 -9999 -9999 -9999 -9999 -9999 -9999 -9999 -9999 -9999 1.4799865484237670898 -9999 -9999 -9999 -9999 -9999 -9999 
-9999 -9999 -9999 -9999 -9999 -9999 -9999 -9999 -9999 -9999 -9999 -9999 -9999 -9999 -9999 -9999 -9999 -9999 -9999 -9999 -9999 -9999 -9999 -9999 -9999 -9999 -9999 -9999 -9999 3.5448179244995117188 5.6236858367919921875 9.5241098403930664062 8.7412929534912109375 8.0311374664306640625 7.31561279296875 1.0362583398818969727 -9999 -9999 2.1286270618438720703 2.4041502475738525391 3.1122944355010986328 2.7888660430908203125 2.9153740406036376953 3.0040299892425537109 3.7050085067749023438 4.3717565536499023438 4.4422707557678222656 4.9499554634094238281 8.3902435302734375 7.1661853790283203125 7.952625274658203125 7.1138782501220703125 -9999 3.9938571453094482422 5.5110111236572265625 5.3290934562683105469 6.4444446563720703125 4.6888933181762695312 2.7808203697204589844 1.6488230228424072266 2.5280058383941650391 2.7700619697570800781 4.2494807243347167969 5.2814545631408691406 5.6197948455810546875 4.9824385643005371094 7.8919415473937988281 8.0652227401733398438 7.5335865020751953125 7.4998631477355957031 7.2754621505737304688 7.571567535400390625 8.1077890396118164062 4.56304931640625 7.6052751541137695312 7.0603342056274414062 4.8442974090576171875 6.0015053749084472656 7.8223414421081542969 7.5229406356811523438 7.7090191841125488281 7.3369603157043457031 6.5682735443115234375 6.970272064208984375 7.4342131614685058594 7.5624341964721679688 8.1788148880004882812 8.4309520721435546875 8.4113321304321289062 8.2918033599853515625 9.0014276504516601562 8.4087362289428710938 8.15630340576171875 7.0666718482971191406 6.4660201072692871094 5.9992690086364746094 6.3164725303649902344 3.6207747459411621094 3.0140917301177978516 4.4217619895935058594 5.6530141830444335938 6.1358971595764160156 1.5151288509368896484 1.6122361421585083008 1.3189111948013305664 1.7594140768051147461 5.5885949134826660156 5.5774488449096679688 2.8012142181396484375 2.2280035018920898438 -9999 -9999 -9999 1.7169413566589355469 -9999 -9999 -9999 -9999 -9999 -9999 -9999 -9999 -9999 -9999 -9999 -9999 -9999 
2.178707122802734375 -9999 -9999 -9999 -9999 -9999 -9999 -9999 -9999 -9999 -9999 -9999 -9999 -9999 -9999 -9999 -9999 -9999 -9999 -9999 -9999 -9999 -9999 -9999 -9999 -9999 -9999 -9999 -9999 -9999 -9999 5.1755161285400390625 5.4632773399353027344 7.4767718315124511719 9.6264171600341796875 7.2587137222290039062 5.2607502937316894531 3.5300798416137695312 -9999 1.4902287721633911133 -9999 -9999 -9999 3.2454104423522949219 4.2833995819091796875 4.9603571891784667969 5.5845766067504882812 6.3764476776123046875 7.9258551597595214844 7.8115754127502441406 7.5051970481872558594 8.1476373672485351562 8.29288482666015625 6.7006812095642089844 7.9246497154235839844 5.1230196952819824219 4.3288693428039550781 3.2532670497894287109 -9999 -9999 3.5292484760284423828 5.7585611343383789062 5.2447381019592285156 5.1476302146911621094 6.617343902587890625 6.8023285865783691406 8.8773784637451171875 7.8015356063842773438 7.6887030601501464844 7.5038800239562988281 6.1243205070495605469 7.3727445602416992188 8.6254568099975585938 9.0806427001953125 36.389217376708984375 11.7806243896484375 8.8285770416259765625 6.747737884521484375 6.8473820686340332031 7.6421298980712890625 7.3907518386840820312 6.7463183403015136719 6.3997855186462402344 6.8488459587097167969 7.9538121223449707031 8.7199602127075195312 8.5343780517578125 8.8990325927734375 8.8920068740844726562 8.1848001480102539062 8.8534860610961914062 8.3739261627197265625 2.2160398960113525391 1.7086571455001831055 2.5154788494110107422 2.3052718639373779297 4.7462401390075683594 3.1684384346008300781 3.4537699222564697266 4.6019015312194824219 4.8799185752868652344 3.3777194023132324219 3.6154234409332275391 2.6886010169982910156 -9999 1.5047061443328857422 3.5928337574005126953 2.7612709999084472656 1.5045560598373413086 1.8665335178375244141 1.4424016475677490234 -9999 -9999 1.9744853973388671875 -9999 -9999 -9999 -9999 -9999 -9999 -9999 -9999 -9999 -9999 -9999 -9999 -9999 
-9999 -9999 -9999 -9999 -9999 -9999 -9999 -9999 -9999 -9999 -9999 -9999 -9999 -9999 -9999 -9999 -9999 -9999 -9999 -9999 -9999 -9999 -9999 1.2064565420150756836 -9999 1.9199198484420776367 -9999 -9999 -9999 -9999 -9999 4.3123517036437988281 4.6545872688293457031 6.2627658843994140625 10.890493392944335938 9.4409332275390625 6.7466740608215332031 5.928813934326171875 -9999 -9999 -9999 1.8394527435302734375 2.3893742561340332031 5.3061590194702148438 4.2047562599182128906 3.6977734565734863281 4.286678314208984375 6.3482880592346191406 7.78148651123046875 7.93820953369140625 6.1107802391052246094 5.8001608848571777344 8.8665399551391601562 7.8700504302978515625 9.332798004150390625 4.299236297607421875 2.7734286785125732422 2.5137372016906738281 -9999 -9999 -9999 4.9945502281188964844 4.8056573867797851562 3.9732837677001953125 5.7277522087097167969 7.0261912345886230469 7.0897488594055175781 7.6164135932922363281 8.5967283248901367188 8.2872819900512695312 7.4889922142028808594 8.0601339340209960938 9.6874761581420898438 10.748350143432617188 17.861194610595703125 5.8048076629638671875 8.2686681747436523438 7.9326324462890625 7.965785980224609375 8.1948986053466796875 7.6999850273132324219 6.6221323013305664062 7.23184967041015625 7.6424541473388671875 8.2023363113403320312 8.7618818283081054688 8.1157045364379882812 7.4547681808471679688 3.1078019142150878906 7.5613150596618652344 8.7183351516723632812 8.7722568511962890625 3.0124137401580810547 1.1118669509887695312 -9999 1.2439017295837402344 2.621463775634765625 2.3461365699768066406 3.2478678226470947266 4.548442840576171875 4.4305281639099121094 4.3161263465881347656 4.4173665046691894531 3.7428848743438720703 -9999 -9999 1.484183192253112793 2.0127322673797607422 1.1167947053909301758 1.6374913454055786133 -9999 -9999 -9999 1.9908879995346069336 -9999 -9999 -9999 -9999 -9999 -9999 -9999 -9999 -9999 -9999 -9999 -9999 -9999 
1.5568921566009521484 -9999 -9999 -9999 -9999 -9999 -9999 -9999 -9999 -9999 -9999 -9999 -9999 -9999 -9999 -9999 2.2382493019104003906 -9999 -9999 -9999 -9999 -9999 -9999 -9999 -9999 -9999 -9999 -9999 -9999 -9999 -9999 3.5801193714141845703 3.1044812202453613281 4.2942609786987304688 9.3153791427612304688 7.9000029563903808594 7.7533135414123535156 2.0136246681213378906 1.0000226497650146484 -9999 1.2028681039810180664 1.4435019493103027344 1.9328196048736572266 3.1867117881774902344 2.6828777790069580078 2.6015567779541015625 3.7192435264587402344 6.2604699134826660156 7.4396142959594726562 8.3246517181396484375 7.9657106399536132812 6.2851800918579101562 6.3269371986389160156 4.6024909019470214844 3.7080507278442382812 2.1215364933013916016 -9999 1.6343188285827636719 2.7772955894470214844 2.2202541828155517578 2.7319805622100830078 2.8857088088989257812 3.9848523139953613281 4.7716326713562011719 4.9245233535766601562 5.8607172966003417969 6.5621318817138671875 7.70372772216796875 8.3729372024536132812 7.7595233917236328125 8.08136749267578125 8.0869035720825195312 9.7062015533447265625 11.161099433898925781 1.0399185419082641602 -9999 9.3430805206298828125 8.4400300979614257812 7.2988862991333007812 7.9292988777160644531 7.1562404632568359375 7.3095555305480957031 8.1385650634765625 7.7393164634704589844 6.9112658500671386719 8.6925668716430664062 10.800328254699707031 1.7701717615127563477 -9999 9.2694406509399414062 9.16070556640625 8.3309144973754882812 7.8121533393859863281 3.3836951255798339844 1.0000768899917602539 -9999 -9999 -9999 2.2294125556945800781 3.7097456455230712891 4.6502709388732910156 4.8567132949829101562 4.8959250450134277344 3.2014017105102539062 2.8144550323486328125 2.3036768436431884766 1.8285663127899169922 1.7569792270660400391 -9999 1.8140697479248046875 -9999 -9999 -9999 -9999 -9999 -9999 -9999 -9999 -9999 -9999 -9999 -9999 -9999 -9999 -9999 -9999 -9999 
-9999 -9999 -9999 -9999 -9999 -9999 -9999 -9999 -9999 -9999 -9999 -9999 -9999 -9999 -9999 -9999 -9999 -9999 -9999 -9999 -9999 -9999 -9999 -9999 -9999 -9999 -9999 -9999 -9999 -9999 -9999 -9999 2.0539367198944091797 3.6830739974975585938 5.7838435173034667969 7.1911478042602539062 8.0348844528198242188 7.9532189369201660156 5.3262109756469726562 4.067535400390625 1.2901381254196166992 -9999 1.9781012535095214844 -9999 -9999 -9999 2.6035149097442626953 4.0119953155517578125 4.8699927330017089844 6.5934910774230957031 5.2362618446350097656 3.2945668697357177734 2.9516050815582275391 3.6506116390228271484 3.1922330856323242188 1.5039995908737182617 -9999 3.1665651798248291016 3.5052990913391113281 2.7545208930969238281 2.9876191616058349609 -9999 2.5861465930938720703 5.3604898452758789062 6.4639334678649902344 5.3975620269775390625 6.3740496635437011719 6.9994473457336425781 7.6534490585327148438 7.7736845016479492188 8.2840595245361328125 8.1444597244262695312 9.1851215362548828125 6.7688722610473632812 1.1256196498870849609 1.4194704294204711914 10.346774101257324219 10.10732269287109375 7.8180627822875976562 7.033355712890625 6.2914586067199707031 7.43404388427734375 8.0414400100708007812 7.8289437294006347656 8.2385549545288085938 8.7875642776489257812 2.0814154148101806641 -9999 4.3536486625671386719 10.287881851196289062 8.1543216705322265625 7.2852063179016113281 8.0351123809814453125 5.2137293815612792969 1.1804916858673095703 1.2415244579315185547 -9999 2.3478655815124511719 2.0729513168334960938 2.946689605712890625 4.2533650398254394531 4.8622469902038574219 4.2395758628845214844 4.6895899772644042969 4.2411217689514160156 3.821025848388671875 2.5731220245361328125 -9999 -9999 1.4601709842681884766 -9999 -9999 -9999 -9999 -9999 -9999 -9999 -9999 -9999 -9999 -9999 -9999 -9999 -9999 -9999 -9999 -9999 
-9999 -9999 -9999 -9999 -9999 -9999 -9999 -9999 -9999 -9999 -9999 -9999 -9999 -9999 -9999 -9999 -9999 -9999 -9999 -9999 -9999 -9999 -9999 -9999 -9999 -9999 -9999 -9999 2.6854422092437744141 2.6277716159820556641 -9999 -9999 2.3428235054016113281 4.6942901611328125 8.1960973739624023438 7.6204714775085449219 8.47802734375 8.1161756515502929688 5.9005632400512695312 3.4300427436828613281 2.5072324275970458984 2.2939710617065429688 3.1193234920501708984 3.3571407794952392578 2.876194000244140625 2.2647366523742675781 2.7212247848510742188 3.7453386783599853516 4.5611581802368164062 4.9178714752197265625 3.5805287361145019531 3.8212535381317138672 2.5953028202056884766 3.6386384963989257812 2.4005143642425537109 -9999 1.9692690372467041016 2.7755391597747802734 3.1059637069702148438 3.7369518280029296875 2.5796065330505371094 2.2648775577545166016 -9999 3.8287918567657470703 4.7971134185791015625 4.9772372245788574219 6.6029186248779296875 5.6951169967651367188 7.3595967292785644531 7.9004201889038085938 8.545185089111328125 10.582774162292480469 5.4140076637268066406 3.5024409294128417969 7.0122423171997070312 6.8967928886413574219 8.5794477462768554688 7.47080230712890625 7.8598694801330566406 7.6096258163452148438 9.3037500381469726562 7.3372812271118164062 7.5365920066833496094 4.7131195068359375 1.5410252809524536133 -9999 2.6681096553802490234 1.1083978414535522461 7.5062832832336425781 7.8446183204650878906 6.7804760932922363281 5.9141573905944824219 4.1150193214416503906 2.0792996883392333984 1.4117406606674194336 1.4747587442398071289 -9999 -9999 1.6534476280212402344 2.2983567714691162109 4.044109344482421875 4.6949868202209472656 2.9992706775665283203 3.7786862850189208984 3.1572895050048828125 2.787017822265625 2.6659700870513916016 3.4995133876800537109 7.1609325408935546875 -9999 -9999 -9999 -9999 -9999 -9999 -9999 -9999 -9999 -9999 -9999 -9999 -9999 -9999 -9999 -9999 -9999 -9999 
-9999 -9999 -9999 -9999 -9999 -9999 -9999 -9999 -9999 -9999 -9999 -9999 -9999 -9999 -9999 -9999 -9999 -9999 -9999 -9999 -9999 -9999 -9999 -9999 -9999 -9999 -9999 -9999 3.8218984603881835938 3.4032454490661621094 -9999 -9999 2.9057080745697021484 3.8210201263427734375 7.4899258613586425781 5.1583547592163085938 10.721434593200683594 8.4315824508666992188 5.7136907577514648438 3.7637512683868408203 2.7058393955230712891 5.1364269256591796875 6.3584699630737304688 5.5804691314697265625 5.2973465919494628906 4.6949477195739746094 2.8223543167114257812 1.2059228420257568359 2.8400044441223144531 2.1991243362426757812 4.6195197105407714844 4.666362762451171875 1.7060263156890869141 -9999 -9999 3.5182712078094482422 4.9827423095703125 5.6724877357482910156 5.4120626449584960938 2.8599092960357666016 1.6587107181549072266 1.9648936986923217773 -9999 2.9916543960571289062 3.4431200027465820312 4.8905758857727050781 7.274570465087890625 7.3628702163696289062 7.358417510986328125 7.2529931068420410156 7.6003136634826660156 8.3187036514282226562 8.0501556396484375 5.5116472244262695312 8.2049093246459960938 8.12847900390625 8.6582689285278320312 7.8702740669250488281 9.4281930923461914062 6.3750672340393066406 5.160175323486328125 5.3810138702392578125 6.36722564697265625 4.2925248146057128906 1.2659410238265991211 4.3332028388977050781 7.6156444549560546875 8.772891998291015625 8.3248872756958007812 7.4416985511779785156 7.2502484321594238281 4.5962405204772949219 1.9008791446685791016 1.8837015628814697266 1.8310452699661254883 1.8875883817672729492 1.9483292102813720703 -9999 2.6201815605163574219 2.3737578392028808594 3.8586657047271728516 5.1848978996276855469 3.6420543193817138672 -9999 1.9236085414886474609 1.7569879293441772461 3.5677053928375244141 2.3091437816619873047 1.5647897720336914062 2.3475692272186279297 -9999 -9999 -9999 -9999 -9999 -9999 -9999 -9999 -9999 -9999 -9999 -9999 -9999 -9999 -9999 -9999 -9999 
-9999 -9999 -9999 -9999 -9999 -9999 -9999 -9999 -9999 -9999 -9999 -9999 -9999 -9999 -9999 -9999 -9999 -9999 -9999 1.8707149028778076172 -9999 -9999 -9999 -9999 -9999 -9999 -9999 -9999 1.2917424440383911133 3.1695530414581298828 -9999 1.8405884504318237305 1.5867431163787841797 2.1280944347381591797 2.1625363826751708984 2.4884617328643798828 7.451629638671875 8.3769121170043945312 4.864192962646484375 3.1329047679901123047 2.1248142719268798828 4.1999664306640625 8.20415496826171875 6.9134869575500488281 5.8941049575805664062 5.7748289108276367188 4.0729565620422363281 -9999 -9999 -9999 -9999 -9999 -9999 6.6992092132568359375 5.75446319580078125 10.235841751098632812 4.5667366981506347656 5.9648180007934570312 7.1893987655639648438 2.5728998184204101562 1.4720871448516845703 2.0136823654174804688 4.81324005126953125 3.9153614044189453125 2.8694553375244140625 2.8565607070922851562 5.0871663093566894531 6.9349803924560546875 6.5036444664001464844 6.9722194671630859375 8.8798227310180664062 8.296085357666015625 6.1664614677429199219 8.3415937423706054688 7.1934475898742675781 6.4903769493103027344 13.577310562133789062 8.9685811996459960938 8.1987094879150390625 2.9093732833862304688 1.9818906784057617188 5.0499300956726074219 5.7284092903137207031 6.0016045570373535156 4.8405156135559082031 7.417675018310546875 7.2411847114562988281 7.55301666259765625 8.029460906982421875 7.1509504318237304688 5.7344822883605957031 1.9240536689758300781 1.7752046585083007812 2.3805835247039794922 1.6005462408065795898 1.5557515621185302734 2.6250004768371582031 1.8139542341232299805 3.4442720413208007812 3.3025503158569335938 2.2966506481170654297 4.9290103912353515625 4.0167374610900878906 2.0267231464385986328 2.7862718105316162109 3.4360411167144775391 3.5149519443511962891 1.676674962043762207 1.3532707691192626953 -9999 -9999 -9999 -9999 -9999 -9999 -9999 -9999 -9999 -9999 -9999 -9999 -9999 -9999 -9999 -9999 -9999 -9999 
-9999 -9999 -9999 -9999 -9999 -9999 -9999 -9999 -9999 -9999 -9999 -9999 -9999 -9999 -9999 -9999 -9999 -9999 -9999 -9999 -9999 -9999 -9999 -9999 -9999 -9999 -9999 -9999 -9999 -9999 -9999 -9999 -9999 -9999 -9999 2.1010222434997558594 9.6560077667236328125 7.3064432144165039062 4.4562597274780273438 2.8820629119873046875 1.9247319698333740234 -9999 5.1172652244567871094 5.328887939453125 5.09775543212890625 5.3793706893920898438 3.1491587162017822266 -9999 -9999 -9999 -9999 1.6497349739074707031 2.3852357864379882812 6.7874751091003417969 4.7650494575500488281 3.7356889247894287109 1.8452863693237304688 2.2186307907104492188 2.2077298164367675781 1.8728930950164794922 1.4235769510269165039 -9999 2.7827334403991699219 2.5727458000183105469 1.6872655153274536133 -9999 1.6947590112686157227 5.3793654441833496094 7.2948546409606933594 7.7932887077331542969 8.2357740402221679688 5.3696765899658203125 8.169769287109375 6.4320077896118164062 5.1616535186767578125 8.665370941162109375 12.527041435241699219 6.9031629562377929688 4.4145536422729492188 4.2242827415466308594 1.2342017889022827148 -9999 3.3935315608978271484 6.475429534912109375 6.8153901100158691406 8.9639453887939453125 8.5613880157470703125 8.5264215469360351562 8.6347141265869140625 8.3430299758911132812 4.0770521163940429688 2.0282068252563476562 2.2138776779174804688 2.7224259376525878906 2.7155597209930419922 -9999 3.5803606510162353516 4.0670480728149414062 4.2978110313415527344 7.2723422050476074219 2.5268125534057617188 -9999 2.6493296623229980469 3.8411915302276611328 5.1484513282775878906 5.8480544090270996094 4.6833968162536621094 -9999 1.8997032642364501953 -9999 -9999 -9999 -9999 -9999 -9999 -9999 -9999 -9999 -9999 -9999 -9999 -9999 -9999 -9999 -9999 -9999 -9999 
-9999 -9999 -9999 -9999 -9999 -9999 -9999 -9999 -9999 -9999 -9999 -9999 -9999 -9999 -9999 -9999 -9999 -9999 -9999 -9999 -9999 -9999 -9999 -9999 -9999 -9999 -9999 -9999 -9999 -9999 -9999 -9999 -9999 -9999 -9999 -9999 2.3545324802398681641 4.3351421356201171875 8.7437419891357421875 5.12952423095703125 -9999 -9999 -9999 -9999 -9999 -9999 -9999 -9999 -9999 -9999 -9999 -9999 1.6289188861846923828 2.3339068889617919922 2.0094683170318603516 -9999 -9999 1.5512490272521972656 1.7407460212707519531 1.7643675804138183594 1.7392187118530273438 -9999 -9999 -9999 -9999 1.0309624671936035156 -9999 2.7255117893218994141 7.0974364280700683594 6.8461585044860839844 5.6730513572692871094 4.3215174674987792969 5.6148529052734375 2.5754451751708984375 1.7234445810317993164 5.8936095237731933594 7.536762237548828125 2.5935118198394775391 2.9896957874298095703 4.7825469970703125 1.5427572727203369141 -9999 3.831996917724609375 5.5768556594848632812 7.0984249114990234375 8.3102779388427734375 9.7574720382690429688 9.3440303802490234375 8.3348646163940429688 3.7438824176788330078 2.6494777202606201172 -9999 3.2154216766357421875 -9999 3.7809183597564697266 2.4203743934631347656 5.455783843994140625 6.8794908523559570312 7.3419699668884277344 11.480702400207519531 10.592634201049804688 9.8593168258666992188 5.3167738914489746094 6.1125006675720214844 5.3094992637634277344 5.5084681510925292969 6.2699184417724609375 2.6663544178009033203 -9999 -9999 -9999 1.7687973976135253906 1.785494685173034668 -9999 -9999 -9999 -9999 -9999 1.2147048711776733398 -9999 -9999 -9999 -9999 -9999 -9999 -9999 -9999 
-9999 -9999 -9999 -9999 -9999 -9999 -9999 -9999 -9999 -9999 -9999 -9999 -9999 -9999 -9999 -9999 -9999 -9999 -9999 -9999 -9999 -9999 -9999 -9999 -9999 -9999 -9999 -9999 -9999 -9999 1.6304767131805419922 -9999 -9999 -9999 -9999 -9999 -9999 2.5653183460235595703 3.0917527675628662109 2.3267111778259277344 -9999 -9999 -9999 -9999 -9999 -9999 -9999 -9999 -9999 -9999 -9999 -9999 -9999 1.9965450763702392578 -9999 -9999 -9999 -9999 -9999 -9999 -9999 1.7692338228225708008 1.5775301456451416016 1.6075254678726196289 1.48770904541015625 -9999 1.0502938032150268555 3.5285704135894775391 3.7634518146514892578 2.5926885604858398438 3.6779866218566894531 3.4164717197418212891 2.1094400882720947266 1.3741080760955810547 1.9580616950988769531 3.9035499095916748047 5.1148958206176757812 3.9684746265411376953 2.5147433280944824219 -9999 -9999 1.4071154594421386719 2.1002023220062255859 4.4879550933837890625 5.0061330795288085938 5.8928761482238769531 6.4103016853332519531 4.1930551528930664062 3.6329047679901123047 3.3492705821990966797 2.5097310543060302734 -9999 3.7342205047607421875 2.7833173274993896484 4.0816607475280761719 2.7561137676239013672 5.2046375274658203125 7.6286449432373046875 9.7121400833129882812 11.640720367431640625 13.531247138977050781 12.333169937133789062 8.1712923049926757812 7.1024580001831054688 5.4973492622375488281 3.0836338996887207031 2.2497985363006591797 1.9243501424789428711 -9999 1.517696380615234375 -9999 -9999 -9999 -9999 -9999 -9999 -9999 -9999 -9999 -9999 -9999 -9999 -9999 -9999 -9999 -9999 -9999 
-9999 -9999 -9999 -9999 -9999 -9999 -9999 -9999 -9999 -9999 -9999 -9999 -9999 -9999 -9999 -9999 -9999 -9999 -9999 -9999 -9999 -9999 -9999 -9999 -9999 -9999 -9999 -9999 -9999 -9999 -9999 -9999 -9999 -9999 -9999 -9999 -9999 -9999 -9999 -9999 -9999 -9999 -9999 -9999 -9999 -9999 -9999 -9999 -9999 -9999 -9999 -9999 -9999 -9999 -9999 -9999 -9999 -9999 -9999 -9999 -9999 1.6712410449981689453 1.4944913387298583984 1.7926878929138183594 2.5234570503234863281 -9999 1.5683646202087402344 2.9002993106842041016 6.4673323631286621094 6.6203131675720214844 7.815521240234375 7.5333080291748046875 4.1981425285339355469 -9999 2.4926040172576904297 6.3399977684020996094 8.3613767623901367188 6.5255794525146484375 -9999 -9999 1.6695312261581420898 1.2219740152359008789 1.1750339269638061523 6.912868499755859375 9.12895965576171875 6.2866873741149902344 3.1364912986755371094 3.2064871788024902344 5.6670618057250976562 4.5851263999938964844 4.0000796318054199219 1.8086670637130737305 2.8852965831756591797 2.3972249031066894531 2.4709119796752929688 3.5204691886901855469 4.4586515426635742188 6.6731863021850585938 11.177724838256835938 10.872242927551269531 11.987492561340332031 9.674640655517578125 5.9029974937438964844 3.6760206222534179688 3.1048166751861572266 3.8752000331878662109 3.5032744407653808594 2.808002471923828125 1.942442774772644043 1.8678729534149169922 -9999 -9999 -9999 -9999 1.375516057014465332 1.7092512845993041992 -9999 -9999 -9999 -9999 -9999 -9999 -9999 -9999 -9999 -9999 -9999 
-9999 -9999 -9999 -9999 -9999 -9999 -9999 -9999 -9999 -9999 -9999 -9999 -9999 -9999 -9999 -9999 -9999 -9999 -9999 -9999 -9999 -9999 -9999 -9999 -9999 -9999 -9999 -9999 -9999 -9999 -9999 -9999 -9999 -9999 -9999 -9999 -9999 -9999 -9999 -9999 -9999 -9999 -9999 -9999 -9999 -9999 -9999 -9999 -9999 -9999 -9999 -9999 -9999 -9999 -9999 -9999 1.4737107753753662109 -9999 -9999 -9999 -9999 1.7760454416275024414 2.4512522220611572266 2.4170348644256591797 3.9853339195251464844 -9999 -9999 1.0444046258926391602 7.1672692298889160156 7.2228846549987792969 7.8910851478576660156 8.7376203536987304688 4.7156314849853515625 -9999 5.7637019157409667969 5.989223480224609375 6.4309048652648925781 4.0239605903625488281 -9999 1.8874562978744506836 1.9376761913299560547 -9999 3.9325249195098876953 7.267162322998046875 8.1146478652954101562 8.5631303787231445312 5.1730675697326660156 4.1384348869323730469 8.4214324951171875 5.3188042640686035156 4.2007107734680175781 3.0241482257843017578 2.3397529125213623047 2.47673797607421875 2.8144242763519287109 2.0541737079620361328 3.9646611213684082031 3.8300292491912841797 8.3320894241333007812 8.4368572235107421875 8.1044445037841796875 9.652576446533203125 5.9207305908203125 1.8569444417953491211 1.1492055654525756836 3.4249966144561767578 4.9615397453308105469 5.465976715087890625 4.0859818458557128906 2.1719942092895507812 1.9537625312805175781 -9999 -9999 -9999 1.7876049280166625977 2.4446721076965332031 1.841522216796875 -9999 -9999 -9999 -9999 1.4776386022567749023 -9999 -9999 -9999 -9999 -9999 
-9999 -9999 -9999 -9999 -9999 -9999 -9999 -9999 -9999 -9999 -9999 -9999 -9999 -9999 -9999 -9999 -9999 -9999 -9999 -9999 -9999 -9999 -9999 -9999 -9999 -9999 -9999 -9999 -9999 -9999 -9999 2.0398287773132324219 -9999 -9999 -9999 -9999 -9999 -9999 -9999 -9999 -9999 -9999 -9999 -9999 -9999 -9999 -9999 -9999 -9999 -9999 -9999 -9999 -9999 -9999 -9999 -9999 -9999 -9999 -9999 -9999 -9999 -9999 -9999 -9999 3.45320892333984375 2.9321827888488769531 -9999 -9999 2.5556530952453613281 4.6065168380737304688 5.6063637733459472656 6.8292822837829589844 -9999 3.0317666530609130859 11.807291984558105469 7.6793551445007324219 2.9326264858245849609 -9999 2.0920264720916748047 2.4078404903411865234 2.4134876728057861328 1.4020421504974365234 5.672882080078125 7.8438715934753417969 10.343369483947753906 9.1055135726928710938 5.5223383903503417969 6.4780931472778320312 8.527545928955078125 4.2109580039978027344 2.3013391494750976562 4.6755857467651367188 3.2187521457672119141 2.8521807193756103516 2.4961640834808349609 2.0585489273071289062 3.6100935935974121094 3.3563873767852783203 3.0777308940887451172 6.582736968994140625 9.8382625579833984375 7.8523497581481933594 6.8210048675537109375 8.2537479400634765625 2.0550279617309570312 3.5102984905242919922 4.6613483428955078125 5.8198909759521484375 5.3972101211547851562 3.1277396678924560547 3.1459763050079345703 3.3116488456726074219 2.3206496238708496094 2.3316805362701416016 1.1728417873382568359 -9999 1.4268954992294311523 2.3111519813537597656 1.7683809995651245117 -9999 1.6633261442184448242 2.0455911159515380859 -9999 -9999 -9999 1.7421671152114868164 1.6415727138519287109 
-9999 -9999 -9999 -9999 -9999 -9999 -9999 -9999 -9999 -9999 -9999 -9999 -9999 -9999 -9999 -9999 -9999 -9999 -9999 -9999 -9999 -9999 -9999 -9999 -9999 -9999 -9999 -9999 -9999 -9999 -9999 2.161159515380859375 -9999 -9999 -9999 -9999 -9999 -9999 2.3857195377349853516 -9999 -9999 -9999 -9999 -9999 -9999 -9999 1.9168850183486938477 -9999 -9999 -9999 -9999 -9999 -9999 -9999 -9999 -9999 -9999 -9999 -9999 -9999 -9999 -9999 -9999 -9999 -9999 -9999 2.9028778076171875 -9999 -9999 3.2834672927856445312 4.4176850318908691406 -9999 -9999 2.5704710483551025391 4.0399236679077148438 3.3704929351806640625 1.6497336626052856445 -9999 -9999 -9999 1.1547499895095825195 2.8283028602600097656 6.0682177543640136719 7.8490505218505859375 11.473695755004882812 9.4626398086547851562 6.0886325836181640625 6.9803462028503417969 6.2326178550720214844 5.8655080795288085938 3.5318653583526611328 3.1224782466888427734 2.8557870388031005859 4.5138034820556640625 4.4031949043273925781 5.3580279350280761719 3.7487633228302001953 2.4173538684844970703 3.4839980602264404297 3.5932860374450683594 8.7534465789794921875 12.007617950439453125 5.9767618179321289062 7.6136927604675292969 6.2101840972900390625 4.7113327980041503906 4.4840764999389648438 5.9452891349792480469 4.4203534126281738281 3.2877967357635498047 2.4548799991607666016 2.944347381591796875 3.290523529052734375 3.639514923095703125 2.1747775077819824219 2.2135350704193115234 2.7276375293731689453 1.9561436176300048828 1.6619697809219360352 1.7272132635116577148 1.921054840087890625 1.9970483779907226562 1.3537224531173706055 1.5052301883697509766 1.5336884260177612305 1.9015285968780517578 -9999 
-9999 -9999 -9999 -9999 -9999 -9999 -9999 -9999 -9999 -9999 -9999 -9999 -9999 -9999 -9999 -9999 -9999 -9999 -9999 -9999 -9999 -9999 -9999 -9999 -9999 -9999 -9999 -9999 -9999 -9999 -9999 -9999 2.3557872772216796875 -9999 -9999 -9999 -9999 -9999 -9999 -9999 -9999 -9999 -9999 -9999 -9999 -9999 -9999 -9999 -9999 -9999 -9999 -9999 -9999 -9999 -9999 -9999 -9999 -9999 -9999 -9999 -9999 -9999 -9999 1.2048529386520385742 1.2051599025726318359 -9999 3.8281662464141845703 3.6337833404541015625 2.6116113662719726562 2.7230966091156005859 -9999 -9999 -9999 2.3972113132476806641 3.1757411956787109375 2.0313634872436523438 1.5707123279571533203 1.6778832674026489258 -9999 -9999 -9999 1.369013667106628418 6.4187026023864746094 6.2303004264831542969 6.6433706283569335938 7.9026861190795898438 6.6950221061706542969 7.2893357276916503906 6.3506636619567871094 4.9348111152648925781 4.448032379150390625 3.3533151149749755859 3.5232150554656982422 11.101651191711425781 6.8636174201965332031 7.0793662071228027344 6.0758566856384277344 4.3240208625793457031 4.3775153160095214844 3.1256010532379150391 3.918914794921875 1.761311650276184082 1.7512317895889282227 5.4476976394653320312 5.4549345970153808594 3.7168021202087402344 4.1556706428527832031 4.3824949264526367188 3.4078485965728759766 4.1069769859313964844 3.2993946075439453125 -9999 -9999 2.2286372184753417969 4.0326962471008300781 5.7968449592590332031 4.38448333740234375 3.5528159141540527344 2.2760016918182373047 2.0781309604644775391 2.5637979507446289062 2.2317187786102294922 -9999 -9999 1.8029191493988037109 -9999 -9999 
-9999 -9999 -9999 -9999 -9999 -9999 -9999 -9999 -9999 -9999 -9999 -9999 -9999 -9999 -9999 -9999 -9999 -9999 -9999 -9999 -9999 -9999 -9999 -9999 -9999 -9999 -9999 -9999 -9999 -9999 -9999 -9999 -9999 1.72348785400390625 1.5724097490310668945 -9999 -9999 -9999 -9999 -9999 -9999 -9999 -9999 -9999 -9999 -9999 -9999 -9999 -9999 -9999 -9999 -9999 -9999 -9999 -9999 -9999 -9999 -9999 -9999 -9999 -9999 -9999 -9999 -9999 -9999 -9999 -9999 -9999 2.973567962646484375 2.5256478786468505859 -9999 -9999 -9999 -9999 2.4457259178161621094 2.2970676422119140625 2.3577020168304443359 -9999 -9999 -9999 -9999 3.1126463413238525391 6.0641884803771972656 4.7226591110229492188 3.5352761745452880859 5.1976704597473144531 7.82495880126953125 11.991581916809082031 5.6988725662231445312 5.3271517753601074219 4.4217619895935058594 3.0362863540649414062 2.2357659339904785156 5.8039631843566894531 7.4881758689880371094 7.404575347900390625 8.43182373046875 8.9388608932495117188 7.4014658927917480469 6.8869404792785644531 1.878533482551574707 1.1839814186096191406 2.7022550106048583984 6.1797862052917480469 4.8205828666687011719 1.7103641033172607422 2.5420763492584228516 2.1884419918060302734 -9999 -9999 2.9657912254333496094 4.4588990211486816406 2.3760933876037597656 1.9204719066619873047 2.2713887691497802734 3.3744041919708251953 2.7491443157196044922 2.3358004093170166016 2.8331613540649414062 2.3483734130859375 2.9544501304626464844 1.7293550968170166016 -9999 -9999 -9999 -9999 -9999 
-9999 -9999 -9999 -9999 -9999 -9999 -9999 -9999 -9999 -9999 -9999 -9999 -9999 -9999 -9999 -9999 -9999 -9999 -9999 -9999 -9999 -9999 -9999 -9999 -9999 -9999 -9999 -9999 -9999 -9999 -9999 -9999 -9999 2.1148898601531982422 1.9443110227584838867 -9999 -9999 -9999 -9999 -9999 -9999 -9999 -9999 -9999 -9999 -9999 -9999 -9999 -9999 -9999 -9999 -9999 -9999 -9999 -9999 -9999 -9999 -9999 -9999 -9999 -9999 -9999 -9999 -9999 -9999 -9999 -9999 -9999 -9999 -9999 -9999 -9999 -9999 -9999 -9999 2.07834625244140625 2.3813109397888183594 2.5795068740844726562 2.2196805477142333984 -9999 -9999 4.3699955940246582031 4.0321307182312011719 3.3857049942016601562 3.3635268211364746094 4.3356370925903320312 10.071668624877929688 9.3346872329711914062 5.31272125244140625 6.9206614494323730469 3.3998894691467285156 2.2981295585632324219 3.2038941383361816406 6.8822774887084960938 7.1550650596618652344 6.4298524856567382812 6.0005674362182617188 6.4823880195617675781 8.513195037841796875 8.10994720458984375 5.0268907546997070312 8.0397319793701171875 7.3910012245178222656 6.1566019058227539062 5.0960097312927246094 2.9585559368133544922 3.3497285842895507812 2.5742571353912353516 -9999 1.8798961639404296875 2.4181592464447021484 4.1035594940185546875 3.6162183284759521484 2.7699403762817382812 3.3755404949188232422 3.3511183261871337891 -9999 1.7327026128768920898 2.3099167346954345703 1.7873148918151855469 2.6448290348052978516 1.3169398307800292969 -9999 -9999 1.2062923908233642578 -9999 -9999 
-9999 -9999 -9999 -9999 -9999 -9999 -9999 -9999 -9999 -9999 -9999 -9999 -9999 -9999 -9999 -9999 -9999 -9999 -9999 -9999 -9999 -9999 -9999 -9999 -9999 -9999 -9999 -9999 -9999 -9999 -9999 -9999 -9999 1.6933717727661132812 2.0757296085357666016 1.9693338871002197266 -9999 -9999 -9999 1.4325089454650878906 -9999 -9999 -9999 -9999 -9999 -9999 -9999 -9999 -9999 -9999 -9999 -9999 -9999 -9999 -9999 -9999 -9999 -9999 -9999 -9999 -9999 -9999 -9999 -9999 -9999 -9999 -9999 -9999 -9999 -9999 -9999 -9999 -9999 2.7772569656372070312 5.2328338623046875 3.6275005340576171875 2.2566530704498291016 2.4786477088928222656 -9999 1.1037772893905639648 1.5210458040237426758 2.5753200054168701172 3.0770421028137207031 3.1094167232513427734 2.9215850830078125 2.9105958938598632812 2.1716535091400146484 3.5198910236358642578 3.7239756584167480469 2.0060601234436035156 -9999 1.3735884428024291992 4.9927091598510742188 7.4871892929077148438 7.0081853866577148438 6.1159572601318359375 6.4004368782043457031 5.9294676780700683594 6.8002166748046875 8.1614856719970703125 9.4944696426391601562 8.494415283203125 7.7517094612121582031 6.3474884033203125 4.2704644203186035156 3.1223535537719726562 3.9268617630004882812 3.6717269420623779297 1.9042609930038452148 2.2441806793212890625 1.7518322467803955078 1.8770694732666015625 3.4968867301940917969 4.7383732795715332031 3.5291781425476074219 3.7287993431091308594 2.4837884902954101562 1.5871411561965942383 1.9044038057327270508 2.0741589069366455078 2.4498958587646484375 4.2364459037780761719 1.2943568229675292969 -9999 -9999 -9999 -9999 
-9999 -9999 -9999 -9999 -9999 -9999 -9999 -9999 -9999 -9999 -9999 -9999 -9999 -9999 -9999 -9999 -9999 -9999 -9999 -9999 -9999 -9999 -9999 -9999 -9999 -9999 -9999 -9999 -9999 -9999 -9999 -9999 -9999 -9999 -9999 3.1229493618011474609 2.4293401241302490234 -9999 -9999 -9999 -9999 -9999 -9999 -9999 -9999 -9999 -9999 -9999 -9999 -9999 -9999 -9999 -9999 -9999 -9999 -9999 -9999 -9999 -9999 -9999 -9999 1.82472991943359375 -9999 -9999 -9999 -9999 -9999 -9999 -9999 -9999 -9999 -9999 -9999 2.6717333793640136719 6.8781447410583496094 8.1247100830078125 4.7592725753784179688 1.8830465078353881836 1.6250578165054321289 2.6146209239959716797 3.7413229942321777344 2.9531111717224121094 2.0754885673522949219 2.3610951900482177734 2.8102064132690429688 2.8773083686828613281 -9999 2.1900603771209716797 2.0863220691680908203 1.500536799430847168 1.6476541757583618164 3.2572453022003173828 4.6608533859252929688 6.3547577857971191406 6.489715576171875 6.1980595588684082031 7.3988809585571289062 5.9459772109985351562 6.3744845390319824219 7.1329531669616699219 7.923992156982421875 7.8616185188293457031 11.048415184020996094 8.2622976303100585938 4.4540209770202636719 4.9696545600891113281 10.27280426025390625 13.862791061401367188 2.5459153652191162109 -9999 2.9554059505462646484 -9999 2.1846323013305664062 4.4939584732055664062 4.6037511825561523438 4.1392407417297363281 1.9138754606246948242 -9999 2.3238980770111083984 2.7149062156677246094 3.1857821941375732422 4.659618377685546875 2.8044219017028808594 -9999 -9999 -9999 -9999 
-9999 -9999 -9999 -9999 -9999 -9999 -9999 -9999 -9999 -9999 -9999 -9999 -9999 -9999 -9999 -9999 -9999 -9999 -9999 -9999 -9999 -9999 -9999 -9999 -9999 -9999 -9999 -9999 -9999 -9999 -9999 -9999 -9999 -9999 -9999 2.7307324409484863281 2.4501619338989257812 1.4752711057662963867 1.5073451995849609375 1.357700347900390625 -9999 -9999 -9999 -9999 -9999 -9999 -9999 -9999 -9999 -9999 -9999 -9999 -9999 -9999 -9999 -9999 -9999 -9999 -9999 -9999 -9999 -9999 -9999 -9999 -9999 -9999 -9999 -9999 -9999 -9999 -9999 -9999 -9999 1.8062289953231811523 2.3905661106109619141 3.1944022178649902344 4.6234111785888671875 -9999 2.4757268428802490234 2.21161651611328125 2.5202753543853759766 2.7458069324493408203 -9999 1.8096243143081665039 4.7217817306518554688 4.6238780021667480469 2.2630152702331542969 -9999 5.308887481689453125 4.7400922775268554688 1.5483151674270629883 2.7985699176788330078 4.6936364173889160156 5.6536335945129394531 5.4039931297302246094 6.2683711051940917969 6.0691905021667480469 6.4402179718017578125 6.7172579765319824219 8.1123342514038085938 9.1441192626953125 10.400528907775878906 10.803551673889160156 8.94724273681640625 6.7583255767822265625 7.5397295951843261719 11.079515457153320312 18.974935531616210938 3.7456455230712890625 -9999 -9999 -9999 1.4975180625915527344 2.3067247867584228516 4.0521373748779296875 3.0450983047485351562 2.226902008056640625 2.7791616916656494141 -9999 -9999 -9999 1.9128587245941162109 2.0003440380096435547 2.9569022655487060547 -9999 -9999 -9999 
-9999 -9999 -9999 -9999 -9999 -9999 -9999 -9999 -9999 -9999 -9999 -9999 -9999 -9999 -9999 -9999 -9999 -9999 -9999 -9999 -9999 -9999 -9999 -9999 -9999 -9999 -9999 -9999 -9999 -9999 -9999 -9999 -9999 -9999 2.1733245849609375 1.9480946063995361328 1.9749805927276611328 1.8717359304428100586 1.7416653633117675781 1.4716992378234863281 -9999 -9999 -9999 -9999 -9999 -9999 -9999 -9999 -9999 -9999 -9999 -9999 -9999 -9999 -9999 -9999 -9999 -9999 -9999 -9999 -9999 -9999 -9999 -9999 -9999 -9999 -9999 -9999 -9999 -9999 -9999 -9999 -9999 2.3720235824584960938 -9999 -9999 -9999 -9999 2.5555250644683837891 5.4090032577514648438 2.7116408348083496094 -9999 -9999 2.0990748405456542969 4.9296131134033203125 3.2817635536193847656 3.5908558368682861328 4.7403559684753417969 3.3453638553619384766 2.7867136001586914062 2.1316666603088378906 2.8292772769927978516 3.8969748020172119141 3.9457750320434570312 5.0056748390197753906 8.4619045257568359375 7.23830413818359375 5.7325625419616699219 7.192195892333984375 9.6238241195678710938 6.7031979560852050781 6.4384427070617675781 6.5153212547302246094 6.2827067375183105469 3.2496197223663330078 2.7797720432281494141 6.2604608535766601562 8.88477325439453125 4.8888926506042480469 2.0630877017974853516 1.7001864910125732422 1.6327115297317504883 1.5850145816802978516 1.4475867748260498047 -9999 2.7008662223815917969 3.654087066650390625 3.9199793338775634766 -9999 -9999 -9999 2.0127737522125244141 -9999 -9999 -9999 -9999 -9999 
-9999 -9999 -9999 -9999 -9999 -9999 -9999 -9999 -9999 -9999 -9999 -9999 -9999 -9999 -9999 -9999 -9999 -9999 -9999 -9999 -9999 -9999 -9999 -9999 -9999 -9999 -9999 -9999 -9999 -9999 -9999 -9999 -9999 -9999 1.6818102598190307617 -9999 1.6679378747940063477 2.0413827896118164062 2.0347239971160888672 -9999 1.8808428049087524414 -9999 -9999 -9999 -9999 -9999 -9999 -9999 -9999 -9999 -9999 -9999 -9999 -9999 -9999 -9999 -9999 -9999 -9999 -9999 -9999 -9999 -9999 -9999 -9999 -9999 -9999 -9999 -9999 -9999 -9999 -9999 -9999 -9999 -9999 -9999 -9999 -9999 2.8902583122253417969 6.6254019737243652344 4.5004606246948242188 -9999 -9999 -9999 2.533176422119140625 -9999 3.4968700408935546875 7.3826661109924316406 7.0085177421569824219 6.8105692863464355469 5.1676378250122070312 4.4724831581115722656 4.5625905990600585938 3.5893704891204833984 4.2874026298522949219 6.3674383163452148438 8.0427083969116210938 5.8320474624633789062 5.8090243339538574219 2.7781379222869873047 1.8589754104614257812 2.2166261672973632812 1.0829627513885498047 5.5864901542663574219 8.5806293487548828125 6.6613907814025878906 5.9021711349487304688 8.7991189956665039062 3.5035204887390136719 2.9194645881652832031 -9999 4.5173711776733398438 -9999 3.220394134521484375 3.2440140247344970703 4.3050723075866699219 5.3771829605102539062 5.3903779983520507812 -9999 2.0934891700744628906 -9999 -9999 -9999 -9999 -9999 -9999 -9999 
-9999 -9999 -9999 -9999 -9999 -9999 -9999 -9999 -9999 -9999 -9999 -9999 -9999 -9999 -9999 -9999 -9999 -9999 -9999 -9999 -9999 -9999 -9999 -9999 -9999 -9999 -9999 -9999 -9999 -9999 -9999 -9999 -9999 -9999 -9999 -9999 -9999 -9999 2.3072042465209960938 -9999 -9999 1.3870667219161987305 -9999 2.1106939315795898438 1.9362739324569702148 -9999 -9999 -9999 -9999 -9999 -9999 -9999 -9999 -9999 -9999 -9999 -9999 -9999 -9999 -9999 1.9707247018814086914 -9999 -9999 -9999 -9999 -9999 -9999 -9999 -9999 -9999 1.3661497831344604492 -9999 -9999 -9999 -9999 -9999 -9999 -9999 -9999 3.0067007541656494141 2.8246216773986816406 -9999 -9999 -9999 2.6416800022125244141 6.0441503524780273438 8.1814718246459960938 7.4320154190063476562 8.270526885986328125 8.3760738372802734375 9.0693750381469726562 9.1523303985595703125 7.5698876380920410156 5.7141475677490234375 6.1038961410522460938 7.0910234451293945312 6.7743830680847167969 5.202915191650390625 3.0095949172973632812 2.1841042041778564453 3.2479107379913330078 7.5927128791809082031 1.0415408611297607422 13.315415382385253906 8.4890069961547851562 8.5427789688110351562 7.7162828445434570312 6.5976324081420898438 2.70748138427734375 -9999 4.5909414291381835938 6.811206817626953125 6.7343611717224121094 4.8675384521484375 4.1683039665222167969 5.3281588554382324219 6.3133454322814941406 4.869235992431640625 1.9392056465148925781 1.8152019977569580078 2.1208913326263427734 2.2429358959197998047 -9999 2.8841884136199951172 -9999 -9999 -9999 
-9999 -9999 -9999 -9999 -9999 -9999 -9999 -9999 -9999 -9999 -9999 -9999 -9999 -9999 -9999 -9999 -9999 -9999 -9999 -9999 -9999 -9999 -9999 -9999 -9999 -9999 -9999 -9999 -9999 -9999 -9999 -9999 -9999 -9999 -9999 -9999 -9999 -9999 -9999 -9999 -9999 -9999 -9999 2.2438476085662841797 2.1246428489685058594 -9999 -9999 -9999 -9999 -9999 -9999 -9999 -9999 -9999 -9999 -9999 -9999 -9999 -9999 -9999 -9999 -9999 -9999 -9999 -9999 -9999 -9999 -9999 -9999 -9999 -9999 -9999 -9999 -9999 -9999 -9999 -9999 -9999 -9999 -9999 -9999 1.6854290962219238281 2.8964819908142089844 -9999 1.9674196243286132812 4.7965664863586425781 7.6764798164367675781 9.6545534133911132812 7.8410005569458007812 7.7677426338195800781 8.4534025192260742188 10.50156402587890625 6.9527492523193359375 10.141302108764648438 7.1316380500793457031 6.3791103363037109375 7.2139110565185546875 5.8600840568542480469 2.4124929904937744141 2.9385783672332763672 8.0212793350219726562 16.563798904418945312 14.845551490783691406 9.3810453414916992188 6.9908518791198730469 5.5998044013977050781 4.5643911361694335938 2.3051826953887939453 2.3408637046813964844 1.7722773551940917969 2.5454337596893310547 5.03589630126953125 4.0234785079956054688 2.8140323162078857422 2.4212191104888916016 3.25330352783203125 4.3915190696716308594 2.5745687484741210938 1.511608123779296875 1.5735182762145996094 2.8289690017700195312 2.1563496589660644531 3.0507364273071289062 4.4521684646606445312 -9999 -9999 -9999 
-9999 -9999 1.8939313888549804688 -9999 -9999 -9999 -9999 -9999 -9999 -9999 -9999 -9999 -9999 -9999 -9999 -9999 -9999 -9999 -9999 -9999 -9999 -9999 -9999 -9999 -9999 -9999 -9999 -9999 -9999 -9999 -9999 -9999 -9999 -9999 -9999 1.8080942630767822266 -9999 -9999 -9999 -9999 -9999 -9999 -9999 -9999 1.7516958713531494141 1.8663865327835083008 -9999 -9999 -9999 -9999 -9999 -9999 -9999 -9999 -9999 -9999 -9999 -9999 -9999 -9999 -9999 -9999 -9999 -9999 -9999 -9999 -9999 -9999 -9999 -9999 -9999 -9999 -9999 -9999 -9999 -9999 -9999 -9999 -9999 -9999 2.1567537784576416016 2.35285186767578125 -9999 -9999 -9999 -9999 1.2032260894775390625 1.3137733936309814453 3.2587518692016601562 4.157703399658203125 6.3547062873840332031 7.4141726493835449219 4.2551164627075195312 5.3253931999206542969 8.3377065658569335938 7.8968362808227539062 4.9605536460876464844 3.6481163501739501953 2.4982392787933349609 3.3878698348999023438 6.936260223388671875 8.5468378067016601562 12.704084396362304688 7.9825458526611328125 4.4838423728942871094 3.3714029788970947266 3.4847443103790283203 3.4903023242950439453 3.1568441390991210938 2.0623579025268554688 -9999 -9999 -9999 -9999 -9999 1.4160495996475219727 -9999 -9999 -9999 -9999 -9999 1.80223846435546875 2.2168486118316650391 2.4476385116577148438 -9999 -9999 -9999 
-9999 -9999 -9999 -9999 -9999 -9999 -9999 -9999 -9999 -9999 -9999 -9999 -9999 -9999 -9999 -9999 -9999 -9999 -9999 -9999 -9999 -9999 -9999 -9999 -9999 -9999 -9999 -9999 -9999 -9999 -9999 -9999 -9999 -9999 -9999 -9999 -9999 1.9626053571701049805 -9999 -9999 -9999 -9999 -9999 -9999 2.0117647647857666016 3.7519829273223876953 2.9271461963653564453 2.1205277442932128906 -9999 -9999 -9999 -9999 -9999 -9999 -9999 -9999 -9999 -9999 -9999 -9999 -9999 -9999 -9999 -9999 -9999 -9999 -9999 -9999 -9999 -9999 -9999 -9999 -9999 -9999 -9999 -9999 2.2721326351165771484 -9999 -9999 -9999 1.6791615486145019531 2.0349063873291015625 2.1453046798706054688 2.4585318565368652344 1.6062400341033935547 -9999 -9999 1.5263413190841674805 1.986573338508605957 2.2917830944061279297 3.7956757545471191406 3.6954700946807861328 2.5249068737030029297 2.116207122802734375 5.6357555389404296875 5.4626140594482421875 3.9961099624633789062 4.52683258056640625 3.0550391674041748047 4.0418715476989746094 5.2568721771240234375 5.7357702255249023438 12.112504959106445312 6.2760000228881835938 -9999 -9999 1.3511869907379150391 1.8423622846603393555 2.0904116630554199219 1.8371590375900268555 -9999 4.0178656578063964844 -9999 -9999 -9999 1.3703142404556274414 -9999 -9999 -9999 -9999 -9999 -9999 1.7647614479064941406 2.1814997196197509766 2.9661772251129150391 -9999 -9999 
-9999 -9999 -9999 -9999 -9999 -9999 -9999 -9999 -9999 -9999 -9999 -9999 -9999 -9999 -9999 -9999 -9999 -9999 -9999 -9999 -9999 -9999 -9999 -9999 -9999 -9999 -9999 -9999 -9999 -9999 -9999 -9999 -9999 -9999 -9999 2.1445181369781494141 -9999 -9999 -9999 -9999 -9999 -9999 -9999 -9999 -9999 2.0377688407897949219 2.4738156795501708984 -9999 -9999 -9999 -9999 -9999 -9999 -9999 -9999 -9999 -9999 -9999 -9999 -9999 -9999 -9999 -9999 -9999 -9999 -9999 -9999 -9999 -9999 -9999 -9999 -9999 -9999 -9999 -9999 2.0213043689727783203 -9999 -9999 -9999 -9999 -9999 2.3294293880462646484 2.5131094455718994141 2.6583683490753173828 2.1713581085205078125 -9999 -9999 2.2302212715148925781 2.4212183952331542969 2.5425882339477539062 2.3394742012023925781 1.5740936994552612305 2.5996079444885253906 3.185794830322265625 3.8686285018920898438 3.6471502780914306641 5.3728585243225097656 5.4680991172790527344 3.7464375495910644531 5.867145538330078125 5.5071802139282226562 7.2524290084838867188 12.287259101867675781 -9999 2.3485541343688964844 -9999 -9999 1.3553589582443237305 -9999 1.7854025363922119141 2.7668666839599609375 2.7571206092834472656 -9999 -9999 2.0047681331634521484 -9999 -9999 -9999 -9999 -9999 -9999 3.131622314453125 2.4385654926300048828 2.1912786960601806641 2.3723838329315185547 -9999 -9999 
-9999 -9999 -9999 -9999 -9999 -9999 -9999 -9999 -9999 -9999 -9999 -9999 -9999 -9999 -9999 -9999 -9999 -9999 -9999 -9999 -9999 -9999 -9999 -9999 -9999 -9999 -9999 -9999 -9999 -9999 -9999 -9999 -9999 -9999 -9999 -9999 -9999 -9999 -9999 -9999 -9999 -9999 -9999 -9999 -9999 -9999 -9999 -9999 -9999 -9999 -9999 -9999 -9999 -9999 -9999 -9999 -9999 -9999 -9999 -9999 -9999 -9999 -9999 1.3043751716613769531 -9999 -9999 -9999 -9999 1.2410693168640136719 -9999 -9999 -9999 -9999 -9999 -9999 -9999 -9999 -9999 -9999 -9999 3.5237996578216552734 3.1486642360687255859 1.6148170232772827148 3.1064515113830566406 2.4857835769653320312 2.7229657173156738281 1.440207362174987793 3.7452318668365478516 2.4334580898284912109 1.301985621452331543 1.3143349885940551758 1.4240714311599731445 2.4903359413146972656 2.3856170177459716797 2.3940742015838623047 2.3131601810455322266 3.2963695526123046875 4.3400945663452148438 4.2294459342956542969 5.0572791099548339844 5.3402967453002929688 2.8236472606658935547 -9999 -9999 -9999 -9999 -9999 -9999 -9999 2.2159531116485595703 3.3351626396179199219 -9999 1.7395941019058227539 1.4010111093521118164 2.0902001857757568359 -9999 -9999 -9999 -9999 -9999 -9999 -9999 2.0586149692535400391 -9999 -9999 -9999 -9999 
-9999 -9999 -9999 -9999 -9999 -9999 -9999 -9999 -9999 -9999 -9999 -9999 -9999 -9999 -9999 -9999 -9999 -9999 -9999 -9999 -9999 -9999 -9999 -9999 -9999 -9999 -9999 -9999 -9999 2.5534563064575195312 -9999 -9999 -9999 -9999 -9999 -9999 -9999 -9999 -9999 -9999 -9999 -9999 -9999 -9999 -9999 -9999 1.4836530685424804688 1.7013540267944335938 -9999 -9999 -9999 -9999 -9999 -9999 -9999 -9999 -9999 -9999 -9999 -9999 -9999 -9999 -9999 -9999 -9999 -9999 -9999 -9999 -9999 -9999 -9999 -9999 -9999 -9999 -9999 -9999 -9999 -9999 -9999 -9999 2.4133548736572265625 2.9903423786163330078 1.7894740104675292969 3.8193111419677734375 2.5267801284790039062 1.73967742919921875 -9999 -9999 -9999 3.4124841690063476562 -9999 1.8190019130706787109 2.229175567626953125 3.4606394767761230469 3.4993743896484375 -9999 2.0142152309417724609 2.1967790126800537109 3.640716552734375 3.4964661598205566406 4.5198717117309570312 -9999 -9999 -9999 -9999 -9999 -9999 -9999 -9999 -9999 3.5543191432952880859 2.8486104011535644531 -9999 -9999 1.9893889427185058594 -9999 -9999 2.2481284141540527344 1.813246607780456543 -9999 -9999 -9999 -9999 -9999 -9999 -9999 -9999 
-9999 -9999 -9999 -9999 -9999 -9999 -9999 -9999 -9999 -9999 -9999 -9999 -9999 -9999 -9999 -9999 -9999 -9999 -9999 -9999 -9999 -9999 -9999 -9999 -9999 -9999 -9999 -9999 -9999 -9999 -9999 -9999 -9999 -9999 -9999 -9999 -9999 -9999 -9999 -9999 -9999 -9999 -9999 -9999 -9999 -9999 -9999 -9999 -9999 1.8952436447143554688 2.0353555679321289062 -9999 -9999 -9999 -9999 -9999 -9999 -9999 -9999 -9999 -9999 -9999 -9999 -9999 -9999 -9999 -9999 -9999 -9999 -9999 -9999 -9999 -9999 -9999 -9999 -9999 -9999 -9999 -9999 -9999 -9999 2.6253142356872558594 2.2974019050598144531 2.5070755481719970703 2.0397663116455078125 1.8001178503036499023 2.1605813503265380859 -9999 -9999 4.5389347076416015625 4.9858264923095703125 4.5265316963195800781 -9999 2.9856622219085693359 4.2607631683349609375 -9999 2.4860055446624755859 2.1864378452301025391 1.8199666738510131836 2.4118027687072753906 2.3967316150665283203 1.850094914436340332 -9999 -9999 -9999 -9999 -9999 -9999 -9999 -9999 2.4764909744262695312 2.5581068992614746094 -9999 -9999 -9999 -9999 -9999 -9999 -9999 -9999 -9999 -9999 -9999 -9999 -9999 -9999 -9999 
-9999 1.431048274040222168 -9999 -9999 -9999 -9999 -9999 -9999 -9999 -9999 -9999 -9999 -9999 -9999 -9999 -9999 -9999 -9999 -9999 -9999 -9999 -9999 -9999 -9999 -9999 -9999 -9999 -9999 -9999 -9999 -9999 -9999 -9999 -9999 -9999 -9999 -9999 -9999 -9999 -9999 -9999 -9999 -9999 -9999 -9999 -9999 -9999 -9999 -9999 -9999 2.8669559955596923828 2.3819122314453125 1.6806088685989379883 -9999 -9999 -9999 -9999 -9999 -9999 -9999 -9999 -9999 -9999 -9999 1.4289057254791259766 -9999 -9999 1.2344192266464233398 -9999 -9999 -9999 -9999 -9999 -9999 -9999 -9999 -9999 -9999 -9999 -9999 3.9648914337158203125 3.92620086669921875 3.6440532207489013672 3.0640494823455810547 2.2429380416870117188 1.7621208429336547852 2.0855047702789306641 1.8497338294982910156 1.9717561006546020508 -9999 7.0950822830200195312 6.2223381996154785156 2.992237091064453125 2.8569295406341552734 2.6611011028289794922 2.4554936885833740234 -9999 1.9706187248229980469 1.9083255529403686523 2.5359277725219726562 4.740314483642578125 3.333019256591796875 1.8615080118179321289 -9999 -9999 -9999 -9999 -9999 -9999 -9999 3.1786234378814697266 -9999 -9999 -9999 -9999 -9999 -9999 -9999 -9999 -9999 -9999 -9999 -9999 -9999 -9999 -9999 -9999 
-9999 -9999 -9999 -9999 -9999 -9999 -9999 -9999 -9999 -9999 -9999 -9999 -9999 -9999 -9999 -9999 -9999 -9999 -9999 -9999 -9999 -9999 -9999 -9999 -9999 -9999 -9999 -9999 -9999 -9999 -9999 -9999 -9999 1.8013074398040771484 -9999 -9999 -9999 -9999 -9999 -9999 -9999 -9999 -9999 -9999 -9999 -9999 -9999 -9999 -9999 -9999 2.2713143825531005859 1.9614118337631225586 -9999 -9999 -9999 -9999 -9999 -9999 -9999 -9999 -9999 -9999 -9999 -9999 -9999 -9999 -9999 -9999 -9999 -9999 -9999 -9999 -9999 -9999 -9999 -9999 -9999 -9999 -9999 -9999 3.0383141040802001953 3.0028767585754394531 2.2880003452301025391 2.0848696231842041016 2.2583467960357666016 1.9998518228530883789 -9999 2.79395294189453125 2.5707030296325683594 2.0782690048217773438 3.0761556625366210938 1.5332489013671875 -9999 2.1108963489532470703 4.0810561180114746094 3.7076008319854736328 -9999 2.5023894309997558594 2.299877166748046875 2.2966799736022949219 3.7528369426727294922 3.1091873645782470703 4.0573101043701171875 2.5345790386199951172 1.6429864168167114258 -9999 1.9443128108978271484 -9999 -9999 2.8988590240478515625 3.2646663188934326172 3.2897503376007080078 2.5979757308959960938 -9999 -9999 -9999 -9999 -9999 -9999 -9999 -9999 -9999 -9999 -9999 -9999 -9999 -9999 
-9999 -9999 -9999 -9999 -9999 -9999 -9999 -9999 -9999 -9999 -9999 -9999 -9999 -9999 -9999 -9999 -9999 -9999 -9999 -9999 -9999 -9999 -9999 -9999 -9999 -9999 -9999 -9999 -9999 -9999 -9999 -9999 -9999 -9999 -9999 -9999 -9999 -9999 -9999 -9999 -9999 -9999 -9999 -9999 -9999 -9999 -9999 -9999 -9999 -9999 1.875891566276550293 -9999 1.5725367069244384766 -9999 -9999 -9999 -9999 -9999 -9999 -9999 -9999 -9999 -9999 -9999 -9999 -9999 -9999 -9999 -9999 -9999 -9999 -9999 -9999 -9999 -9999 -9999 -9999 -9999 -9999 -9999 -9999 -9999 -9999 -9999 2.1243159770965576172 2.5519354343414306641 2.5818433761596679688 2.2794528007507324219 1.7522125244140625 -9999 -9999 -9999 1.8499944210052490234 2.0962677001953125 -9999 3.5639526844024658203 3.124065399169921875 2.7770977020263671875 -9999 2.644504547119140625 2.6779007911682128906 2.2936842441558837891 1.3584934473037719727 -9999 2.0370018482208251953 2.4708294868469238281 2.7474873065948486328 2.6690158843994140625 3.4032256603240966797 -9999 3.1091356277465820312 -9999 -9999 -9999 -9999 -9999 -9999 -9999 -9999 -9999 -9999 -9999 -9999 -9999 -9999 -9999 -9999 
-9999 -9999 -9999 -9999 -9999 -9999 -9999 -9999 -9999 -9999 -9999 -9999 -9999 -9999 -9999 -9999 -9999 -9999 -9999 -9999 -9999 -9999 -9999 -9999 -9999 -9999 -9999 -9999 -9999 -9999 2.0170001983642578125 1.4898751974105834961 -9999 -9999 -9999 -9999 -9999 -9999 -9999 -9999 -9999 -9999 -9999 -9999 -9999 -9999 -9999 -9999 1.6450777053833007812 -9999 -9999 -9999 -9999 1.5394915342330932617 -9999 -9999 -9999 1.2220652103424072266 -9999 -9999 -9999 -9999 -9999 -9999 -9999 1.3121275901794433594 -9999 -9999 -9999 -9999 -9999 -9999 -9999 -9999 -9999 -9999 -9999 1.4872965812683105469 -9999 -9999 -9999 -9999 -9999 -9999 -9999 1.8523402214050292969 -9999 -9999 -9999 -9999 -9999 -9999 -9999 2.1065793037414550781 3.0052626132965087891 3.3350236415863037109 2.3566749095916748047 2.0345902442932128906 3.0458464622497558594 2.1435101032257080078 3.7864360809326171875 5.4171457290649414062 1.6868751049041748047 2.1626551151275634766 2.4692389965057373047 3.0573284626007080078 3.2801659107208251953 3.4345810413360595703 -9999 -9999 3.0914690494537353516 -9999 -9999 -9999 1.7038166522979736328 -9999 -9999 -9999 -9999 -9999 -9999 -9999 -9999 -9999 -9999 -9999 -9999 
-9999 -9999 -9999 -9999 -9999 -9999 -9999 -9999 -9999 -9999 -9999 -9999 -9999 -9999 -9999 -9999 -9999 -9999 -9999 -9999 -9999 -9999 -9999 -9999 -9999 -9999 -9999 -9999 -9999 -9999 1.8052707910537719727 -9999 -9999 -9999 -9999 -9999 -9999 -9999 -9999 -9999 -9999 -9999 -9999 -9999 -9999 -9999 -9999 -9999 -9999 -9999 -9999 -9999 -9999 -9999 -9999 -9999 -9999 -9999 1.9020289182662963867 1.4604399204254150391 -9999 -9999 -9999 -9999 -9999 -9999 -9999 -9999 -9999 -9999 -9999 -9999 -9999 -9999 -9999 -9999 -9999 -9999 -9999 -9999 -9999 -9999 -9999 -9999 -9999 1.5328921079635620117 -9999 -9999 -9999 -9999 -9999 -9999 -9999 -9999 2.7004537582397460938 2.6249740123748779297 2.1939957141876220703 2.1814949512481689453 2.8173537254333496094 2.1540076732635498047 2.88695526123046875 4.4577393531799316406 4.3334836959838867188 2.9835569858551025391 1.7542067766189575195 4.4575634002685546875 4.6718797683715820312 2.9150609970092773438 -9999 -9999 -9999 -9999 -9999 -9999 -9999 -9999 -9999 -9999 -9999 -9999 -9999 -9999 -9999 -9999 -9999 -9999 -9999 
-9999 -9999 -9999 -9999 -9999 -9999 -9999 -9999 -9999 -9999 -9999 -9999 -9999 -9999 -9999 -9999 -9999 -9999 -9999 -9999 -9999 -9999 -9999 -9999 -9999 -9999 -9999 -9999 -9999 -9999 -9999 -9999 -9999 -9999 -9999 -9999 2.3059458732604980469 -9999 -9999 -9999 -9999 -9999 -9999 -9999 -9999 -9999 -9999 -9999 -9999 -9999 -9999 1.3162922859191894531 -9999 -9999 -9999 -9999 -9999 -9999 -9999 -9999 -9999 -9999 -9999 -9999 -9999 -9999 -9999 -9999 -9999 -9999 -9999 -9999 -9999 -9999 -9999 -9999 -9999 -9999 -9999 -9999 -9999 -9999 -9999 -9999 -9999 -9999 -9999 -9999 -9999 -9999 -9999 -9999 -9999 -9999 -9999 2.1371295452117919922 4.9902482032775878906 5.2065367698669433594 -9999 1.4023977518081665039 1.5722976922988891602 1.3849128484725952148 4.8971543312072753906 2.3652133941650390625 3.4576570987701416016 3.0864403247833251953 -9999 -9999 -9999 -9999 -9999 -9999 -9999 -9999 -9999 -9999 1.5569077730178833008 -9999 -9999 -9999 -9999 -9999 -9999 -9999 -9999 -9999 -9999 
-9999 -9999 -9999 -9999 -9999 -9999 -9999 -9999 -9999 -9999 -9999 -9999 -9999 -9999 -9999 -9999 -9999 -9999 -9999 -9999 -9999 -9999 -9999 -9999 -9999 -9999 -9999 -9999 -9999 -9999 -9999 -9999 -9999 -9999 -9999 -9999 -9999 -9999 -9999 -9999 -9999 -9999 -9999 2.1868815422058105469 1.6191338300704956055 -9999 -9999 -9999 -9999 -9999 -9999 -9999 -9999 -9999 -9999 -9999 -9999 -9999 -9999 -9999 -9999 -9999 -9999 -9999 -9999 -9999 -9999 -9999 -9999 -9999 -9999 -9999 -9999 -9999 -9999 -9999 -9999 -9999 -9999 -9999 -9999 -9999 -9999 -9999 -9999 -9999 -9999 -9999 -9999 -9999 -9999 -9999 -9999 1.6173541545867919922 2.02216339111328125 2.2414865493774414062 2.1458897590637207031 3.303951263427734375 2.4021642208099365234 -9999 1.8310308456420898438 1.8579223155975341797 3.7701096534729003906 3.7095220088958740234 2.4440860748291015625 4.2036828994750976562 4.378692626953125 -9999 -9999 -9999 -9999 -9999 -9999 -9999 -9999 -9999 -9999 -9999 -9999 -9999 -9999 -9999 -9999 -9999 1.3790270090103149414 -9999 -9999 
-9999 -9999 -9999 1.4315400123596191406 1.7408384084701538086 -9999 -9999 -9999 -9999 -9999 -9999 -9999 -9999 -9999 -9999 -9999 -9999 -9999 -9999 -9999 -9999 -9999 -9999 -9999 -9999 -9999 -9999 -9999 -9999 -9999 -9999 -9999 -9999 -9999 -9999 1.7390018701553344727 -9999 -9999 -9999 -9999 1.374255061149597168 -9999 1.2318024635314941406 2.3573367595672607422 1.2792085409164428711 2.5152215957641601562 1.6499656438827514648 1.6193996667861938477 -9999 -9999 -9999 -9999 -9999 -9999 -9999 -9999 -9999 -9999 -9999 -9999 -9999 -9999 -9999 -9999 -9999 -9999 -9999 -9999 -9999 -9999 -9999 -9999 -9999 -9999 -9999 -9999 -9999 -9999 -9999 -9999 -9999 -9999 -9999 -9999 -9999 -9999 -9999 -9999 -9999 -9999 -9999 -9999 -9999 -9999 -9999 -9999 1.5357986688613891602 2.0406076908111572266 2.2056891918182373047 1.5890831947326660156 2.4704582691192626953 3.4557170867919921875 3.7259075641632080078 6.950016021728515625 4.9800848960876464844 11.212914466857910156 10.088376998901367188 2.7134306430816650391 2.6018245220184326172 -9999 -9999 -9999 -9999 -9999 -9999 -9999 -9999 -9999 -9999 -9999 -9999 -9999 -9999 -9999 -9999 -9999 -9999 
-9999 -9999 -9999 -9999 -9999 -9999 -9999 -9999 -9999 -9999 -9999 -9999 -9999 -9999 -9999 -9999 -9999 -9999 -9999 -9999 -9999 -9999 -9999 -9999 -9999 -9999 -9999 -9999 -9999 -9999 -9999 -9999 -9999 -9999 -9999 -9999 -9999 -9999 -9999 -9999 2.1891341209411621094 -9999 1.0512921810150146484 2.5194897651672363281 1.1179435253143310547 3.5134305953979492188 3.2833573818206787109 2.7126278877258300781 -9999 1.3594008684158325195 -9999 -9999 -9999 -9999 -9999 -9999 -9999 -9999 -9999 -9999 -9999 -9999 -9999 -9999 1.4203352928161621094 -9999 -9999 -9999 -9999 -9999 -9999 -9999 -9999 -9999 -9999 -9999 -9999 -9999 -9999 -9999 -9999 -9999 -9999 -9999 -9999 -9999 -9999 -9999 -9999 -9999 -9999 -9999 -9999 -9999 -9999 -9999 -9999 -9999 -9999 -9999 2.2972440719604492188 2.8354151248931884766 4.4737691879272460938 5.2468461990356445312 4.7470855712890625 5.9301476478576660156 6.6029305458068847656 3.422695159912109375 -9999 -9999 -9999 -9999 -9999 -9999 -9999 -9999 -9999 -9999 -9999 -9999 -9999 -9999 -9999 -9999 -9999 -9999 -9999 
-9999 -9999 -9999 -9999 -9999 -9999 -9999 -9999 -9999 -9999 -9999 -9999 -9999 -9999 -9999 -9999 -9999 -9999 -9999 -9999 -9999 -9999 -9999 -9999 -9999 -9999 -9999 -9999 -9999 -9999 -9999 -9999 -9999 -9999 -9999 1.8972012996673583984 1.7106984853744506836 -9999 -9999 -9999 -9999 2.1852624416351318359 3.5869896411895751953 4.0052113533020019531 2.5540559291839599609 3.2251973152160644531 3.994083404541015625 3.1016378402709960938 1.6387841701507568359 1.2584805488586425781 -9999 -9999 -9999 -9999 -9999 -9999 -9999 -9999 -9999 -9999 -9999 -9999 -9999 -9999 1.2847216129302978516 -9999 -9999 -9999 -9999 -9999 -9999 -9999 -9999 -9999 -9999 -9999 -9999 -9999 -9999 -9999 -9999 -9999 -9999 -9999 -9999 -9999 -9999 -9999 -9999 -9999 -9999 -9999 -9999 -9999 -9999 -9999 -9999 -9999 -9999 -9999 -9999 1.6794290542602539062 3.3324172496795654297 5.5343413352966308594 5.9717531204223632812 4.6859283447265625 8.1808071136474609375 9.459606170654296875 3.3255796432495117188 -9999 -9999 -9999 2.0602631568908691406 -9999 -9999 -9999 -9999 -9999 -9999 -9999 -9999 -9999 -9999 -9999 -9999 -9999 -9999 
