ncols        127
nrows        131
xllcorner    -71.681135979344
yllcorner    -16.519694133538
cellsize     0.001836012963
NODATA_value -9999
-9999.0 -9999 -9999 -9999 -9999 -9999 -9999 -9999 -9999 -9999 -9999 18.663196563720703125 15.001839637756347656 -9999 -9999 9.7193174362182617188 -9999 -9999 -9999 -9999 -9999 -9999 10.194410324096679688 6.4797077178955078125 -9999 -9999 4.6897511482238769531 -9999 -9999 -9999 -9999 -9999 15.241684913635253906 -9999 -9999 -9999 -9999 -9999 -9999 -9999 -9999 -9999 -9999 -9999 -9999 -9999 -9999 -9999 -9999 -9999 -9999 -9999 -9999 -9999 -9999 -9999 -9999 -9999 -9999 -9999 -9999 -9999 -9999 -9999 -9999 -9999 -9999 -9999 -9999 -9999 -9999 -9999 -9999 -9999 -9999 -9999 -9999 -9999 -9999 -9999 -9999 -9999 -9999 -9999 -9999 -9999 -9999 -9999 -9999 -9999 -9999 -9999 -9999 -9999 -9999 -9999 -9999 -9999 -9999 -9999 -9999 -9999 -9999 -9999 -9999 -9999 -9999 -9999 -9999 -9999 -9999 -9999 -9999 -9999 -9999 -9999 -9999 -9999 -9999 -9999 -9999 -9999 -9999 -9999 -9999 -9999 -9999 
-9999 -9999 -9999 -9999 -9999 -9999 -9999 -9999 -9999 -9999 -9999 16.012201309204101562 11.943325996398925781 -9999 -9999 -9999 -9999 -9999 -9999 -9999 -9999 -9999 7.6703586578369140625 6.9568781852722167969 16.3658905029296875 9.3063306808471679688 7.7676067352294921875 13.874525070190429688 5.3337559700012207031 -9999 -9999 9.9601917266845703125 -9999 -9999 -9999 -9999 -9999 -9999 -9999 -9999 -9999 -9999 -9999 -9999 -9999 -9999 -9999 -9999 -9999 -9999 -9999 -9999 -9999 -9999 -9999 -9999 -9999 -9999 -9999 -9999 -9999 -9999 -9999 -9999 -9999 -9999 -9999 -9999 -9999 22.264993667602539062 -9999 -9999 -9999 -9999 23.776739120483398438 23.556049346923828125 -9999 -9999 -9999 -9999 -9999 -9999 -9999 -9999 -9999 -9999 -9999 -9999 -9999 -9999 -9999 20.941213607788085938 21.709939956665039062 -9999 -9999 -9999 -9999 -9999 -9999 -9999 -9999 -9999 -9999 -9999 -9999 -9999 -9999 -9999 -9999 -9999 -9999 -9999 -9999 14.459694862365722656 -9999 -9999 -9999 -9999 -9999 -9999 -9999 -9999 -9999 -9999 -9999 -9999 -9999 
-9999 -9999 -9999 -9999 -9999 -9999 -9999 -9999 -9999 -9999 15.777942657470703125 11.965284347534179688 6.1245899200439453125 4.8685517311096191406 10.24692535400390625 18.2125244140625 -9999 -9999 -9999 -9999 -9999 -9999 9.5261259078979492188 6.1673755645751953125 15.203587532043457031 17.783838272094726562 17.602901458740234375 -9999 4.3730721473693847656 -9999 -9999 10.187333106994628906 -9999 -9999 -9999 -9999 -9999 -9999 -9999 -9999 -9999 -9999 -9999 -9999 -9999 -9999 -9999 -9999 -9999 -9999 -9999 -9999 -9999 -9999 -9999 -9999 -9999 -9999 -9999 -9999 -9999 -9999 -9999 -9999 -9999 -9999 -9999 -9999 -9999 17.443887710571289062 16.328245162963867188 -9999 -9999 -9999 15.129087448120117188 -9999 -9999 -9999 -9999 -9999 23.842714309692382812 -9999 -9999 -9999 -9999 -9999 -9999 -9999 -9999 -9999 -9999 -9999 -9999 -9999 -9999 -9999 -9999 -9999 -9999 -9999 -9999 -9999 -9999 -9999 -9999 -9999 -9999 -9999 -9999 -9999 -9999 -9999 -9999 -9999 -9999 -9999 -9999 -9999 -9999 -9999 18.362247467041015625 -9999 -9999 -9999 -9999 -9999 -9999 
12.439913749694824219 -9999 -9999 -9999 -9999 -9999 -9999 -9999 -9999 12.01825714111328125 -9999 12.909709930419921875 3.734004974365234375 6.1484074592590332031 3.2729115486145019531 1.3319662809371948242 2.7234771251678466797 -9999 -9999 -9999 3.3223974704742431641 7.0589132308959960938 4.2139844894409179688 9.3139905929565429688 11.879860877990722656 8.1369276046752929688 11.450240135192871094 -9999 4.9375562667846679688 -9999 1.2803974151611328125 -9999 -9999 -9999 -9999 -9999 -9999 -9999 -9999 -9999 -9999 -9999 -9999 -9999 -9999 -9999 16.1541748046875 -9999 -9999 -9999 -9999 -9999 -9999 -9999 -9999 -9999 -9999 -9999 -9999 -9999 -9999 -9999 -9999 -9999 -9999 -9999 -9999 -9999 -9999 12.29915618896484375 7.0700101852416992188 6.69788360595703125 3.8622341156005859375 12.877120018005371094 4.4735417366027832031 -9999 -9999 21.70143890380859375 19.37476348876953125 -9999 -9999 -9999 -9999 -9999 -9999 -9999 -9999 -9999 15.600413322448730469 -9999 -9999 -9999 -9999 -9999 -9999 -9999 -9999 -9999 -9999 -9999 -9999 -9999 -9999 -9999 -9999 -9999 -9999 -9999 -9999 -9999 -9999 -9999 -9999 -9999 -9999 -9999 -9999 15.938492774963378906 -9999 -9999 17.333850860595703125 -9999 -9999 -9999 -9999 -9999 -9999 
-9999 -9999 -9999 -9999 -9999 -9999 -9999 -9999 -9999 -9999 16.631139755249023438 11.42435455322265625 3.755573272705078125 10.563751220703125 9.2895975112915039062 12.189350128173828125 3.9322893619537353516 -9999 -9999 -9999 6.37697601318359375 4.5885472297668457031 1.8234412670135498047 3.2340619564056396484 10.663235664367675781 8.8422155380249023438 8.7345790863037109375 2.1173000335693359375 2.3200333118438720703 1.280391693115234375 3.5239212512969970703 -9999 -9999 -9999 -9999 -9999 -9999 -9999 -9999 -9999 -9999 -9999 -9999 -9999 -9999 -9999 -9999 -9999 -9999 -9999 10.679979324340820312 -9999 -9999 -9999 -9999 -9999 -9999 -9999 -9999 -9999 -9999 -9999 -9999 -9999 -9999 -9999 -9999 -9999 13.474650382995605469 7.5255541801452636719 4.8301439285278320312 4.4328203201293945312 6.9785900115966796875 11.172206878662109375 5.5640339851379394531 15.75592041015625 7.5363483428955078125 5.5559930801391601562 21.25424957275390625 -9999 -9999 -9999 -9999 -9999 -9999 -9999 -9999 18.258214950561523438 19.862468719482421875 12.9613800048828125 -9999 -9999 -9999 12.601823806762695312 8.7543087005615234375 -9999 15.276937484741210938 -9999 -9999 -9999 -9999 -9999 -9999 -9999 -9999 -9999 -9999 -9999 -9999 -9999 -9999 -9999 -9999 -9999 -9999 -9999 -9999 -9999 -9999 -9999 -9999 -9999 -9999 -9999 -9999 -9999 -9999 
-9999 -9999 -9999 -9999 -9999 -9999 -9999 8.7375278472900390625 5.0778341293334960938 11.094655036926269531 16.115345001220703125 11.801992416381835938 8.1147480010986328125 5.0496983528137207031 12.084728240966796875 13.784799575805664062 5.3260707855224609375 -9999 -9999 -9999 6.8120927810668945312 3.3025450706481933594 1.1833106279373168945 4.2147231101989746094 7.0973029136657714844 5.5410828590393066406 4.413330078125 3.3894307613372802734 2.7386722564697265625 5.4418153762817382812 7.0869927406311035156 -9999 -9999 -9999 -9999 -9999 -9999 -9999 -9999 -9999 -9999 -9999 -9999 -9999 -9999 -9999 -9999 -9999 16.133462905883789062 -9999 -9999 -9999 -9999 -9999 -9999 -9999 -9999 -9999 -9999 -9999 -9999 -9999 -9999 -9999 -9999 -9999 -9999 -9999 15.873857498168945312 11.386816978454589844 5.5618534088134765625 4.3473830223083496094 8.1696338653564453125 7.3603506088256835938 15.02242279052734375 19.5225830078125 6.9128508567810058594 1.4435784816741943359 19.303060531616210938 12.780953407287597656 -9999 -9999 -9999 16.972162246704101562 19.801301956176757812 -9999 16.699432373046875 6.8650755882263183594 20.134716033935546875 23.879886627197265625 17.399583816528320312 -9999 -9999 -9999 -9999 -9999 -9999 -9999 -9999 -9999 -9999 -9999 -9999 -9999 -9999 -9999 -9999 -9999 -9999 -9999 -9999 -9999 -9999 -9999 -9999 -9999 -9999 -9999 -9999 -9999 -9999 -9999 -9999 -9999 -9999 -9999 -9999 
-9999 -9999 -9999 -9999 -9999 -9999 -9999 12.234335899353027344 7.4883108139038085938 12.573221206665039062 13.599328041076660156 12.218606948852539062 6.4162106513977050781 9.836788177490234375 15.975805282592773438 15.881569862365722656 5.2123117446899414062 -9999 -9999 11.425393104553222656 3.9758393764495849609 3.7840611934661865234 3.5623087882995605469 2.2045257091522216797 1.4411952495574951172 1.1230932474136352539 1.6008609533309936523 2.5955853462219238281 1.7337751388549804688 2.3015546798706054688 2.757762908935546875 -9999 -9999 -9999 -9999 -9999 -9999 12.811864852905273438 -9999 -9999 -9999 -9999 -9999 -9999 -9999 -9999 -9999 -9999 -9999 -9999 -9999 -9999 -9999 -9999 17.183719635009765625 -9999 -9999 -9999 -9999 -9999 -9999 -9999 -9999 -9999 -9999 -9999 -9999 -9999 -9999 -9999 9.5527391433715820312 3.4851877689361572266 4.4831357002258300781 11.600686073303222656 13.625387191772460938 14.350213050842285156 10.505998611450195312 16.25429534912109375 -9999 -9999 -9999 16.00370025634765625 14.444451332092285156 11.243635177612304688 17.89775848388671875 -9999 6.8746843338012695312 6.9399957656860351562 19.002593994140625 18.179841995239257812 12.230742454528808594 13.600638389587402344 16.424146652221679688 21.574174880981445312 -9999 -9999 -9999 -9999 -9999 -9999 -9999 -9999 -9999 -9999 -9999 -9999 -9999 -9999 -9999 -9999 -9999 -9999 10.798496246337890625 27.2246551513671875 -9999 -9999 -9999 -9999 -9999 -9999 -9999 -9999 -9999 -9999 -9999 -9999 -9999 
-9999 -9999 -9999 -9999 -9999 13.198109626770019531 -9999 13.16855621337890625 7.8461556434631347656 11.593271255493164062 9.2690114974975585938 5.6937742233276367188 5.697071075439453125 6.3509249687194824219 3.4664881229400634766 4.3069019317626953125 7.0817570686340332031 -9999 19.900262832641601562 9.6299924850463867188 1.3344202041625976562 3.5367970466613769531 10.5097808837890625 1.9691896438598632812 3.0380432605743408203 3.856708526611328125 2.9174525737762451172 4.0006518363952636719 4.3577737808227539062 4.8380384445190429688 5.5733599662780761719 4.5461244583129882812 2.1918704509735107422 -9999 -9999 -9999 -9999 14.828269004821777344 -9999 -9999 -9999 -9999 -9999 -9999 -9999 -9999 -9999 -9999 -9999 -9999 -9999 -9999 -9999 -9999 -9999 -9999 -9999 -9999 -9999 -9999 -9999 -9999 -9999 -9999 -9999 -9999 -9999 -9999 -9999 -9999 -9999 10.207983970642089844 5.4428591728210449219 14.738573074340820312 14.550379753112792969 4.1287336349487304688 17.7343292236328125 -9999 -9999 9.917865753173828125 11.396389007568359375 8.4554815292358398438 12.747495651245117188 19.7472991943359375 3.8580868244171142578 9.7673406600952148438 5.3558483123779296875 4.6803746223449707031 1.8739281892776489258 8.3618335723876953125 10.840689659118652344 10.867690086364746094 13.393228530883789062 19.59267425537109375 -9999 -9999 -9999 -9999 -9999 -9999 -9999 -9999 -9999 -9999 -9999 -9999 -9999 -9999 -9999 -9999 -9999 15.73566436767578125 10.535093307495117188 -9999 -9999 -9999 -9999 -9999 -9999 -9999 -9999 -9999 -9999 -9999 -9999 -9999 -9999 
-9999 -9999 -9999 -9999 14.005993843078613281 -9999 -9999 16.51558685302734375 14.630944252014160156 10.991597175598144531 -9999 1.8326761722564697266 7.5109395980834960938 1.1641820669174194336 12.830608367919921875 -9999 -9999 -9999 -9999 11.54034423828125 3.6221709251403808594 5.5380830764770507812 -9999 1.7817358970642089844 3.1876692771911621094 4.8227086067199707031 1.7886903285980224609 2.2382516860961914062 4.2444262504577636719 6.6057820320129394531 8.1936092376708984375 6.2012624740600585938 1.7197376489639282227 -9999 -9999 -9999 -9999 -9999 -9999 -9999 -9999 -9999 -9999 -9999 -9999 -9999 -9999 -9999 -9999 -9999 -9999 -9999 -9999 -9999 -9999 -9999 -9999 -9999 -9999 -9999 -9999 -9999 -9999 -9999 -9999 -9999 -9999 -9999 -9999 -9999 -9999 7.0908741950988769531 1.5311343669891357422 13.797025680541992188 13.630800247192382812 5.4814739227294921875 18.138845443725585938 -9999 -9999 12.736658096313476562 11.901086807250976562 1.8392505645751953125 27.071969985961914062 20.856903076171875 10.850586891174316406 12.4111328125 15.359147071838378906 9.7670192718505859375 11.476032257080078125 2.6079573631286621094 4.3965868949890136719 5.3567042350769042969 11.6982879638671875 -9999 -9999 -9999 -9999 -9999 -9999 -9999 -9999 -9999 -9999 -9999 -9999 -9999 -9999 -9999 -9999 -9999 -9999 -9999 -9999 -9999 -9999 -9999 -9999 -9999 -9999 -9999 -9999 -9999 -9999 -9999 -9999 -9999 -9999 
-9999 -9999 -9999 -9999 -9999 -9999 -9999 12.880555152893066406 12.769730567932128906 10.262610435485839844 9.473178863525390625 4.2090239524841308594 3.4484834671020507812 5.7220182418823242188 15.141046524047851562 -9999 -9999 -9999 10.954454421997070312 9.0535573959350585938 1.6288458108901977539 -9999 11.599414825439453125 4.1818571090698242188 4.6173095703125 1.7520112991333007812 3.1533663272857666016 3.3959434032440185547 2.3516893386840820312 6.5804185867309570312 6.7522130012512207031 6.7882204055786132812 5.4041972160339355469 36.18164825439453125 9.2186193466186523438 13.891066551208496094 -9999 -9999 -9999 -9999 -9999 -9999 -9999 -9999 -9999 -9999 -9999 -9999 13.903324127197265625 -9999 -9999 -9999 -9999 -9999 -9999 -9999 -9999 -9999 -9999 -9999 -9999 -9999 -9999 -9999 -9999 -9999 -9999 -9999 -9999 -9999 -9999 3.8933546543121337891 6.3103394508361816406 12.655772209167480469 2.8663198947906494141 -9999 -9999 -9999 7.7538433074951171875 10.428620338439941406 10.345136642456054688 4.1207795143127441406 20.9579620361328125 18.755680084228515625 12.415392875671386719 17.5958404541015625 15.361723899841308594 12.223938941955566406 16.662763595581054688 3.31781768798828125 4.0247149467468261719 5.9885516166687011719 11.468109130859375 -9999 -9999 -9999 -9999 -9999 -9999 -9999 -9999 -9999 -9999 -9999 -9999 -9999 -9999 -9999 -9999 -9999 -9999 -9999 -9999 -9999 -9999 -9999 -9999 -9999 -9999 -9999 -9999 -9999 -9999 -9999 -9999 -9999 -9999 
-9999 -9999 -9999 16.077737808227539062 -9999 -9999 18.386880874633789062 9.4407091140747070312 8.2373476028442382812 12.509739875793457031 10.107951164245605469 7.0128946304321289062 6.6928243637084960938 -9999 -9999 -9999 -9999 -9999 -9999 8.4748554229736328125 6.7259325981140136719 4.3598031997680664062 9.9788656234741210938 7.7695970535278320312 2.1694200038909912109 3.3480813503265380859 5.958827972412109375 3.4845986366271972656 4.3038582801818847656 5.2472772598266601562 5.5316648483276367188 6.2763166427612304688 7.5734143257141113281 8.627166748046875 10.4642181396484375 9.6014776229858398438 9.057003021240234375 -9999 -9999 -9999 -9999 -9999 -9999 -9999 -9999 -9999 -9999 -9999 -9999 -9999 -9999 -9999 -9999 -9999 -9999 -9999 -9999 -9999 -9999 -9999 -9999 -9999 -9999 -9999 16.24561309814453125 -9999 -9999 -9999 -9999 -9999 -9999 -9999 3.5321764945983886719 2.7353379726409912109 9.2798900604248046875 15.689978599548339844 -9999 -9999 -9999 -9999 12.217110633850097656 1.8615010976791381836 11.124464988708496094 19.6777496337890625 11.394495010375976562 13.369280815124511719 10.879861831665039062 5.6458258628845214844 8.3722639083862304688 1.9706822633743286133 1.2825920581817626953 5.9312200546264648438 13.237184524536132812 -9999 -9999 -9999 -9999 -9999 -9999 -9999 -9999 -9999 -9999 -9999 -9999 -9999 -9999 -9999 -9999 -9999 -9999 -9999 -9999 -9999 -9999 -9999 -9999 -9999 -9999 -9999 -9999 -9999 -9999 -9999 -9999 -9999 -9999 
-9999 5.594814300537109375 5.4922156333923339844 12.625140190124511719 16.420099258422851562 13.753310203552246094 12.785665512084960938 2.0270583629608154297 1.4984947443008422852 6.0594077110290527344 6.0794939994812011719 3.2054235935211181641 10.229142189025878906 -9999 -9999 -9999 -9999 -9999 -9999 -9999 -9999 1.0920656919479370117 3.0071012973785400391 4.62255096435546875 5.6207571029663085938 3.7966983318328857422 7.9039483070373535156 2.5966742038726806641 5.0490241050720214844 5.3050885200500488281 6.0204071998596191406 5.9339051246643066406 5.8653545379638671875 2.5911958217620849609 1.3371176719665527344 3.7490587234497070312 2.5530409812927246094 -9999 -9999 -9999 -9999 -9999 -9999 -9999 -9999 -9999 -9999 -9999 -9999 -9999 -9999 -9999 -9999 -9999 -9999 -9999 -9999 -9999 -9999 -9999 -9999 -9999 -9999 -9999 -9999 -9999 -9999 -9999 -9999 -9999 -9999 -9999 2.1037693023681640625 1.7378764152526855469 1.3993587493896484375 8.5645227432250976562 -9999 -9999 -9999 -9999 5.4115595817565917969 17.105691909790039062 20.679994583129882812 24.81955718994140625 7.1367435455322265625 10.8442840576171875 13.272898674011230469 3.2184228897094726562 7.2123122215270996094 8.195308685302734375 5.9670271873474121094 7.5997076034545898438 -9999 -9999 -9999 -9999 -9999 -9999 -9999 -9999 -9999 -9999 -9999 -9999 -9999 -9999 -9999 -9999 23.656850814819335938 -9999 -9999 -9999 -9999 -9999 -9999 -9999 -9999 -9999 -9999 -9999 -9999 -9999 -9999 -9999 -9999 -9999 -9999 
9.0979585647583007812 6.2795076370239257812 8.228118896484375 11.956064224243164062 -9999 -9999 4.1665868759155273438 2.7426755428314208984 4.6952080726623535156 6.001964569091796875 10.193158149719238281 9.7261486053466796875 11.694593429565429688 -9999 -9999 -9999 -9999 -9999 -9999 -9999 -9999 5.5922842025756835938 2.6107959747314453125 5.1013922691345214844 4.4131631851196289062 3.8367824554443359375 2.3352715969085693359 2.0109355449676513672 1.6922158002853393555 4.4812788963317871094 5.5315852165222167969 5.5262017250061035156 4.281490325927734375 3.3382806777954101562 3.8784937858581542969 5.4132866859436035156 4.6966314315795898438 9.3112726211547851562 -9999 -9999 -9999 -9999 -9999 -9999 -9999 -9999 -9999 -9999 -9999 -9999 -9999 -9999 -9999 -9999 -9999 -9999 -9999 -9999 -9999 -9999 -9999 -9999 -9999 -9999 -9999 -9999 -9999 -9999 -9999 -9999 -9999 -9999 3.2117519378662109375 1.5594921112060546875 3.0430808067321777344 9.2033357620239257812 -9999 -9999 21.948778152465820312 8.8021869659423828125 12.430332183837890625 18.993265151977539062 12.952996253967285156 13.690975189208984375 9.0226192474365234375 10.256605148315429688 14.384817123413085938 6.7452726364135742188 1.9390505552291870117 3.0163609981536865234 -9999 17.162279129028320312 -9999 -9999 -9999 -9999 -9999 -9999 -9999 -9999 -9999 -9999 -9999 -9999 -9999 -9999 -9999 -9999 -9999 -9999 -9999 -9999 -9999 -9999 -9999 -9999 -9999 -9999 -9999 -9999 -9999 -9999 -9999 -9999 -9999 -9999 -9999 
9.3799123764038085938 10.60211181640625 12.767708778381347656 12.223259925842285156 -9999 -9999 2.3642382621765136719 3.021663665771484375 4.0430531501770019531 1.1494928598403930664 10.492314338684082031 8.9448499679565429688 16.929529190063476562 -9999 -9999 11.580092430114746094 16.078273773193359375 18.198602676391601562 12.713034629821777344 -9999 -9999 5.7217183113098144531 3.0006496906280517578 5.4473338127136230469 2.1346502304077148438 2.3736033439636230469 2.6366472244262695312 3.2233407497406005859 1.7372148036956787109 2.6732831001281738281 4.3881011009216308594 4.1400575637817382812 3.1420228481292724609 3.4693868160247802734 5.6975207328796386719 5.9084930419921875 5.5133485794067382812 2.4752237796783447266 -9999 -9999 -9999 -9999 -9999 -9999 -9999 -9999 -9999 -9999 -9999 -9999 -9999 -9999 -9999 -9999 -9999 -9999 17.947727203369140625 20.904500961303710938 -9999 -9999 -9999 -9999 -9999 -9999 -9999 -9999 -9999 -9999 -9999 -9999 -9999 2.9300968647003173828 4.0655922889709472656 5.3384294509887695312 1.2284759283065795898 12.6589813232421875 -9999 -9999 24.683866500854492188 12.514008522033691406 10.095640182495117188 14.20845794677734375 13.355772972106933594 11.755265235900878906 10.229094505310058594 10.139111518859863281 9.0527982711791992188 5.3672957420349121094 2.0190443992614746094 6.43347930908203125 -9999 16.353212356567382812 19.730455398559570312 -9999 -9999 -9999 -9999 -9999 -9999 -9999 -9999 -9999 -9999 -9999 11.072172164916992188 -9999 -9999 -9999 -9999 -9999 -9999 -9999 -9999 -9999 -9999 -9999 -9999 -9999 -9999 -9999 -9999 -9999 -9999 -9999 -9999 -9999 -9999 
17.638936996459960938 14.171295166015625 12.835763931274414062 12.707489013671875 13.460771560668945312 5.20014190673828125 1.0539557933807373047 1.4840600490570068359 2.4136531352996826172 4.9052195549011230469 11.718103408813476562 11.531710624694824219 -9999 -9999 2.0100114345550537109 7.4315700531005859375 2.6944308280944824219 4.5463089942932128906 4.7865910530090332031 -9999 4.5857548713684082031 9.2112722396850585938 6.6100487709045410156 11.239673614501953125 3.1913411617279052734 1.5927581787109375 5.2482824325561523438 4.2335972785949707031 2.6680324077606201172 3.1656546592712402344 4.3850455284118652344 2.4221832752227783203 1.0892267227172851562 3.5493581295013427734 5.0028333663940429688 5.15650177001953125 6.0397491455078125 7.0381350517272949219 5.2328467369079589844 9.9836330413818359375 6.8934311866760253906 -9999 -9999 -9999 -9999 -9999 -9999 -9999 -9999 -9999 -9999 -9999 23.597759246826171875 23.107152938842773438 -9999 5.464962005615234375 14.362000465393066406 -9999 -9999 -9999 -9999 -9999 -9999 -9999 -9999 -9999 -9999 -9999 -9999 -9999 4.005615234375 8.581508636474609375 8.5990419387817382812 8.6773862838745117188 1.4217026233673095703 17.794189453125 -9999 -9999 13.539486885070800781 2.4546515941619873047 9.448581695556640625 9.7983722686767578125 10.406507492065429688 9.6725177764892578125 9.1890201568603515625 9.34459686279296875 7.7885456085205078125 2.0703189373016357422 7.044605255126953125 9.6963834762573242188 -9999 13.058501243591308594 16.54974365234375 -9999 -9999 -9999 -9999 -9999 -9999 -9999 -9999 -9999 -9999 -9999 -9999 -9999 -9999 -9999 -9999 -9999 -9999 -9999 -9999 -9999 -9999 -9999 -9999 -9999 -9999 -9999 -9999 -9999 -9999 -9999 -9999 -9999 -9999 
15.942876815795898438 21.998622894287109375 -9999 -9999 6.2625293731689453125 2.5894677639007568359 1.9416905641555786133 4.20708465576171875 2.6961948871612548828 9.4669666290283203125 10.941585540771484375 14.469676017761230469 -9999 -9999 2.9916219711303710938 6.1752805709838867188 5.4139251708984375 6.9423995018005371094 5.6332964897155761719 5.1810197830200195312 8.1481113433837890625 7.5471539497375488281 16.241436004638671875 17.826206207275390625 9.6593694686889648438 2.9539818763732910156 3.437286376953125 4.1386890411376953125 5.9342217445373535156 6.5349097251892089844 5.8546891212463378906 3.6101438999176025391 7.1138491630554199219 6.884845733642578125 5.4696369171142578125 5.4326887130737304688 5.8208446502685546875 6.6333026885986328125 7.337833404541015625 8.2131547927856445312 7.9524703025817871094 5.5472898483276367188 -9999 -9999 -9999 -9999 -9999 -9999 -9999 -9999 -9999 -9999 -9999 -9999 5.1460390090942382812 1.2850855588912963867 6.9653954505920410156 11.46837615966796875 8.6617975234985351562 17.57990264892578125 -9999 8.2937765121459960938 -9999 -9999 -9999 -9999 5.6775875091552734375 1.910725712776184082 1.3509662151336669922 6.50811004638671875 7.86273193359375 7.7997927665710449219 10.925269126892089844 9.3995189666748046875 5.2120728492736816406 15.333249092102050781 15.649615287780761719 13.134868621826171875 6.9006938934326171875 8.5952062606811523438 10.647809028625488281 8.6004238128662109375 6.9590778350830078125 6.9234061241149902344 6.863597869873046875 8.6821947097778320312 7.5005602836608886719 -9999 10.487306594848632812 -9999 14.291589736938476562 10.673498153686523438 15.55560302734375 -9999 -9999 -9999 -9999 -9999 -9999 -9999 -9999 -9999 -9999 -9999 -9999 -9999 -9999 -9999 -9999 -9999 -9999 -9999 -9999 -9999 -9999 -9999 -9999 -9999 -9999 -9999 -9999 -9999 -9999 -9999 -9999 -9999 -9999 
21.654291152954101562 23.37581634521484375 -9999 5.2371525764465332031 10.334658622741699219 9.9037876129150390625 7.3019380569458007812 2.3275666236877441406 1.6866176128387451172 2.2320065498352050781 11.506229400634765625 -9999 6.0986356735229492188 1.3718917369842529297 6.4893660545349121094 6.4930181503295898438 2.6820890903472900391 3.5008976459503173828 6.2519011497497558594 9.82906341552734375 11.622973442077636719 14.100388526916503906 10.945019721984863281 15.206023216247558594 12.898847579956054688 9.8645267486572265625 9.0060815811157226562 6.0645856857299804688 6.0392012596130371094 5.7651238441467285156 4.9713592529296875 7.7604403495788574219 9.0160360336303710938 7.0243306159973144531 6.2754220962524414062 4.9713582992553710938 4.6875867843627929688 5.128021240234375 6.7181048393249511719 6.7445445060729980469 7.0169205665588378906 7.3580598831176757812 1.3965531587600708008 -9999 -9999 -9999 -9999 -9999 -9999 -9999 -9999 28.44305419921875 6.43354034423828125 2.4168865680694580078 3.8765878677368164062 3.1588590145111083984 -9999 2.3555400371551513672 2.4261059761047363281 4.3011832237243652344 -9999 -9999 11.2881622314453125 -9999 -9999 4.0648922920227050781 1.2043385505676269531 2.5609776973724365234 5.9400286674499511719 8.9244928359985351562 7.2360844612121582031 6.7743067741394042969 6.8860144615173339844 8.0793161392211914062 6.3975529670715332031 4.4029726982116699219 3.4995343685150146484 1.1919243335723876953 8.0193967819213867188 8.7284288406372070312 8.8247423171997070312 7.7117114067077636719 7.24231719970703125 7.2182087898254394531 8.3630838394165039062 10.7283935546875 8.9729557037353515625 15.957095146179199219 12.26520538330078125 -9999 15.87847137451171875 9.0499658584594726562 16.2181243896484375 -9999 -9999 -9999 -9999 -9999 -9999 -9999 -9999 -9999 8.8025236129760742188 -9999 -9999 -9999 -9999 -9999 -9999 -9999 -9999 -9999 -9999 -9999 -9999 -9999 -9999 -9999 -9999 -9999 -9999 -9999 -9999 -9999 -9999 -9999 -9999 
-9999 12.799086570739746094 14.51375579833984375 18.060541152954101562 13.723447799682617188 -9999 -9999 5.5521407127380371094 4.5060620307922363281 11.258119583129882812 -9999 -9999 5.55023193359375 8.68906402587890625 11.192452430725097656 5.7348189353942871094 3.3694796562194824219 10.246571540832519531 6.7597422599792480469 7.8896932601928710938 13.061480522155761719 15.022231101989746094 13.092869758605957031 11.024616241455078125 12.073207855224609375 12.722889900207519531 10.882506370544433594 8.454639434814453125 9.5092258453369140625 5.9090218544006347656 4.4832096099853515625 3.1528337001800537109 7.3699674606323242188 6.1889514923095703125 5.9111371040344238281 5.1965823173522949219 4.8127613067626953125 4.5005431175231933594 4.17266082763671875 5.6380701065063476562 6.6589455604553222656 7.7799944877624511719 9.5164575576782226562 16.991170883178710938 21.974584579467773438 36.848423004150390625 -9999 -9999 -9999 22.210514068603515625 20.960353851318359375 19.948171615600585938 12.214570045471191406 6.2341027259826660156 6.6603884696960449219 5.4022898674011230469 8.7342691421508789062 1.9963167905807495117 3.8585290908813476562 6.4586505889892578125 -9999 -9999 -9999 -9999 -9999 3.0394105911254882812 1.8718335628509521484 4.3944635391235351562 9.2744245529174804688 7.2649502754211425781 5.69489288330078125 6.7301545143127441406 6.2356700897216796875 6.6849222183227539062 6.4972615242004394531 7.1012749671936035156 6.4574837684631347656 4.6843342781066894531 5.3154330253601074219 5.6834020614624023438 5.7659506797790527344 6.6182637214660644531 7.3831949234008789062 8.659839630126953125 8.5744009017944335938 12.79644012451171875 12.96776580810546875 18.161563873291015625 -9999 -9999 -9999 -9999 -9999 -9999 -9999 -9999 -9999 14.066799163818359375 11.067111015319824219 10.780085563659667969 -9999 15.06508636474609375 -9999 -9999 -9999 -9999 -9999 -9999 -9999 -9999 -9999 -9999 -9999 -9999 -9999 -9999 -9999 -9999 -9999 -9999 -9999 -9999 -9999 -9999 -9999 -9999 -9999 
-9999 9.4067821502685546875 15.686316490173339844 21.626781463623046875 -9999 -9999 -9999 5.825122833251953125 7.2169470787048339844 17.708759307861328125 -9999 -9999 1 9.9033145904541015625 14.857694625854492188 15.975359916687011719 5.6001720428466796875 5.7396373748779296875 4.7541995048522949219 4.6294074058532714844 8.271961212158203125 23.318929672241210938 15.508805274963378906 14.463685035705566406 12.409374237060546875 4.0424776077270507812 11.824407577514648438 10.0296478271484375 10.496687889099121094 1.5867308378219604492 4.5860285758972167969 -9999 9.0944471359252929688 3.3484592437744140625 2.4332747459411621094 5.8876605033874511719 5.7310857772827148438 5.15595245361328125 5.4681773185729980469 6.11026763916015625 7.3627810478210449219 7.3372979164123535156 9.1184854507446289062 10.291394233703613281 4.7254843711853027344 23.00046539306640625 28.57354736328125 26.464275360107421875 3.1441073417663574219 7.0844974517822265625 8.205524444580078125 9.0745906829833984375 9.3313617706298828125 6.403751373291015625 6.4463419914245605469 1.0474110841751098633 6.1040859222412109375 5.6959753036499023438 8.3642435073852539062 -9999 -9999 -9999 -9999 -9999 -9999 -9999 3.1957337856292724609 2.0627489089965820312 5.7594051361083984375 5.3559699058532714844 5.4297132492065429688 7.1422071456909179688 6.5269575119018554688 7.1135449409484863281 6.6700835227966308594 6.0551142692565917969 5.4303007125854492188 4.5468783378601074219 5.8743805885314941406 3.5415532588958740234 3.7550806999206542969 4.6834177970886230469 7.1460142135620117188 9.479827880859375 8.6520900726318359375 2.0594811439514160156 -9999 22.479928970336914062 -9999 -9999 -9999 -9999 -9999 -9999 -9999 12.530905723571777344 17.439695358276367188 -9999 -9999 -9999 -9999 -9999 -9999 -9999 -9999 -9999 -9999 -9999 -9999 -9999 -9999 -9999 -9999 -9999 -9999 -9999 -9999 -9999 -9999 -9999 -9999 -9999 -9999 -9999 -9999 -9999 -9999 
-9999 -9999 -9999 -9999 -9999 19.650989532470703125 -9999 13.028076171875 -9999 -9999 -9999 -9999 1.1149306297302246094 13.246130943298339844 21.67430877685546875 26.646392822265625 13.478600502014160156 5.9940185546875 1.2240324020385742188 6.0229086875915527344 20.430665969848632812 23.55199432373046875 12.359273910522460938 7.3303203582763671875 2.9235184192657470703 -9999 9.5022125244140625 9.9384603500366210938 11.652922630310058594 2.7012364864349365234 7.7871756553649902344 -9999 7.2396845817565917969 3.1526138782501220703 4.6803455352783203125 2.2297182083129882812 2.7504360675811767578 5.8149418830871582031 6.6370668411254882812 5.4527587890625 4.7641921043395996094 6.1049628257751464844 8.31388092041015625 9.735317230224609375 11.619091987609863281 6.4012103080749511719 6.7926621437072753906 7.2375464439392089844 6.2422528266906738281 5.4952044486999511719 3.62371826171875 6.663745880126953125 8.0049905776977539062 5.5556859970092773438 6.9695391654968261719 4.09046173095703125 9.0975313186645507812 13.812356948852539062 -9999 15.820185661315917969 -9999 -9999 -9999 -9999 -9999 -9999 4.9748601913452148438 5.81629180908203125 6.0864939689636230469 5.1906495094299316406 5.0563549995422363281 5.8138051033020019531 5.7650394439697265625 5.0943708419799804688 5.8773102760314941406 6.3096218109130859375 5.4321637153625488281 4.2101163864135742188 5.2256765365600585938 7.4061307907104492188 6.3326754570007324219 3.0131404399871826172 5.1485066413879394531 7.7523298263549804688 8.9206228256225585938 5.0812582969665527344 -9999 -9999 -9999 -9999 -9999 17.162611007690429688 20.078670501708984375 -9999 -9999 -9999 -9999 -9999 -9999 -9999 -9999 -9999 -9999 -9999 -9999 -9999 -9999 -9999 -9999 -9999 -9999 -9999 -9999 -9999 -9999 -9999 -9999 -9999 -9999 -9999 -9999 -9999 -9999 -9999 -9999 -9999 -9999 
-9999 -9999 -9999 14.643366813659667969 10.168719291687011719 15.658171653747558594 18.780292510986328125 10.788159370422363281 16.946336746215820312 -9999 -9999 3.9435482025146484375 4.9416050910949707031 12.247429847717285156 30.555797576904296875 26.451673507690429688 15.908182144165039062 11.931626319885253906 2.1385309696197509766 13.371335029602050781 24.996839523315429688 15.73999786376953125 6.25414276123046875 -9999 -9999 -9999 9.8216447830200195312 7.6015882492065429688 9.9684457778930664062 3.6268947124481201172 16.451168060302734375 6.9097542762756347656 2.2904984951019287109 2.9363112449645996094 5.4010643959045410156 6.2033801078796386719 1.1644101142883300781 6.5116443634033203125 7.0947289466857910156 6.051937103271484375 4.3464951515197753906 5.89200592041015625 7.9631571769714355469 9.0607433319091796875 8.75411224365234375 7.2037725448608398438 4.6161026954650878906 6.2500967979431152344 6.3015618324279785156 5.8738660812377929688 3.7035663127899169922 5.3028264045715332031 3.578319549560546875 4.3804678916931152344 5.7374391555786132812 6.3369145393371582031 5.3303508758544921875 -9999 9.7160692214965820312 12.727129936218261719 1.2293649911880493164 2.2314310073852539062 13.81398773193359375 -9999 6.1839203834533691406 5.7595729827880859375 7.2022814750671386719 5.8217511177062988281 6.3575253486633300781 6.0613636970520019531 6.2759346961975097656 4.96952056884765625 5.2750072479248046875 6.4259691238403320312 8.4863605499267578125 7.8479447364807128906 6.5264644622802734375 4.713226318359375 4.9739594459533691406 5.4404144287109375 6.3903822898864746094 3.0154290199279785156 3.8483641147613525391 4.3557391166687011719 5.8162374496459960938 -9999 -9999 -9999 -9999 -9999 -9999 20.33223724365234375 15.30156707763671875 -9999 -9999 -9999 -9999 -9999 -9999 -9999 -9999 -9999 -9999 -9999 -9999 -9999 -9999 -9999 -9999 -9999 -9999 -9999 -9999 -9999 -9999 -9999 -9999 -9999 -9999 -9999 -9999 -9999 -9999 -9999 -9999 -9999 -9999 
-9999 -9999 -9999 11.435695648193359375 9.7391405105590820312 11.33345794677734375 16.398599624633789062 -9999 -9999 -9999 3.2503545284271240234 4.7959961891174316406 9.0412778854370117188 3.1414761543273925781 15.74503326416015625 11.860517501831054688 16.257335662841796875 17.26381683349609375 18.326702117919921875 21.28601837158203125 19.567979812622070312 19.015228271484375 18.401117324829101562 -9999 2.0872843265533447266 -9999 4.5529685020446777344 9.5250291824340820312 8.0791950225830078125 1.8283601999282836914 13.652843475341796875 4.0328722000122070312 14.404211044311523438 9.3881931304931640625 7.866405487060546875 2.36226654052734375 2.1100177764892578125 4.1789770126342773438 7.5891351699829101562 9.3617868423461914062 6.2462062835693359375 7.3541364669799804688 7.5759906768798828125 8.1531057357788085938 8.117794036865234375 5.9276113510131835938 5.6686925888061523438 4.340274810791015625 4.691432952880859375 4.9313197135925292969 4.7215075492858886719 4.8390412330627441406 4.3116831779479980469 4.209381103515625 7.277713775634765625 7.9083743095397949219 5.4449405670166015625 -9999 -9999 -9999 9.2375926971435546875 7.47750091552734375 7.1649465560913085938 2.1304993629455566406 1.866423487663269043 5.6339106559753417969 7.3188829421997070312 6.7297725677490234375 5.7626528739929199219 5.5047240257263183594 6.0133810043334960938 5.6142425537109375 5.6511750221252441406 5.0172047615051269531 7.7131824493408203125 5.1913714408874511719 2.9720301628112792969 4.7287435531616210938 4.9038105010986328125 4.7769818305969238281 4.5663013458251953125 1.0685325860977172852 1.6152890920639038086 4.0581984519958496094 9.7849130630493164062 -9999 -9999 -9999 -9999 -9999 -9999 29.614545822143554688 12.57967376708984375 -9999 -9999 -9999 -9999 -9999 -9999 -9999 -9999 -9999 -9999 -9999 -9999 -9999 -9999 -9999 -9999 -9999 -9999 -9999 -9999 -9999 -9999 -9999 -9999 -9999 -9999 -9999 -9999 -9999 -9999 -9999 -9999 -9999 -9999 
-9999 -9999 -9999 11.164072990417480469 12.963923454284667969 14.869772911071777344 14.594527244567871094 -9999 -9999 -9999 12.228252410888671875 11.918768882751464844 10.860263824462890625 12.456202507019042969 3.3763175010681152344 1.2817414999008178711 16.798122406005859375 26.4332733154296875 25.505113601684570312 27.25494384765625 23.56420135498046875 24.651988983154296875 13.422320365905761719 -9999 -9999 -9999 4.9272556304931640625 10.212933540344238281 10.511077880859375 2.6936058998107910156 13.237856864929199219 21.793661117553710938 14.859874725341796875 12.767047882080078125 7.4875273704528808594 3.3956282138824462891 6.4461970329284667969 10.180390357971191406 6.2278461456298828125 12.461344718933105469 10.629837989807128906 6.2919945716857910156 6.4199681282043457031 6.6105008125305175781 10.880961418151855469 7.1254134178161621094 4.8438367843627929688 5.0251889228820800781 5.07965850830078125 5.0813860893249511719 4.4253458976745605469 4.9170093536376953125 3.2079379558563232422 5.042613983154296875 5.313564300537109375 6.4627099037170410156 3.6996314525604248047 21.013177871704101562 -9999 -9999 -9999 5.9255580902099609375 6.8094692230224609375 7.7878618240356445312 3.2261710166931152344 5.17426300048828125 6.1612782478332519531 5.4405026435852050781 4.5325374603271484375 4.5455732345581054688 5.6528172492980957031 4.9504714012145996094 4.2741427421569824219 4.918758392333984375 7.1062598228454589844 3.0150141716003417969 1.1616899967193603516 6.2453565597534179688 6.3062415122985839844 3.6150665283203125 6.975116729736328125 9.2898511886596679688 3.430789947509765625 -9999 23.533411026000976562 -9999 -9999 4.0016922950744628906 1.7737755775451660156 -9999 -9999 -9999 -9999 -9999 -9999 -9999 -9999 -9999 -9999 -9999 -9999 -9999 -9999 -9999 -9999 -9999 -9999 -9999 -9999 -9999 -9999 -9999 -9999 -9999 -9999 -9999 -9999 -9999 -9999 -9999 -9999 -9999 -9999 -9999 -9999 -9999 -9999 
-9999 -9999 13.272788047790527344 -9999 14.634186744689941406 17.773260116577148438 19.092559814453125 -9999 -9999 10.368480682373046875 11.46240234375 10.297819137573242188 -9999 8.9872808456420898438 1.2353446483612060547 3.745697021484375 4.4778566360473632812 7.9297227859497070312 17.066007614135742188 20.856662750244140625 16.483110427856445312 15.900269508361816406 5.82376861572265625 -9999 -9999 -9999 8.216228485107421875 4.4896016120910644531 1.615446925163269043 2.2952790260314941406 18.18033599853515625 19.922456741333007812 19.763563156127929688 17.058519363403320312 9.3316583633422851562 11.572146415710449219 6.418430328369140625 7.6919584274291992188 7.9395875930786132812 7.0703988075256347656 11.690613746643066406 6.4577150344848632812 11.260381698608398438 2.8197965621948242188 7.8239865303039550781 6.8722143173217773438 5.2833418846130371094 5.6362977027893066406 3.9322998523712158203 5.8261089324951171875 4.4977264404296875 4.9581995010375976562 3.1360731124877929688 5.1686329841613769531 5.4607062339782714844 6.0910325050354003906 3.6410756111145019531 6.5840711593627929688 7.7596302032470703125 6.8867750167846679688 6.2932758331298828125 5.9766373634338378906 6.4287509918212890625 7.6929225921630859375 6.2356357574462890625 4.8228940963745117188 5.1120901107788085938 6.2430973052978515625 4.8292784690856933594 4.0490126609802246094 4.6879396438598632812 4.1156497001647949219 5.029632568359375 4.2767271995544433594 5.0886940956115722656 2.9877028465270996094 4.2372860908508300781 8.8455858230590820312 6.5760440826416015625 5.2982335090637207031 4.9669246673583984375 2.1030585765838623047 -9999 13.068034172058105469 13.933147430419921875 -9999 -9999 6.651187896728515625 3.0192735195159912109 -9999 -9999 -9999 -9999 -9999 -9999 -9999 -9999 13.332266807556152344 -9999 -9999 -9999 -9999 -9999 -9999 -9999 -9999 -9999 -9999 -9999 -9999 -9999 -9999 -9999 -9999 -9999 -9999 -9999 -9999 -9999 -9999 -9999 -9999 -9999 -9999 -9999 -9999 -9999 
-9999 -9999 -9999 17.749904632568359375 15.6156463623046875 -9999 -9999 -9999 10.50386810302734375 10.658639907836914062 10.10007476806640625 7.8553905487060546875 4.0953860282897949219 1.2704793214797973633 2.5256910324096679688 -9999 -9999 4.3745532035827636719 2.6772794723510742188 5.1248059272766113281 7.3195462226867675781 12.141359329223632812 3.4256904125213623047 -9999 -9999 5.6326375007629394531 7.7501387596130371094 3.2393846511840820312 -9999 10.089105606079101562 19.901254653930664062 17.54444122314453125 18.821832656860351562 9.439105987548828125 6.1469187736511230469 10.996973991394042969 8.1708650588989257812 8.1828031539916992188 9.9168214797973632812 8.583648681640625 10.635455131530761719 9.7343072891235351562 6.2384319305419921875 3.2444989681243896484 9.2163686752319335938 7.4786715507507324219 7.3217511177062988281 5.880626678466796875 4.2593407630920410156 5.6449713706970214844 5.9846081733703613281 6.012218475341796875 4.5623645782470703125 5.0912532806396484375 5.0642805099487304688 6.0195608139038085938 6.3280630111694335938 6.6868777275085449219 7.2443947792053222656 6.8348164558410644531 7.8281712532043457031 6.8447542190551757812 7.4502472877502441406 9.1442003250122070312 7.3553566932678222656 5.9494886398315429688 6.4489612579345703125 6.808406829833984375 6.3626956939697265625 5.5906634330749511719 3.9116482734680175781 3.5828533172607421875 4.1491947174072265625 4.19580841064453125 3.9665455818176269531 5.0333657264709472656 6.7259130477905273438 9.845981597900390625 8.4713535308837890625 6.74219512939453125 3.9264776706695556641 5.5348501205444335938 12.640214920043945312 10.11505126953125 13.94762420654296875 7.8469328880310058594 10.690905570983886719 -9999 -9999 -9999 -9999 -9999 -9999 -9999 -9999 -9999 -9999 -9999 -9999 -9999 -9999 -9999 -9999 -9999 -9999 -9999 -9999 -9999 -9999 -9999 -9999 -9999 -9999 -9999 -9999 -9999 -9999 -9999 -9999 -9999 -9999 -9999 -9999 -9999 -9999 -9999 -9999 
-9999 -9999 12.381696701049804688 -9999 -9999 -9999 -9999 -9999 -9999 10.849013328552246094 -9999 13.364013671875 -9999 4.8929414749145507812 5.2726259231567382812 11.255859375 12.255713462829589844 5.4730663299560546875 2.5063724517822265625 2.3979961872100830078 3.4874629974365234375 -9999 -9999 -9999 3.6745009422302246094 1.2230614423751831055 -9999 10.756344795227050781 4.9245285987854003906 9.02797698974609375 18.077693939208984375 16.405664443969726562 13.945618629455566406 2.1394550800323486328 1.8130816221237182617 8.1773614883422851562 8.3991069793701171875 7.34366607666015625 8.7809305191040039062 8.0626087188720703125 9.7104005813598632812 8.5048084259033203125 6.0348620414733886719 6.9807915687561035156 8.3888311386108398438 6.191226959228515625 7.068439483642578125 5.9282855987548828125 5.3586978912353515625 4.9733099937438964844 5.127407073974609375 4.6529183387756347656 5.7595577239990234375 5.3970446586608886719 4.2969608306884765625 5.0531086921691894531 7.1113505363464355469 7.0081086158752441406 6.8427157402038574219 5.4019145965576171875 6.1576237678527832031 5.4189357757568359375 6.004322052001953125 6.5273079872131347656 5.9610395431518554688 5.6209688186645507812 6.1213665008544921875 5.60947418212890625 5.7453160285949707031 6.0392818450927734375 4.3378052711486816406 3.6330904960632324219 4.5059113502502441406 5.4755034446716308594 9.2540559768676757812 9.6671972274780273438 8.2025814056396484375 6.8479948043823242188 6.6768927574157714844 7.735462188720703125 3.1944441795349121094 7.4818143844604492188 7.1791768074035644531 -9999 -9999 -9999 14.028941154479980469 9.9616985321044921875 11.396907806396484375 -9999 -9999 -9999 -9999 -9999 -9999 -9999 -9999 -9999 -9999 -9999 -9999 -9999 -9999 -9999 -9999 -9999 -9999 -9999 -9999 -9999 -9999 -9999 -9999 -9999 -9999 -9999 -9999 -9999 -9999 -9999 -9999 -9999 -9999 -9999 -9999 -9999 -9999 
-9999 -9999 8.4602937698364257812 -9999 -9999 -9999 -9999 -9999 -9999 10.054718017578125 -9999 13.165452957153320312 -9999 14.840394973754882812 11.256107330322265625 -9999 2.5769357681274414062 5.189022064208984375 4.4351062774658203125 5.552440643310546875 -9999 5.744564056396484375 -9999 -9999 -9999 4.6607408523559570312 -9999 3.7977731227874755859 8.6393423080444335938 3.0696237087249755859 23.4925537109375 15.853089332580566406 12.659859657287597656 5.0176668167114257812 2.94168853759765625 7.7660422325134277344 7.7437252998352050781 6.7199368476867675781 6.0575437545776367188 7.5315108299255371094 10.528539657592773438 8.4891862869262695312 6.5438857078552246094 10.879250526428222656 4.9748334884643554688 6.1761713027954101562 5.7199754714965820312 4.7168493270874023438 4.9130206108093261719 4.3207244873046875 6.8952498435974121094 5.3381686210632324219 4.8865499496459960938 5.6845407485961914062 6.0534048080444335938 5.7646541595458984375 7.9742798805236816406 6.0444669723510742188 6.0257625579833984375 6.404712677001953125 5.9986586570739746094 4.9744200706481933594 5.0779433250427246094 5.823299407958984375 5.8111538887023925781 6.3154940605163574219 5.8932046890258789062 5.4835572242736816406 6.0732393264770507812 6.4298720359802246094 4.8862748146057128906 5.4685111045837402344 4.8948984146118164062 9.4273433685302734375 10.309823036193847656 10.902794837951660156 8.0296697616577148438 8.5583858489990234375 8.1442747116088867188 6.5225849151611328125 3.4733457565307617188 7.5846838951110839844 8.2589664459228515625 -9999 -9999 -9999 12.009098052978515625 8.7565317153930664062 -9999 -9999 -9999 -9999 -9999 -9999 -9999 -9999 -9999 -9999 -9999 -9999 -9999 -9999 -9999 -9999 -9999 -9999 -9999 -9999 -9999 -9999 -9999 -9999 -9999 -9999 -9999 -9999 -9999 -9999 -9999 -9999 -9999 -9999 -9999 -9999 -9999 -9999 -9999 
-9999 -9999 -9999 9.9577207565307617188 -9999 -9999 -9999 -9999 -9999 -9999 13.35863494873046875 16.68025970458984375 17.308706283569335938 19.589921951293945312 11.41945648193359375 3.9500672817230224609 2.2025110721588134766 4.1560072898864746094 9.1052293777465820312 12.266615867614746094 -9999 14.227611541748046875 -9999 -9999 -9999 -9999 -9999 -9999 9.44586944580078125 5.7318177223205566406 8.0939702987670898438 8.563388824462890625 14.331319808959960938 7.0841112136840820312 5.671234130859375 6.6770901679992675781 5.8608798980712890625 6.3615584373474121094 5.6324138641357421875 6.7450242042541503906 7.3686785697937011719 5.9401316642761230469 8.1456060409545898438 5.8816242218017578125 3.8090009689331054688 5.4065098762512207031 4.539569854736328125 3.0599267482757568359 4.1345009803771972656 1.2091107368469238281 6.3762221336364746094 5.7406640052795410156 5.437320709228515625 6.6942644119262695312 8.353702545166015625 5.4559278488159179688 6.9125132560729980469 7.4589486122131347656 8.0227680206298828125 7.7395687103271484375 3.9383962154388427734 5.0236158370971679688 5.6121668815612792969 4.9422926902770996094 7.0888514518737792969 6.2254948616027832031 7.4014658927917480469 8.725704193115234375 8.1420440673828125 6.3228497505187988281 5.7398962974548339844 5.8895335197448730469 6.31375885009765625 7.5778632164001464844 7.7529926300048828125 9.0235548019409179688 6.7131547927856445312 7.7578558921813964844 8.7811384201049804688 6.8906044960021972656 3.3336129188537597656 6.9093060493469238281 -9999 -9999 -9999 -9999 18.983873367309570312 -9999 -9999 -9999 -9999 -9999 -9999 -9999 -9999 -9999 -9999 -9999 -9999 -9999 -9999 -9999 -9999 -9999 -9999 -9999 -9999 -9999 -9999 -9999 -9999 -9999 -9999 -9999 -9999 -9999 -9999 -9999 -9999 -9999 -9999 -9999 -9999 -9999 -9999 -9999 -9999 
-9999 -9999 -9999 -9999 -9999 -9999 -9999 -9999 -9999 12.945658683776855469 11.924999237060546875 11.869971275329589844 12.263524055480957031 13.780103683471679688 8.9215269088745117188 7.0847787857055664062 6.055721282958984375 8.69005584716796875 13.489734649658203125 -9999 -9999 -9999 -9999 -9999 -9999 -9999 -9999 -9999 4.9173970222473144531 4.8958220481872558594 -9999 1.9300178289413452148 12.801387786865234375 8.2478361129760742188 5.8209629058837890625 2.8622231483459472656 6.9472889900207519531 8.7115688323974609375 8.07257843017578125 7.7135291099548339844 8.8367605209350585938 5.8968977928161621094 4.5685901641845703125 4.5374460220336914062 5.3376903533935546875 5.9268941879272460938 7.6611814498901367188 2.8300712108612060547 1.6325373649597167969 1.0613958835601806641 4.7256255149841308594 5.23912811279296875 4.6192140579223632812 5.3802428245544433594 6.9741563796997070312 6.7706437110900878906 6.4657087326049804688 8.5636014938354492188 8.2327117919921875 8.1226377487182617188 7.4863476753234863281 6.8132085800170898438 7.2534203529357910156 7.488010406494140625 7.5790209770202636719 7.7538022994995117188 8.264072418212890625 8.45528411865234375 8.208347320556640625 6.6956896781921386719 8.1019430160522460938 9.8089895248413085938 7.7797136306762695312 6.7939214706420898438 6.0928921699523925781 9.0952501296997070312 6.5841455459594726562 8.0652618408203125 8.2747774124145507812 7.4637432098388671875 12.059735298156738281 -9999 -9999 -9999 -9999 -9999 17.82469940185546875 17.776956558227539062 -9999 -9999 -9999 -9999 -9999 -9999 -9999 -9999 -9999 -9999 -9999 -9999 -9999 -9999 -9999 -9999 -9999 -9999 -9999 -9999 -9999 -9999 -9999 -9999 -9999 -9999 -9999 -9999 -9999 -9999 -9999 -9999 -9999 -9999 -9999 -9999 -9999 -9999 -9999 
-9999 -9999 -9999 -9999 -9999 -9999 6.8729658126831054688 -9999 -9999 13.796179771423339844 12.759472846984863281 12.399839401245117188 8.684490203857421875 6.3782739639282226562 9.3016633987426757812 9.5708227157592773438 6.1130285263061523438 12.19074249267578125 -9999 -9999 -9999 -9999 -9999 -9999 -9999 -9999 8.3554668426513671875 10.760924339294433594 7.422176361083984375 -9999 10.044229507446289062 3.5971758365631103516 8.5214996337890625 7.3028841018676757812 9.91301727294921875 8.6895122528076171875 8.5560741424560546875 7.3098654747009277344 8.6202535629272460938 6.7248797416687011719 7.5012950897216796875 5.0607442855834960938 3.2082393169403076172 6.1727700233459472656 5.8696880340576171875 5.8260393142700195312 7.2736620903015136719 3.3934111595153808594 2.2568068504333496094 3.2317767143249511719 4.1607575416564941406 4.8541235923767089844 4.2062177658081054688 4.9614453315734863281 6.1509165763854980469 7.0922904014587402344 6.9633116722106933594 1.9110399484634399414 25.060085296630859375 25.502483367919921875 11.869100570678710938 5.4815239906311035156 5.9512162208557128906 18.9000396728515625 26.477092742919921875 8.4481191635131835938 8.0655183792114257812 7.4115695953369140625 8.078762054443359375 9.5311765670776367188 11.283329963684082031 10.177744865417480469 7.3127760887145996094 7.0477972030639648438 7.132503509521484375 7.2214484214782714844 6.2533259391784667969 7.03311920166015625 3.6556818485260009766 21.13491058349609375 25.952936172485351562 -9999 -9999 -9999 -9999 -9999 -9999 -9999 -9999 -9999 -9999 15.139431953430175781 10.952251434326171875 19.491365432739257812 -9999 -9999 -9999 -9999 -9999 -9999 -9999 -9999 -9999 -9999 -9999 -9999 -9999 -9999 -9999 -9999 -9999 -9999 -9999 -9999 -9999 -9999 -9999 -9999 -9999 -9999 -9999 -9999 -9999 -9999 -9999 -9999 -9999 
-9999 -9999 -9999 -9999 -9999 -9999 -9999 12.672313690185546875 -9999 17.486612319946289062 15.452901840209960938 12.632435798645019531 8.8590154647827148438 8.8571062088012695312 9.0169620513916015625 8.2870769500732421875 11.628050804138183594 13.702324867248535156 8.0288610458374023438 2.0463826656341552734 8.1164503097534179688 13.086994171142578125 -9999 -9999 -9999 -9999 -9999 9.9991931915283203125 9.6346502304077148438 7.2698040008544921875 4.4618401527404785156 3.1058053970336914062 9.1115207672119140625 12.139255523681640625 9.389598846435546875 8.0298566818237304688 7.0237903594970703125 6.1062288284301757812 4.2297940254211425781 6.9946184158325195312 6.666309356689453125 5.1243681907653808594 5.1588978767395019531 5.4536442756652832031 5.6538867950439453125 5.6604018211364746094 6.2726182937622070312 4.6332507133483886719 4.4013895988464355469 5.5499491691589355469 5.0395994186401367188 5.9882655143737792969 6.6538233757019042969 6.7922911643981933594 7.0411868095397949219 7.1306567192077636719 2.5132825374603271484 -9999 -9999 -9999 -9999 -9999 -9999 69.788604736328125 -9999 -9999 31.453096389770507812 3.3514738082885742188 8.0074863433837890625 11.050558090209960938 9.561954498291015625 8.83472442626953125 8.033000946044921875 7.7139596939086914062 7.3961615562438964844 6.7112092971801757812 5.3326997756958007812 4.8912615776062011719 3.7685263156890869141 8.9883022308349609375 14.188221931457519531 -9999 -9999 -9999 -9999 -9999 -9999 -9999 -9999 -9999 8.7169208526611328125 4.7835268974304199219 4.4204344749450683594 10.019019126892089844 -9999 -9999 -9999 -9999 -9999 -9999 -9999 -9999 -9999 -9999 -9999 -9999 -9999 -9999 -9999 -9999 -9999 -9999 -9999 -9999 -9999 -9999 -9999 -9999 -9999 -9999 -9999 -9999 -9999 -9999 -9999 -9999 -9999 
-9999 -9999 -9999 -9999 -9999 -9999 -9999 -9999 -9999 12.983812332153320312 -9999 28.791728973388671875 12.644527435302734375 8.3422641754150390625 8.230144500732421875 7.7494535446166992188 10.291249275207519531 2.2022659778594970703 2.5207357406616210938 11.256869316101074219 3.0220293998718261719 -9999 -9999 -9999 -9999 9.8146343231201171875 9.7031946182250976562 8.40692138671875 9.2730169296264648438 4.2157831192016601562 5.4316282272338867188 4.7909560203552246094 9.032440185546875 9.7565937042236328125 6.9289093017578125 6.8443541526794433594 6.7475762367248535156 5.8506898880004882812 5.979259490966796875 5.9893860816955566406 6.1794142723083496094 5.9047684669494628906 5.2401804924011230469 8.2221860885620117188 7.3145127296447753906 5.2003965377807617188 4.8960776329040527344 3.5040125846862792969 4.3728079795837402344 5.94797515869140625 5.5741472244262695312 6.5214357376098632812 6.6665983200073242188 7.9405913352966308594 4.307628631591796875 37.22503662109375 -9999 -9999 -9999 -9999 -9999 -9999 -9999 -9999 -9999 -9999 -9999 5.8417081832885742188 7.5822091102600097656 10.833614349365234375 8.7010068893432617188 7.6393256187438964844 8.862667083740234375 8.5355682373046875 7.2073125839233398438 6.792888641357421875 5.7912058830261230469 3.7719609737396240234 3.3044574260711669922 15.133297920227050781 -9999 -9999 -9999 -9999 -9999 -9999 -9999 21.548885345458984375 -9999 7.2789788246154785156 9.8245410919189453125 3.759265899658203125 6.4262509346008300781 7.829174041748046875 -9999 -9999 -9999 -9999 -9999 -9999 -9999 -9999 -9999 -9999 -9999 -9999 -9999 -9999 -9999 -9999 -9999 -9999 -9999 -9999 -9999 -9999 -9999 -9999 -9999 -9999 23.791240692138671875 -9999 -9999 -9999 -9999 -9999 -9999 
-9999 -9999 -9999 -9999 -9999 -9999 -9999 5.7461848258972167969 7.1845355033874511719 10.945447921752929688 11.952067375183105469 8.9781093597412109375 4.3490543365478515625 16.926298141479492188 15.995065689086914062 8.1657867431640625 3.2820947170257568359 4.7247381210327148438 1.8997110128402709961 10.120311737060546875 1.9589847326278686523 13.662171363830566406 15.701892852783203125 -9999 8.5635957717895507812 -9999 -9999 7.937511444091796875 4.4326987266540527344 5.2928342819213867188 2.1007716655731201172 4.7836594581604003906 14.8028717041015625 12.086863517761230469 8.0335111618041992188 7.8478493690490722656 6.5231595039367675781 6.657169342041015625 7.2958979606628417969 5.2855124473571777344 6.3146514892578125 6.451259613037109375 4.8670978546142578125 8.4377546310424804688 10.902864456176757812 5.06658172607421875 5.2835602760314941406 4.62567901611328125 4.4866862297058105469 3.5294141769409179688 4.4923787117004394531 5.2422475814819335938 3.6114759445190429688 6.4425172805786132812 30.101549148559570312 -9999 -9999 -9999 -9999 -9999 -9999 -9999 -9999 -9999 -9999 -9999 -9999 43.872447967529296875 8.2706441879272460938 9.690647125244140625 5.8920679092407226562 8.0171489715576171875 9.540740966796875 8.848155975341796875 7.7787518501281738281 6.4741215705871582031 5.5753488540649414062 5.3637247085571289062 4.5066204071044921875 19.569513320922851562 -9999 -9999 -9999 -9999 -9999 -9999 7.5226359367370605469 7.9675731658935546875 8.362285614013671875 15.707422256469726562 5.4128317832946777344 4.9336500167846679688 2.7661752700805664062 14.118593215942382812 -9999 -9999 -9999 -9999 -9999 -9999 -9999 -9999 -9999 -9999 -9999 -9999 -9999 -9999 -9999 -9999 -9999 -9999 -9999 -9999 -9999 -9999 -9999 -9999 -9999 -9999 -9999 -9999 -9999 -9999 -9999 -9999 -9999 
-9999 -9999 -9999 -9999 -9999 -9999 -9999 -9999 -9999 -9999 15.811898231506347656 10.016916275024414062 6.4571061134338378906 15.831729888916015625 11.168778419494628906 4.7840828895568847656 3.3137645721435546875 3.3561842441558837891 3.5897684097290039062 4.0131282806396484375 11.285268783569335938 11.386480331420898438 -9999 -9999 6.2186975479125976562 -9999 -9999 4.4976186752319335938 15.495441436767578125 12.918524742126464844 9.18373870849609375 11.28009033203125 14.122621536254882812 8.136486053466796875 7.5471820831298828125 7.5130796432495117188 7.8664488792419433594 7.5572066307067871094 7.5598039627075195312 5.0582427978515625 5.9526200294494628906 4.9752197265625 5.8473992347717285156 6.3212504386901855469 -9999 6.2104935646057128906 3.9321429729461669922 4.5706272125244140625 5.6961998939514160156 6.9444355964660644531 9.9260845184326171875 7.970394134521484375 5.6534695625305175781 3.2480061054229736328 2.9232876300811767578 -9999 -9999 -9999 -9999 -9999 15.975954055786132812 17.46929168701171875 12.174845695495605469 7.4529452323913574219 19.535249710083007812 22.077983856201171875 -9999 40.556926727294921875 8.2566375732421875 9.339694976806640625 5.9988422393798828125 7.0427832603454589844 7.1812434196472167969 6.7507295608520507812 7.2824888229370117188 6.9597902297973632812 6.2431011199951171875 8.7920360565185546875 1.7385812997817993164 -9999 -9999 -9999 -9999 -9999 -9999 11.863213539123535156 3.3575406074523925781 1.209856867790222168 9.3291473388671875 15.453792572021484375 8.427303314208984375 11.9587249755859375 6.1891694068908691406 -9999 -9999 -9999 -9999 -9999 -9999 -9999 -9999 -9999 -9999 -9999 -9999 -9999 -9999 -9999 -9999 -9999 -9999 -9999 -9999 -9999 -9999 -9999 -9999 -9999 -9999 -9999 -9999 -9999 -9999 -9999 -9999 -9999 -9999 
-9999 -9999 -9999 -9999 -9999 18.272645950317382812 -9999 -9999 -9999 16.9034271240234375 15.239762306213378906 6.9016752243041992188 5.2149395942687988281 7.1858172416687011719 1.4889854192733764648 2.3779871463775634766 4.0426006317138671875 1.4487918615341186523 6.5913929939270019531 10.003431320190429688 8.7045154571533203125 -9999 -9999 8.8595876693725585938 -9999 10.39928436279296875 6.4693922996520996094 9.7919464111328125 14.732618331909179688 12.398142814636230469 9.6057653427124023438 8.4773807525634765625 3.0921373367309570312 5.6376061439514160156 7.8587741851806640625 7.2603955268859863281 7.618526458740234375 7.4565572738647460938 7.35892486572265625 6.6095566749572753906 6.6104407310485839844 5.6123909950256347656 7.1027126312255859375 7.1807241439819335938 9.1688232421875 7.2479834556579589844 4.2294812202453613281 5.2151980400085449219 4.564037322998046875 7.795360565185546875 8.38671875 5.85913848876953125 5.0327324867248535156 4.5453777313232421875 12.154897689819335938 8.3832387924194335938 5.8289523124694824219 1.4754697084426879883 10.839446067810058594 13.832200050354003906 -9999 -9999 -9999 -9999 -9999 29.957639694213867188 -9999 5.1829357147216796875 6.9184327125549316406 7.4416570663452148438 6.2844791412353515625 6.7896189689636230469 6.6913819313049316406 6.5384078025817871094 7.3227038383483886719 7.2436428070068359375 6.9178719520568847656 7.1407933235168457031 3.5281009674072265625 13.754993438720703125 -9999 -9999 -9999 5.4079117774963378906 8.5437288284301757812 2.572086334228515625 6.415355682373046875 4.101825714111328125 5.188076019287109375 3.843402862548828125 13.906277656555175781 6.8936920166015625 1.8821876049041748047 35.538066864013671875 -9999 -9999 -9999 -9999 -9999 -9999 -9999 -9999 -9999 -9999 -9999 -9999 -9999 -9999 -9999 -9999 -9999 -9999 -9999 -9999 -9999 -9999 -9999 -9999 -9999 -9999 -9999 -9999 -9999 -9999 -9999 -9999 -9999 
-9999 -9999 -9999 -9999 -9999 -9999 13.319699287414550781 -9999 16.85970306396484375 18.555444717407226562 10.944277763366699219 2.6873302459716796875 1.1463741064071655273 2.6342148780822753906 3.916652679443359375 7.0966386795043945312 2.04312896728515625 6.8968091011047363281 6.1345591545104980469 8.6320276260375976562 10.090500831604003906 -9999 5.9139451980590820312 1.7957228422164916992 4.9636487960815429688 -9999 3.5099637508392333984 19.50661468505859375 13.746213912963867188 15.73000335693359375 10.81293487548828125 1.4736138582229614258 2.2218089103698730469 6.7377247810363769531 8.1014127731323242188 7.274608612060546875 7.0742473602294921875 6.1185946464538574219 6.3436131477355957031 7.7619314193725585938 8.111194610595703125 5.8739085197448730469 6.3819594383239746094 7.4657626152038574219 8.7268657684326171875 7.143421173095703125 6.7878918647766113281 4.8180499076843261719 3.1114943027496337891 3.3429920673370361328 5.1509213447570800781 4.8988704681396484375 4.2455630302429199219 5.8062272071838378906 13.2911224365234375 6.6027169227600097656 6.3181700706481933594 1.6896680593490600586 5.7926411628723144531 15.05643463134765625 19.44705963134765625 22.23076629638671875 10.094782829284667969 4.4914393424987792969 -9999 48.93251800537109375 8.7295484542846679688 8.3687076568603515625 6.7779812812805175781 7.5434870719909667969 6.4058823585510253906 6.832305908203125 6.0777697563171386719 7.0672955513000488281 7.6901392936706542969 7.628284454345703125 7.6602544784545898438 8.7901086807250976562 4.3379297256469726562 12.364526748657226562 -9999 -9999 -9999 7.223773956298828125 13.113218307495117188 15.448439598083496094 9.9755258560180664062 8.1508169174194335938 9.5978794097900390625 4.8918700218200683594 13.655505180358886719 14.195256233215332031 16.059955596923828125 9.7256793975830078125 1.6394498348236083984 -9999 -9999 -9999 -9999 -9999 -9999 -9999 -9999 -9999 -9999 -9999 -9999 -9999 -9999 -9999 -9999 -9999 -9999 -9999 -9999 10.456166267395019531 -9999 -9999 -9999 -9999 -9999 -9999 -9999 -9999 -9999 -9999 -9999 
-9999 -9999 -9999 -9999 -9999 -9999 -9999 -9999 11.596416473388671875 8.015186309814453125 3.3178262710571289062 3.0342156887054443359 2.1623942852020263672 2.2164578437805175781 4.4085764884948730469 6.31897735595703125 6.2916002273559570312 9.0466594696044921875 4.2368340492248535156 10.927820205688476562 13.034826278686523438 16.8134002685546875 9.0399150848388671875 3.5359323024749755859 2.6974616050720214844 6.31887054443359375 4.3252887725830078125 8.53285980224609375 10.340914726257324219 10.747992515563964844 8.9093456268310546875 2.7898311614990234375 5.5444436073303222656 10.983210563659667969 8.6399984359741210938 7.9776377677917480469 8.037899017333984375 6.195293426513671875 7.3642401695251464844 9.1571397781372070312 6.7654352188110351562 6.1764650344848632812 7.1887402534484863281 7.6745095252990722656 7.0398511886596679688 5.2056794166564941406 4.3708481788635253906 4.9179315567016601562 4.8637900352478027344 1.8590651750564575195 3.5889806747436523438 4.9443268775939941406 8.3730459213256835938 6.7197637557983398438 5.6778287887573242188 5.4276137351989746094 6.1745963096618652344 3.8962666988372802734 17.242174148559570312 -9999 15.769249916076660156 1.8657515048980712891 3.3558938503265380859 4.315807342529296875 19.59453582763671875 3.5122163295745849609 9.808536529541015625 10.131242752075195312 8.1828374862670898438 7.4761023521423339844 6.3085508346557617188 7.5230550765991210938 7.5784850120544433594 7.4276814460754394531 6.7865080833435058594 6.2264075279235839844 7.2383518218994140625 4.1746935844421386719 -9999 -9999 -9999 -9999 5.1112456321716308594 9.595493316650390625 9.2183847427368164062 7.6204915046691894531 9.2692813873291015625 8.7055788040161132812 9.5266485214233398438 10.398861885070800781 12.167540550231933594 12.678498268127441406 10.0943756103515625 11.346082687377929688 1.0213422775268554688 -9999 -9999 -9999 -9999 -9999 -9999 -9999 -9999 -9999 -9999 -9999 -9999 -9999 -9999 -9999 -9999 -9999 -9999 -9999 -9999 -9999 -9999 -9999 -9999 -9999 -9999 -9999 -9999 -9999 -9999 -9999 -9999 
-9999 -9999 -9999 -9999 15.880640983581542969 -9999 -9999 14.061098098754882812 12.464215278625488281 2.4497702121734619141 2.3189172744750976562 4.2759432792663574219 4.0872821807861328125 2.9705440998077392578 1.5061918497085571289 3.4535627365112304688 9.4391021728515625 10.774627685546875 9.1514120101928710938 12.177699089050292969 12.55997467041015625 11.864645957946777344 7.6198396682739257812 5.3270845413208007812 7.1654019355773925781 12.5861968994140625 7.8318085670471191406 5.5768809318542480469 9.0921850204467773438 6.0534448623657226562 1.4453006982803344727 2.6317667961120605469 6.1620311737060546875 12.312314987182617188 9.1466083526611328125 7.4990472793579101562 6.4613337516784667969 5.4853138923645019531 6.5719785690307617188 7.8122887611389160156 6.0921530723571777344 6.2194843292236328125 6.9255681037902832031 7.4292774200439453125 7.1808991432189941406 5.4972867965698242188 5.8234925270080566406 3.7071290016174316406 4.4062218666076660156 2.3310484886169433594 3.5997133255004882812 4.479816436767578125 7.2784590721130371094 7.5148639678955078125 6.6011376380920410156 6.4693155288696289062 5.4092898368835449219 6.2134690284729003906 8.8770627975463867188 1.426011204719543457 8.7100191116333007812 4.150493621826171875 2.7435283660888671875 6.3471479415893554688 8.9683218002319335938 9.6981515884399414062 10.9808197021484375 10.593905448913574219 8.3278951644897460938 6.838413238525390625 7.7086782455444335938 7.9398946762084960938 8.5028429031372070312 8.4200754165649414062 6.6343669891357421875 6.4795012474060058594 7.15973663330078125 4.6397500038146972656 -9999 -9999 -9999 -9999 7.3359951972961425781 5.7701430320739746094 7.1235942840576171875 7.2419195175170898438 7.7119088172912597656 8.3763246536254882812 7.8538141250610351562 8.1049261093139648438 12.287169456481933594 12.537736892700195312 6.360942840576171875 5.6150913238525390625 11.402424812316894531 -9999 -9999 -9999 -9999 -9999 -9999 -9999 -9999 -9999 -9999 -9999 -9999 -9999 -9999 -9999 -9999 -9999 -9999 -9999 -9999 -9999 -9999 -9999 -9999 -9999 -9999 -9999 -9999 -9999 -9999 -9999 -9999 
-9999 -9999 -9999 16.06787872314453125 -9999 -9999 -9999 12.933862686157226562 7.0713725090026855469 10.319260597229003906 29.197210311889648438 1.3345134258270263672 5.6576533317565917969 2.0600137710571289062 4.5484700202941894531 11.709885597229003906 10.855283737182617188 9.7280492782592773438 7.5177617073059082031 9.0654773712158203125 -9999 4.7937908172607421875 4.613536834716796875 3.4485034942626953125 6.8206348419189453125 10.468157768249511719 2.7853734493255615234 9.5333757400512695312 9.4910249710083007812 4.7684612274169921875 3.6670391559600830078 5.0024189949035644531 6.5300393104553222656 9.0382471084594726562 7.9723715782165527344 8.5306081771850585938 9.2607851028442382812 6.8885455131530761719 7.6239075660705566406 6.3292560577392578125 5.986888885498046875 6.7928996086120605469 6.5650424957275390625 6.0983443260192871094 6.8005170822143554688 8.4508991241455078125 5.4155397415161132812 5.4103207588195800781 3.3675236701965332031 3.6886870861053466797 3.978084564208984375 2.1137435436248779297 5.3904099464416503906 6.0319075584411621094 6.5303597450256347656 6.0176954269409179688 7.6071076393127441406 9.3645486831665039062 11.092152595520019531 12.255594253540039062 6.5787811279296875 4.0696420669555664062 6.1911711692810058594 8.38185882568359375 8.1948766708374023438 8.4863042831420898438 10.449627876281738281 8.91149139404296875 6.9928865432739257812 4.9434895515441894531 7.5047311782836914062 8.225452423095703125 8.2559595108032226562 8.5206241607666015625 6.6782732009887695312 7.0894646644592285156 7.6543865203857421875 3.1619086265563964844 -9999 -9999 -9999 -9999 5.9651632308959960938 3.5809237957000732422 3.5671989917755126953 6.8950104713439941406 7.8303885459899902344 8.5839557647705078125 6.1691493988037109375 8.9359807968139648438 11.645548820495605469 10.903243064880371094 7.8134050369262695312 5.568958282470703125 3.559741973876953125 -9999 -9999 -9999 -9999 -9999 15.566808700561523438 -9999 -9999 -9999 -9999 -9999 -9999 -9999 -9999 -9999 -9999 -9999 -9999 -9999 -9999 -9999 -9999 -9999 -9999 -9999 -9999 -9999 -9999 -9999 -9999 -9999 -9999 
-9999 -9999 -9999 -9999 -9999 14.958659172058105469 8.5842304229736328125 5.5075602531433105469 8.3044586181640625 -9999 -9999 1.8881335258483886719 8.8632173538208007812 6.332225799560546875 7.1487894058227539062 6.751079559326171875 9.1202411651611328125 6.908695220947265625 9.6594457626342773438 13.522264480590820312 11.465743064880371094 7.1605100631713867188 6.8149180412292480469 7.744884490966796875 9.7080593109130859375 6.0564899444580078125 9.1784076690673828125 9.901073455810546875 4.7147068977355957031 2.0694372653961181641 6.8098173141479492188 7.3450694084167480469 7.549846649169921875 7.9596223831176757812 6.8973398208618164062 4.4030432701110839844 12.69242095947265625 9.6185703277587890625 5.3624820709228515625 1.0427701473236083984 3.0736086368560791016 6.5224618911743164062 7.1949763298034667969 6.3241491317749023438 7.0004048347473144531 6.7731847763061523438 3.7650969028472900391 3.9390833377838134766 3.9448451995849609375 3.357769012451171875 4.3031659126281738281 6.294902801513671875 1.0314077138900756836 4.5277171134948730469 6.3101139068603515625 4.7955465316772460938 5.6091618537902832031 8.042964935302734375 9.5339097976684570312 10.39716339111328125 9.2109174728393554688 7.486469268798828125 8.5515222549438476562 8.3897409439086914062 8.2226533889770507812 9.5365886688232421875 8.6040334701538085938 6.7732982635498046875 5.8499898910522460938 6.4562435150146484375 7.9028348922729492188 7.8155474662780761719 7.3533921241760253906 7.7197861671447753906 6.842914581298828125 7.4278631210327148438 7.2217659950256347656 -9999 9.6487579345703125 13.46115875244140625 18.789203643798828125 14.192389488220214844 2.2623479366302490234 2.0163779258728027344 1.2384660243988037109 6.9821329116821289062 7.3844356536865234375 8.205669403076171875 8.9841289520263671875 11.605779647827148438 11.8918304443359375 10.44335174560546875 12.627864837646484375 7.1168713569641113281 2.5319356918334960938 7.3460264205932617188 -9999 -9999 -9999 -9999 -9999 -9999 -9999 -9999 -9999 -9999 -9999 -9999 -9999 -9999 -9999 -9999 -9999 -9999 -9999 -9999 -9999 -9999 -9999 -9999 -9999 -9999 -9999 -9999 -9999 -9999 -9999 
-9999 -9999 -9999 -9999 -9999 11.444092750549316406 3.7441606521606445312 4.3924584388732910156 8.187091827392578125 -9999 -9999 15.200229644775390625 11.137331962585449219 10.235659599304199219 11.762125968933105469 7.3451972007751464844 8.4078950881958007812 8.7353668212890625 9.65016937255859375 2.6418600082397460938 12.173342704772949219 6.6433782577514648438 8.215991973876953125 5.4397091865539550781 10.388507843017578125 -9999 4.8433423042297363281 8.1385793685913085938 2.6973664760589599609 6.3009877204895019531 7.7625470161437988281 10.873337745666503906 10.16020965576171875 7.6478171348571777344 5.9150257110595703125 6.6723151206970214844 9.1996316909790039062 12.218675613403320312 4.6002984046936035156 4.8601670265197753906 1.7698869705200195312 2.1639568805694580078 7.4758558273315429688 8.4713487625122070312 7.0624909400939941406 5.7645668983459472656 2.7661488056182861328 3.2917284965515136719 4.8545737266540527344 1.6446413993835449219 2.6084604263305664062 -9999 -9999 3.8849065303802490234 5.1140041351318359375 5.7301683425903320312 3.8536870479583740234 4.1976227760314941406 5.8060946464538574219 7.5021882057189941406 6.7008109092712402344 6.3472261428833007812 7.8764352798461914062 8.7302608489990234375 8.6605901718139648438 8.4048109054565429688 9.584705352783203125 8.2015132904052734375 7.21488189697265625 6.85851287841796875 7.4792532920837402344 7.0904455184936523438 5.7541141510009765625 7.0822310447692871094 6.9826960563659667969 7.9741387367248535156 7.521282196044921875 -9999 -9999 -9999 -9999 -9999 5.2129058837890625 8.23657989501953125 3.1664564609527587891 4.3836512565612792969 6.4663987159729003906 8.1573915481567382812 7.8971700668334960938 7.5727057456970214844 4.301433563232421875 3.8049716949462890625 8.37007904052734375 6.0555253028869628906 3.2529799938201904297 9.6242809295654296875 -9999 -9999 -9999 -9999 -9999 -9999 -9999 -9999 -9999 -9999 -9999 -9999 -9999 -9999 -9999 10.972548484802246094 11.325184822082519531 -9999 -9999 -9999 -9999 -9999 -9999 -9999 -9999 -9999 -9999 -9999 -9999 -9999 -9999 
-9999 -9999 -9999 -9999 -9999 9.2087831497192382812 4.343231201171875 4.4044818878173828125 11.565649986267089844 -9999 17.128187179565429688 9.8359365463256835938 10.792438507080078125 17.179662704467773438 -9999 15.350472450256347656 12.578472137451171875 9.6473760604858398438 14.269134521484375 12.733245849609375 7.7100520133972167969 1.827996373176574707 1.1008951663970947266 2.8942763805389404297 13.983933448791503906 5.3489527702331542969 4.2508907318115234375 15.548375129699707031 7.8300647735595703125 8.1667757034301757812 9.9769468307495117188 10.608984947204589844 13.135728836059570312 8.3584136962890625 12.780046463012695312 13.513410568237304688 14.97565460205078125 12.536900520324707031 10.787374496459960938 11.998744010925292969 3.3299329280853271484 2.2973215579986572266 2.4969727993011474609 8.575908660888671875 7.7237601280212402344 5.1906857490539550781 5.240558624267578125 6.3172726631164550781 7.3637843132019042969 6.1139006614685058594 7.2427768707275390625 11.378915786743164062 -9999 5.4774465560913085938 2.2948546409606933594 2.779445648193359375 1.4402225017547607422 1.4868931770324707031 1.2639771699905395508 2.5229620933532714844 3.6075234413146972656 6.5518970489501953125 5.5674481391906738281 6.7940797805786132812 6.2810573577880859375 6.5779104232788085938 7.6796770095825195312 7.8809404373168945312 4.4904203414916992188 5.1445255279541015625 7.9294409751892089844 7.2961182594299316406 10.637530326843261719 7.9019179344177246094 7.0227327346801757812 7.6902079582214355469 7.1626749038696289062 -9999 10.091599464416503906 9.0168943405151367188 -9999 1.8707168102264404297 8.1835851669311523438 5.4635219573974609375 4.2279024124145507812 6.8204817771911621094 6.3120770454406738281 6.127918243408203125 6.7322192192077636719 5.0050020217895507812 6.1191577911376953125 6.9215784072875976562 8.3514957427978515625 8.5670709609985351562 12.75974273681640625 15.475321769714355469 12.971529960632324219 8.1198883056640625 -9999 -9999 -9999 -9999 -9999 -9999 -9999 -9999 -9999 -9999 -9999 -9999 -9999 -9999 -9999 -9999 -9999 -9999 -9999 -9999 -9999 -9999 -9999 -9999 -9999 -9999 -9999 -9999 -9999 
-9999 -9999 -9999 -9999 17.342998504638671875 10.550925254821777344 13.778757095336914062 9.9014577865600585938 10.883983612060546875 10.586747169494628906 12.077043533325195312 10.39318084716796875 14.317187309265136719 15.335556983947753906 12.090271949768066406 8.8287944793701171875 6.4312162399291992188 6.3399219512939453125 9.032855987548828125 11.409399032592773438 1.9820281267166137695 1.4107896089553833008 4.5346503257751464844 1.6350903511047363281 9.5243482589721679688 9.844573974609375 13.494277000427246094 9.130718231201171875 12.586833953857421875 9.3622312545776367188 17.297430038452148438 10.716549873352050781 8.7480993270874023438 10.734772682189941406 9.2438707351684570312 12.3710479736328125 13.312558174133300781 9.2365932464599609375 1.2171008586883544922 3.0241189002990722656 9.2662210464477539062 11.227946281433105469 5.3474855422973632812 4.465267181396484375 8.1554241180419921875 9.62354278564453125 9.7407131195068359375 8.9981098175048828125 3.5616011619567871094 7.0559549331665039062 8.4487695693969726562 7.4427490234375 4.7306084632873535156 1.0567536354064941406 2.0507755279541015625 2.9340069293975830078 3.4774940013885498047 9.9500684738159179688 6.8766312599182128906 2.2861514091491699219 5.4987812042236328125 4.927791595458984375 5.5745368003845214844 4.0917387008666992188 1.6198714971542358398 2.41851043701171875 -9999 9.7241668701171875 5.6803259849548339844 5.3318858146667480469 6.4303565025329589844 4.6195559501647949219 7.7053089141845703125 7.7584872245788574219 7.0395035743713378906 7.8366756439208984375 8.230098724365234375 -9999 14.039425849914550781 4.869609832763671875 -9999 6.2653326988220214844 7.7667255401611328125 5.909099578857421875 7.150524139404296875 6.7422809600830078125 3.8412542343139648438 7.6020035743713378906 8.6900806427001953125 6.9621644020080566406 8.5457983016967773438 7.2868070602416992188 -9999 3.396259307861328125 4.305912017822265625 4.5179495811462402344 6.3813991546630859375 7.7177095413208007812 2.5515813827514648438 7.189266204833984375 -9999 20.976537704467773438 -9999 -9999 -9999 -9999 -9999 -9999 -9999 7.9859509468078613281 -9999 -9999 -9999 -9999 -9999 -9999 -9999 -9999 -9999 -9999 -9999 -9999 -9999 -9999 -9999 -9999 -9999 
-9999 -9999 -9999 -9999 14.649953842163085938 8.093791961669921875 12.431764602661132812 7.7060971260070800781 9.8691282272338867188 10.681269645690917969 13.888469696044921875 19.292644500732421875 13.286000251770019531 12.387126922607421875 -9999 -9999 8.0445127487182617188 6.4586477279663085938 8.389041900634765625 9.48819732666015625 3.1743221282958984375 1.3126162290573120117 7.2663826942443847656 1.6268558502197265625 3.5949573516845703125 17.97602081298828125 17.317445755004882812 15.977406501770019531 15.70123291015625 15.631615638732910156 22.676069259643554688 18.484891891479492188 12.859044075012207031 11.373169898986816406 12.611078262329101562 17.192613601684570312 18.009492874145507812 21.282674789428710938 13.854388236999511719 10.194762229919433594 14.27860260009765625 13.885947227478027344 2.8422529697418212891 7.5177597999572753906 8.5301485061645507812 8.3578948974609375 5.4855141639709472656 3.6848580837249755859 7.9285426139831542969 9.1613855361938476562 -9999 -9999 10.9885711669921875 2.0194041728973388672 1.8105181455612182617 1.8394336700439453125 4.6707868576049804688 5.5384907722473144531 2.0098280906677246094 3.7626521587371826172 7.4959306716918945312 1.0994132757186889648 3.8210222721099853516 5.1705546379089355469 4.6402449607849121094 3.9777860641479492188 2.7804052829742431641 3.9475276470184326172 5.5172915458679199219 1.703067779541015625 1.0245515108108520508 3.702228546142578125 9.0219297409057617188 8.1150407791137695312 7.7125849723815917969 8.6085729598999023438 7.911556243896484375 39.233768463134765625 51.5042724609375 -9999 -9999 5.7143330574035644531 2.8533840179443359375 5.1190419197082519531 7.2039160728454589844 6.3167853355407714844 4.4814333915710449219 11.206361770629882812 8.2734155654907226562 4.6273207664489746094 5.7020587921142578125 5.85636138916015625 8.0943193435668945312 7.8148775100708007812 8.2387361526489257812 9.5010290145874023438 10.883086204528808594 1.1396967172622680664 4.6286115646362304688 11.306378364562988281 6.85736083984375 11.561613082885742188 -9999 -9999 -9999 -9999 -9999 -9999 -9999 -9999 -9999 -9999 -9999 -9999 -9999 -9999 -9999 -9999 -9999 -9999 -9999 -9999 -9999 -9999 -9999 -9999 -9999 
-9999 -9999 -9999 16.695909500122070312 -9999 -9999 9.9304523468017578125 11.031151771545410156 14.689937591552734375 14.369174957275390625 17.113506317138671875 10.876492500305175781 12.157977104187011719 13.062231063842773438 14.035085678100585938 11.793347358703613281 7.9541139602661132812 10.527826309204101562 9.78530120849609375 1.7320220470428466797 3.544048309326171875 3.094974517822265625 4.8990159034729003906 4.3170537948608398438 13.462862968444824219 19.566677093505859375 14.052933692932128906 17.837001800537109375 16.527027130126953125 14.702287673950195312 16.933757781982421875 15.819772720336914062 16.585481643676757812 11.048673629760742188 11.077067375183105469 15.277736663818359375 17.952301025390625 11.471287727355957031 8.5067796707153320312 9.6613836288452148438 -9999 7.0325345993041992188 8.3110494613647460938 9.3796062469482421875 10.984079360961914062 5.9272899627685546875 -9999 15.765688896179199219 -9999 3.668701171875 5.5796957015991210938 14.451926231384277344 13.560709953308105469 4.9534487724304199219 24.6069183349609375 14.529909133911132812 1.0913622379302978516 6.2518825531005859375 1.4782868623733520508 1.750629425048828125 2.8907260894775390625 3.3198235034942626953 1.5035437345504760742 4.4419956207275390625 6.7153997421264648438 7.1488909721374511719 3.8802497386932373047 4.3894948959350585938 8.93770599365234375 4.7524080276489257812 5.3329930305480957031 1.3972849845886230469 7.3662171363830566406 7.7269191741943359375 7.225147247314453125 8.6569271087646484375 8.8808164596557617188 19.242153167724609375 -9999 14.057492256164550781 18.5340423583984375 8.5921869277954101562 4.2550687789916992188 6.1854939460754394531 6.5061650276184082031 7.6299428939819335938 6.1572093963623046875 8.8530559539794921875 7.8302631378173828125 6.3102889060974121094 7.3358998298645019531 7.9483838081359863281 7.7057833671569824219 6.4740834236145019531 8.4046297073364257812 10.077637672424316406 11.019095420837402344 13.085946083068847656 5.1170244216918945312 1.7551791667938232422 1.6394948959350585938 8.0780544281005859375 -9999 22.615224838256835938 -9999 -9999 -9999 -9999 -9999 -9999 -9999 -9999 -9999 -9999 -9999 -9999 -9999 -9999 -9999 -9999 -9999 -9999 -9999 -9999 -9999 -9999 -9999 
-9999 -9999 -9999 -9999 -9999 -9999 7.1795115470886230469 -9999 13.128485679626464844 13.359818458557128906 10.52872467041015625 4.32190704345703125 12.061198234558105469 16.015743255615234375 7.1891794204711914062 7.1710219383239746094 16.499959945678710938 11.422135353088378906 5.9245119094848632812 1.7843377590179443359 2.8984560966491699219 2.2304902076721191406 3.2530033588409423828 4.3793592453002929688 20.761081695556640625 14.233455657958984375 12.446789741516113281 8.8078432083129882812 9.64426422119140625 7.3522005081176757812 5.7503347396850585938 -9999 6.3479704856872558594 9.0693521499633789062 9.1020679473876953125 11.561978340148925781 5.7333889007568359375 7.4079365730285644531 8.1557207107543945312 -9999 16.0611572265625 12.1827239990234375 8.8112859725952148438 12.918474197387695312 7.9669017791748046875 -9999 -9999 -9999 4.783626556396484375 2.3333499431610107422 10.114813804626464844 4.8679566383361816406 5.0689849853515625 1.6653825044631958008 13.44719696044921875 4.8453478813171386719 2.3077423572540283203 2.9855017662048339844 5.9309139251708984375 7.0206875801086425781 4.3852791786193847656 3.6864838600158691406 3.580684661865234375 2.1174268722534179688 4.6260161399841308594 8.4853563308715820312 9.2232866287231445312 4.125980377197265625 3.6896462440490722656 4.1968212127685546875 3.5803234577178955078 1.7924405336380004883 5.1823291778564453125 7.1320552825927734375 6.2614917755126953125 8.8488006591796875 9.5400562286376953125 5.9118714332580566406 -9999 10.047153472900390625 14.667889595031738281 1.3847075700759887695 2.9321506023406982422 5.9845614433288574219 4.9084649085998535156 4.8452157974243164062 4.283054351806640625 7.7200293540954589844 8.060108184814453125 7.4214086532592773438 6.9871454238891601562 6.4589753150939941406 8.9436960220336914062 5.1138520240783691406 5.2094998359680175781 6.7626938819885253906 7.58730316162109375 11.743212699890136719 2.0384886264801025391 3.1039569377899169922 1.3693406581878662109 17.523538589477539062 12.784632682800292969 8.4405736923217773438 -9999 -9999 -9999 -9999 -9999 -9999 -9999 -9999 -9999 -9999 -9999 -9999 -9999 -9999 -9999 -9999 -9999 -9999 -9999 -9999 -9999 -9999 -9999 
-9999 21.998729705810546875 -9999 -9999 -9999 10.51764678955078125 -9999 -9999 -9999 -9999 14.154087066650390625 11.841731071472167969 13.59723663330078125 13.683649063110351562 8.561077117919921875 10.111887931823730469 11.585528373718261719 1.0883791446685791016 3.5490164756774902344 3.2796602249145507812 12.039698600769042969 3.5533211231231689453 3.9358487129211425781 1.5231788158416748047 12.583016395568847656 2.7224822044372558594 5.6923246383666992188 1.2322615385055541992 1.564178466796875 1.1055643558502197266 2.7955598831176757812 -9999 4.5036716461181640625 8.3596248626708984375 9.427310943603515625 8.9709320068359375 4.6787238121032714844 5.63825225830078125 12.425599098205566406 17.654300689697265625 16.305395126342773438 4.7089176177978515625 1.5235854387283325195 7.4867920875549316406 1.1781994104385375977 8.0521020889282226562 -9999 -9999 5.7127127647399902344 8.613445281982421875 13.630629539489746094 12.989381790161132812 11.532549858093261719 9.3443250656127929688 7.02167510986328125 2.5565991401672363281 5.0543208122253417969 4.0481386184692382812 5.2758307456970214844 -9999 -9999 4.1938128471374511719 1.0235599279403686523 6.5234050750732421875 6.735149383544921875 7.2642269134521484375 9.5232095718383789062 1.2440955638885498047 2.8984520435333251953 1.0785799026489257812 8.333087921142578125 1.6797889471054077148 7.3996901512145996094 7.9580564498901367188 7.2724905014038085938 8.398895263671875 9.1105203628540039062 7.6175518035888671875 1.3919521570205688477 2.2650160789489746094 3.2620823383331298828 7.0678653717041015625 7.461353302001953125 6.8155727386474609375 7.5377168655395507812 6.9738435745239257812 6.9146013259887695312 5.4672231674194335938 7.0923185348510742188 8.4443235397338867188 8.4169435501098632812 7.2727599143981933594 10.394402503967285156 6.4385366439819335938 2.4839971065521240234 5.4255800247192382812 5.37239837646484375 2.7838928699493408203 6.3929414749145507812 9.7036581039428710938 5.9801735877990722656 3.5107409954071044922 2.8015413284301757812 9.171451568603515625 -9999 -9999 -9999 -9999 -9999 -9999 -9999 13.239649772644042969 -9999 -9999 -9999 -9999 -9999 -9999 -9999 -9999 -9999 -9999 -9999 -9999 -9999 -9999 -9999 
19.636312484741210938 -9999 -9999 -9999 -9999 -9999 -9999 -9999 -9999 -9999 -9999 16.70725250244140625 12.950079917907714844 11.504689216613769531 13.117666244506835938 11.398562431335449219 8.7774858474731445312 5.2619342803955078125 6.111480712890625 5.1712274551391601562 5.0169577598571777344 1.1214886903762817383 3.2893352508544921875 3.0991587638854980469 4.0390253067016601562 3.2268743515014648438 1.8694833517074584961 2.1124370098114013672 1.1037830114364624023 5.0173187255859375 -9999 -9999 1.2391860485076904297 9.7667741775512695312 5.8746919631958007812 8.96538543701171875 5.8710088729858398438 2.0158393383026123047 6.3214769363403320312 7.1478872299194335938 4.829437255859375 1.0525454282760620117 1.4179284572601318359 2.4020438194274902344 2.0462257862091064453 10.130588531494140625 -9999 11.185832977294921875 10.587443351745605469 9.813343048095703125 10.160968780517578125 12.98551177978515625 15.716898918151855469 13.604559898376464844 10.573914527893066406 4.6069517135620117188 6.2814841270446777344 5.4067544937133789062 -9999 -9999 53.33596038818359375 12.816666603088378906 4.2215695381164550781 8.92241668701171875 8.1696987152099609375 5.6179471015930175781 8.2336359024047851562 6.2266573905944824219 5.24916839599609375 2.3034360408782958984 3.8404967784881591797 1.1676127910614013672 5.2658638954162597656 6.8811435699462890625 7.4190397262573242188 6.0850453376770019531 5.24694061279296875 7.1618890762329101562 4.4937896728515625 3.1660008430480957031 1.9062219858169555664 6.4058694839477539062 7.0137958526611328125 6.0621290206909179688 7.4921898841857910156 6.5076727867126464844 5.9629387855529785156 6.94698333740234375 7.7267107963562011719 8.180820465087890625 7.500247955322265625 4.7661919593811035156 4.9936847686767578125 3.2362766265869140625 8.000720977783203125 5.5867743492126464844 5.4206919670104980469 5.3671774864196777344 9.3102331161499023438 8.0908555984497070312 5.8428568840026855469 4.5037951469421386719 1.8646750450134277344 4.5324673652648925781 1.8167276382446289062 11.112300872802734375 -9999 -9999 -9999 -9999 -9999 -9999 -9999 -9999 -9999 -9999 -9999 -9999 -9999 -9999 -9999 -9999 -9999 -9999 -9999 -9999 -9999 
19.48651885986328125 -9999 -9999 -9999 -9999 -9999 -9999 -9999 -9999 -9999 -9999 9.425518035888671875 8.4498987197875976562 4.3676667213439941406 10.069033622741699219 11.20995330810546875 9.6985950469970703125 1.405222773551940918 2.2661886215209960938 5.8174352645874023438 5.9783177375793457031 4.4568343162536621094 2.9898612499237060547 2.7630572319030761719 3.1337809562683105469 2.4872865676879882812 2.9568624496459960938 3.2400255203247070312 1.8347345590591430664 5.438228607177734375 -9999 4.2947444915771484375 8.5660810470581054688 8.4916934967041015625 3.6248149871826171875 5.4074263572692871094 1.8781979084014892578 1.9262049198150634766 2.0412340164184570312 1.9459478855133056641 5.3163285255432128906 1.5770093202590942383 3.4359991550445556641 5.5727791786193847656 9.8493442535400390625 8.2313337326049804688 3.1936426162719726562 7.41266632080078125 14.305929183959960938 12.040845870971679688 10.634279251098632812 11.383230209350585938 16.764232635498046875 -9999 14.140484809875488281 1.0169677734375 8.6554241180419921875 7.7499818801879882812 4.3553838729858398438 5.0023655891418457031 -9999 4.0386595726013183594 4.8996133804321289062 7.6598157882690429688 5.8256201744079589844 5.0008077621459960938 6.5297904014587402344 8.9748077392578125 5.8535203933715820312 2.6543467044830322266 1.8987224102020263672 3.6229097843170166016 3.2521202564239501953 4.6627254486083984375 5.2609152793884277344 2.9165689945220947266 1.8967096805572509766 6.7991204261779785156 4.2701630592346191406 4.44319915771484375 5.2837328910827636719 6.1519789695739746094 5.3838887214660644531 5.8073396682739257812 7.5155096054077148438 6.8966188430786132812 7.1281456947326660156 7.9851946830749511719 7.8099870681762695312 6.6028795242309570312 6.624065399169921875 7.3332347869873046875 5.9994006156921386719 6.7224335670471191406 7.3811998367309570312 6.4963068962097167969 6.009120941162109375 4.344326019287109375 4.919795989990234375 6.8661179542541503906 2.4426758289337158203 1.190260767936706543 2.7902309894561767578 8.3258924484252929688 8.333583831787109375 17.243074417114257812 -9999 -9999 -9999 -9999 18.343906402587890625 -9999 -9999 -9999 -9999 -9999 -9999 -9999 -9999 -9999 -9999 -9999 -9999 -9999 -9999 -9999 -9999 
-9999 -9999 -9999 -9999 -9999 -9999 -9999 -9999 -9999 18.978685379028320312 -9999 4.1084871292114257812 11.660493850708007812 7.9784550666809082031 9.1915111541748046875 9.3827152252197265625 9.305591583251953125 7.9866642951965332031 3.2883546352386474609 4.530567169189453125 2.2688431739807128906 1.8292646408081054688 2.4139883518218994141 4.8003091812133789062 2.9403538703918457031 5.6294178962707519531 9.1453466415405273438 9.51247406005859375 4.4134340286254882812 14.229306221008300781 20.397039413452148438 9.2844667434692382812 5.745639801025390625 12.65545654296875 9.7902650833129882812 3.9991085529327392578 2.2712643146514892578 4.5476346015930175781 6.190196990966796875 10.082369804382324219 10.159702301025390625 7.317577362060546875 8.210140228271484375 -9999 -9999 1.1084311008453369141 4.1020479202270507812 12.700969696044921875 10.537993431091308594 14.495557785034179688 6.3616113662719726562 8.541046142578125 15.317332267761230469 11.789220809936523438 9.2957773208618164062 -9999 3.7313694953918457031 5.9909830093383789062 1.1643384695053100586 2.2135510444641113281 3.1458706855773925781 9.7205810546875 8.0045175552368164062 4.9668493270874023438 4.9717807769775390625 7.212554931640625 5.5836305618286132812 4.5255084037780761719 6.5360040664672851562 8.2960071563720703125 5.4905600547790527344 1.9821218252182006836 2.9139933586120605469 4.7340149879455566406 7.0704665184020996094 5.9177408218383789062 3.4108366966247558594 2.3667566776275634766 5.1742649078369140625 2.0152087211608886719 2.1862075328826904297 5.2824625968933105469 6.6703715324401855469 6.6381368637084960938 8.0892162322998046875 7.4072699546813964844 6.4166727066040039062 7.1588134765625 6.3503870964050292969 5.768444061279296875 5.4794535636901855469 7.4649133682250976562 7.7030887603759765625 7.4857058525085449219 7.8523163795471191406 7.4954967498779296875 7.2470216751098632812 5.6837468147277832031 7.9446358680725097656 6.1785902976989746094 3.5294783115386962891 6.4523954391479492188 10.167883872985839844 9.0638246536254882812 2.1355195045471191406 9.5579471588134765625 13.21926116943359375 16.360094070434570312 -9999 14.888632774353027344 12.119656562805175781 -9999 -9999 -9999 -9999 -9999 -9999 -9999 -9999 -9999 -9999 -9999 -9999 -9999 -9999 -9999 -9999 
-9999 -9999 15.258286476135253906 -9999 -9999 -9999 -9999 -9999 -9999 -9999 4.5709295272827148438 3.8981719017028808594 10.421458244323730469 6.9854784011840820312 8.4539194107055664062 8.43292999267578125 4.3903260231018066406 3.5270819664001464844 8.2274036407470703125 7.9498372077941894531 4.4984316825866699219 10.012848854064941406 5.7560839653015136719 4.594532012939453125 4.835971832275390625 6.5910387039184570312 4.1986932754516601562 4.852718353271484375 6.7181806564331054688 9.475254058837890625 13.63861846923828125 3.4714305400848388672 1.3688478469848632812 4.915866851806640625 2.8124995231628417969 8.4214496612548828125 9.0037088394165039062 10.845980644226074219 2.9409992694854736328 -9999 7.8966665267944335938 7.5233597755432128906 12.636916160583496094 -9999 -9999 4.0401868820190429688 7.3801021575927734375 8.406681060791015625 8.612369537353515625 -9999 3.1247088909149169922 2.2518677711486816406 13.361429214477539062 9.9947137832641601562 6.186855316162109375 3.6103563308715820312 2.5356695652008056641 4.9557080268859863281 6.71776580810546875 -9999 15.561644554138183594 9.1836233139038085938 8.285106658935546875 4.8947577476501464844 7.1337299346923828125 7.7789292335510253906 6.5574922561645507812 6.9451904296875 8.1985616683959960938 12.540241241455078125 8.2147579193115234375 6.3640151023864746094 6.2303409576416015625 5.8212575912475585938 6.4070096015930175781 5.1105971336364746094 5.405384063720703125 8.6965885162353515625 13.174422264099121094 5.5124764442443847656 1.0518268346786499023 4.6778893470764160156 5.7041287422180175781 7.5116286277770996094 7.06548309326171875 6.3239083290100097656 6.7604527473449707031 7.9002513885498046875 5.8518633842468261719 6.89962005615234375 5.5556058883666992188 7.0838036537170410156 8.1017789840698242188 8.296611785888671875 8.4247188568115234375 7.1811847686767578125 7.1365270614624023438 7.2155508995056152344 7.0210299491882324219 6.2759046554565429688 6.76660919189453125 9.5439777374267578125 7.8901615142822265625 2.9634945392608642578 3.6224601268768310547 2.5284323692321777344 9.4982471466064453125 -9999 -9999 -9999 5.40381622314453125 5.89989471435546875 -9999 -9999 -9999 -9999 -9999 -9999 -9999 15.046374320983886719 7.6180810928344726562 -9999 -9999 -9999 -9999 -9999 -9999 
-9999 -9999 -9999 -9999 -9999 -9999 -9999 -9999 -9999 -9999 5.2253918647766113281 8.087276458740234375 10.930685043334960938 7.2886891365051269531 9.5162096023559570312 6.6562523841857910156 7.9329595565795898438 9.9846944808959960938 8.8859949111938476562 6.8486614227294921875 5.4886212348937988281 14.438906669616699219 6.7744011878967285156 4.5598502159118652344 3.5264565944671630859 4.7529702186584472656 5.7510333061218261719 3.7861418724060058594 1.068919062614440918 7.3769116401672363281 8.5208606719970703125 3.8962643146514892578 5.845855712890625 8.2322149276733398438 10.704417228698730469 2.1544575691223144531 5.5996632575988769531 6.018886566162109375 -9999 -9999 -9999 13.259427070617675781 22.622737884521484375 -9999 18.626611709594726562 7.4808673858642578125 -9999 -9999 -9999 -9999 -9999 9.3019781112670898438 14.165401458740234375 14.837136268615722656 -9999 3.807735443115234375 2.5968315601348876953 7.997661590576171875 20.831731796264648438 -9999 13.761200904846191406 11.278356552124023438 9.5247850418090820312 7.0222897529602050781 8.737857818603515625 8.697174072265625 7.5641446113586425781 7.1191391944885253906 6.3701543807983398438 8.5781583786010742188 7.7935595512390136719 4.5516161918640136719 4.4599447250366210938 6.2749805450439453125 6.103729248046875 2.6514465808868408203 1.4312087297439575195 12.842853546142578125 16.914821624755859375 14.167926788330078125 3.1447286605834960938 4.4058933258056640625 5.0518374443054199219 6.3216795921325683594 6.4949374198913574219 7.6950502395629882812 8.2099142074584960938 8.5402936935424804688 8.4415082931518554688 8.3397779464721679688 7.8039216995239257812 7.6660418510437011719 8.3830575942993164062 8.1106748580932617188 6.9414148330688476562 6.6976323127746582031 7.7797427177429199219 7.3340630531311035156 6.8141303062438964844 6.1999497413635253906 7.2154994010925292969 10.2021026611328125 8.1474256515502929688 11.724007606506347656 2.9058089256286621094 3.6032893657684326172 -9999 1.631365656852722168 -9999 -9999 9.3654022216796875 6.5697736740112304688 -9999 -9999 -9999 7.0216321945190429688 -9999 -9999 20.394702911376953125 -9999 9.1083011627197265625 -9999 -9999 -9999 -9999 -9999 -9999 
-9999 -9999 -9999 -9999 -9999 -9999 -9999 -9999 7.0871453285217285156 6.9431080818176269531 -9999 14.869884490966796875 9.109600067138671875 11.506069183349609375 12.872794151306152344 1.3370100259780883789 3.0188603401184082031 1.9620842933654785156 -9999 -9999 7.5636286735534667969 7.19008636474609375 5.3718485832214355469 8.0231761932373046875 6.8723521232604980469 6.2559266090393066406 6.4180865287780761719 3.3154876232147216797 7.9709234237670898438 1.7488193511962890625 3.8128964900970458984 5.4699869155883789062 9.1890468597412109375 12.081859588623046875 16.591077804565429688 7.4823141098022460938 1.0802193880081176758 2.2364115715026855469 1.2633941173553466797 1.461625218391418457 5.3695898056030273438 12.121515274047851562 23.91437530517578125 -9999 -9999 10.058282852172851562 -9999 -9999 -9999 11.669903755187988281 -9999 -9999 -9999 -9999 -9999 7.3711977005004882812 1.6390447616577148438 8.9244108200073242188 4.7784976959228515625 8.483638763427734375 10.797654151916503906 9.9275693893432617188 7.9576258659362792969 5.8177676200866699219 8.3209772109985351562 8.7022247314453125 8.6237630844116210938 5.9220333099365234375 6.3212633132934570312 7.7988810539245605469 11.588053703308105469 13.332533836364746094 4.3646283149719238281 5.5479440689086914062 5.7395658493041992188 2.9161276817321777344 3.8328559398651123047 1.2396852970123291016 12.469828605651855469 5.9007468223571777344 2.603496551513671875 6.3472509384155273438 6.7777357101440429688 6.8103423118591308594 7.8139796257019042969 8.2913885116577148438 8.4434576034545898438 9.0424861907958984375 8.88922119140625 8.23229217529296875 8.2159376144409179688 8.0375795364379882812 7.2197556495666503906 6.6747455596923828125 6.9545283317565917969 7.6075797080993652344 6.3005623817443847656 6.1736783981323242188 5.7400259971618652344 5.38188934326171875 4.7528290748596191406 8.0882167816162109375 3.984310150146484375 3.0185496807098388672 6.5717883110046386719 20.336790084838867188 50.761379241943359375 1.6131743192672729492 -9999 8.5924711227416992188 4.8716168403625488281 7.5621652603149414062 1.4673696756362915039 -9999 12.339398384094238281 -9999 -9999 -9999 -9999 7.1022562980651855469 7.4268178939819335938 -9999 -9999 -9999 -9999 -9999 -9999 
-9999 -9999 -9999 -9999 -9999 -9999 -9999 -9999 3.8434765338897705078 10.037798881530761719 -9999 10.283611297607421875 9.8414096832275390625 14.25630950927734375 10.093206405639648438 7.227306365966796875 5.242656707763671875 7.7440404891967773438 -9999 -9999 5.5817122459411621094 9.493404388427734375 8.598846435546875 7.4989690780639648438 12.383786201477050781 6.313930511474609375 1.135009765625 7.2436089515686035156 8.1299581527709960938 12.543189048767089844 9.0066785812377929688 1.5213594436645507812 8.6604032516479492188 10.226241111755371094 8.1075296401977539062 2.2643828392028808594 2.7304728031158447266 1.6066786050796508789 2.7510306835174560547 4.1914505958557128906 10.591886520385742188 -9999 -9999 -9999 -9999 12.891121864318847656 -9999 -9999 10.2247161865234375 18.113037109375 -9999 -9999 -9999 -9999 2.9079067707061767578 1.1032561063766479492 2.8740589618682861328 2.5233979225158691406 7.6327228546142578125 9.2771215438842773438 9.8916635513305664062 8.687671661376953125 3.8686735630035400391 4.1704325675964355469 7.6060132980346679688 7.953369140625 9.3957386016845703125 8.10845947265625 7.9636487960815429688 7.1517305374145507812 7.8318600654602050781 11.207225799560546875 11.714563369750976562 8.2574605941772460938 4.9271750450134277344 1.2666256427764892578 7.2340903282165527344 1.3144823312759399414 5.376743316650390625 16.904680252075195312 3.6478378772735595703 9.4410076141357421875 8.9196262359619140625 7.804965972900390625 8.2322750091552734375 8.7351179122924804688 9.0608205795288085938 8.9881486892700195312 8.2713251113891601562 8.0866260528564453125 7.5850043296813964844 7.0233368873596191406 6.8144540786743164062 7.2217354774475097656 7.6185393333435058594 7.5940756797790527344 5.7294664382934570312 2.2335643768310546875 5.1168026924133300781 4.7060999870300292969 5.5957040786743164062 9.8033657073974609375 7.4518899917602539062 8.9241771697998046875 8.6284704208374023438 6.6367969512939453125 14.215654373168945312 14.138883590698242188 -9999 8.1232442855834960938 7.0240139961242675781 8.6685037612915039062 1.8506939411163330078 -9999 -9999 -9999 -9999 -9999 -9999 -9999 -9999 -9999 -9999 -9999 -9999 -9999 -9999 
-9999 -9999 -9999 -9999 -9999 -9999 -9999 -9999 -9999 -9999 -9999 -9999 8.3581867218017578125 8.1185255050659179688 -9999 -9999 -9999 -9999 -9999 3.6333849430084228516 1.4375060796737670898 14.637495040893554688 -9999 1.3758453130722045898 9.8777227401733398438 7.3778386116027832031 3.5857059955596923828 6.3404722213745117188 2.7456221580505371094 9.6325216293334960938 10.082270622253417969 10.369481086730957031 5.381988525390625 12.087980270385742188 4.4177494049072265625 6.1990904808044433594 2.7500829696655273438 4.3354048728942871094 2.2566766738891601562 12.866509437561035156 16.792627334594726562 -9999 -9999 -9999 -9999 -9999 -9999 -9999 -9999 -9999 15.086946487426757812 17.276655197143554688 9.6993427276611328125 -9999 -9999 3.4685051441192626953 2.1439106464385986328 2.9793071746826171875 8.3460874557495117188 8.8191661834716796875 8.6727876663208007812 7.4130949974060058594 4.8923163414001464844 5.218914031982421875 7.7641491889953613281 7.9557933807373046875 8.0786981582641601562 8.1111497879028320312 8.6932353973388671875 8.1205387115478515625 7.322292327880859375 8.8022375106811523438 6.7378544807434082031 7.5303730964660644531 7.4168286323547363281 4.7925443649291992188 2.0643825531005859375 7.6780591011047363281 3.2337689399719238281 2.6457896232604980469 1.6259090900421142578 9.8972005844116210938 9.4590482711791992188 8.6953449249267578125 9.3166742324829101562 8.8002462387084960938 9.1288003921508789062 7.623126983642578125 8.3387804031372070312 7.9478693008422851562 6.0779542922973632812 5.6051917076110839844 7.5596480369567871094 6.3881096839904785156 5.7425785064697265625 6.1876630783081054688 2.5988166332244873047 4.5772700309753417969 8.9313030242919921875 6.8128414154052734375 6.2251863479614257812 10.99604034423828125 9.5763998031616210938 10.880600929260253906 11.826368331909179688 10.462796211242675781 3.5578484535217285156 17.781576156616210938 19.138628005981445312 -9999 12.908728599548339844 15.238472938537597656 -9999 -9999 -9999 -9999 -9999 -9999 5.7968668937683105469 3.0008358955383300781 3.1237125396728515625 -9999 -9999 -9999 -9999 -9999 -9999 
-9999 -9999 -9999 -9999 -9999 -9999 -9999 -9999 -9999 -9999 -9999 13.625654220581054688 8.6754941940307617188 7.8542528152465820312 -9999 -9999 -9999 10.25522613525390625 -9999 2.3442296981811523438 5.9690542221069335938 -9999 -9999 -9999 -9999 3.0314857959747314453 6.1886734962463378906 2.4670839309692382812 4.32276153564453125 10.3899688720703125 12.206658363342285156 6.4442667961120605469 4.6176400184631347656 13.635233879089355469 1.1241016387939453125 1.7361643314361572266 12.444540977478027344 12.266219139099121094 4.1923995018005371094 6.7823629379272460938 9.8662462234497070312 -9999 -9999 -9999 13.624864578247070312 -9999 -9999 -9999 14.439792633056640625 7.0609941482543945312 6.3497834205627441406 12.290838241577148438 5.3193306922912597656 12.922024726867675781 -9999 1.7954970598220825195 1.5529664754867553711 5.6503114700317382812 6.9809699058532714844 5.9554514884948730469 7.1365542411804199219 8.07134246826171875 7.1376137733459472656 5.3342680931091308594 7.5586071014404296875 7.1220402717590332031 7.2357854843139648438 8.278270721435546875 6.5959734916687011719 6.2897167205810546875 6.207614898681640625 6.3798050880432128906 7.2610955238342285156 7.635906219482421875 7.0224585533142089844 5.5344471931457519531 6.1939940452575683594 4.517169952392578125 3.7289531230926513672 2.6558675765991210938 3.6964566707611083984 8.2361059188842773438 7.8892574310302734375 7.4091272354125976562 8.7195711135864257812 8.9138593673706054688 8.5580282211303710938 8.5255098342895507812 8.5731019973754882812 7.9310727119445800781 7.1244077682495117188 7.2929739952087402344 8.60140228271484375 7.8166489601135253906 6.656810760498046875 6.9502224922180175781 7.4011926651000976562 6.1825470924377441406 8.1627454757690429688 4.3599457740783691406 3.0666687488555908203 6.5720324516296386719 4.0549516677856445312 7.6206564903259277344 10.99074554443359375 7.4476695060729980469 7.2043485641479492188 -9999 -9999 -9999 10.620149612426757812 10.738170623779296875 -9999 -9999 -9999 -9999 5.216014862060546875 2.8267459869384765625 4.2955880165100097656 -9999 3.8630266189575195312 -9999 -9999 -9999 -9999 -9999 -9999 
-9999 -9999 -9999 -9999 -9999 -9999 -9999 -9999 15.21106719970703125 -9999 -9999 -9999 10.292451858520507812 12.900201797485351562 -9999 7.4953007698059082031 -9999 -9999 -9999 -9999 -9999 -9999 -9999 12.862290382385253906 9.8820562362670898438 6.2947587966918945312 7.8017096519470214844 6.1145606040954589844 6.4984049797058105469 14.973101615905761719 12.807419776916503906 4.4035735130310058594 2.3415524959564208984 6.0709176063537597656 8.1388092041015625 9.8862676620483398438 5.289638519287109375 5.6709318161010742188 5.8382472991943359375 7.2852678298950195312 3.2742714881896972656 11.835391044616699219 -9999 -9999 11.698687553405761719 -9999 -9999 -9999 -9999 1.6223138570785522461 2.3029196262359619141 -9999 15.307689666748046875 2.5374348163604736328 3.3570909500122070312 10.835236549377441406 8.459369659423828125 7.6837186813354492188 5.8096823692321777344 7.1340131759643554688 8.1757755279541015625 8.9913740158081054688 7.3907351493835449219 3.55651092529296875 10.234004974365234375 6.6183133125305175781 6.2301664352416992188 5.1103000640869140625 7.285320281982421875 7.195072174072265625 5.7354946136474609375 6.1741318702697753906 5.7600660324096679688 6.3219456672668457031 7.0175914764404296875 6.438716888427734375 7.2339229583740234375 6.4564633369445800781 6.0882291793823242188 4.1614546775817871094 3.0293455123901367188 1.0954593420028686523 1.0947215557098388672 4.7012028694152832031 6.4809513092041015625 7.6184244155883789062 8.0913228988647460938 8.4460382461547851562 8.13616943359375 7.5600337982177734375 7.4162378311157226562 7.8784117698669433594 8.5404376983642578125 8.3422956466674804688 8.913234710693359375 7.6495966911315917969 3.4153158664703369141 7.3725180625915527344 3.2700109481811523438 -9999 -9999 -9999 4.9370021820068359375 3.5600214004516601562 4.4456462860107421875 2.2391977310180664062 -9999 -9999 -9999 -9999 13.469308853149414062 8.628147125244140625 12.020077705383300781 -9999 -9999 17.1903228759765625 -9999 -9999 8.1543035507202148438 -9999 -9999 -9999 -9999 7.8247518539428710938 -9999 -9999 -9999 
-9999 -9999 -9999 -9999 15.885766029357910156 -9999 -9999 -9999 9.5781917572021484375 -9999 12.561758995056152344 11.374187469482421875 -9999 13.967577934265136719 -9999 5.8917236328125 -9999 -9999 -9999 12.785464286804199219 -9999 -9999 16.7582550048828125 12.54906463623046875 8.202037811279296875 6.847644805908203125 11.585234642028808594 -9999 9.5034151077270507812 2.3269014358520507812 5.1010556221008300781 7.5100150108337402344 4.536281585693359375 10.5115814208984375 7.8346958160400390625 9.71608734130859375 7.8127140998840332031 6.1719365119934082031 -9999 7.461635589599609375 3.6806390285491943359 11.630658149719238281 10.570467948913574219 6.4704651832580566406 4.9348664283752441406 14.873068809509277344 -9999 9.6276273727416992188 10.95687103271484375 11.896668434143066406 1.0743212699890136719 16.743625640869140625 9.1883649826049804688 3.5891110897064208984 6.03531646728515625 10.350523948669433594 7.7604765892028808594 7.7981081008911132812 9.27718353271484375 8.6012697219848632812 8.2253713607788085938 9.0528287887573242188 5.7791018486022949219 -9999 6.3747625350952148438 5.4931039810180664062 4.0604014396667480469 3.4916272163391113281 7.21634674072265625 6.7774052619934082031 7.7387061119079589844 7.1795134544372558594 6.6058893203735351562 5.144985198974609375 7.303028106689453125 8.2452497482299804688 8.6242055892944335938 8.49945831298828125 6.048610687255859375 1.6559295654296875 1.6860589981079101562 4.9374904632568359375 3.0573790073394775391 5.347930908203125 7.1012635231018066406 8.6642055511474609375 8.8993968963623046875 7.9236812591552734375 6.852603912353515625 6.4051957130432128906 7.3451089859008789062 7.7694783210754394531 7.3910765647888183594 7.7910952568054199219 2.3713829517364501953 27.753622055053710938 -9999 9.4796581268310546875 -9999 -9999 -9999 21.371326446533203125 9.0809011459350585938 7.9943690299987792969 6.7472453117370605469 1.2541602849960327148 -9999 -9999 3.4997205734252929688 12.905076026916503906 20.032314300537109375 17.644906997680664062 4.2435550689697265625 -9999 -9999 11.860976219177246094 10.237725257873535156 10.935406684875488281 18.618499755859375 -9999 -9999 -9999 1.4075130224227905273 -9999 -9999 -9999 -9999 
-9999 -9999 -9999 -9999 -9999 -9999 -9999 13.972015380859375 11.815205574035644531 8.72400665283203125 11.528490066528320312 -9999 12.07155609130859375 -9999 -9999 10.987357139587402344 -9999 -9999 -9999 -9999 -9999 -9999 -9999 -9999 -9999 -9999 -9999 -9999 -9999 -9999 24.993793487548828125 3.0503149032592773438 7.92523193359375 12.521480560302734375 5.4211978912353515625 11.877268791198730469 -9999 -9999 11.273008346557617188 9.1735124588012695312 8.5048313140869140625 14.721428871154785156 12.2928314208984375 7.3871150016784667969 5.7549581527709960938 16.240808486938476562 -9999 10.90514373779296875 3.1998052597045898438 6.6682157516479492188 5.8833365440368652344 24.864324569702148438 3.2104358673095703125 8.6702947616577148438 1.1866859197616577148 3.1058113574981689453 5.6809587478637695312 5.1173968315124511719 8.7713909149169921875 7.6238880157470703125 7.8861660957336425781 8.8790874481201171875 7.6519746780395507812 10.691733360290527344 7.8079447746276855469 5.1391510963439941406 3.5978839397430419922 3.8870742321014404297 7.3726239204406738281 6.29715728759765625 7.1672968864440917969 7.6654462814331054688 6.5606961250305175781 6.4902019500732421875 7.3143305778503417969 7.8389101028442382812 9.1395483016967773438 7.6369910240173339844 4.43831634521484375 3.2224905490875244141 3.4406311511993408203 4.0846581459045410156 5.1315693855285644531 7.1439228057861328125 8.243854522705078125 8.6159391403198242188 8.6032123565673828125 7.8955631256103515625 7.5123538970947265625 6.6238112449645996094 7.2555379867553710938 7.4776215553283691406 5.4069147109985351562 4.6786489486694335938 4.9955096244812011719 -9999 -9999 -9999 -9999 -9999 -9999 5.4312758445739746094 9.9110841751098632812 9.4768171310424804688 7.6105298995971679688 3.1279778480529785156 6.1865787506103515625 1.580463409423828125 7.4605646133422851562 15.43909454345703125 20.162157058715820312 20.177537918090820312 14.986903190612792969 -9999 -9999 12.047757148742675781 3.7718932628631591797 6.7968149185180664062 16.0910186767578125 8.1644687652587890625 -9999 -9999 -9999 -9999 -9999 -9999 -9999 
-9999 -9999 17.37982940673828125 10.648344039916992188 -9999 11.808678627014160156 11.598310470581054688 16.079916000366210938 15.407698631286621094 -9999 -9999 -9999 12.791346549987792969 -9999 -9999 -9999 -9999 -9999 -9999 -9999 13.897188186645507812 -9999 -9999 -9999 -9999 15.595433235168457031 15.471083641052246094 12.333293914794921875 4.2125644683837890625 1.3598616123199462891 10.922033309936523438 7.7544221878051757812 14.183630943298339844 13.020456314086914062 9.17986297607421875 10.491297721862792969 8.9216413497924804688 12.688310623168945312 -9999 -9999 9.2413578033447265625 14.877539634704589844 18.448190689086914062 12.699342727661132812 11.560193061828613281 3.7545564174652099609 20.210275650024414062 12.12799072265625 9.8861856460571289062 9.9664163589477539062 8.3609628677368164062 13.187134742736816406 4.571598052978515625 11.055201530456542969 4.8308877944946289062 2.0575251579284667969 4.366901397705078125 4.0510849952697753906 5.465198516845703125 5.1542820930480957031 7.4421401023864746094 8.4240369796752929688 6.374927520751953125 9.3003435134887695312 9.0537118911743164062 5.0375571250915527344 3.9629669189453125 5.3618898391723632812 8.0281429290771484375 8.211151123046875 7.4054093360900878906 6.9566655158996582031 6.7896285057067871094 7.4370493888854980469 8.5405702590942382812 8.6975650787353515625 8.5107450485229492188 5.0127305984497070312 1.9213597774505615234 2.6201732158660888672 1.9874062538146972656 2.5101470947265625 5.3933558464050292969 6.7381000518798828125 7.7554960250854492188 8.2140779495239257812 8.802097320556640625 8.7180833816528320312 8.6106977462768554688 8.1585340499877929688 7.2352895736694335938 7.5737042427062988281 4.3734650611877441406 4.8991594314575195312 -9999 -9999 -9999 -9999 -9999 -9999 57.100696563720703125 1.422829747200012207 8.46549224853515625 7.5832166671752929688 9.4214620590209960938 5.6478424072265625 13.818140029907226562 11.164180755615234375 5.9499707221984863281 11.249380111694335938 16.890554428100585938 18.33744049072265625 9.305622100830078125 -9999 -9999 11.806803703308105469 5.4470076560974121094 11.731566429138183594 17.650051116943359375 10.237029075622558594 7.7178120613098144531 6.6782336235046386719 -9999 -9999 -9999 -9999 -9999 
-9999 -9999 17.471210479736328125 12.221291542053222656 -9999 13.102758407592773438 11.340754508972167969 12.553355216979980469 -9999 -9999 -9999 -9999 11.252277374267578125 -9999 16.383327484130859375 -9999 -9999 -9999 -9999 -9999 -9999 -9999 12.927260398864746094 -9999 21.168548583984375 18.301259994506835938 9.9967699050903320312 2.0707044601440429688 1.1847851276397705078 5.3042354583740234375 1.4935240745544433594 5.9474091529846191406 6.2313542366027832031 1.3030425310134887695 -9999 5.4459795951843261719 7.7912554740905761719 13.451464653015136719 10.743993759155273438 -9999 17.366811752319335938 8.1536569595336914062 7.1701903343200683594 9.745349884033203125 11.706392288208007812 6.0685291290283203125 27.172451019287109375 -9999 9.4656724929809570312 8.186435699462890625 9.6419420242309570312 3.0538249015808105469 5.2918477058410644531 5.8540720939636230469 5.2181262969970703125 4.2248005867004394531 4.3699407577514648438 5.2903413772583007812 5.2891683578491210938 5.3624925613403320312 7.0126671791076660156 8.2108926773071289062 6.7919607162475585938 8.0100555419921875 6.9294137954711914062 4.3983526229858398438 4.62380218505859375 4.9796972274780273438 6.6653609275817871094 8.5054836273193359375 8.2030487060546875 8.1136980056762695312 7.61466217041015625 7.4326663017272949219 7.9733133316040039062 8.3487396240234375 8.7201642990112304688 3.8479568958282470703 1.8625099658966064453 5.2623419761657714844 2.517704010009765625 2.1234858036041259766 5.5652699470520019531 6.7056365013122558594 7.3543000221252441406 8.6280145645141601562 9.4941720962524414062 9.362514495849609375 9.0476436614990234375 8.4298505783081054688 7.7633447647094726562 7.4144234657287597656 5.3742566108703613281 25.589427947998046875 -9999 -9999 81.3271636962890625 70.320648193359375 -9999 3.3370361328125 1.3280187845230102539 8.063434600830078125 7.5043416023254394531 6.0746474266052246094 12.955395698547363281 12.533432960510253906 13.042385101318359375 9.7319250106811523438 7.2857141494750976562 9.4026327133178710938 13.796125411987304688 17.665195465087890625 13.916222572326660156 -9999 -9999 1.2325044870376586914 1.6397577524185180664 16.532001495361328125 19.7974395751953125 14.209478378295898438 5.06186676025390625 8.8585100173950195312 -9999 -9999 -9999 -9999 -9999 
-9999 -9999 -9999 -9999 -9999 -9999 -9999 -9999 -9999 -9999 -9999 -9999 -9999 -9999 -9999 -9999 11.369421958923339844 -9999 -9999 -9999 -9999 -9999 -9999 12.726083755493164062 10.815242767333984375 15.435511589050292969 5.0769062042236328125 1.3792899847030639648 7.8028426170349121094 5.2985720634460449219 4.3461394309997558594 1.3723140954971313477 10.338904380798339844 -9999 4.829376220703125 1.3236529827117919922 9.8346233367919921875 -9999 22.774852752685546875 17.628576278686523438 8.8973188400268554688 -9999 -9999 18.118326187133789062 13.719274520874023438 12.433259010314941406 13.334074020385742188 -9999 -9999 14.459166526794433594 13.5756988525390625 2.8912591934204101562 9.3940582275390625 9.1632537841796875 3.8684155941009521484 4.4481463432312011719 5.0724363327026367188 6.7830090522766113281 4.6614899635314941406 5.2096905708312988281 7.5124645233154296875 7.9190316200256347656 7.5917453765869140625 9.86757659912109375 7.7132706642150878906 4.813625335693359375 7.386463165283203125 5.8955826759338378906 4.0789923667907714844 7.7965993881225585938 7.5227036476135253906 7.5906586647033691406 8.4153814315795898438 8.9313707351684570312 8.4079494476318359375 7.17150115966796875 6.04522705078125 2.8680431842803955078 4.6757130622863769531 5.46721649169921875 6.1924967765808105469 6.5165419578552246094 6.0707731246948242188 7.5243244171142578125 8.7185373306274414062 8.7486572265625 9.3772630691528320312 9.6530828475952148438 9.098094940185546875 8.7780809402465820312 8.639190673828125 8.2899837493896484375 7.9004240036010742188 6.5031399726867675781 4.0615181922912597656 2.9361596107482910156 5.41629791259765625 5.7391676902770996094 3.0855214595794677734 7.864353179931640625 7.8764400482177734375 5.7040715217590332031 8.2468023300170898438 7.6464691162109375 2.6280467510223388672 26.224508285522460938 10.560014724731445312 9.5271196365356445312 12.372618675231933594 12.716373443603515625 14.18863677978515625 18.8741912841796875 2.2342088222503662109 -9999 4.2388110160827636719 7.7467980384826660156 7.3192224502563476562 20.481988906860351562 -9999 19.454645156860351562 7.4964842796325683594 -9999 -9999 15.321129798889160156 -9999 -9999 -9999 
-9999 10.449413299560546875 9.0713853836059570312 12.6602630615234375 -9999 -9999 -9999 -9999 -9999 -9999 -9999 -9999 11.704890251159667969 -9999 -9999 -9999 -9999 -9999 -9999 -9999 -9999 14.514127731323242188 15.654938697814941406 11.801106452941894531 9.0483570098876953125 10.327452659606933594 6.7249622344970703125 3.2728950977325439453 7.6520857810974121094 7.281978607177734375 2.6384310722351074219 10.146986961364746094 10.854136466979980469 11.670049667358398438 1.9793514013290405273 2.835605621337890625 6.9123816490173339844 12.187555313110351562 -9999 31.3331451416015625 10.171106338500976562 -9999 -9999 -9999 7.0734434127807617188 7.6214566230773925781 12.107567787170410156 17.862733840942382812 -9999 -9999 12.51108551025390625 2.3137068748474121094 4.83669281005859375 3.6802339553833007812 4.6891579627990722656 4.4549512863159179688 5.3218412399291992188 5.8176708221435546875 4.9343080520629882812 5.4991121292114257812 7.5934834480285644531 7.4582037925720214844 5.9633212089538574219 6.7450847625732421875 6.4712395668029785156 6.2808489799499511719 6.9350795745849609375 4.5374288558959960938 4.1134419441223144531 5.9337596893310546875 5.4569563865661621094 7.5646100044250488281 7.9851822853088378906 8.656768798828125 8.467273712158203125 6.183666229248046875 5.2903871536254882812 5.2592425346374511719 6.9117684364318847656 7.9062547683715820312 8.9628086090087890625 8.4840059280395507812 6.48725128173828125 8.407947540283203125 8.7113714218139648438 8.8140001296997070312 7.9758210182189941406 8.6051959991455078125 8.6677541732788085938 8.4554567337036132812 7.1390328407287597656 7.7970623970031738281 9.3654842376708984375 10.216393470764160156 8.0396108627319335938 5.9869127273559570312 5.4733557701110839844 5.5053334236145019531 5.0728049278259277344 5.6999788284301757812 7.1370606422424316406 5.7652950286865234375 6.6136050224304199219 5.8663735389709472656 5.1136841773986816406 5.4893007278442382812 8.4273176193237304688 7.9709339141845703125 9.7475948333740234375 12.971681594848632812 12.76923370361328125 13.127947807312011719 -9999 12.634552955627441406 5.2373623847961425781 8.3501806259155273438 6.0396595001220703125 14.086533546447753906 20.969516754150390625 15.060380935668945312 16.476766586303710938 -9999 -9999 18.724786758422851562 -9999 -9999 17.502796173095703125 
13.677895545959472656 15.504923820495605469 14.632550239562988281 -9999 -9999 -9999 -9999 -9999 -9999 -9999 16.702205657958984375 20.19255828857421875 14.70966339111328125 11.794154167175292969 10.37409210205078125 -9999 -9999 -9999 -9999 16.672170639038085938 16.182048797607421875 12.303660392761230469 13.555520057678222656 11.931652069091796875 6.875011444091796875 4.6317987442016601562 5.7149147987365722656 5.1414537429809570312 9.00396728515625 12.078121185302734375 11.12830352783203125 11.585486412048339844 8.8676958084106445312 16.480592727661132812 4.3288521766662597656 3.1175599098205566406 2.5773866176605224609 1.471309661865234375 -9999 -9999 -9999 15.03609466552734375 -9999 -9999 13.120706558227539062 6.8085961341857910156 12.468914031982421875 -9999 -9999 -9999 1.1855868101119995117 1.1455620527267456055 6.2213301658630371094 2.8894631862640380859 3.6976881027221679688 4.6148343086242675781 5.5298247337341308594 6.0715298652648925781 5.5349593162536621094 6.4738645553588867188 7.6469569206237792969 7.1372818946838378906 2.2606911659240722656 1.2563123703002929688 3.0142369270324707031 5.4068450927734375 4.6501555442810058594 7.3378138542175292969 6.6433134078979492188 6.7548685073852539062 4.5954389572143554688 7.3022613525390625 7.0442895889282226562 8.3963146209716796875 6.6839022636413574219 5.5930752754211425781 2.7755732536315917969 6.9479956626892089844 8.7317647933959960938 9.1152887344360351562 9.5471820831298828125 8.2238950729370117188 5.6293082237243652344 7.4359521865844726562 8.4654989242553710938 9.3983745574951171875 8.7886667251586914062 8.5359411239624023438 8.8614416122436523438 7.0719804763793945312 3.6152970790863037109 3.1440947055816650391 6.3705797195434570312 9.1709280014038085938 9.136936187744140625 7.6701483726501464844 5.17247772216796875 4.6666293144226074219 5.4381570816040039062 5.5045652389526367188 4.7201952934265136719 5.29285430908203125 5.3978605270385742188 5.6040835380554199219 8.1514129638671875 6.8708453178405761719 5.8480510711669921875 4.5454373359680175781 8.4548864364624023438 10.451161384582519531 10.253823280334472656 8.795398712158203125 -9999 4.6455206871032714844 3.577266693115234375 5.1479887962341308594 4.3494939804077148438 4.0821089744567871094 6.3926205635070800781 -9999 2.8117418289184570312 -9999 -9999 -9999 -9999 -9999 -9999 
-9999 -9999 -9999 -9999 -9999 -9999 -9999 -9999 16.062238693237304688 -9999 -9999 16.376224517822265625 -9999 -9999 -9999 -9999 1.4930404424667358398 -9999 -9999 -9999 16.612766265869140625 11.363725662231445312 7.2919917106628417969 8.1407384872436523438 5.3979539871215820312 4.8248043060302734375 7.8246378898620605469 5.4582543373107910156 8.6751050949096679688 12.240558624267578125 -9999 9.426845550537109375 2.2816333770751953125 -9999 1.0280071496963500977 1.233309626579284668 1.7394392490386962891 3.7047119140625 13.572417259216308594 -9999 15.893222808837890625 -9999 -9999 9.0065793991088867188 4.4602017402648925781 7.1402959823608398438 10.289313316345214844 14.132433891296386719 -9999 -9999 3.6537978649139404297 2.2310097217559814453 5.1280698776245117188 3.5467026233673095703 3.1062467098236083984 4.5590538978576660156 5.267368316650390625 5.4405918121337890625 5.6770496368408203125 6.4316372871398925781 7.1528611183166503906 6.4250721931457519531 2.9810876846313476562 5.3444538116455078125 5.2282209396362304688 1.4670689105987548828 4.4740457534790039062 7.18837738037109375 4.7805285453796386719 5.8764653205871582031 6.8865237236022949219 7.6227264404296875 7.4984774589538574219 7.4696354866027832031 6.5927338600158691406 6.8494977951049804688 7.2395381927490234375 8.2333726882934570312 7.9872951507568359375 9.3968601226806640625 9.3765707015991210938 8.5712156295776367188 7.9942216873168945312 5.4838347434997558594 7.2433352470397949219 8.8181324005126953125 9.0490560531616210938 9.2175092697143554688 9.1445646286010742188 6.2709641456604003906 2.1519918441772460938 2.2491106986999511719 5.3463883399963378906 8.1514759063720703125 8.664402008056640625 6.8068723678588867188 5.7379813194274902344 5.245128631591796875 6.6520233154296875 5.7853016853332519531 4.6731572151184082031 5.5857262611389160156 7.0858860015869140625 5.9189295768737792969 7.9791245460510253906 8.5679082870483398438 6.1839156150817871094 5.3584580421447753906 5.8613681793212890625 8.4827299118041992188 13.246499061584472656 8.815486907958984375 3.8845117092132568359 9.8217973709106445312 7.8297400474548339844 6.5653533935546875 1.8642096519470214844 1.6381576061248779297 4.7161641120910644531 16.871593475341796875 -9999 -9999 -9999 -9999 -9999 -9999 -9999 
-9999 -9999 -9999 -9999 -9999 -9999 -9999 -9999 22.007656097412109375 -9999 -9999 -9999 -9999 -9999 15.013204574584960938 -9999 -9999 -9999 -9999 -9999 -9999 13.594257354736328125 7.6599206924438476562 8.1629924774169921875 5.7626099586486816406 6.1799297332763671875 1.5505141019821166992 -9999 7.6110248565673828125 8.1092815399169921875 13.661360740661621094 9.5432376861572265625 1.1125137805938720703 1.5533176660537719727 5.459014892578125 3.73435211181640625 3.1122052669525146484 10.314642906188964844 14.259951591491699219 5.6130824089050292969 12.694810867309570312 8.7902545928955078125 10.066850662231445312 7.6484317779541015625 6.907806396484375 8.7971296310424804688 1.2750207185745239258 8.0741901397705078125 16.795894622802734375 13.721364974975585938 4.9680614471435546875 2.4051203727722167969 5.8506336212158203125 3.3037109375 3.2407460212707519531 4.2197709083557128906 4.4703416824340820312 5.3317503929138183594 6.8176264762878417969 7.103893280029296875 7.6271119117736816406 7.3529834747314453125 7.9725742340087890625 11.671240806579589844 11.5699005126953125 10.788226127624511719 3.3966794013977050781 5.7924294471740722656 2.5564825534820556641 5.7944812774658203125 7.312267303466796875 7.28253936767578125 6.5036420822143554688 6.5113210678100585938 6.6007246971130371094 6.1654791831970214844 8.1026182174682617188 9.1153888702392578125 7.9148244857788085938 8.2331476211547851562 8.7443017959594726562 7.948474884033203125 7.2409372329711914062 7.6066160202026367188 6.7665123939514160156 5.2007613182067871094 7.0056834220886230469 8.1323003768920898438 9.1152009963989257812 8.53564453125 7.5138330459594726562 6.5502161979675292969 5.5178890228271484375 8.0987825393676757812 7.9496746063232421875 5.9655861854553222656 6.8079919815063476562 5.8125681877136230469 7.0091981887817382812 6.4105458259582519531 5.6946687698364257812 5.5578036308288574219 5.8161163330078125 6.1233034133911132812 6.5355243682861328125 5.9030141830444335938 5.3221507072448730469 5.8850007057189941406 6.2699785232543945312 6.8915243148803710938 10.387949943542480469 5.789875030517578125 2.7417385578155517578 7.0697960853576660156 2.221904754638671875 5.5168771743774414062 1.8323177099227905273 2.6405446529388427734 16.572357177734375 -9999 -9999 34.879848480224609375 -9999 -9999 14.351315498352050781 -9999 -9999 
-9999 -9999 -9999 -9999 -9999 12.737162590026855469 -9999 -9999 -9999 -9999 -9999 -9999 -9999 -9999 -9999 -9999 -9999 -9999 -9999 -9999 -9999 8.7108831405639648438 5.4619946479797363281 -9999 4.8409695625305175781 2.5888864994049072266 1.6020778417587280273 7.6268181800842285156 3.8230905532836914062 5.7843585014343261719 7.1640315055847167969 -9999 11.516049385070800781 -9999 15.250165939331054688 5.7387776374816894531 3.9386351108551025391 8.3305463790893554688 10.120111465454101562 6.5378527641296386719 -9999 8.8232812881469726562 8.5928096771240234375 3.1338059902191162109 2.6602871417999267578 5.5095243453979492188 1.6650050878524780273 9.1386194229125976562 9.3371143341064453125 5.24060821533203125 3.4452750682830810547 1.0580803155899047852 6.0868024826049804688 3.6849415302276611328 4.5120034217834472656 4.6374568939208984375 5.6262331008911132812 6.3051738739013671875 6.4690556526184082031 5.5155076980590820312 7.481597900390625 7.5752797126770019531 6.6548480987548828125 1.3156764507293701172 -9999 2.7162835597991943359 4.7324199676513671875 5.2300357818603515625 6.276233673095703125 5.2618613243103027344 6.8832378387451171875 7.3523406982421875 7.9955167770385742188 8.15435791015625 7.7373056411743164062 7.0439887046813964844 8.9234876632690429688 9.202991485595703125 9.6037397384643554688 8.4016504287719726562 8.14574432373046875 8.7748651504516601562 7.9013161659240722656 7.2729830741882324219 6.6889681816101074219 5.9066934585571289062 7.0142526626586914062 7.1443123817443847656 7.8794226646423339844 8.7027111053466796875 9.7841768264770507812 8.4171915054321289062 5.1800456047058105469 7.6673426628112792969 8.2621212005615234375 7.5591673851013183594 7.9866914749145507812 8.0067415237426757812 7.781341552734375 7.7136249542236328125 7.1528067588806152344 7.2656407356262207031 6.3605070114135742188 5.3305859565734863281 6.0844283103942871094 6.1311092376708984375 5.4900088310241699219 5.1460590362548828125 7.5351057052612304688 6.628826141357421875 3.4869980812072753906 2.7918617725372314453 1.2537230253219604492 3.359607696533203125 1.1452044248580932617 5.4173312187194824219 3.8115236759185791016 5.595966339111328125 12.787484169006347656 -9999 12.229719161987304688 15.197546005249023438 -9999 -9999 -9999 -9999 -9999 
-9999 -9999 -9999 -9999 -9999 -9999 -9999 -9999 -9999 -9999 15.919436454772949219 15.887216567993164062 -9999 -9999 8.4590406417846679688 -9999 -9999 9.6338834762573242188 11.634690284729003906 9.2288055419921875 7.4294905662536621094 7.8253655433654785156 3.6687459945678710938 2.9392130374908447266 6.6025915145874023438 6.4333491325378417969 5.6865229606628417969 4.968658447265625 6.7949347496032714844 10.622939109802246094 10.010271072387695312 6.8002252578735351562 9.8497180938720703125 -9999 -9999 9.1013317108154296875 9.3787860870361328125 11.022957801818847656 6.5317883491516113281 9.9513111114501953125 4.3181614875793457031 6.8845338821411132812 4.1648159027099609375 1.3478810787200927734 1.9498611688613891602 1.5264172554016113281 4.0931172370910644531 5.8019165992736816406 2.6769168376922607422 8.4688863754272460938 3.6411874294281005859 2.1662542819976806641 4.9792919158935546875 3.1267938613891601562 5.6911859512329101562 5.2829709053039550781 6.563335418701171875 5.6242427825927734375 5.3660445213317871094 4.6103806495666503906 7.7819271087646484375 5.2139544486999511719 3.8536725044250488281 3.0113129615783691406 3.6394612789154052734 4.0722341537475585938 5.0376496315002441406 7.2597546577453613281 6.18206024169921875 5.0254306793212890625 6.6893382072448730469 7.3216571807861328125 6.901615142822265625 7.6638765335083007812 4.0975422859191894531 6.7927365303039550781 8.2315826416015625 8.9134349822998046875 9.23128509521484375 9.8527021408081054688 9.8166828155517578125 8.7426099777221679688 8.2778062820434570312 5.6474237442016601562 5.4879026412963867188 4.1518945693969726562 6.7096362113952636719 7.4106664657592773438 6.8259100914001464844 7.6702728271484375 9.6580781936645507812 9.0737352371215820312 8.7133855819702148438 8.7998714447021484375 8.02875518798828125 8.1848649978637695312 8.4074754714965820312 8.4543962478637695312 8.4626007080078125 8.2265195846557617188 7.9232463836669921875 7.6022891998291015625 6.5174775123596191406 5.713176727294921875 5.5345849990844726562 5.6605343818664550781 5.0275907516479492188 6.8650722503662109375 9.693813323974609375 7.8148627281188964844 5.3724799156188964844 6.1264996528625488281 7.2228789329528808594 5.3484025001525878906 6.3508710861206054688 6.6013951301574707031 5.2317099571228027344 4.789875030517578125 1.1210135221481323242 -9999 -9999 -9999 8.5112781524658203125 -9999 -9999 -9999 -9999 
-9999 -9999 -9999 -9999 -9999 -9999 -9999 -9999 -9999 11.2599029541015625 9.8471155166625976562 13.569989204406738281 -9999 -9999 -9999 8.5898370742797851562 -9999 8.0525827407836914062 8.8688745498657226562 4.3492226600646972656 3.3375837802886962891 4.3888578414916992188 5.2071657180786132812 3.0977056026458740234 6.0393471717834472656 2.4845533370971679688 6.3889026641845703125 8.673839569091796875 -9999 -9999 5.5030484199523925781 4.5742750167846679688 -9999 -9999 5.4620575904846191406 10.205005645751953125 -9999 -9999 11.589261054992675781 9.4208984375 7.5736927986145019531 6.1177334785461425781 2.5696740150451660156 2.4926607608795166016 4.2578783035278320312 2.6048309803009033203 1.0723861455917358398 2.9805288314819335938 3.3405480384826660156 6.7802128791809082031 4.5484261512756347656 6.8219461441040039062 4.6574048995971679688 7.0158190727233886719 13.360539436340332031 5.9141354560852050781 8.0794363021850585938 4.2035379409790039062 4.0211801528930664062 2.4462049007415771484 6.6894068717956542969 3.1281244754791259766 4.8330140113830566406 5.917812347412109375 5.6581621170043945312 1.6961658000946044922 1.3236787319183349609 6.816600799560546875 7.0929613113403320312 7.0727291107177734375 5.7176413536071777344 6.0217542648315429688 5.5896348953247070312 5.8143048286437988281 5.8187594413757324219 7.7070651054382324219 7.3412137031555175781 8.6737194061279296875 6.6720218658447265625 8.3412370681762695312 9.2025241851806640625 8.8393268585205078125 7.6423864364624023438 6.6635146141052246094 5.3332428932189941406 3.8536863327026367188 5.0917215347290039062 5.8408603668212890625 7.9086971282958984375 7.6662387847900390625 8.177173614501953125 9.3344411849975585938 9.057849884033203125 8.3947925567626953125 6.9590301513671875 7.6383728981018066406 7.5585174560546875 7.2333359718322753906 7.5658969879150390625 7.6995067596435546875 7.8792128562927246094 8.0056056976318359375 7.1926407814025878906 6.6057338714599609375 5.9458894729614257812 4.951290130615234375 4.9339046478271484375 6.2561507225036621094 7.5487875938415527344 7.6748175621032714844 6.8527245521545410156 7.36148834228515625 6.7868208885192871094 5.1759362220764160156 4.8402638435363769531 5.3038363456726074219 4.1571450233459472656 4.8610315322875976562 2.1084606647491455078 6.7052149772644042969 -9999 -9999 -9999 -9999 -9999 -9999 -9999 
-9999 15.917451858520507812 -9999 -9999 -9999 -9999 -9999 -9999 -9999 -9999 14.156940460205078125 -9999 -9999 11.045892715454101562 -9999 -9999 5.9536314010620117188 7.9903264045715332031 10.161400794982910156 5.1812224388122558594 7.0149812698364257812 7.8492035865783691406 6.9216208457946777344 2.0331447124481201172 2.5505602359771728516 3.1579377651214599609 4.1820111274719238281 1.2476922273635864258 11.411936759948730469 10.927224159240722656 8.7362585067749023438 -9999 4.883556365966796875 6.829021453857421875 3.2140038013458251953 10.111794471740722656 12.361557960510253906 4.44974517822265625 7.6431574821472167969 5.1400470733642578125 1.865027308464050293 4.1314187049865722656 3.3785076141357421875 4.1460781097412109375 4.5399584770202636719 4.4007883071899414062 1.2686030864715576172 1.7730937004089355469 1.0134916305541992188 4.0945391654968261719 10.003293037414550781 10.011860847473144531 4.7783875465393066406 1.8054856061935424805 9.1658945083618164062 9.6518602371215820312 3.2885351181030273438 1.0253508090972900391 1.388222813606262207 2.6756601333618164062 7.7491102218627929688 8.1290616989135742188 9.269100189208984375 9.2596731185913085938 5.1882367134094238281 5.0395426750183105469 4.2820100784301757812 6.6660656929016113281 7.4604687690734863281 7.543811798095703125 4.7739162445068359375 4.0087943077087402344 5.0383067131042480469 3.4148795604705810547 5.51512908935546875 8.3875513076782226562 7.7188234329223632812 7.971332550048828125 7.4055624008178710938 7.2470550537109375 8.3880395889282226562 8.040546417236328125 6.4614529609680175781 5.8364911079406738281 6.7671608924865722656 5.6768527030944824219 6.4705529212951660156 2.4120380878448486328 7.1381602287292480469 5.6859965324401855469 7.3909978866577148438 8.2006244659423828125 8.1337404251098632812 7.7129759788513183594 6.8510999679565429688 6.7044520378112792969 6.4967560768127441406 6.7460107803344726562 7.6552729606628417969 7.7205991744995117188 7.6636800765991210938 7.7943825721740722656 7.4409952163696289062 5.4804768562316894531 6.91622161865234375 6.3347468376159667969 6.1047329902648925781 6.6508126258850097656 6.7852983474731445312 6.3377976417541503906 6.4537372589111328125 7.6246457099914550781 7.0074391365051269531 4.2535853385925292969 4.3797903060913085938 4.5574960708618164062 3.0948622226715087891 1.3651348352432250977 4.4206604957580566406 3.7688384056091308594 8.7401800155639648438 17.464490890502929688 14.481427192687988281 -9999 -9999 -9999 -9999 
12.657434463500976562 -9999 -9999 -9999 -9999 -9999 -9999 -9999 -9999 -9999 -9999 -9999 -9999 -9999 -9999 -9999 4.4496545791625976562 5.342254638671875 -9999 11.326355934143066406 -9999 9.41704559326171875 6.8624615669250488281 1.1376744508743286133 4.9949169158935546875 8.5924673080444335938 2.0547628402709960938 4.5135202407836914062 6.5430507659912109375 3.8636229038238525391 4.408905029296875 9.633525848388671875 3.3512270450592041016 1.9786964654922485352 3.7575557231903076172 7.0762166976928710938 8.0759429931640625 5.9677710533142089844 11.402502059936523438 6.3547511100769042969 3.0310208797454833984 4.8322682380676269531 5.6012082099914550781 1.5921900272369384766 1.7213206291198730469 3.4535508155822753906 4.7511148452758789062 5.1300477981567382812 7.2506184577941894531 -9999 3.0419702529907226562 4.7152352333068847656 5.0640807151794433594 5.0256204605102539062 8.554840087890625 9.8807725906372070312 -9999 6.5094547271728515625 1.5085973739624023438 8.8000860214233398438 7.1910052299499511719 8.8910665512084960938 9.3655366897583007812 7.8614535331726074219 8.0935878753662109375 6.5221605300903320312 7.4238100051879882812 7.8651261329650878906 7.0187997817993164062 5.6812882423400878906 7.9444298744201660156 5.5230784416198730469 3.6497173309326171875 5.3132443428039550781 7.2407679557800292969 5.5898456573486328125 6.4506182670593261719 8.9224920272827148438 7.6282901763916015625 5.1633653640747070312 6.9572935104370117188 4.4311857223510742188 6.1487293243408203125 6.3313803672790527344 6.6567473411560058594 7.4724469184875488281 6.2601637840270996094 4.87255096435546875 7.5835595130920410156 6.8089447021484375 7.7879323959350585938 5.2591028213500976562 7.5329980850219726562 8.4389467239379882812 7.8787951469421386719 7.6262001991271972656 7.6704201698303222656 7.0589847564697265625 7.4888272285461425781 7.75762176513671875 7.5733232498168945312 7.6868915557861328125 7.2801847457885742188 6.6918249130249023438 6.3916039466857910156 6.2135558128356933594 6.0909991264343261719 6.2887415885925292969 6.8133568763732910156 6.5569028854370117188 4.6204776763916015625 6.9251422882080078125 6.9546952247619628906 4.4740033149719238281 4.7428450584411621094 4.3668141365051269531 6.2496347427368164062 -9999 -9999 7.8801441192626953125 9.2456102371215820312 18.556516647338867188 -9999 -9999 -9999 -9999 -9999 
-9999 -9999 -9999 -9999 -9999 -9999 -9999 -9999 -9999 10.663059234619140625 -9999 -9999 -9999 -9999 -9999 11.293498992919921875 11.35466766357421875 -9999 15.174242973327636719 6.8184666633605957031 2.049983978271484375 4.6815552711486816406 4.4306154251098632812 1.4002535343170166016 3.2405326366424560547 8.7728929519653320312 7.8136811256408691406 1.218526005744934082 3.1005883216857910156 2.8654406070709228516 5.0148367881774902344 2.3502550125122070312 2.8180334568023681641 4.2155690193176269531 4.929229736328125 7.8242168426513671875 9.59771728515625 5.1047301292419433594 5.5611066818237304688 7.8421392440795898438 5.0864934921264648438 5.3067202568054199219 2.1091361045837402344 3.9782290458679199219 2.3993878364562988281 1.5567650794982910156 5.6603913307189941406 7.0728831291198730469 7.9395017623901367188 6.3275141716003417969 8.0052537918090820312 1.9665290117263793945 5.818023681640625 3.1327562332153320312 4.2706270217895507812 7.599704742431640625 16.636522293090820312 5.1784873008728027344 5.1531949043273925781 8.0619497299194335938 7.7434744834899902344 8.81346893310546875 6.044406890869140625 23.312604904174804688 11.588603019714355469 7.0939402580261230469 6.2805938720703125 3.4780981540679931641 3.8110220432281494141 4.5401859283447265625 9.0972843170166015625 7.0437059402465820312 3.4215552806854248047 6.3552865982055664062 6.2492985725402832031 2.4799747467041015625 7.3837366104125976562 9.1423969268798828125 8.2488508224487304688 6.6772394180297851562 5.2894234657287597656 6.036724090576171875 7.7097811698913574219 7.7460522651672363281 7.9606204032897949219 8.2104625701904296875 7.8923168182373046875 7.5205988883972167969 5.4353690147399902344 6.7881865501403808594 7.3266034126281738281 6.4410576820373535156 7.6456332206726074219 8.2702312469482421875 8.2780294418334960938 7.6219153404235839844 7.1100316047668457031 6.9984846115112304688 7.1282763481140136719 7.4478878974914550781 6.0572710037231445312 6.88765716552734375 7.1150417327880859375 6.9555907249450683594 6.0894536972045898438 5.3078851699829101562 5.1051726341247558594 5.6939511299133300781 5.43157958984375 7.3425779342651367188 5.6152310371398925781 4.2255754470825195312 4.5464768409729003906 1.1406422853469848633 3.6878359317779541016 8.6582727432250976562 5.2078909873962402344 5.9678516387939453125 7.7724370956420898438 11.785542488098144531 17.955799102783203125 18.142049789428710938 22.556514739990234375 -9999 -9999 -9999 17.569919586181640625 
21.159313201904296875 -9999 -9999 -9999 -9999 -9999 -9999 -9999 -9999 -9999 -9999 11.281256675720214844 9.8868656158447265625 -9999 9.3995084762573242188 10.782290458679199219 12.00391387939453125 -9999 -9999 5.454853057861328125 2.0361733436584472656 2.8840155601501464844 5.2930130958557128906 1.5579172372817993164 6.6078839302062988281 5.6854991912841796875 1.6447848081588745117 3.4192130565643310547 3.5443949699401855469 1.9923908710479736328 4.3861804008483886719 3.3545868396759033203 1.2357184886932373047 2.4127995967864990234 6.5023617744445800781 4.1734051704406738281 12.930748939514160156 4.2115464210510253906 3.4071829319000244141 9.17282867431640625 8.6490602493286132812 5.684787750244140625 10.109416961669921875 10.781524658203125 3.5358245372772216797 5.6481466293334960938 3.7568156719207763672 3.6600649356842041016 1.3243163824081420898 6.3318495750427246094 -9999 16.869230270385742188 -9999 4.9124536514282226562 4.52765655517578125 8.5212278366088867188 8.3002147674560546875 7.8024888038635253906 7.6932778358459472656 7.578609466552734375 7.3801250457763671875 8.4170484542846679688 17.101606369018554688 -9999 3.9321217536926269531 9.2057399749755859375 6.3838591575622558594 1.0579227209091186523 4.7981648445129394531 5.6930975914001464844 6.9237260818481445312 2.3302474021911621094 5.2345681190490722656 7.326152801513671875 7.58351898193359375 6.8348407745361328125 8.4869203567504882812 7.9951214790344238281 7.5199785232543945312 4.4637608528137207031 4.4298381805419921875 6.4336872100830078125 6.1884593963623046875 6.9287748336791992188 7.5152750015258789062 6.2530198097229003906 10.23537445068359375 9.9832868576049804688 8.2836475372314453125 8.5511693954467773438 8.3161630630493164062 7.70148468017578125 7.91500091552734375 8.2080173492431640625 8.0311594009399414062 7.8401865959167480469 7.6831350326538085938 7.5905408859252929688 6.6262898445129394531 7.5743618011474609375 7.4065198898315429688 6.9423880577087402344 7.7580790519714355469 6.440013885498046875 4.7129263877868652344 6.4050540924072265625 6.8614916801452636719 6.4317345619201660156 4.8057088851928710938 5.7336759567260742188 5.1015372276306152344 4.16471099853515625 4.9028182029724121094 8.4633703231811523438 8.6829891204833984375 10.439835548400878906 10.998824119567871094 12.341876983642578125 13.792665481567382812 1.3991280794143676758 15.27387237548828125 9.360485076904296875 -9999 -9999 14.907764434814453125 10.629669189453125 11.301229476928710938 
-9999 -9999 -9999 -9999 -9999 22.420440673828125 -9999 -9999 -9999 -9999 -9999 -9999 11.152530670166015625 -9999 4.5202875137329101562 6.4672436714172363281 -9999 10.354612350463867188 12.610225677490234375 9.027614593505859375 6.4888696670532226562 2.759075164794921875 3.3329114913940429688 1.4637043476104736328 5.85713958740234375 8.6290311813354492188 8.5069322586059570312 2.0298547744750976562 1.6080316305160522461 6.7394642829895019531 11.331409454345703125 15.00197601318359375 1.6889044046401977539 4.3658242225646972656 6.147991180419921875 6.2747807502746582031 -9999 9.2875795364379882812 3.4083180427551269531 10.369701385498046875 4.0961122512817382812 2.0817396640777587891 10.2523193359375 2.0461323261260986328 5.0124964714050292969 5.9212045669555664062 5.7217731475830078125 5.3864569664001464844 2.5297477245330810547 -9999 -9999 -9999 1.4357244968414306641 8.6611108779907226562 7.2636065483093261719 7.8315434455871582031 8.3057909011840820312 7.9904260635375976562 7.7658557891845703125 3.6894822120666503906 1.0787632465362548828 2.8495054244995117188 6.800136566162109375 -9999 3.39308929443359375 7.4315485954284667969 8.38226318359375 7.3800959587097167969 2.0451841354370117188 6.2306447029113769531 16.706815719604492188 8.2877511978149414062 5.2293915748596191406 6.9244441986083984375 6.2373223304748535156 5.4169774055480957031 7.1714191436767578125 7.4871335029602050781 7.2136507034301757812 5.8854823112487792969 5.0587134361267089844 4.9399175643920898438 4.8969588279724121094 4.9908318519592285156 5.6854410171508789062 8.1298313140869140625 13.937001228332519531 11.939694404602050781 10.847466468811035156 8.8757801055908203125 8.2610015869140625 8.4298343658447265625 7.5784978866577148438 7.8571300506591796875 7.9688057899475097656 7.82863616943359375 8.1275424957275390625 7.0193657875061035156 6.1341991424560546875 7.4509005546569824219 7.9819936752319335938 8.3004369735717773438 8.2123613357543945312 7.0744638442993164062 5.9967284202575683594 6.161922454833984375 6.0051941871643066406 6.3382711410522460938 6.1881237030029296875 6.5282230377197265625 5.9520707130432128906 4.2710900306701660156 3.5920956134796142578 6.13339996337890625 7.9734020233154296875 9.6726236343383789062 9.4810581207275390625 9.9857511520385742188 10.086574554443359375 4.7050051689147949219 8.9437303543090820312 10.836217880249023438 -9999 20.883359909057617188 13.492626190185546875 13.285456657409667969 7.1205525398254394531 
-9999 -9999 -9999 -9999 -9999 -9999 -9999 -9999 -9999 13.234738349914550781 -9999 14.541777610778808594 12.115994453430175781 8.9739122390747070312 7.015026092529296875 9.5039663314819335938 10.273217201232910156 8.780757904052734375 7.1990008354187011719 4.2897214889526367188 9.9372587203979492188 1.0231815576553344727 1.6370730400085449219 2.0362923145294189453 -9999 -9999 17.297220230102539062 -9999 -9999 -9999 6.8403253555297851562 9.2650842666625976562 3.2208127975463867188 1.7021350860595703125 9.7848386764526367188 8.4858350753784179688 12.819972038269042969 15.779557228088378906 10.84326171875 -9999 7.5257248878479003906 8.0627088546752929688 13.376675605773925781 3.4860491752624511719 1.8945646286010742188 2.1897113323211669922 4.9635853767395019531 5.5694417953491210938 4.0635638236999511719 13.609577178955078125 12.996063232421875 9.650379180908203125 4.885955810546875 7.6510562896728515625 5.1885766983032226562 11.184429168701171875 15.233560562133789062 -9999 2.3512635231018066406 5.3279728889465332031 -9999 7.75969696044921875 -9999 5.0479788780212402344 5.2431240081787109375 3.4247457981109619141 5.995208740234375 6.775577545166015625 -9999 6.3794374465942382812 8.4074106216430664062 4.112056732177734375 5.0802149772644042969 5.3451781272888183594 2.3209772109985351562 3.3827972412109375 6.8597345352172851562 7.3259253501892089844 6.2107367515563964844 6.4270768165588378906 4.9182238578796386719 4.6375174522399902344 6.8174052238464355469 8.608821868896484375 9.6035356521606445312 5.8026285171508789062 14.481497764587402344 16.481847763061523438 12.015341758728027344 9.8106021881103515625 8.1047735214233398438 8.904876708984375 8.1929502487182617188 7.9118251800537109375 7.4746136665344238281 7.4555454254150390625 8.139461517333984375 7.1619715690612792969 6.894817352294921875 8.0714673995971679688 8.4487066268920898438 8.647792816162109375 8.0845689773559570312 7.4495830535888671875 6.7051534652709960938 5.8159937858581542969 5.4130072593688964844 6.8906865119934082031 6.8536310195922851562 6.5187363624572753906 6.2957186698913574219 5.1638965606689453125 4.5262799263000488281 7.4097776412963867188 7.9155740737915039062 9.87017059326171875 9.032291412353515625 1.7014861106872558594 2.0084600448608398438 2.5349702835083007812 5.4287576675415039062 6.8789067268371582031 9.0324649810791015625 16.815042495727539062 23.386915206909179688 19.993091583251953125 13.792536735534667969 
-9999 -9999 -9999 -9999 -9999 -9999 -9999 8.910617828369140625 10.689013481140136719 -9999 4.1274943351745605469 3.7124845981597900391 10.859273910522460938 9.5440759658813476562 5.6826539039611816406 6.3591289520263671875 10.05384063720703125 5.2328257560729980469 3.3161756992340087891 1.6166063547134399414 5.5486154556274414062 9.1903171539306640625 5.9880919456481933594 8.8456544876098632812 6.5221395492553710938 10.389792442321777344 12.732575416564941406 12.702646255493164062 8.033771514892578125 11.788127899169921875 4.5922617912292480469 1.7207456827163696289 3.4330012798309326172 2.7217891216278076172 3.8235437870025634766 -9999 4.5195913314819335938 9.23736572265625 14.13887786865234375 4.9430866241455078125 4.3515405654907226562 9.0859470367431640625 9.26627349853515625 9.3306035995483398438 8.8978061676025390625 5.8590245246887207031 2.3094766139984130859 5.1102185249328613281 6.1009268760681152344 8.7572498321533203125 -9999 4.087520599365234375 5.5861392021179199219 6.2377362251281738281 1.5805072784423828125 22.636981964111328125 -9999 15.085435867309570312 13.238206863403320312 8.885524749755859375 3.2619974613189697266 7.6858530044555664062 -9999 24.038797378540039062 12.115328788757324219 10.917484283447265625 4.2039656639099121094 5.75595855712890625 8.1805028915405273438 1.2056534290313720703 5.298587799072265625 4.1797175407409667969 4.3663606643676757812 2.7910876274108886719 1.989748835563659668 3.4438989162445068359 7.0764245986938476562 7.0563821792602539062 7.2237634658813476562 5.2276639938354492188 4.6118450164794921875 6.8289332389831542969 7.8549952507019042969 9.5157470703125 8.6829853057861328125 7.237766265869140625 -9999 11.08095550537109375 12.218931198120117188 10.107335090637207031 8.2724828720092773438 8.9993877410888671875 8.4284944534301757812 7.6660737991333007812 6.65514373779296875 6.6762461662292480469 8.0730915069580078125 8.1337671279907226562 8.7225999832153320312 8.8162870407104492188 8.337490081787109375 8.2106733322143554688 7.5956201553344726562 7.7341279983520507812 6.3832139968872070312 5.536479949951171875 5.6587738990783691406 6.6086187362670898438 5.8877420425415039062 4.8529205322265625 4.5265259742736816406 7.6084523200988769531 6.0060882568359375 7.3569607734680175781 7.8936514854431152344 9.2468318939208984375 5.0978302955627441406 6.1442270278930664062 4.9146451950073242188 2.9255075454711914062 3.2264726161956787109 4.8487629890441894531 2.7735209465026855469 6.4796509742736816406 22.070835113525390625 16.816844940185546875 11.473742485046386719 
-9999 -9999 -9999 -9999 -9999 -9999 6.7050685882568359375 2.1050515174865722656 7.2999358177185058594 10.254415512084960938 2.9596014022827148438 3.6862289905548095703 9.493633270263671875 8.2909669876098632812 6.9129729270935058594 9.984035491943359375 7.0474309921264648438 2.0024807453155517578 3.0590147972106933594 26.21956634521484375 8.2605981826782226562 4.5937705039978027344 8.2379789352416992188 -9999 7.0246376991271972656 7.87787628173828125 -9999 11.7345123291015625 6.1903924942016601562 -9999 12.560914993286132812 4.7415981292724609375 7.4062471389770507812 3.77545166015625 3.966342926025390625 3.6796677112579345703 4.97293853759765625 10.515421867370605469 11.012297630310058594 4.5054831504821777344 2.5848784446716308594 6.9092392921447753906 12.8409271240234375 7.3545384407043457031 8.3116636276245117188 16.923366546630859375 12.622955322265625 1.0889723300933837891 4.7464547157287597656 4.7301273345947265625 38.097156524658203125 8.35002899169921875 4.4414577484130859375 4.5762548446655273438 1.655527949333190918 -9999 -9999 10.550767898559570312 9.4298524856567382812 3.2012193202972412109 7.2907290458679199219 3.3938894271850585938 -9999 4.970027923583984375 10.833731651306152344 10.364690780639648438 6.8989462852478027344 4.0504584312438964844 2.2288293838500976562 4.0363478660583496094 6.6369657516479492188 4.32833099365234375 3.7180697917938232422 1.1448866128921508789 3.3054153919219970703 3.2645757198333740234 7.3292369842529296875 6.9772715568542480469 6.2523050308227539062 11.510428428649902344 7.6814188957214355469 7.5143251419067382812 8.2536191940307617188 9.7100744247436523438 10.198469161987304688 11.1359100341796875 12.012667655944824219 10.835484504699707031 10.865948677062988281 9.8794698715209960938 8.8278522491455078125 9.2826251983642578125 9.2761297225952148438 8.7697238922119140625 7.9966211318969726562 7.8733859062194824219 8.1372890472412109375 6.8762040138244628906 7.7452435493469238281 7.8915042877197265625 7.5063481330871582031 7.9294505119323730469 7.6151294708251953125 6.5624194145202636719 5.6205625534057617188 5.6244454383850097656 5.8653206825256347656 5.4497914314270019531 5.9249014854431152344 4.4976572990417480469 2.7783234119415283203 6.4114499092102050781 6.1940093040466308594 6.2706131935119628906 6.3536343574523925781 8.5075063705444335938 8.4445257186889648438 3.5748312473297119141 9.7654552459716796875 15.351393699645996094 9.6306200027465820312 4.47693634033203125 7.6349673271179199219 9.8427648544311523438 -9999 -9999 -9999 
8.7566118240356445312 -9999 -9999 10.811146736145019531 9.4951009750366210938 4.2594690322875976562 6.9867615699768066406 5.5025396347045898438 7.5947484970092773438 9.7598524093627929688 6.245269775390625 9.1873445510864257812 8.0431156158447265625 11.74663543701171875 10.797410011291503906 8.5077867507934570312 1.0834593772888183594 1.3345648050308227539 4.1262950897216796875 21.907670974731445312 -9999 8.9279718399047851562 2.8798906803131103516 7.9371333122253417969 1.5205864906311035156 4.001789093017578125 -9999 -9999 -9999 -9999 7.0808963775634765625 7.9711408615112304688 -9999 6.5255780220031738281 7.6795210838317871094 4.0482621192932128906 3.9210789203643798828 8.2482328414916992188 12.925630569458007812 7.2749681472778320312 1.362357020378112793 -9999 10.733593940734863281 5.4720740318298339844 25.957378387451171875 20.868650436401367188 -9999 13.316212654113769531 -9999 4.2728285789489746094 6.4337306022644042969 5.5610227584838867188 -9999 -9999 -9999 -9999 -9999 -9999 -9999 2.3202385902404785156 7.1412262916564941406 8.9801616668701171875 6.095226287841796875 10.2733306884765625 3.4826021194458007812 3.2744739055633544922 2.3547506332397460938 1.8414674997329711914 6.3300280570983886719 4.2501845359802246094 4.1695704460144042969 3.7586648464202880859 5.2417478561401367188 2.4453969001770019531 1.7773877382278442383 3.5944218635559082031 9.453868865966796875 9.8675470352172851562 9.5389614105224609375 13.948163986206054688 5.56667327880859375 6.4599518775939941406 7.8722462654113769531 8.718975067138671875 10.934748649597167969 10.928584098815917969 10.240154266357421875 9.37728118896484375 9.8144369125366210938 7.8568005561828613281 7.6678519248962402344 9.2045221328735351562 9.3106470108032226562 8.7247419357299804688 7.1195511817932128906 8.3904294967651367188 8.5123043060302734375 8.678249359130859375 7.9816031455993652344 7.488368988037109375 7.1723237037658691406 7.1360039710998535156 7.6924262046813964844 6.8002982139587402344 6.1940827369689941406 6.5576295852661132812 7.6742653846740722656 5.2897143363952636719 2.3879590034484863281 1.5948457717895507812 4.0692238807678222656 4.8829312324523925781 4.389965057373046875 6.0346741676330566406 8.6657352447509765625 6.5274839401245117188 8.9119615554809570312 12.886240005493164062 2.5289850234985351562 11.580516815185546875 -9999 -9999 12.974755287170410156 -9999 -9999 -9999 -9999 
10.593135833740234375 13.520373344421386719 -9999 7.5271229743957519531 3.9614121913909912109 7.0267457962036132812 5.3254423141479492188 6.7190990447998046875 2.3805482387542724609 -9999 4.7369699478149414062 3.0625720024108886719 10.714874267578125 -9999 8.2136430740356445312 6.56786346435546875 3.8399183750152587891 1.0382583141326904297 2.417858123779296875 2.4036257266998291016 10.829449653625488281 18.462677001953125 11.098787307739257812 4.9977903366088867188 5.3422288894653320312 3.1704232692718505859 2.5927135944366455078 6.5931158065795898438 20.885082244873046875 -9999 10.849460601806640625 18.645250320434570312 8.0419034957885742188 8.9857931137084960938 7.9759984016418457031 23.586383819580078125 15.049951553344726562 5.3381304740905761719 9.320911407470703125 11.12176513671875 7.5528821945190429688 6.093051910400390625 7.9434142112731933594 10.859427452087402344 1.8784886598587036133 7.2440309524536132812 -9999 -9999 -9999 2.2426917552947998047 6.9867520332336425781 3.5884957313537597656 -9999 -9999 -9999 -9999 -9999 -9999 17.116237640380859375 7.9366827011108398438 7.3566656112670898438 5.9745397567749023438 6.5311279296875 5.6010313034057617188 2.0730025768280029297 2.9726133346557617188 4.3747110366821289062 6.4954071044921875 5.1303958892822265625 6.4700484275817871094 5.7238068580627441406 6.7789959907531738281 6.7705221176147460938 4.8855276107788085938 4.6424074172973632812 8.1622114181518554688 8.3489637374877929688 8.4770116806030273438 10.692542076110839844 6.8152866363525390625 4.4805378913879394531 7.1505937576293945312 7.9137301445007324219 7.3346347808837890625 7.9782886505126953125 7.0173296928405761719 5.7838978767395019531 5.0603499412536621094 6.4775938987731933594 7.4043874740600585938 8.6363439559936523438 9.4360685348510742188 8.720233917236328125 6.7775311470031738281 4.2664637565612792969 7.8418607711791992188 9.3667249679565429688 8.5901613235473632812 7.9981350898742675781 8.1676721572875976562 7.0623006820678710938 6.4055590629577636719 8.1133203506469726562 7.6304721832275390625 6.3993792533874511719 5.0151925086975097656 4.4711456298828125 1.5465108156204223633 2.6871278285980224609 8.0432071685791015625 5.1563777923583984375 3.5505969524383544922 3.0314400196075439453 4.0482721328735351562 5.7569065093994140625 5.8722772598266601562 6.3494381904602050781 8.046382904052734375 6.6540842056274414062 8.1581354141235351562 -9999 -9999 -9999 -9999 -9999 -9999 -9999 
11.19055938720703125 10.023390769958496094 8.7842121124267578125 2.6634743213653564453 8.0227937698364257812 9.3199319839477539062 7.5617003440856933594 4.0522351264953613281 6.5383586883544921875 7.4870104789733886719 4.8393201828002929688 1.9723165035247802734 8.1643457412719726562 10.369170188903808594 8.5351953506469726562 11.8289947509765625 7.318050384521484375 7.5333333015441894531 1.7288727760314941406 4.6668314933776855469 -9999 19.979694366455078125 -9999 4.5096406936645507812 5.2534804344177246094 6.3931226730346679688 5.9205579757690429688 10.276391029357910156 -9999 -9999 11.28446197509765625 -9999 14.2834320068359375 7.3244409561157226562 5.0187563896179199219 5.3388266563415527344 11.136075973510742188 11.693730354309082031 11.894415855407714844 17.068742752075195312 12.673232078552246094 8.1565237045288085938 6.5501713752746582031 5.1133251190185546875 1.6888451576232910156 3.168521881103515625 11.744391441345214844 18.936798095703125 -9999 -9999 7.1434855461120605469 8.5566015243530273438 5.3336801528930664062 1.5143607854843139648 -9999 -9999 1.2395442724227905273 6.4995007514953613281 9.2597503662109375 9.4470777511596679688 7.3175821304321289062 7.0860686302185058594 7.5676622390747070312 5.1671833992004394531 3.2457330226898193359 1.2294944524765014648 3.0917992591857910156 8.2155733108520507812 6.3457660675048828125 5.5069837570190429688 5.3706116676330566406 7.3319921493530273438 6.0184245109558105469 9.3404150009155273438 7.1811952590942382812 7.6335897445678710938 7.4782176017761230469 9.9053163528442382812 10.706734657287597656 6.6631913185119628906 5.0479946136474609375 5.5386538505554199219 6.1172499656677246094 5.4943380355834960938 5.6718115806579589844 6.0106601715087890625 6.3764290809631347656 6.4474463462829589844 6.2422909736633300781 7.3062410354614257812 7.7888865470886230469 8.4925708770751953125 8.449066162109375 7.5246796607971191406 5.8066573143005371094 7.707241058349609375 8.6790800094604492188 8.498691558837890625 8.24193572998046875 8.692829132080078125 7.663280487060546875 6.6650681495666503906 6.6022028923034667969 6.9759154319763183594 6.29225921630859375 4.7361726760864257812 4.8351068496704101562 1.4639643430709838867 5.2172236442565917969 6.8711667060852050781 5.5269837379455566406 5.5657191276550292969 1.6814787387847900391 1.6241157054901123047 1.6018927097320556641 3.3247394561767578125 4.2936911582946777344 7.4379839897155761719 8.0601663589477539062 7.2084293365478515625 -9999 -9999 -9999 -9999 -9999 -9999 -9999 
-9999 -9999 39.647548675537109375 6.7100491523742675781 4.6148438453674316406 5.0148754119873046875 7.4974842071533203125 33.466602325439453125 31.58972930908203125 1.8902889490127563477 2.8627214431762695312 6.49039459228515625 10.616971969604492188 15.501680374145507812 13.392512321472167969 -9999 -9999 9.2736501693725585938 3.7495584487915039062 7.5181608200073242188 14.344063758850097656 -9999 -9999 -9999 1.4348969459533691406 4.6647043228149414062 4.0843367576599121094 7.6175980567932128906 6.8461565971374511719 12.717408180236816406 9.225894927978515625 -9999 -9999 9.5140047073364257812 1.3132997751235961914 1.5752377510070800781 4.4199848175048828125 -9999 15.72293853759765625 8.7038564682006835938 7.4275994300842285156 7.1362519264221191406 1.4575470685958862305 1.8292984962463378906 1.7399209737777709961 3.2790861129760742188 9.0649251937866210938 9.6529951095581054688 13.564957618713378906 6.1383848190307617188 4.1163163185119628906 4.1151123046875 4.8068499565124511719 5.8947129249572753906 1.2710336446762084961 -9999 7.5875744819641113281 9.6340017318725585938 9.6867914199829101562 8.9743032455444335938 9.0671033859252929688 7.6767854690551757812 6.57407379150390625 5.45478057861328125 4.9186940193176269531 3.5099351406097412109 5.1172056198120117188 8.0894794464111328125 8.8381719589233398438 9.6049518585205078125 1.6476012468338012695 1.9701217412948608398 4.6784281730651855469 8.022068023681640625 9.26428985595703125 9.0316705703735351562 7.081821441650390625 9.1277723312377929688 10.024181365966796875 7.7554478645324707031 6.5182251930236816406 6.0543766021728515625 3.7225654125213623047 6.4458684921264648438 6.4223575592041015625 6.8120026588439941406 7.1349048614501953125 6.2585043907165527344 5.6583628654479980469 6.9782228469848632812 7.7158980369567871094 9.1451654434204101562 8.3956623077392578125 8.4373369216918945312 6.522960662841796875 3.1526210308074951172 6.8034925460815429688 7.5636034011840820312 9.1519412994384765625 8.3348236083984375 7.8860325813293457031 6.6935496330261230469 6.0433878898620605469 5.7968325614929199219 7.2083187103271484375 6.4315624237060546875 5.4451165199279785156 2.7464246749877929688 3.0049479007720947266 5.1961712837219238281 7.148681640625 5.7206025123596191406 4.3572726249694824219 1.6945480108261108398 2.0823681354522705078 1.1098380088806152344 7.766101837158203125 1.3051279783248901367 5.0929732322692871094 13.557175636291503906 -9999 -9999 -9999 -9999 -9999 -9999 10.233219146728515625 
-9999 -9999 -9999 21.584196090698242188 5.2419486045837402344 7.7788710594177246094 7.8081207275390625 -9999 -9999 -9999 -9999 14.449384689331054688 18.521022796630859375 14.681323051452636719 10.530861854553222656 11.833863258361816406 -9999 15.768780708312988281 12.698405265808105469 10.0277557373046875 12.414642333984375 -9999 -9999 -9999 -9999 6.5449547767639160156 1.390263676643371582 4.8739566802978515625 11.090150833129882812 15.943922996520996094 13.137149810791015625 14.439595222473144531 4.0804166793823242188 3.5385942459106445312 8.0757017135620117188 8.7171840667724609375 8.7365665435791015625 -9999 5.6798052787780761719 2.4083909988403320312 7.9495329856872558594 8.0305852890014648438 2.4632511138916015625 8.381504058837890625 6.4015736579895019531 3.0909721851348876953 3.4706227779388427734 3.3892660140991210938 7.7808976173400878906 8.9871082305908203125 2.1757323741912841797 4.1976761817932128906 5.5408563613891601562 6.5549340248107910156 6.7638039588928222656 -9999 6.5259079933166503906 8.0209207534790039062 6.5594439506530761719 8.9633302688598632812 8.6468458175659179688 6.4382925033569335938 4.1038980484008789062 3.1666243076324462891 1.002719879150390625 4.0620775222778320312 6.149021148681640625 7.1926975250244140625 5.8910756111145019531 2.4252183437347412109 4.98003387451171875 4.7493839263916015625 3.3540935516357421875 7.8356804847717285156 10.088926315307617188 9.8988771438598632812 9.3563718795776367188 8.7574443817138671875 8.8281850814819335938 7.4049921035766601562 7.3910946846008300781 6.0083789825439453125 3.6040484905242919922 7.0677657127380371094 7.0508680343627929688 6.0985474586486816406 6.4420247077941894531 6.5170383453369140625 6.7347378730773925781 8.593017578125 10.344519615173339844 10.065203666687011719 8.4623661041259765625 2.9120955467224121094 1.3800117969512939453 1.1215058565139770508 4.2391152381896972656 7.7141575813293457031 8.4762277603149414062 8.272613525390625 7.1940631866455078125 6.2777791023254394531 5.9090867042541503906 7.0476994514465332031 7.0637969970703125 6.2938342094421386719 6.0901684761047363281 5.5836324691772460938 5.7598981857299804688 5.9782443046569824219 6.4193897247314453125 7.1862902641296386719 2.2945575714111328125 2.1137406826019287109 3.9198749065399169922 5.0115780830383300781 10.607295036315917969 8.7113018035888671875 6.4539675712585449219 11.827013015747070312 -9999 -9999 -9999 -9999 -9999 -9999 -9999 
-9999 -9999 -9999 4.6278109550476074219 6.8471665382385253906 14.227140426635742188 14.295000076293945312 4.6355237960815429688 5.1196932792663574219 6.1934914588928222656 -9999 -9999 17.6253509521484375 19.512418746948242188 17.371259689331054688 16.9328765869140625 12.871469497680664062 -9999 -9999 -9999 -9999 -9999 -9999 -9999 -9999 -9999 -9999 33.903148651123046875 11.457329750061035156 14.620973587036132812 14.654209136962890625 -9999 2.9121494293212890625 19.445026397705078125 -9999 15.016877174377441406 7.603702545166015625 -9999 10.207541465759277344 7.2092785835266113281 16.482069015502929688 15.172247886657714844 4.2951364517211914062 8.6067743301391601562 7.9000449180603027344 7.8457212448120117188 7.7982730865478515625 6.5978999137878417969 3.6171617507934570312 -9999 4.8163242340087890625 5.4964885711669921875 6.31528472900390625 7.91866302490234375 7.8155679702758789062 -9999 3.5718779563903808594 3.2918286323547363281 1.3016639947891235352 3.4948544502258300781 7.3795714378356933594 7.0182285308837890625 6.4749617576599121094 5.2908492088317871094 5.4148373603820800781 5.0542144775390625 4.2917451858520507812 2.5297224521636962891 1.1683646440505981445 2.5805425643920898438 5.7562160491943359375 5.3054480552673339844 4.0030298233032226562 4.5478186607360839844 7.5172986984252929688 10.741937637329101562 14.488035202026367188 10.385943412780761719 8.8359441757202148438 6.6413326263427734375 5.5894756317138671875 7.1831383705139160156 6.8740658760070800781 7.0922379493713378906 6.76678466796875 6.5523815155029296875 7.2248740196228027344 6.6164455413818359375 4.8797016143798828125 10.727077484130859375 13.410913467407226562 9.7480993270874023438 8.381076812744140625 6.7740302085876464844 7.7505955696105957031 3.0846264362335205078 2.8578767776489257812 5.7957262992858886719 7.0539655685424804688 7.5137972831726074219 5.8084568977355957031 1.0373367071151733398 2.9103169441223144531 7.4680681228637695312 7.7462611198425292969 6.9311962127685546875 5.5252294540405273438 4.4967045783996582031 6.2932119369506835938 7.117008209228515625 5.2320904731750488281 4.6531109809875488281 4.5719175338745117188 1.8643556833267211914 7.8390302658081054688 11.701071739196777344 17.255853652954101562 2.3553555011749267578 1.1397353410720825195 3.9874024391174316406 13.728971481323242188 -9999 -9999 -9999 -9999 -9999 -9999 
-9999 9.3801660537719726562 -9999 23.544603347778320312 1.1651767492294311523 6.799793243408203125 7.8823418617248535156 9.3885622024536132812 6.1942229270935058594 5.86501312255859375 7.2733254432678222656 7.5934510231018066406 6.9668760299682617188 -9999 -9999 15.881563186645507812 -9999 14.593202590942382812 -9999 -9999 -9999 -9999 -9999 -9999 -9999 -9999 -9999 -9999 9.822376251220703125 11.643335342407226562 13.934851646423339844 -9999 9.9936885833740234375 8.1325864791870117188 16.866380691528320312 14.608533859252929688 -9999 13.38222503662109375 9.2397708892822265625 14.592283248901367188 19.46710205078125 20.279047012329101562 1.9176959991455078125 6.1829791069030761719 9.26291656494140625 9.3008871078491210938 7.6484766006469726562 6.8096256256103515625 1.7927660942077636719 3.9779648780822753906 5.2001733779907226562 6.0097594261169433594 6.6901178359985351562 9.1304931640625 6.3964533805847167969 4.6131181716918945312 8.5291614532470703125 6.8109526634216308594 3.9774978160858154297 2.0949826240539550781 4.7569260597229003906 6.9421358108520507812 8.1035280227661132812 5.8770775794982910156 6.8544106483459472656 5.5992536544799804688 6.0323019027709960938 2.7568194866180419922 20.246988296508789062 2.9915838241577148438 8.9989252090454101562 4.2350988388061523438 3.4287929534912109375 3.2073957920074462891 3.5093445777893066406 6.0329141616821289062 6.5348401069641113281 9.740985870361328125 8.5682878494262695312 3.4014210700988769531 6.5534658432006835938 7.6054005622863769531 7.9203619956970214844 6.3922543525695800781 6.7571797370910644531 6.6843242645263671875 7.24338531494140625 8.2279367446899414062 8.0210323333740234375 9.698211669921875 10.060744285583496094 9.2427511215209960938 8.1261014938354492188 6.3660979270935058594 2.9922816753387451172 4.9593510627746582031 6.0493636131286621094 4.8252315521240234375 4.071941375732421875 7.7448759078979492188 8.6472196578979492188 5.158992767333984375 6.6851925849914550781 5.9962229728698730469 6.0580992698669433594 6.7227435111999511719 6.1433515548706054688 6.2870125770568847656 5.6929874420166015625 6.8063378334045410156 5.5365781784057617188 2.2073023319244384766 2.2747437953948974609 6.0523815155029296875 18.182371139526367188 -9999 9.0358028411865234375 6.0321850776672363281 2.3598644733428955078 8.4354963302612304688 -9999 -9999 -9999 -9999 -9999 -9999 -9999 
-9999 -9999 -9999 -9999 10.261839866638183594 1.0165969133377075195 3.1725399494171142578 10.275671958923339844 8.086475372314453125 6.1939692497253417969 1.2334922552108764648 7.603504180908203125 1.2926212549209594727 12.432341575622558594 -9999 -9999 -9999 -9999 7.1221508979797363281 1.5152834653854370117 8.7280712127685546875 -9999 -9999 -9999 -9999 -9999 -9999 -9999 10.548855781555175781 11.507196426391601562 -9999 -9999 11.819868087768554688 8.3446788787841796875 7.1006574630737304688 8.7080602645874023438 -9999 13.985292434692382812 10.58296966552734375 -9999 21.700275421142578125 19.229303359985351562 9.87363433837890625 1.902815699577331543 8.4824542999267578125 9.342395782470703125 3.7468447685241699219 7.9433507919311523438 -9999 4.0026636123657226562 5.6161832809448242188 6.21417236328125 2.5256786346435546875 6.4907741546630859375 7.9377856254577636719 3.8570206165313720703 -9999 13.113393783569335938 7.5702543258666992188 11.179666519165039062 7.0168123245239257812 6.6656203269958496094 5.6794905662536621094 6.6176095008850097656 5.3090357780456542969 3.3608675003051757812 2.3766572475433349609 8.6364774703979492188 -9999 5.4630513191223144531 9.0376768112182617188 5.5886659622192382812 7.8503904342651367188 2.5332369804382324219 3.2949140071868896484 2.6155312061309814453 8.6560144424438476562 8.3755083084106445312 8.589763641357421875 9.1933012008666992188 9.4467105865478515625 7.8518533706665039062 8.4341459274291992188 8.0459756851196289062 7.854717254638671875 7.5640764236450195312 6.8211078643798828125 7.9295344352722167969 8.3837442398071289062 9.0099554061889648438 8.1905508041381835938 7.1908602714538574219 10.723203659057617188 7.1332998275756835938 3.1877994537353515625 5.0628004074096679688 4.029918670654296875 4.7711210250854492188 1.6919035911560058594 2.4782454967498779297 4.8416624069213867188 7.1769576072692871094 7.6682133674621582031 7.3617525100708007812 6.8731598854064941406 7.0208139419555664062 8.0927152633666992188 7.7534418106079101562 7.2958636283874511719 8.1273088455200195312 4.4449834823608398438 5.2142438888549804688 8.7466955184936523438 8.1142559051513671875 10.93154144287109375 15.204210281372070312 4.9307103157043457031 3.5379650592803955078 7.5437045097351074219 -9999 -9999 -9999 -9999 -9999 -9999 -9999 -9999 
-9999 -9999 -9999 -9999 -9999 -9999 2.0751769542694091797 7.7987265586853027344 5.5369830131530761719 5.7328295707702636719 7.8805150985717773438 4.5202188491821289062 1.1271156072616577148 7.4411149024963378906 -9999 -9999 -9999 -9999 6.6335010528564453125 5.0027470588684082031 -9999 -9999 -9999 -9999 -9999 -9999 -9999 -9999 11.091765403747558594 12.111316680908203125 5.3531212806701660156 -9999 -9999 -9999 5.9255681037902832031 6.1410093307495117188 19.048826217651367188 15.154620170593261719 -9999 -9999 16.758634567260742188 14.299623489379882812 10.890491485595703125 3.7389085292816162109 7.0635204315185546875 8.6024656295776367188 3.3365957736968994141 19.0146331787109375 28.337190628051757812 7.3755540847778320312 5.2239174842834472656 4.2885789871215820312 -9999 4.9664630889892578125 8.0382099151611328125 7.1333584785461425781 -9999 8.0236759185791015625 5.2867612838745117188 11.561380386352539062 9.5762538909912109375 6.9991731643676757812 2.4311101436614990234 4.5205254554748535156 7.0689458847045898438 8.21012115478515625 4.4758901596069335938 1.8569432497024536133 43.744510650634765625 34.817272186279296875 27.739521026611328125 4.1850328445434570312 1.6189807653427124023 5.762660980224609375 6.3815274238586425781 1.6590068340301513672 6.7314634323120117188 8.3594388961791992188 8.4542741775512695312 8.1341695785522460938 6.6478662490844726562 7.7932963371276855469 8.0148420333862304688 8.0391387939453125 8.2307453155517578125 8.3440456390380859375 7.3327484130859375 8.1580219268798828125 8.1925601959228515625 8.7577610015869140625 9.0254154205322265625 -9999 2.66637420654296875 4.5312981605529785156 4.0204463005065917969 2.6670897006988525391 1.6617870330810546875 2.5684750080108642578 3.8970081806182861328 5.1297097206115722656 12.026441574096679688 -9999 12.091455459594726562 7.1280803680419921875 6.1992783546447753906 9.1625719070434570312 7.2494807243347167969 6.5928368568420410156 4.2914438247680664062 7.0772762298583984375 2.4206526279449462891 4.3277740478515625 10.505414962768554688 6.6557941436767578125 15.756928443908691406 20.417028427124023438 -9999 -9999 -9999 -9999 -9999 -9999 -9999 -9999 -9999 -9999 -9999 
-9999 -9999 -9999 -9999 -9999 -9999 -9999 2.9890570640563964844 4.8528957366943359375 7.8995981216430664062 7.6152796745300292969 4.7001104354858398438 3.8554770946502685547 6.8272576332092285156 -9999 -9999 -9999 -9999 -9999 -9999 -9999 -9999 8.489238739013671875 -9999 -9999 -9999 -9999 -9999 -9999 5.3288106918334960938 2.3615527153015136719 2.1948935985565185547 -9999 -9999 9.049976348876953125 10.6594390869140625 -9999 -9999 4.9178776741027832031 9.2204580307006835938 4.8311972618103027344 4.2617640495300292969 5.8413972854614257812 2.633663177490234375 6.6886553764343261719 7.9444379806518554688 6.2788066864013671875 3.6596786975860595703 8.0378561019897460938 8.472591400146484375 6.8973650932312011719 1.5051407814025878906 1.2975027561187744141 5.81798553466796875 7.8428859710693359375 6.3509678840637207031 4.9133000373840332031 3.1588418483734130859 35.450504302978515625 6.3941822052001953125 6.9259896278381347656 2.6005909442901611328 3.3746125698089599609 2.5175461769104003906 8.0861530303955078125 8.7438440322875976562 9.2544450759887695312 9.492191314697265625 8.7870588302612304688 1.768281102180480957 10.165362358093261719 11.618739128112792969 9.500438690185546875 9.575572967529296875 8.4792432785034179688 6.7905898094177246094 7.6386590003967285156 7.7262816429138183594 5.9512705802917480469 6.0406584739685058594 7.9647202491760253906 8.5020914077758789062 8.2448949813842773438 8.1996698379516601562 8.0553045272827148438 8.093048095703125 8.1532649993896484375 5.9205322265625 4.3298883438110351562 7.8651261329650878906 4.8944411277770996094 5.9431862831115722656 -9999 4.1018023490905761719 5.261165618896484375 5.2123785018920898438 1.6587471961975097656 7.7475638389587402344 4.4181032180786132812 1.8959629535675048828 2.1429073810577392578 31.791070938110351562 34.29056549072265625 3.7982158660888671875 1.0521959066390991211 6.661785125732421875 -9999 10.849531173706054688 -9999 -9999 8.5362558364868164062 -9999 2.6496984958648681641 9.2496461868286132812 -9999 -9999 -9999 -9999 -9999 -9999 -9999 -9999 -9999 -9999 -9999 -9999 -9999 
-9999 -9999 -9999 -9999 -9999 -9999 -9999 8.8234844207763671875 2.5175335407257080078 3.4184250831604003906 1.0730943679809570312 6.7561740875244140625 12.77710723876953125 17.61199951171875 -9999 -9999 -9999 -9999 -9999 -9999 -9999 11.185179710388183594 6.624958038330078125 6.871395111083984375 13.732469558715820312 -9999 -9999 -9999 -9999 3.6938292980194091797 7.404178619384765625 7.337924957275390625 -9999 -9999 17.307619094848632812 17.25074005126953125 7.7792873382568359375 2.7960321903228759766 1.8322142362594604492 33.617992401123046875 2.1323561668395996094 3.7463598251342773438 2.6484439373016357422 4.3600931167602539062 7.0156040191650390625 7.309234619140625 6.6346769332885742188 8.749050140380859375 8.9994306564331054688 9.4336004257202148438 9.6043825149536132812 7.9280672073364257812 6.7399444580078125 5.0000491142272949219 8.2102069854736328125 7.9793877601623535156 3.3830358982086181641 5.4747114181518554688 30.194616317749023438 3.5577266216278076172 3.3978085517883300781 6.3472666740417480469 2.2873368263244628906 1.2784090042114257812 7.3032126426696777344 7.8386120796203613281 7.848926544189453125 8.6008768081665039062 9.0573740005493164062 9.397129058837890625 10.496685981750488281 8.6427698135375976562 9.5291757583618164062 9.4588527679443359375 3.8574261665344238281 7.7402911186218261719 9.7865734100341796875 9.039150238037109375 8.3179225921630859375 6.4859104156494140625 8.2102460861206054688 7.8731656074523925781 8.0920190811157226562 9.0298833847045898438 8.91490936279296875 8.7578907012939453125 8.4327411651611328125 6.9238018989562988281 2.1293895244598388672 4.083988189697265625 11.075406074523925781 5.2831597328186035156 1.5117444992065429688 3.8774018287658691406 6.1072821617126464844 5.309787750244140625 5.0695524215698242188 33.71884918212890625 -9999 11.325787544250488281 2.0396351814270019531 2.3978369235992431641 6.4753484725952148438 6.7500176429748535156 11.791241645812988281 -9999 -9999 7.5522918701171875 -9999 -9999 -9999 -9999 -9999 -9999 -9999 -9999 -9999 -9999 -9999 -9999 -9999 -9999 -9999 -9999 -9999 -9999 -9999 
-9999 -9999 -9999 -9999 -9999 -9999 -9999 -9999 11.432347297668457031 10.146832466125488281 15.746682167053222656 9.1071300506591796875 13.574586868286132812 14.369734764099121094 -9999 -9999 14.260830879211425781 -9999 -9999 -9999 -9999 -9999 -9999 -9999 -9999 16.510890960693359375 -9999 -9999 -9999 7.6577029228210449219 7.1147108078002929688 8.3640003204345703125 14.014957427978515625 -9999 -9999 -9999 7.4274687767028808594 1.7017560005187988281 1.7293031215667724609 -9999 4.5613307952880859375 4.3087711334228515625 6.392826080322265625 7.4124617576599121094 5.3783068656921386719 6.4519672393798828125 3.8588945865631103516 6.8442873954772949219 6.1483201980590820312 7.7356200218200683594 8.5362577438354492188 7.5995874404907226562 3.7157273292541503906 5.3366227149963378906 8.893657684326171875 8.1094102859497070312 6.4706540107727050781 -9999 1.9355009794235229492 3.5176312923431396484 3.8961696624755859375 8.334629058837890625 2.6723392009735107422 2.7050085067749023438 4.1254715919494628906 7.0069780349731445312 7.1427130699157714844 8.367919921875 9.3570394515991210938 9.357410430908203125 8.9001789093017578125 6.4147272109985351562 9.3585767745971679688 7.9176349639892578125 1.8011543750762939453 2.4968221187591552734 1.0620293617248535156 7.345149993896484375 4.4832401275634765625 6.4290027618408203125 7.7821569442749023438 8.3261156082153320312 8.3072414398193359375 8.4447603225708007812 8.4570932388305664062 7.569766998291015625 7.4210524559020996094 6.9054617881774902344 5.1698861122131347656 3.7676420211791992188 4.7805972099304199219 2.2030665874481201172 4.6082510948181152344 2.6966345310211181641 -9999 6.0510587692260742188 7.1902232170104980469 22.52701568603515625 -9999 -9999 8.8617916107177734375 8.1203947067260742188 9.1388082504272460938 9.0290851593017578125 13.887534141540527344 -9999 5.0143351554870605469 4.62457275390625 13.451407432556152344 -9999 -9999 -9999 -9999 -9999 -9999 -9999 -9999 -9999 -9999 -9999 -9999 -9999 -9999 -9999 -9999 -9999 -9999 
-9999 -9999 -9999 -9999 -9999 -9999 -9999 -9999 -9999 -9999 -9999 -9999 -9999 -9999 -9999 -9999 -9999 -9999 -9999 -9999 -9999 -9999 -9999 -9999 -9999 -9999 -9999 -9999 5.995975494384765625 7.3249859809875488281 6.9054007530212402344 8.662303924560546875 10.568220138549804688 9.0312604904174804688 4.5780978202819824219 13.127346038818359375 -9999 1.1839498281478881836 5.1359386444091796875 2.5397019386291503906 8.5511541366577148438 1.3008763790130615234 3.4765746593475341797 3.1278669834136962891 4.1036081314086914062 4.04741668701171875 2.086978912353515625 5.7658801078796386719 4.6356635093688964844 2.5875275135040283203 2.2634751796722412109 3.9890191555023193359 5.6404185295104980469 3.8589990139007568359 9.093921661376953125 6.9630517959594726562 7.2498898506164550781 2.8954634666442871094 1.03743743896484375 4.2795567512512207031 15.034872055053710938 6.5057110786437988281 2.056545257568359375 1.9032579660415649414 2.8214497566223144531 6.374053955078125 7.8203854560852050781 8.5784626007080078125 8.2043094635009765625 8.2133121490478515625 8.0020227432250976562 7.8025121688842773438 9.115650177001953125 6.3118815422058105469 7.9223814010620117188 1.7254388332366943359 11.6760406494140625 2.5276212692260742188 5.2600483894348144531 7.7573685646057128906 6.6327357292175292969 6.8715586662292480469 7.2038350105285644531 7.536224365234375 7.0072865486145019531 6.4141635894775390625 7.3738989830017089844 7.3519463539123535156 7.1176438331604003906 6.8586277961730957031 6.9881873130798339844 7.1483221054077148438 7.8058938980102539062 8.940341949462890625 8.6195478439331054688 6.7301683425903320312 7.4473104476928710938 4.3345079421997070312 31.7575836181640625 7.1824603080749511719 3.4642343521118164062 6.6419196128845214844 9.5284290313720703125 13.134387016296386719 17.423755645751953125 -9999 2.3049776554107666016 5.7100749015808105469 16.842481613159179688 21.411867141723632812 -9999 -9999 -9999 -9999 -9999 -9999 -9999 -9999 -9999 -9999 16.647184371948242188 -9999 -9999 -9999 -9999 -9999 -9999 
-9999 -9999 -9999 -9999 -9999 -9999 -9999 -9999 -9999 -9999 -9999 -9999 -9999 -9999 -9999 -9999 -9999 -9999 -9999 -9999 -9999 -9999 -9999 -9999 -9999 -9999 -9999 -9999 -9999 2.5232362747192382812 4.5274763107299804688 9.7069826126098632812 8.8913278579711914062 8.076602935791015625 7.1678590774536132812 38.5189971923828125 -9999 -9999 9.407642364501953125 7.558124542236328125 4.1005635261535644531 5.5077691078186035156 4.9291896820068359375 4.5460667610168457031 2.0063412189483642578 1.8538525104522705078 2.0291044712066650391 3.1939771175384521484 8.4983777999877929688 6.965114593505859375 7.9815211296081542969 6.8929810523986816406 -9999 1.147269129753112793 4.3185801506042480469 3.9700391292572021484 5.9110651016235351562 2.6150012016296386719 5.5459380149841308594 14.095120429992675781 6.8423724174499511719 5.5972461700439453125 1.5410816669464111328 3.8763451576232910156 4.5203480720520019531 3.263324737548828125 7.9072923660278320312 8.117549896240234375 7.4551649093627929688 7.4113478660583496094 7.113857269287109375 7.5042448043823242188 8.1684103012084960938 2.3211030960083007812 7.5475649833679199219 6.8184995651245117188 2.9644000530242919922 5.1925559043884277344 7.8213481903076171875 7.4413571357727050781 7.6795210838317871094 7.1964316368103027344 6.1014885902404785156 6.6917233467102050781 7.3253912925720214844 7.4924683570861816406 8.25260162353515625 8.544891357421875 8.5225048065185546875 8.3848323822021484375 9.1711835861206054688 8.51953887939453125 8.2260084152221679688 6.8273491859436035156 5.9445528984069824219 5.1887688636779785156 5.7096638679504394531 2.2742056846618652344 4.5036616325378417969 1.9785068035125732422 4.5810155868530273438 5.4170718193054199219 16.048892974853515625 14.586580276489257812 20.109003067016601562 12.762475013732910156 4.4629697799682617188 4.4423761367797851562 5.4495224952697753906 8.6931047439575195312 -9999 -9999 -9999 13.249794960021972656 -9999 -9999 -9999 -9999 -9999 -9999 -9999 -9999 -9999 -9999 -9999 -9999 -9999 
9.0400228500366210938 -9999 -9999 -9999 -9999 -9999 -9999 -9999 -9999 -9999 -9999 -9999 -9999 -9999 -9999 -9999 -9999 -9999 -9999 -9999 -9999 -9999 -9999 -9999 -9999 -9999 -9999 -9999 -9999 -9999 -9999 3.6641983985900878906 4.2285051345825195312 7.3812131881713867188 9.8080034255981445312 7.0912294387817382812 3.8352992534637451172 2.5724163055419921875 -9999 16.468402862548828125 -9999 -9999 -9999 3.5830960273742675781 1.6290078163146972656 3.2162463665008544922 4.4555516242980957031 5.8046488761901855469 7.948856353759765625 7.80797576904296875 7.4182934761047363281 8.215747833251953125 8.3860874176025390625 6.3004755973815917969 7.9473819732666015625 3.5570683479309082031 1.7454620599746704102 3.5535206794738769531 -9999 -9999 2.5751988887786865234 4.7709379196166992188 3.8034188747406005859 3.60746002197265625 6.1757793426513671875 6.4501233100891113281 9.038883209228515625 7.7954864501953125 7.6538419723510742188 7.4165787696838378906 5.3979640007019042969 7.2441110610961914062 8.7636709213256835938 9.2545986175537109375 21.7602691650390625 11.695546150207519531 8.9862642288208007812 6.370082855224609375 6.5156159400939941406 7.5946779251098632812 7.2680034637451171875 6.3679909706115722656 5.8413233757019042969 6.5177354812622070312 7.9829659461975097656 8.867961883544921875 8.6619281768798828125 9.0621271133422851562 9.054592132568359375 8.2596588134765625 9.0131626129150390625 8.4796609878540039062 8.7760009765625 13.348203659057617188 6.9120769500732421875 8.1764154434204101562 2.7456200122833251953 3.8784441947937011719 2.8317303657531738281 2.4129328727722167969 3.0424957275390625 3.0983128547668457031 2.2915122509002685547 5.9961771965026855469 -9999 16.2219696044921875 2.3649625778198242188 5.6394038200378417969 16.224489212036132812 11.645182609558105469 17.337606430053710938 -9999 -9999 10.6510467529296875 -9999 -9999 -9999 -9999 -9999 -9999 -9999 -9999 -9999 -9999 -9999 -9999 -9999 
-9999 -9999 -9999 -9999 -9999 -9999 -9999 -9999 -9999 -9999 -9999 -9999 -9999 -9999 -9999 -9999 -9999 -9999 -9999 -9999 -9999 -9999 -9999 23.790781021118164062 -9999 11.138957977294921875 -9999 -9999 -9999 -9999 -9999 1.7033431529998779297 2.5358884334564208984 5.6236920356750488281 10.965864181518554688 9.6239557266235351562 6.3685150146484375 5.0685896873474121094 -9999 -9999 -9999 11.914025306701660156 7.6476993560791015625 3.9250624179840087891 1.4237320423126220703 2.0290186405181884766 1.6374584436416625977 5.7601838111877441406 7.7704901695251464844 7.9639463424682617188 5.375560760498046875 4.8446383476257324219 9.027225494384765625 7.8803548812866210938 9.5147809982299804688 1.6697497367858886719 5.5811562538146972656 6.9218125343322753906 -9999 -9999 -9999 3.2890369892120361328 2.8788623809814453125 1.2056562900543212891 4.7159390449523925781 6.770660400390625 6.8594975471496582031 7.5618314743041992188 8.7317113876342773438 8.3795804977416992188 7.397174835205078125 8.1114492416381835938 9.867725372314453125 10.843291282653808594 15.482671737670898438 4.8528313636779785156 8.3579244613647460938 7.9571380615234375 7.9975337982177734375 8.2715511322021484375 7.6681118011474609375 6.1829943656921386719 7.0548067092895507812 7.5950918197631835938 8.2802991867065429688 8.9138174057006835938 8.1778345108032226562 7.352397918701171875 4.11859130859375 7.4910244941711425781 8.866180419921875 8.9251279830932617188 4.5107188224792480469 28.979375839233398438 -9999 22.379487991333007812 6.3397049903869628906 7.9153904914855957031 3.5738344192504882812 2.2863211631774902344 2.0001711845397949219 1.7129863500595092773 1.9676231145858764648 1.8886020183563232422 -9999 -9999 16.573474884033203125 10.325076103210449219 28.614374160766601562 14.244309425354003906 -9999 -9999 -9999 10.509710311889648438 -9999 -9999 -9999 -9999 -9999 -9999 -9999 -9999 -9999 -9999 -9999 -9999 -9999 
15.388827323913574219 -9999 -9999 -9999 -9999 -9999 -9999 -9999 -9999 -9999 -9999 -9999 -9999 -9999 -9999 -9999 8.6227512359619140625 -9999 -9999 -9999 -9999 -9999 -9999 -9999 -9999 -9999 -9999 -9999 -9999 -9999 -9999 2.406585693359375 4.1319408416748046875 1.6569714546203613281 9.49706268310546875 7.9171905517578125 7.735240936279296875 10.317616462707519531 101 -9999 23.93924713134765625 17.3165740966796875 11.021048545837402344 3.8073899745941162109 6.0249242782592773438 6.4443025588989257812 1.9618995189666748047 5.6199975013732910156 7.3324961662292480469 8.4228906631469726562 7.9974422454833984375 5.6596779823303222656 5.7263135910034179688 2.414318084716796875 1.9968236684799194336 9.4610052108764648438 -9999 14.286551475524902344 5.5627140998840332031 8.7467069625854492188 5.7814016342163085938 5.0613570213317871094 1.1727752685546875 2.8028194904327392578 3.1392841339111328125 4.9507894515991210938 6.092144012451171875 7.6728405952453613281 8.4785261154174804688 7.743022918701171875 8.1368770599365234375 8.14349365234375 9.8859567642211914062 11.194418907165527344 37.704681396484375 -9999 9.5252227783203125 8.5552282333374023438 7.1454043388366699219 7.9530649185180664062 6.9514470100402832031 7.1597342491149902344 8.20499420166015625 7.7176733016967773438 6.6076211929321289062 8.837863922119140625 10.888319015502929688 12.643370628356933594 -9999 9.4501552581787109375 9.3380794525146484375 8.4301271438598632812 7.8086943626403808594 3.0770592689514160156 90.6390838623046875 -9999 -9999 -9999 8.6833953857421875 1.9915255308151245117 2.5258820056915283203 2.9917025566101074219 3.0773563385009765625 3.7506978511810302734 5.3875055313110351562 8.1867694854736328125 12.0245513916015625 12.789667129516601562 -9999 12.174006462097167969 -9999 -9999 -9999 -9999 -9999 -9999 -9999 -9999 -9999 -9999 -9999 -9999 -9999 -9999 -9999 -9999 -9999 
-9999 -9999 -9999 -9999 -9999 -9999 -9999 -9999 -9999 -9999 -9999 -9999 -9999 -9999 -9999 -9999 -9999 -9999 -9999 -9999 -9999 -9999 -9999 -9999 -9999 -9999 -9999 -9999 -9999 -9999 -9999 -9999 9.9873943328857421875 2.0752813816070556641 4.8158059120178222656 6.9993233680725097656 8.0811128616333007812 7.9822440147399902344 3.9643990993499755859 1.0531895160675048828 20.909635543823242188 -9999 10.619687080383300781 -9999 -9999 -9999 6.4339570999145507812 1.0961252450942993164 3.0208067893981933594 6.1397485733032226562 3.7864937782287597656 3.3997292518615722656 4.7705183029174804688 2.1783518791198730469 3.7860372066497802734 16.23383331298828125 -9999 3.8857622146606445312 2.655757904052734375 5.671916961669921875 4.6156911849975585938 -9999 6.5261693000793457031 4.0312256813049316406 5.9413194656372070312 4.102909088134765625 5.8008708953857421875 6.7329998016357421875 7.6090955734252929688 7.7607431411743164062 8.375835418701171875 8.2119836807250976562 9.3633756637573242188 6.4011597633361816406 27.997606277465820312 17.788280487060546875 10.487099647521972656 10.267351150512695312 7.8160367012023925781 6.7807216644287109375 5.6697306632995605469 7.3251681327819824219 8.0889997482299804688 7.8295383453369140625 8.322772979736328125 8.9417886734008789062 9.7694597244262695312 -9999 1.8082567453384399414 10.433579444885253906 8.2236623764038085938 7.1269946098327636719 8.0813875198364257812 3.7413361072540283203 24.928834915161132812 22.462421417236328125 -9999 7.9045233726501464844 9.8359928131103515625 4.7918725013732910156 1.5511972904205322266 3.0038423538208007812 1.5152325630187988281 2.61660003662109375 1.5192730426788330078 1.6507518291473388672 6.59598541259765625 -9999 -9999 17.0041656494140625 -9999 -9999 -9999 -9999 -9999 -9999 -9999 -9999 -9999 -9999 -9999 -9999 -9999 -9999 -9999 -9999 -9999 
-9999 -9999 -9999 -9999 -9999 -9999 -9999 -9999 -9999 -9999 -9999 -9999 -9999 -9999 -9999 -9999 -9999 -9999 -9999 -9999 -9999 -9999 -9999 -9999 -9999 -9999 -9999 -9999 6.01203155517578125 6.3068280220031738281 -9999 -9999 7.9362559318542480469 2.6273801326751708984 8.2729616165161132812 7.5670228004455566406 8.598361968994140625 8.1783962249755859375 5.0199170112609863281 2.9140043258666992188 6.9582762718200683594 8.2500429153442382812 4.0724334716796875 3.1719148159027099609 5.1041889190673828125 8.4435377120971679688 5.8341479301452636719 1.8810298442840576172 2.3166077136993408203 3.1249201297760009766 2.4052424430847167969 1.6500686407089233398 6.4774312973022460938 2.2166860103607177734 7.580078125 -9999 10.696493148803710938 5.5710859298706054688 4.1259784698486328125 1.9069368839263916016 6.5611543655395507812 8.4425945281982421875 -9999 1.6274745464324951172 2.8598313331604003906 3.2522587776184082031 6.1540079116821289062 4.65728759765625 7.2266240119934082031 7.9177026748657226562 8.67406463623046875 10.698238372802734375 4.1345152854919433594 2.6654233932495117188 6.7510385513305664062 6.5868649482727050781 8.7124280929565429688 7.3734059333801269531 7.8677973747253417969 7.5531406402587890625 9.4852132797241210938 7.1968603134155273438 7.4590592384338378906 2.6704277992248535156 15.633580207824707031 -9999 6.0995569229125976562 29.246114730834960938 7.4197068214416503906 7.8489513397216796875 6.4181742668151855469 5.0433735847473144531 1.1832544803619384766 9.7860422134399414062 17.945768356323242188 16.739912033081054688 -9999 -9999 14.034982681274414062 8.2213926315307617188 1.0063244104385375977 2.6289772987365722656 4.56620025634765625 1.7787975072860717773 3.9220910072326660156 5.5165224075317382812 6.110424041748046875 2.675334930419921875 6.9578981399536132812 -9999 -9999 -9999 -9999 -9999 -9999 -9999 -9999 -9999 -9999 -9999 -9999 -9999 -9999 -9999 -9999 -9999 -9999 
-9999 -9999 -9999 -9999 -9999 -9999 -9999 -9999 -9999 -9999 -9999 -9999 -9999 -9999 -9999 -9999 -9999 -9999 -9999 -9999 -9999 -9999 -9999 -9999 -9999 -9999 -9999 -9999 1.6481331586837768555 3.00789642333984375 -9999 -9999 4.9720287322998046875 1.6507695913314819336 7.3983931541442871094 3.6293256282806396484 10.819880485534667969 8.5456085205078125 4.6907172203063964844 1.8244310617446899414 5.910175323486328125 3.5845582485198974609 5.7762875556945800781 4.4479613304138183594 3.9077167510986328125 2.6288876533508300781 5.3507237434387207031 23.812700271606445312 5.2691087722778320312 8.894611358642578125 2.4542484283447265625 2.5631279945373535156 13.379696846008300781 -9999 -9999 2.6120285987854003906 3.2639706134796142578 4.6163778305053710938 4.1307840347290039062 5.1780033111572265625 13.9670562744140625 10.734801292419433594 -9999 4.5985174179077148438 2.8685600757598876953 3.0657219886779785156 7.1126542091369628906 7.2309808731079101562 7.2250533103942871094 7.0834865570068359375 7.541202545166015625 8.4160108566284179688 8.0994739532470703125 4.3197736740112304688 8.2833232879638671875 8.1930217742919921875 8.8000278472900390625 7.8806304931640625 9.6111660003662109375 5.8024744987487792969 3.6330325603485107422 4.0709867477416992188 5.7901120185852050781 1.6525070667266845703 21.646989822387695312 1.7564768791198730469 7.5608472824096679688 8.9258203506469726562 8.4231634140014648438 7.3352365493774414062 7.0797686576843261719 2.3996148109436035156 11.3160552978515625 11.479066848754882812 11.999256134033203125 11.441905021667480469 10.8814239501953125 -9999 6.3464035987854003906 7.7434101104736328125 1.5385229587554931641 3.6832015514373779297 2.2057316303253173828 -9999 11.105074882507324219 12.789569854736328125 2.4474236965179443359 8.1513347625732421875 15.269591331481933594 7.9063849449157714844 -9999 -9999 -9999 -9999 -9999 -9999 -9999 -9999 -9999 -9999 -9999 -9999 -9999 -9999 -9999 -9999 -9999 
-9999 -9999 -9999 -9999 -9999 -9999 -9999 -9999 -9999 -9999 -9999 -9999 -9999 -9999 -9999 -9999 -9999 -9999 -9999 11.60442352294921875 -9999 -9999 -9999 -9999 -9999 -9999 -9999 -9999 20.862941741943359375 3.8740932941436767578 -9999 11.902577400207519531 14.946702003479003906 9.411640167236328125 9.1569910049438476562 7.0643887519836425781 7.3482804298400878906 8.4830884933471679688 3.0081081390380859375 4.0183453559875488281 9.4362964630126953125 1.4110672473907470703 8.2824382781982421875 6.6108021736145019531 5.0087513923645019531 4.7998347282409667969 1.0681401491165161133 -9999 -9999 -9999 -9999 -9999 -9999 6.2982883453369140625 4.7636432647705078125 10.386003494262695312 2.3298611640930175781 5.1302170753479003906 6.9969310760498046875 6.5971822738647460938 16.787693023681640625 10.317134857177734375 2.8957164287567138672 1.372235417366027832 5.1346559524536132812 5.1932621002197265625 3.4831159114837646484 6.6415224075317382812 6.002635955810546875 6.6944842338562011719 9.0415105819702148438 8.3898029327392578125 5.4673123359680175781 8.4424524307250976562 7.0024676322937011719 5.9821991920471191406 13.000731468200683594 9.1363534927368164062 8.2760343551635742188 4.9557590484619140625 10.586945533752441406 3.4056208133697509766 4.7171158790588378906 5.1927232742309570312 2.9560658931732177734 7.3035998344421386719 7.0674810409545898438 7.48030853271484375 8.0745830535888671875 6.9441685676574707031 4.7279839515686035156 11.100995063781738281 12.58821868896484375 7.7014436721801757812 14.749815940856933594 15.406188011169433594 6.3212561607360839844 12.175208091735839844 2.8645679950714111328 3.3703205585479736328 8.2325267791748046875 3.1489593982696533203 1.0828043222427368164 10.20890045166015625 5.5200572013854980469 2.8931298255920410156 2.6231963634490966797 13.739232063293457031 19.242610931396484375 -9999 -9999 -9999 -9999 -9999 -9999 -9999 -9999 -9999 -9999 -9999 -9999 -9999 -9999 -9999 -9999 -9999 -9999 
-9999 -9999 -9999 -9999 -9999 -9999 -9999 -9999 -9999 -9999 -9999 -9999 -9999 -9999 -9999 -9999 -9999 -9999 -9999 -9999 -9999 -9999 -9999 -9999 -9999 -9999 -9999 -9999 -9999 -9999 -9999 -9999 -9999 -9999 -9999 9.61731719970703125 9.8369989395141601562 7.1555562019348144531 2.0634458065032958984 5.0777440071105957031 11.094780921936035156 -9999 3.5452423095703125 3.9696371555328369141 3.5050244331359863281 4.06781005859375 3.9540638923645019531 -9999 -9999 -9999 -9999 14.083228111267089844 7.6729574203491210938 6.4284205436706542969 2.7880263328552246094 1.9108450412750244141 11.855386734008789062 8.7579803466796875 8.8340635299682617188 11.5832672119140625 17.705789566040039062 -9999 5.5368466377258300781 6.5980105400085449219 13.607735633850097656 -9999 13.515913963317871094 4.0678000450134277344 7.1399827003479003906 7.785213470458984375 8.3195199966430664062 4.049045562744140625 8.2419261932373046875 5.89170074462890625 3.6360404491424560547 8.8078756332397460938 12.262392997741699219 6.5960063934326171875 1.9606506824493408203 1.4751666784286499023 22.723114013671875 -9999 3.0421905517578125 5.9591164588928222656 6.4691629409790039062 9.1314258575439453125 8.6922283172607421875 8.6529817581176757812 8.7739439010620117188 8.4441089630126953125 1.0794177055358886719 10.196672439575195312 8.79106903076171875 5.8282413482666015625 5.8620634078979492188 -9999 2.4057941436767578125 1.0518434047698974609 1.6660912036895751953 7.1096463203430175781 6.848987579345703125 -9999 6.1954245567321777344 1.5904402732849121094 3.6091365814208984375 4.9287018775939941406 2.6023759841918945312 -9999 11.327115058898925781 -9999 -9999 -9999 -9999 -9999 -9999 -9999 -9999 -9999 -9999 -9999 -9999 -9999 -9999 -9999 -9999 -9999 -9999 
-9999 -9999 -9999 -9999 -9999 -9999 -9999 -9999 -9999 -9999 -9999 -9999 -9999 -9999 -9999 -9999 -9999 -9999 -9999 -9999 -9999 -9999 -9999 -9999 -9999 -9999 -9999 -9999 -9999 -9999 -9999 -9999 -9999 -9999 -9999 -9999 7.8627438545227050781 1.7614024877548217773 8.8940067291259765625 3.5704159736633300781 -9999 -9999 -9999 -9999 -9999 -9999 -9999 -9999 -9999 -9999 -9999 -9999 14.358942985534667969 7.9926691055297851562 10.35240936279296875 -9999 -9999 15.475066184997558594 12.9732208251953125 12.707424163818359375 12.990696907043457031 -9999 -9999 -9999 -9999 39.855937957763671875 -9999 5.8130855560302734375 6.8701796531677246094 6.5138440132141113281 4.6173992156982421875 1.7267403602600097656 4.5112848281860351562 6.5834903717041015625 13.173336029052734375 5.0078940391540527344 7.4592800140380859375 6.4869432449340820312 4.60684967041015625 2.8272862434387207031 15.606515884399414062 -9999 1.6178860664367675781 4.4412794113159179688 6.8715519905090332031 8.4062585830688476562 9.9356737136840820312 9.5261869430541992188 8.4346876144409179688 1.8855230808258056641 6.1946644783020019531 -9999 3.6969432830810546875 -9999 1.7719985246658325195 7.4608502388000488281 4.2142777442932128906 6.5619840621948242188 7.2031221389770507812 11.456643104553222656 10.706946372985839844 10.033576011657714844 3.9459090232849121094 5.3784108161926269531 3.9316275119781494141 4.3138060569763183594 5.6351923942565917969 6.1084713935852050781 -9999 -9999 -9999 12.658494949340820312 12.476563453674316406 -9999 -9999 -9999 -9999 -9999 23.459081649780273438 -9999 -9999 -9999 -9999 -9999 -9999 -9999 -9999 
-9999 -9999 -9999 -9999 -9999 -9999 -9999 -9999 -9999 -9999 -9999 -9999 -9999 -9999 -9999 -9999 -9999 -9999 -9999 -9999 -9999 -9999 -9999 -9999 -9999 -9999 -9999 -9999 -9999 -9999 14.337994575500488281 -9999 -9999 -9999 -9999 -9999 -9999 6.6380929946899414062 4.1833095550537109375 8.0384693145751953125 -9999 -9999 -9999 -9999 -9999 -9999 -9999 -9999 -9999 -9999 -9999 -9999 -9999 10.461507797241210938 -9999 -9999 -9999 -9999 -9999 -9999 -9999 12.653688430786132812 15.080710411071777344 14.651981353759765625 16.512037277221679688 -9999 35.748382568359375 2.5774695873260498047 1.8253486156463623047 6.4913182258605957031 2.0913515090942382812 2.9614245891571044922 9.552825927734375 18.757350921630859375 10.794968605041503906 1.406609654426574707 3.5403685569763183594 1.2193626165390014648 6.9161868095397949219 -9999 -9999 18.04141998291015625 9.6236238479614257812 2.1407401561737060547 3.3135545253753662109 5.0066251754760742188 5.8577971458435058594 1.3927600383758544922 2.2351055145263671875 3.2002329826354980469 6.9442510604858398438 -9999 1.9153913259506225586 5.5340738296508789062 1.0920902490615844727 5.6642332077026367188 3.7230465412139892578 7.5774703025817871094 9.8917303085327148438 11.584943771362304688 12.969663619995117188 12.118770599365234375 8.243724822998046875 6.8771495819091796875 4.2928977012634277344 4.2162380218505859375 8.5441427230834960938 11.098278045654296875 -9999 16.006793975830078125 -9999 -9999 -9999 -9999 -9999 -9999 -9999 -9999 -9999 -9999 -9999 -9999 -9999 -9999 -9999 -9999 -9999 
-9999 -9999 -9999 -9999 -9999 -9999 -9999 -9999 -9999 -9999 -9999 -9999 -9999 -9999 -9999 -9999 -9999 -9999 -9999 -9999 -9999 -9999 -9999 -9999 -9999 -9999 -9999 -9999 -9999 -9999 -9999 -9999 -9999 -9999 -9999 -9999 -9999 -9999 -9999 -9999 -9999 -9999 -9999 -9999 -9999 -9999 -9999 -9999 -9999 -9999 -9999 -9999 -9999 -9999 -9999 -9999 -9999 -9999 -9999 -9999 -9999 13.807500839233398438 16.395099639892578125 12.399376869201660156 6.8676171302795410156 -9999 15.216166496276855469 4.9960947036743164062 5.9465856552124023438 6.1802539825439453125 7.8128795623779296875 7.4548039436340332031 1.4062395095825195312 -9999 7.0408573150634765625 5.7470483779907226562 8.4652385711669921875 6.03631591796875 -9999 -9999 13.829095840454101562 23.177150726318359375 25.18881988525390625 6.60991668701171875 9.30507659912109375 5.6620922088623046875 4.0041193962097167969 3.7311599254608154297 4.6065402030944824219 2.3734056949615478516 1.129689335823059082 12.230388641357421875 5.0632081031799316406 7.5999894142150878906 7.1648154258728027344 2.6046411991119384766 2.0693025588989257812 6.2595381736755371094 11.208261489868164062 10.950225830078125 11.856485366821289062 9.8552064895629882812 5.0241227149963378906 2.0975699424743652344 4.1305918693542480469 1.4896898269653320312 2.6626031398773193359 5.4176707267761230469 10.934145927429199219 11.632104873657226562 -9999 -9999 -9999 -9999 18.725543975830078125 13.341108322143554688 -9999 -9999 -9999 -9999 -9999 -9999 -9999 -9999 -9999 -9999 -9999 
-9999 -9999 -9999 -9999 -9999 -9999 -9999 -9999 -9999 -9999 -9999 -9999 -9999 -9999 -9999 -9999 -9999 -9999 -9999 -9999 -9999 -9999 -9999 -9999 -9999 -9999 -9999 -9999 -9999 -9999 -9999 -9999 -9999 -9999 -9999 -9999 -9999 -9999 -9999 -9999 -9999 -9999 -9999 -9999 -9999 -9999 -9999 -9999 -9999 -9999 -9999 -9999 -9999 -9999 -9999 -9999 16.758623123168945312 -9999 -9999 -9999 -9999 12.57904052734375 7.2787504196166992188 7.4807820320129394531 1.1714092493057250977 -9999 -9999 36.80287933349609375 6.966602325439453125 7.0426168441772460938 7.9062399864196777344 8.8873109817504882812 2.6761538982391357422 -9999 4.7800803184509277344 5.1717371940612792969 5.8899807929992675781 1.0625543594360351562 -9999 11.443165779113769531 10.977078437805175781 -9999 1.3225319385528564453 7.1026515960693359375 8.176578521728515625 8.694179534912109375 3.6592311859130859375 1.2466651201248168945 8.5340366363525390625 3.9498898983001708984 1.413036346435546875 4.4614882469177246094 7.9556398391723632812 7.1313447952270507812 5.3876495361328125 9.9854907989501953125 1.2302471399307250977 1.6237711906433105469 8.431484222412109375 8.551616668701171875 8.164424896240234375 9.8336420059204101562 5.0546917915344238281 11.739404678344726562 26.540666580200195312 2.9316058158874511719 3.2187740802764892578 4.2336249351501464844 1.1039540767669677734 9.0883846282958984375 10.833049774169921875 -9999 -9999 -9999 12.453846931457519531 7.3172297477722167969 11.893176078796386719 -9999 -9999 -9999 -9999 16.688703536987304688 -9999 -9999 -9999 -9999 -9999 
-9999 -9999 -9999 -9999 -9999 -9999 -9999 -9999 -9999 -9999 -9999 -9999 -9999 -9999 -9999 -9999 -9999 -9999 -9999 -9999 -9999 -9999 -9999 -9999 -9999 -9999 -9999 -9999 -9999 -9999 -9999 10.101502418518066406 -9999 -9999 -9999 -9999 -9999 -9999 -9999 -9999 -9999 -9999 -9999 -9999 -9999 -9999 -9999 -9999 -9999 -9999 -9999 -9999 -9999 -9999 -9999 -9999 -9999 -9999 -9999 -9999 -9999 -9999 -9999 -9999 2.8336663246154785156 4.8552069664001464844 -9999 -9999 6.6905384063720703125 2.4237749576568603516 4.4956946372985839844 6.4893655776977539062 -9999 4.4296793937683105469 11.716465950012207031 7.6419997215270996094 4.8532633781433105469 -9999 9.6867828369140625 7.5359015464782714844 7.5020051002502441406 18.147600173950195312 4.6170926094055175781 7.8480277061462402344 10.484013557434082031 9.2806196212768554688 4.3398151397705078125 5.9632349014282226562 8.654247283935546875 1.4401024580001831055 8.20196533203125 2.5844008922576904297 3.6842236518859863281 5.2132611274719238281 7.0206861495971679688 9.9504213333129882812 2.3087847232818603516 3.1746213436126708984 4.2402601242065429688 6.1234536170959472656 10.013429641723632812 7.8585104942321777344 6.4773340225219726562 8.340526580810546875 9.9786319732666015625 2.6388776302337646484 2.5515394210815429688 4.8793697357177734375 4.1022319793701171875 4.0388751029968261719 3.9666116237640380859 3.3369276523590087891 8.0772428512573242188 8.00681304931640625 25.295536041259765625 -9999 17.639711380004882812 8.1383581161499023438 12.663080215454101562 -9999 13.907935142517089844 10.05471038818359375 -9999 -9999 -9999 12.956992149353027344 14.190272331237792969 
-9999 -9999 -9999 -9999 -9999 -9999 -9999 -9999 -9999 -9999 -9999 -9999 -9999 -9999 -9999 -9999 -9999 -9999 -9999 -9999 -9999 -9999 -9999 -9999 -9999 -9999 -9999 -9999 -9999 -9999 -9999 9.1670255661010742188 -9999 -9999 -9999 -9999 -9999 -9999 7.6700010299682617188 -9999 -9999 -9999 -9999 -9999 -9999 -9999 11.16693878173828125 -9999 -9999 -9999 -9999 -9999 -9999 -9999 -9999 -9999 -9999 -9999 -9999 -9999 -9999 -9999 -9999 -9999 -9999 -9999 4.9846134185791015625 -9999 -9999 3.4407887458801269531 1.9684123992919921875 -9999 -9999 6.6102657318115234375 1.017974853515625 3.1240863800048828125 14.083245277404785156 -9999 -9999 -9999 26.231733322143554688 5.3231296539306640625 5.3047494888305664062 7.8544330596923828125 11.45098114013671875 9.6457014083862304688 5.3387880325317382812 6.7059984207153320312 5.5750479698181152344 4.9591312408447265625 2.5664427280426025391 4.0598387718200683594 5.1967906951904296875 2.2032580375671386719 1.9324362277984619141 4.0264439582824707031 1.8704742193222045898 7.4788761138916015625 2.728057861328125 2.3634858131408691406 8.9046106338500976562 11.871980667114257812 5.150562286376953125 7.5583486557006835938 5.5386672019958496094 2.6663515567779541016 2.1313192844390869141 5.0968451499938964844 1.9750199317932128906 3.4247493743896484375 7.2576107978820800781 4.8020653724670410156 3.4146630764007568359 2.2138738632202148438 9.0682992935180664062 8.7934598922729492188 5.8026599884033203125 10.811938285827636719 13.925267219543457031 13.12934112548828125 11.128518104553222656 10.457232475280761719 19.231792449951171875 16.213184356689453125 15.7491912841796875 11.309954643249511719 -9999 
-9999 -9999 -9999 -9999 -9999 -9999 -9999 -9999 -9999 -9999 -9999 -9999 -9999 -9999 -9999 -9999 -9999 -9999 -9999 -9999 -9999 -9999 -9999 -9999 -9999 -9999 -9999 -9999 -9999 -9999 -9999 -9999 7.8549041748046875 -9999 -9999 -9999 -9999 -9999 -9999 -9999 -9999 -9999 -9999 -9999 -9999 -9999 -9999 -9999 -9999 -9999 -9999 -9999 -9999 -9999 -9999 -9999 -9999 -9999 -9999 -9999 -9999 -9999 -9999 23.856807708740234375 23.844129562377929688 -9999 1.6293472051620483398 2.2322804927825927734 6.3913106918334960938 5.8249454498291015625 -9999 -9999 -9999 7.6000723838806152344 3.8499765396118164062 10.170719146728515625 15.181262016296386719 13.724124908447265625 -9999 -9999 -9999 18.873447418212890625 5.8709349632263183594 5.5712962150573730469 6.2149205207824707031 7.920482635498046875 6.2920656204223632812 7.1325559616088867188 5.7639436721801757812 3.1614506244659423828 2.0432655811309814453 3.1856687068939208984 2.5954215526580810547 11.144734382629394531 6.539093017578125 6.8450489044189453125 5.3175020217895507812 1.7331204414367675781 1.8683016300201416016 4.0473904609680175781 1.3619208335876464844 12.741343498229980469 12.854200363159179688 4.1988968849182128906 4.2126631736755371094 1.9695048332214355469 1.2930392026901245117 1.8807764053344726562 2.9916937351226806641 1.1613651514053344727 3.3819332122802734375 -9999 -9999 8.6887369155883789062 1.0381304025650024414 4.8387866020202636719 1.885752558708190918 2.49666595458984375 8.3684530258178710938 9.7952165603637695312 6.6463212966918945312 8.6675262451171875 -9999 -9999 12.290788650512695312 -9999 -9999 
-9999 -9999 -9999 -9999 -9999 -9999 -9999 -9999 -9999 -9999 -9999 -9999 -9999 -9999 -9999 -9999 -9999 -9999 -9999 -9999 -9999 -9999 -9999 -9999 -9999 -9999 -9999 -9999 -9999 -9999 -9999 -9999 -9999 13.172829627990722656 15.156115531921386719 -9999 -9999 -9999 -9999 -9999 -9999 -9999 -9999 -9999 -9999 -9999 -9999 -9999 -9999 -9999 -9999 -9999 -9999 -9999 -9999 -9999 -9999 -9999 -9999 -9999 -9999 -9999 -9999 -9999 -9999 -9999 -9999 -9999 4.6757626533508300781 6.855449676513671875 -9999 -9999 -9999 -9999 7.3110547065734863281 8.2298040390014648438 7.8429551124572753906 -9999 -9999 -9999 -9999 4.0991530418395996094 5.2980160713195800781 2.6921534538269042969 2.5550439357757568359 3.7090048789978027344 7.824596405029296875 11.859636306762695312 4.6640572547912597656 3.9662406444549560547 1.9785066843032836914 4.4108643531799316406 8.6397504806518554688 4.8513431549072265625 7.3961091041564941406 7.2862987518310546875 8.5458841323852539062 9.1047143936157226562 7.2821865081787109375 6.5727057456970214844 11.528729438781738281 24.766681671142578125 5.9279856681823730469 5.4891219139099121094 2.9120049476623535156 13.327833175659179688 6.764759063720703125 8.970378875732421875 -9999 -9999 4.7091927528381347656 2.0699090957641601562 7.7290258407592773438 11.133878707885742188 8.3991193771362304688 3.1101269721984863281 5.6979050636291503906 7.9806580543518066406 5.3006587028503417969 7.9013333320617675781 4.7581844329833984375 13.104439735412597656 -9999 -9999 -9999 -9999 -9999 
-9999 -9999 -9999 -9999 -9999 -9999 -9999 -9999 -9999 -9999 -9999 -9999 -9999 -9999 -9999 -9999 -9999 -9999 -9999 -9999 -9999 -9999 -9999 -9999 -9999 -9999 -9999 -9999 -9999 -9999 -9999 -9999 -9999 9.5113353729248046875 10.917376518249511719 -9999 -9999 -9999 -9999 -9999 -9999 -9999 -9999 -9999 -9999 -9999 -9999 -9999 -9999 -9999 -9999 -9999 -9999 -9999 -9999 -9999 -9999 -9999 -9999 -9999 -9999 -9999 -9999 -9999 -9999 -9999 -9999 -9999 -9999 -9999 -9999 -9999 -9999 -9999 -9999 9.7935266494750976562 7.69698333740234375 6.5616888999938964844 8.7506885528564453125 -9999 -9999 1.8494296073913574219 1.0397090911865234375 3.06992340087890625 3.149005889892578125 1.7626589536666870117 10.234137535095214844 9.51670074462890625 3.9379553794860839844 6.6210689544677734375 3.0197286605834960938 8.2228746414184570312 3.7411172389984130859 6.5659966468811035156 6.9498305320739746094 5.888339996337890625 5.1909680366516113281 5.9698700904846191406 8.6380891799926757812 8.1709814071655273438 3.3573136329650878906 8.0869455337524414062 7.26833343505859375 5.4511380195617675781 3.5014166831970214844 4.7404155731201171875 3.1985821723937988281 6.5898776054382324219 -9999 11.515606880187988281 7.4740662574768066406 1.1520463228225708008 2.2889392375946044922 5.5978274345397949219 3.1060762405395507812 3.1935760974884033203 -9999 13.06566619873046875 8.1463375091552734375 12.456964492797851562 6.2185616493225097656 20.161508560180664062 -9999 -9999 23.797517776489257812 -9999 -9999 
-9999 -9999 -9999 -9999 -9999 -9999 -9999 -9999 -9999 -9999 -9999 -9999 -9999 -9999 -9999 -9999 -9999 -9999 -9999 -9999 -9999 -9999 -9999 -9999 -9999 -9999 -9999 -9999 -9999 -9999 -9999 -9999 -9999 13.532837867736816406 9.8140974044799804688 10.695926666259765625 -9999 -9999 -9999 17.529096603393554688 -9999 -9999 -9999 -9999 -9999 -9999 -9999 -9999 -9999 -9999 -9999 -9999 -9999 -9999 -9999 -9999 -9999 -9999 -9999 -9999 -9999 -9999 -9999 -9999 -9999 -9999 -9999 -9999 -9999 -9999 -9999 -9999 -9999 5.5628986358642578125 3.7796390056610107422 2.2525026798248291016 8.4978303909301757812 7.1204013824462890625 -9999 29.614959716796875 15.952187538146972656 6.5841631889343261719 4.2430672645568847656 4.1121063232421875 4.9017767906188964844 4.9503383636474609375 9.0908460617065429688 2.6065835952758789062 1.9471770524978637695 10.381044387817382812 -9999 18.7691192626953125 3.2851340770721435547 7.3948216438293457031 6.74532318115234375 5.3841333389282226562 5.8423447608947753906 5.0697126388549804688 6.4470415115356445312 8.2321376800537109375 9.6774892807006835938 8.6168985366821289062 7.7332296371459960938 5.7589178085327148438 1.5955845117568969727 4.0603361129760742188 1.3388997316360473633 2.1111662387847900391 11.284330368041992188 8.5822887420654296875 12.84743499755859375 11.542852401733398438 2.6842372417449951172 2.7278203964233398438 2.5754342079162597656 1.9321960210800170898 7.0910153388977050781 14.940959930419921875 11.282992362976074219 9.8264684677124023438 7.2866673469543457031 1.5070476531982421875 20.787405014038085938 -9999 -9999 -9999 -9999 
-9999 -9999 -9999 -9999 -9999 -9999 -9999 -9999 -9999 -9999 -9999 -9999 -9999 -9999 -9999 -9999 -9999 -9999 -9999 -9999 -9999 -9999 -9999 -9999 -9999 -9999 -9999 -9999 -9999 -9999 -9999 -9999 -9999 -9999 -9999 4.0579595565795898438 7.4075717926025390625 -9999 -9999 -9999 -9999 -9999 -9999 -9999 -9999 -9999 -9999 -9999 -9999 -9999 -9999 -9999 -9999 -9999 -9999 -9999 -9999 -9999 -9999 -9999 -9999 12.063847541809082031 -9999 -9999 -9999 -9999 -9999 -9999 -9999 -9999 -9999 -9999 -9999 6.0811824798583984375 6.5600452423095703125 8.18854522705078125 2.7750251293182373047 11.485344886779785156 14.411086082458496094 6.3755130767822265625 1.8934247493743896484 4.7639870643615722656 9.8159933090209960938 7.8218183517456054688 5.40735626220703125 5.0991611480712890625 -9999 8.9588575363159179688 9.731128692626953125 16.292207717895507812 14.110388755798339844 3.5385847091674804688 2.5503938198089599609 5.7704195976257324219 5.9811792373657226562 5.5189404487609863281 7.278766632080078125 5.0980234146118164062 5.801555633544921875 6.9193572998046875 7.9465780258178710938 7.8699560165405273438 11.099993705749511719 8.3505001068115234375 2.0579595565795898438 3.2361009120941162109 10.41982269287109375 13.190773963928222656 6.74370574951171875 -9999 4.7540440559387207031 -9999 8.99756622314453125 2.1553010940551757812 2.4172799587249755859 1.2488391399383544922 11.194776535034179688 -9999 8.0564413070678710938 5.8652887344360351562 3.8109900951385498047 2.5475378036499023438 5.43445587158203125 -9999 -9999 -9999 -9999 
-9999 -9999 -9999 -9999 -9999 -9999 -9999 -9999 -9999 -9999 -9999 -9999 -9999 -9999 -9999 -9999 -9999 -9999 -9999 -9999 -9999 -9999 -9999 -9999 -9999 -9999 -9999 -9999 -9999 -9999 -9999 -9999 -9999 -9999 -9999 5.787506103515625 7.285114288330078125 16.730777740478515625 16.1778106689453125 19.137102127075195312 -9999 -9999 -9999 -9999 -9999 -9999 -9999 -9999 -9999 -9999 -9999 -9999 -9999 -9999 -9999 -9999 -9999 -9999 -9999 -9999 -9999 -9999 -9999 -9999 -9999 -9999 -9999 -9999 -9999 -9999 -9999 -9999 -9999 12.255954742431640625 7.6404390335083007812 3.7776632308959960938 2.4633469581604003906 -9999 7.1371450424194335938 8.8068571090698242188 6.8853197097778320312 5.7140760421752929688 -9999 12.220371246337890625 2.6901571750640869141 2.4644374847412109375 8.4550695419311523438 -9999 3.9304258823394775391 2.7317135334014892578 15.520251274108886719 5.4619612693786621094 2.6258814334869384766 4.5821423530578613281 4.1152825355529785156 5.6327061653137207031 5.3063750267028808594 5.9044885635375976562 6.325061798095703125 8.173824310302734375 9.3208532333374023438 10.535655975341796875 10.891103744506835938 9.1136493682861328125 6.3856658935546875 7.4631228446960449219 11.12615966796875 16.024271011352539062 1.8800841569900512695 -9999 -9999 -9999 16.343427658081054688 8.166996002197265625 1.0105782747268676758 4.3743023872375488281 8.7007036209106445312 5.5538277626037597656 -9999 -9999 -9999 11.204202651977539062 10.429290771484375 4.7475676536560058594 -9999 -9999 -9999 
-9999 -9999 -9999 -9999 -9999 -9999 -9999 -9999 -9999 -9999 -9999 -9999 -9999 -9999 -9999 -9999 -9999 -9999 -9999 -9999 -9999 -9999 -9999 -9999 -9999 -9999 -9999 -9999 -9999 -9999 -9999 -9999 -9999 -9999 9.078777313232421875 10.883519172668457031 10.646745681762695312 11.594499588012695312 12.962718009948730469 16.79465484619140625 -9999 -9999 -9999 -9999 -9999 -9999 -9999 -9999 -9999 -9999 -9999 -9999 -9999 -9999 -9999 -9999 -9999 -9999 -9999 -9999 -9999 -9999 -9999 -9999 -9999 -9999 -9999 -9999 -9999 -9999 -9999 -9999 -9999 7.7541050910949707031 -9999 -9999 -9999 -9999 6.691234588623046875 4.1249103546142578125 5.8814272880554199219 -9999 -9999 9.6323080062866210938 3.1502585411071777344 3.4471082687377929688 2.3714244365692138672 2.7323102951049804688 3.2143251895904541016 5.5179638862609863281 9.3848695755004882812 5.3186173439025878906 1.4258059263229370117 1.2843599319458007812 3.3125853538513183594 8.5800867080688476562 7.063571929931640625 4.7245497703552246094 7.0007567405700683594 9.80545806884765625 6.3042130470275878906 5.9017252922058105469 6.0205821990966796875 5.6557149887084960938 3.5672376155853271484 5.5509238243103027344 5.6199831962585449219 9.0468282699584960938 3.0620584487915039062 9.91419219970703125 13.450024604797363281 14.308034896850585938 14.971684455871582031 17.23894500732421875 -9999 5.9348969459533691406 2.1672570705413818359 1.3588339090347290039 -9999 -9999 -9999 10.324728965759277344 -9999 -9999 -9999 -9999 -9999 
-9999 -9999 -9999 -9999 -9999 -9999 -9999 -9999 -9999 -9999 -9999 -9999 -9999 -9999 -9999 -9999 -9999 -9999 -9999 -9999 -9999 -9999 -9999 -9999 -9999 -9999 -9999 -9999 -9999 -9999 -9999 -9999 -9999 -9999 13.675214767456054688 -9999 13.849270820617675781 10.088857650756835938 10.143174171447753906 -9999 11.506502151489257812 -9999 -9999 -9999 -9999 -9999 -9999 -9999 -9999 -9999 -9999 -9999 -9999 -9999 -9999 -9999 -9999 -9999 -9999 -9999 -9999 -9999 -9999 -9999 -9999 -9999 -9999 -9999 -9999 -9999 -9999 -9999 -9999 -9999 -9999 -9999 -9999 -9999 5.0409526824951171875 6.1879172325134277344 2.1710445880889892578 -9999 -9999 -9999 6.8137693405151367188 -9999 2.6842942237854003906 7.2572832107543945312 6.7457919120788574219 6.4621405601501464844 3.6482076644897460938 2.1030974388122558594 2.3200135231018066406 2.3762803077697753906 1.6393250226974487305 5.7904477119445800781 8.0905256271362304688 4.9006986618041992188 4.8602585792541503906 5.5587019920349121094 11.7193603515625 8.7719202041625976562 31.510410308837890625 4.4590840339660644531 8.7137470245361328125 6.2419147491455078125 5.0226955413818359375 8.9543428421020507812 2.6617712974548339844 4.9111256599426269531 -9999 2.2118508815765380859 -9999 3.6779599189758300781 3.5883634090423583984 1.6847139596939086914 4.0635790824890136719 4.0890650749206542969 -9999 9.6754474639892578125 -9999 -9999 -9999 -9999 -9999 -9999 -9999 
-9999 -9999 -9999 -9999 -9999 -9999 -9999 -9999 -9999 -9999 -9999 -9999 -9999 -9999 -9999 -9999 -9999 -9999 -9999 -9999 -9999 -9999 -9999 -9999 -9999 -9999 -9999 -9999 -9999 -9999 -9999 -9999 -9999 -9999 -9999 -9999 -9999 -9999 8.1638889312744140625 -9999 -9999 18.46901702880859375 -9999 9.543262481689453125 10.989750862121582031 -9999 -9999 -9999 -9999 -9999 -9999 -9999 -9999 -9999 -9999 -9999 -9999 -9999 -9999 -9999 10.683787345886230469 -9999 -9999 -9999 -9999 -9999 -9999 -9999 -9999 -9999 18.939416885375976562 -9999 -9999 -9999 -9999 -9999 -9999 -9999 -9999 4.5347905158996582031 5.3401956558227539062 -9999 -9999 -9999 6.2347874641418457031 5.2644453048706054688 8.2557344436645507812 7.3224987983703613281 8.3600893020629882812 8.4821271896362304688 9.2427845001220703125 9.3293848037719726562 7.5020799636840820312 4.6915383338928222656 5.3641481399536132812 6.8612689971923828125 6.4092440605163574219 3.7195780277252197266 4.5225872993469238281 9.0013418197631835938 3.5736727714538574219 7.5314464569091796875 37.367374420166015625 12.822556495666503906 8.6107854843139648438 8.6713647842407226562 7.6886835098266601562 6.146015167236328125 5.9020290374755859375 -9999 2.3871283531188964844 6.4630694389343261719 6.3503537178039550781 3.0154352188110351562 1.3268691301345825195 3.9682104587554931641 5.7046818733215332031 3.0191509723663330078 10.96327972412109375 12.162237167358398438 9.465877532958984375 8.5907649993896484375 -9999 5.0681872367858886719 -9999 -9999 -9999 
-9999 -9999 -9999 -9999 -9999 -9999 -9999 -9999 -9999 -9999 -9999 -9999 -9999 -9999 -9999 -9999 -9999 -9999 -9999 -9999 -9999 -9999 -9999 -9999 -9999 -9999 -9999 -9999 -9999 -9999 -9999 -9999 -9999 -9999 -9999 -9999 -9999 -9999 -9999 -9999 -9999 -9999 -9999 8.58455657958984375 9.4375867843627929688 -9999 -9999 -9999 -9999 -9999 -9999 -9999 -9999 -9999 -9999 -9999 -9999 -9999 -9999 -9999 -9999 -9999 -9999 -9999 -9999 -9999 -9999 -9999 -9999 -9999 -9999 -9999 -9999 -9999 -9999 -9999 -9999 -9999 -9999 -9999 -9999 13.630392074584960938 5.0131206512451171875 -9999 10.712664604187011719 2.8586115837097167969 7.6383543014526367188 9.8355770111083984375 7.84447479248046875 7.7533121109008789062 8.5704336166381835938 10.626175880432128906 6.6668348312377929688 10.298884391784667969 6.91754150390625 5.8088407516479492188 7.0303983688354492188 4.9496865272521972656 7.5079655647277832031 4.8272271156311035156 8.0647211074829101562 14.804718017578125 13.814181327819824219 9.5636653900146484375 6.7208600044250488281 4.4836287498474121094 2.3242914676666259766 8.1769933700561523438 7.9486222267150878906 12.620253562927246094 6.7463445663452148438 3.3762292861938476562 1.0639051198959350586 5.3894791603088378906 7.4558172225952148438 3.5533838272094726562 1.9033360481262207031 6.5882015228271484375 16.106962203979492188 15.139734268188476562 5.3200449943542480469 9.2021722793579101562 4.35099029541015625 2.0534167289733886719 -9999 -9999 -9999 
-9999 -9999 11.381610870361328125 -9999 -9999 -9999 -9999 -9999 -9999 -9999 -9999 -9999 -9999 -9999 -9999 -9999 -9999 -9999 -9999 -9999 -9999 -9999 -9999 -9999 -9999 -9999 -9999 -9999 -9999 -9999 -9999 -9999 -9999 -9999 -9999 12.236388206481933594 -9999 -9999 -9999 -9999 -9999 -9999 -9999 -9999 12.848972320556640625 11.646619796752929688 -9999 -9999 -9999 -9999 -9999 -9999 -9999 -9999 -9999 -9999 -9999 -9999 -9999 -9999 -9999 -9999 -9999 -9999 -9999 -9999 -9999 -9999 -9999 -9999 -9999 -9999 -9999 -9999 -9999 -9999 -9999 -9999 -9999 -9999 9.1992130279541015625 7.8732557296752929688 -9999 -9999 -9999 -9999 23.924318313598632812 20.246526718139648438 3.5329344272613525391 1.2984912395477294922 5.7703385353088378906 7.2989773750305175781 1.5557544231414794922 3.9627981185913085938 8.4379682540893554688 7.9133043289184570312 3.2166655063629150391 2.1863267421722412109 7.0089502334594726562 3.0622434616088867188 6.6433482170104980469 8.6759185791015625 12.391452789306640625 8.0178823471069335938 2.1307499408721923828 3.1208367347717285156 2.7255144119262695312 2.7065954208374023438 3.9238388538360595703 9.9200086593627929688 -9999 -9999 -9999 -9999 -9999 17.857616424560546875 -9999 -9999 -9999 -9999 -9999 12.297969818115234375 8.7703714370727539062 7.2998614311218261719 -9999 -9999 -9999 
-9999 -9999 -9999 -9999 -9999 -9999 -9999 -9999 -9999 -9999 -9999 -9999 -9999 -9999 -9999 -9999 -9999 -9999 -9999 -9999 -9999 -9999 -9999 -9999 -9999 -9999 -9999 -9999 -9999 -9999 -9999 -9999 -9999 -9999 -9999 -9999 -9999 10.754907608032226562 -9999 -9999 -9999 -9999 -9999 -9999 10.333168983459472656 1.8605625629425048828 4.8773074150085449219 9.4686260223388671875 -9999 -9999 -9999 -9999 -9999 -9999 -9999 -9999 -9999 -9999 -9999 -9999 -9999 -9999 -9999 -9999 -9999 -9999 -9999 -9999 -9999 -9999 -9999 -9999 -9999 -9999 -9999 -9999 8.3941659927368164062 -9999 -9999 -9999 13.708172798156738281 10.141680717468261719 9.2834367752075195312 7.2363834381103515625 14.669916152954101562 -9999 -9999 15.866567611694335938 10.546660423278808594 8.2643728256225585938 1.7271845340728759766 2.0362515449523925781 6.8595623970031738281 9.5013370513916015625 4.5495505332946777344 4.2272467613220214844 1.1408998966217041016 2.2345967292785644531 4.33324432373046875 1.0125505924224853516 3.8275890350341796875 4.7302870750427246094 11.952280044555664062 5.6449580192565917969 -9999 -9999 19.292705535888671875 11.88472747802734375 9.6993122100830078125 11.937192916870117188 -9999 1.0796387195587158203 -9999 -9999 -9999 18.843656539916992188 -9999 -9999 -9999 -9999 -9999 -9999 12.703061103820800781 9.0199861526489257812 4.7075304985046386719 -9999 -9999 
-9999 -9999 -9999 -9999 -9999 -9999 -9999 -9999 -9999 -9999 -9999 -9999 -9999 -9999 -9999 -9999 -9999 -9999 -9999 -9999 -9999 -9999 -9999 -9999 -9999 -9999 -9999 -9999 -9999 -9999 -9999 -9999 -9999 -9999 -9999 9.2892541885375976562 -9999 -9999 -9999 -9999 -9999 -9999 -9999 -9999 -9999 10.118292808532714844 7.1481165885925292969 -9999 -9999 -9999 -9999 -9999 -9999 -9999 -9999 -9999 -9999 -9999 -9999 -9999 -9999 -9999 -9999 -9999 -9999 -9999 -9999 -9999 -9999 -9999 -9999 -9999 -9999 -9999 -9999 10.253706932067871094 -9999 -9999 -9999 -9999 -9999 8.0211391448974609375 6.9253249168395996094 6.1491484642028808594 9.0929803848266601562 -9999 -9999 8.6778268814086914062 7.4558215141296386719 6.7619485855102539062 7.9574027061462402344 15.131242752075195312 6.4546122550964355469 3.8109407424926757812 1.5090644359588623047 2.1894159317016601562 4.0552096366882324219 4.23764801025390625 1.8776415586471557617 4.9619798660278320312 4.3113865852355957031 7.0827221870422363281 12.084400177001953125 -9999 7.9001975059509277344 -9999 -9999 19.192707061767578125 -9999 12.477557182312011719 5.6125454902648925781 5.6593809127807617188 -9999 -9999 10.391924858093261719 -9999 -9999 -9999 -9999 -9999 -9999 4.0234384536743164062 7.35309600830078125 8.9501934051513671875 7.7518835067749023438 -9999 -9999 
-9999 -9999 -9999 -9999 -9999 -9999 -9999 -9999 -9999 -9999 -9999 -9999 -9999 -9999 -9999 -9999 -9999 -9999 -9999 -9999 -9999 -9999 -9999 -9999 -9999 -9999 -9999 -9999 -9999 -9999 -9999 -9999 -9999 -9999 -9999 -9999 -9999 -9999 -9999 -9999 -9999 -9999 -9999 -9999 -9999 -9999 -9999 -9999 -9999 -9999 -9999 -9999 -9999 -9999 -9999 -9999 -9999 -9999 -9999 -9999 -9999 -9999 -9999 20.504018783569335938 -9999 -9999 -9999 -9999 22.478395462036132812 -9999 -9999 -9999 -9999 -9999 -9999 -9999 -9999 -9999 -9999 -9999 2.5934603214263916016 3.9560129642486572266 14.550960540771484375 4.1240172386169433594 7.0796365737915039062 5.8255891799926757812 17.379709243774414062 1.8813599348068237305 7.3832116127014160156 20.570753097534179688 20.231386184692382812 17.695913314819335938 7.0537328720092773438 7.6706285476684570312 7.6191048622131347656 8.1253986358642578125 3.3930804729461669922 1.7739655971527099609 1.4887148141860961914 3.4209711551666259766 3.9919238090515136719 5.3447179794311523438 -9999 -9999 -9999 -9999 -9999 -9999 -9999 8.7766046524047851562 3.2512345314025878906 -9999 12.986398696899414062 18.169343948364257812 9.700954437255859375 -9999 -9999 -9999 -9999 -9999 -9999 -9999 9.9498920440673828125 -9999 -9999 -9999 -9999 
-9999 -9999 -9999 -9999 -9999 -9999 -9999 -9999 -9999 -9999 -9999 -9999 -9999 -9999 -9999 -9999 -9999 -9999 -9999 -9999 -9999 -9999 -9999 -9999 -9999 -9999 -9999 -9999 -9999 6.702503204345703125 -9999 -9999 -9999 -9999 -9999 -9999 -9999 -9999 -9999 -9999 -9999 -9999 -9999 -9999 -9999 -9999 16.582750320434570312 13.435916900634765625 -9999 -9999 -9999 -9999 -9999 -9999 -9999 -9999 -9999 -9999 -9999 -9999 -9999 -9999 -9999 -9999 -9999 -9999 -9999 -9999 -9999 -9999 -9999 -9999 -9999 -9999 -9999 -9999 -9999 -9999 -9999 -9999 7.5027995109558105469 4.6040983200073242188 12.43377685546875 1.655900120735168457 6.8491683006286621094 12.985444068908691406 -9999 -9999 -9999 2.9754080772399902344 -9999 12.122860908508300781 8.6850271224975585938 2.8080582618713378906 2.6758055686950683594 -9999 10.312685012817382812 8.9111890792846679688 2.2100203037261962891 2.6856641769409179688 2.2178680896759033203 -9999 -9999 -9999 -9999 -9999 -9999 -9999 -9999 -9999 2.4916818141937255859 5.2295985221862792969 -9999 -9999 10.522530555725097656 -9999 -9999 8.5554656982421875 12.182572364807128906 -9999 -9999 -9999 -9999 -9999 -9999 -9999 -9999 
-9999 -9999 -9999 -9999 -9999 -9999 -9999 -9999 -9999 -9999 -9999 -9999 -9999 -9999 -9999 -9999 -9999 -9999 -9999 -9999 -9999 -9999 -9999 -9999 -9999 -9999 -9999 -9999 -9999 -9999 -9999 -9999 -9999 -9999 -9999 -9999 -9999 -9999 -9999 -9999 -9999 -9999 -9999 -9999 -9999 -9999 -9999 -9999 -9999 11.369190216064453125 10.138007164001464844 -9999 -9999 -9999 -9999 -9999 -9999 -9999 -9999 -9999 -9999 -9999 -9999 -9999 -9999 -9999 -9999 -9999 -9999 -9999 -9999 -9999 -9999 -9999 -9999 -9999 -9999 -9999 -9999 -9999 -9999 6.319622039794921875 8.2276239395141601562 6.9591574668884277344 10.102010726928710938 12.320380210876464844 9.17124176025390625 -9999 -9999 2.2636017799377441406 3.2705254554748535156 2.2338736057281494141 -9999 4.6240315437316894531 1.5704306364059448242 -9999 7.078372955322265625 8.9846706390380859375 12.11289215087890625 7.512104034423828125 7.6029796600341796875 11.807355880737304688 -9999 -9999 -9999 -9999 -9999 -9999 -9999 -9999 7.1327610015869140625 6.6771922111511230469 -9999 -9999 -9999 -9999 -9999 -9999 -9999 -9999 -9999 -9999 -9999 -9999 -9999 -9999 -9999 
-9999 17.557741165161132812 -9999 -9999 -9999 -9999 -9999 -9999 -9999 -9999 -9999 -9999 -9999 -9999 -9999 -9999 -9999 -9999 -9999 -9999 -9999 -9999 -9999 -9999 -9999 -9999 -9999 -9999 -9999 -9999 -9999 -9999 -9999 -9999 -9999 -9999 -9999 -9999 -9999 -9999 -9999 -9999 -9999 -9999 -9999 -9999 -9999 -9999 -9999 -9999 5.1459841728210449219 7.6932973861694335938 13.690148353576660156 -9999 -9999 -9999 -9999 -9999 -9999 -9999 -9999 -9999 -9999 -9999 17.599933624267578125 -9999 -9999 22.7152557373046875 -9999 -9999 -9999 -9999 -9999 -9999 -9999 -9999 -9999 -9999 -9999 -9999 1.2295893430709838867 1.3408114910125732422 2.1993281841278076172 4.296199798583984375 8.5907506942749023438 12.732349395751953125 9.7375020980834960938 11.810953140258789062 10.674795150756835938 -9999 6.866909027099609375 5.5583968162536621094 4.5960407257080078125 5.1915798187255859375 6.1352076530456542969 7.254039764404296875 -9999 10.684711456298828125 11.246356010437011719 6.798587799072265625 2.7322165966033935547 3.25901031494140625 11.694432258605957031 -9999 -9999 -9999 -9999 -9999 -9999 -9999 3.8387665748596191406 -9999 -9999 -9999 -9999 -9999 -9999 -9999 -9999 -9999 -9999 -9999 -9999 -9999 -9999 -9999 -9999 
-9999 -9999 -9999 -9999 -9999 -9999 -9999 -9999 -9999 -9999 -9999 -9999 -9999 -9999 -9999 -9999 -9999 -9999 -9999 -9999 -9999 -9999 -9999 -9999 -9999 -9999 -9999 -9999 -9999 -9999 -9999 -9999 -9999 12.307801246643066406 -9999 -9999 -9999 -9999 -9999 -9999 -9999 -9999 -9999 -9999 -9999 -9999 -9999 -9999 -9999 -9999 8.3996133804321289062 10.765412330627441406 -9999 -9999 -9999 -9999 -9999 -9999 -9999 -9999 -9999 -9999 -9999 -9999 -9999 -9999 -9999 -9999 -9999 -9999 -9999 -9999 -9999 -9999 -9999 -9999 -9999 -9999 -9999 -9999 4.4024376869201660156 4.5509409904479980469 8.289203643798828125 9.7424564361572265625 8.4864263534545898438 10.433457374572753906 -9999 5.4837250709533691406 6.60901641845703125 9.794132232666015625 4.2466821670532226562 15.756167411804199219 -9999 9.5417194366455078125 1.0904282331466674805 1.9982309341430664062 -9999 6.9855265617370605469 8.2114839553833007812 8.2323360443115234375 1.8579354286193847656 4.1130275726318359375 1.0249174833297729492 6.8060255050659179688 14.171634674072265625 -9999 10.917361259460449219 -9999 -9999 5.0025143623352050781 3.5107922554016113281 3.417522430419921875 6.4632568359375 -9999 -9999 -9999 -9999 -9999 -9999 -9999 -9999 -9999 -9999 -9999 -9999 -9999 -9999 
-9999 -9999 -9999 -9999 -9999 -9999 -9999 -9999 -9999 -9999 -9999 -9999 -9999 -9999 -9999 -9999 -9999 -9999 -9999 -9999 -9999 -9999 -9999 -9999 -9999 -9999 -9999 -9999 -9999 -9999 -9999 -9999 -9999 -9999 -9999 -9999 -9999 -9999 -9999 -9999 -9999 -9999 -9999 -9999 -9999 -9999 -9999 -9999 -9999 -9999 11.554230690002441406 -9999 15.154237747192382812 -9999 -9999 -9999 -9999 -9999 -9999 -9999 -9999 -9999 -9999 -9999 -9999 -9999 -9999 -9999 -9999 -9999 -9999 -9999 -9999 -9999 -9999 -9999 -9999 -9999 -9999 -9999 -9999 -9999 -9999 -9999 9.4400472640991210938 6.7107973098754882812 6.5491719245910644531 8.3455820083618164062 12.843153953552246094 -9999 -9999 -9999 11.808356285095214844 9.653961181640625 -9999 2.4598076343536376953 4.0535097122192382812 5.5636568069458007812 -9999 6.2202320098876953125 6.0500030517578125 8.2519216537475585938 19.118349075317382812 -9999 10.124553680419921875 7.1652903556823730469 5.7059292793273925781 6.0949578285217285156 3.0079662799835205078 -9999 4.1132345199584960938 -9999 -9999 -9999 -9999 -9999 -9999 -9999 -9999 -9999 -9999 -9999 -9999 -9999 -9999 -9999 -9999 
-9999 -9999 -9999 -9999 -9999 -9999 -9999 -9999 -9999 -9999 -9999 -9999 -9999 -9999 -9999 -9999 -9999 -9999 -9999 -9999 -9999 -9999 -9999 -9999 -9999 -9999 -9999 -9999 -9999 -9999 10.28946685791015625 16.474514007568359375 -9999 -9999 -9999 -9999 -9999 -9999 -9999 -9999 -9999 -9999 -9999 -9999 -9999 -9999 -9999 -9999 14.144140243530273438 -9999 -9999 -9999 -9999 15.657617568969726562 -9999 -9999 -9999 23.173677444458007812 -9999 -9999 -9999 -9999 -9999 -9999 -9999 20.291057586669921875 -9999 -9999 -9999 -9999 -9999 -9999 -9999 -9999 -9999 -9999 -9999 16.519201278686523438 -9999 -9999 -9999 -9999 -9999 -9999 -9999 11.785020828247070312 -9999 -9999 -9999 -9999 -9999 -9999 -9999 9.574687957763671875 4.5408606529235839844 3.2517385482788085938 7.8493623733520507812 10.144268035888671875 4.3712048530578613281 9.29671478271484375 1.7552152872085571289 4.140533447265625 13.612547874450683594 9.1561269760131835938 7.1744513511657714844 4.3238162994384765625 3.4530394077301025391 2.8982057571411132812 -9999 -9999 4.1844573020935058594 -9999 -9999 -9999 13.406237602233886719 -9999 -9999 -9999 -9999 -9999 -9999 -9999 -9999 -9999 -9999 -9999 -9999 
-9999 -9999 -9999 -9999 -9999 -9999 -9999 -9999 -9999 -9999 -9999 -9999 -9999 -9999 -9999 -9999 -9999 -9999 -9999 -9999 -9999 -9999 -9999 -9999 -9999 -9999 -9999 -9999 -9999 -9999 12.266024589538574219 -9999 -9999 -9999 -9999 -9999 -9999 -9999 -9999 -9999 -9999 -9999 -9999 -9999 -9999 -9999 -9999 -9999 -9999 -9999 -9999 -9999 -9999 -9999 -9999 -9999 -9999 -9999 11.305255889892578125 16.999217987060546875 -9999 -9999 -9999 -9999 -9999 -9999 -9999 -9999 -9999 -9999 -9999 -9999 -9999 -9999 -9999 -9999 -9999 -9999 -9999 -9999 -9999 -9999 -9999 -9999 -9999 15.761835098266601562 -9999 -9999 -9999 -9999 -9999 -9999 -9999 -9999 5.9369502067565917969 6.3213944435119628906 8.9309024810791015625 9.0200204849243164062 5.3739900588989257812 9.2193384170532226562 5.0557622909545898438 2.0670695304870605469 1.7571905851364135742 4.6330137252807617188 12.820734977722167969 2.0666379928588867188 2.5758588314056396484 4.9305734634399414062 -9999 -9999 -9999 -9999 -9999 -9999 -9999 -9999 -9999 -9999 -9999 -9999 -9999 -9999 -9999 -9999 -9999 -9999 -9999 
-9999 -9999 -9999 -9999 -9999 -9999 -9999 -9999 -9999 -9999 -9999 -9999 -9999 -9999 -9999 -9999 -9999 -9999 -9999 -9999 -9999 -9999 -9999 -9999 -9999 -9999 -9999 -9999 -9999 -9999 -9999 -9999 -9999 -9999 -9999 -9999 8.1720447540283203125 -9999 -9999 -9999 -9999 -9999 -9999 -9999 -9999 -9999 -9999 -9999 -9999 -9999 -9999 20.178823471069335938 -9999 -9999 -9999 -9999 -9999 -9999 -9999 -9999 -9999 -9999 -9999 -9999 -9999 -9999 -9999 -9999 -9999 -9999 -9999 -9999 -9999 -9999 -9999 -9999 -9999 -9999 -9999 -9999 -9999 -9999 -9999 -9999 -9999 -9999 -9999 -9999 -9999 -9999 -9999 -9999 -9999 -9999 -9999 9.34409332275390625 3.2799129486083984375 3.7268705368041992188 -9999 18.14011383056640625 15.157773971557617188 18.516265869140625 3.0800268650054931641 7.7962388992309570312 2.8183271884918212891 4.2048411369323730469 -9999 -9999 -9999 -9999 -9999 -9999 -9999 -9999 -9999 -9999 15.388588905334472656 -9999 -9999 -9999 -9999 -9999 -9999 -9999 -9999 -9999 -9999 
-9999 -9999 -9999 -9999 -9999 -9999 -9999 -9999 -9999 -9999 -9999 -9999 -9999 -9999 -9999 -9999 -9999 -9999 -9999 -9999 -9999 -9999 -9999 -9999 -9999 -9999 -9999 -9999 -9999 -9999 -9999 -9999 -9999 -9999 -9999 -9999 -9999 -9999 -9999 -9999 -9999 -9999 -9999 8.9815044403076171875 14.491718292236328125 -9999 -9999 -9999 -9999 -9999 -9999 -9999 -9999 -9999 -9999 -9999 -9999 -9999 -9999 -9999 -9999 -9999 -9999 -9999 -9999 -9999 -9999 -9999 -9999 -9999 -9999 -9999 -9999 -9999 -9999 -9999 -9999 -9999 -9999 -9999 -9999 -9999 -9999 -9999 -9999 -9999 -9999 -9999 -9999 -9999 -9999 -9999 -9999 14.51609039306640625 10.246588706970214844 8.6006441116333007812 9.2791128158569335938 3.3651704788208007812 7.5701088905334472656 -9999 11.999402999877929688 11.729748725891113281 1.8049726486206054688 1.992224574089050293 7.3206644058227539062 1.4208950996398925781 1.871252894401550293 -9999 -9999 -9999 -9999 -9999 -9999 -9999 -9999 -9999 -9999 -9999 -9999 -9999 -9999 -9999 -9999 -9999 18.6467437744140625 -9999 -9999 
-9999 -9999 -9999 17.548086166381835938 12.972165107727050781 -9999 -9999 -9999 -9999 -9999 -9999 -9999 -9999 -9999 -9999 -9999 -9999 -9999 -9999 -9999 -9999 -9999 -9999 -9999 -9999 -9999 -9999 -9999 -9999 -9999 -9999 -9999 -9999 -9999 -9999 12.993182182312011719 -9999 -9999 -9999 -9999 18.754024505615234375 -9999 22.810306549072265625 7.8452334403991699219 21.23476409912109375 6.9135136604309082031 14.080222129821777344 14.488081932067871094 -9999 -9999 -9999 -9999 -9999 -9999 -9999 -9999 -9999 -9999 -9999 -9999 -9999 -9999 -9999 -9999 -9999 -9999 -9999 -9999 -9999 -9999 -9999 -9999 -9999 -9999 -9999 -9999 -9999 -9999 -9999 -9999 -9999 -9999 -9999 -9999 -9999 -9999 -9999 -9999 -9999 -9999 -9999 -9999 -9999 -9999 -9999 -9999 15.715777397155761719 10.095163345336914062 8.8483819961547851562 14.913000106811523438 7.1674275398254394531 2.8250138759613037109 1.9411736726760864258 6.6629462242126464844 3.2583193778991699219 11.237486839294433594 10.249718666076660156 5.8725771903991699219 6.4428868293762207031 -9999 -9999 -9999 -9999 -9999 -9999 -9999 -9999 -9999 -9999 -9999 -9999 -9999 -9999 -9999 -9999 -9999 -9999 
-9999 -9999 -9999 -9999 -9999 -9999 -9999 -9999 -9999 -9999 -9999 -9999 -9999 -9999 -9999 -9999 -9999 -9999 -9999 -9999 -9999 -9999 -9999 -9999 -9999 -9999 -9999 -9999 -9999 -9999 -9999 -9999 -9999 -9999 -9999 -9999 -9999 -9999 -9999 -9999 8.965450286865234375 -9999 35.5819549560546875 6.8896956443786621094 28.531492233276367188 2.6283197402954101562 3.4411962032318115234 5.8765459060668945312 -9999 19.096942901611328125 -9999 -9999 -9999 -9999 -9999 -9999 -9999 -9999 -9999 -9999 -9999 -9999 -9999 -9999 17.770841598510742188 -9999 -9999 -9999 -9999 -9999 -9999 -9999 -9999 -9999 -9999 -9999 -9999 -9999 -9999 -9999 -9999 -9999 -9999 -9999 -9999 -9999 -9999 -9999 -9999 -9999 -9999 -9999 -9999 -9999 -9999 -9999 -9999 -9999 -9999 -9999 8.2286539077758789062 5.2902550697326660156 2.1062328815460205078 3.8076231479644775391 2.7475311756134033203 5.0708804130554199219 6.154026031494140625 2.9396452903747558594 -9999 -9999 -9999 -9999 -9999 -9999 -9999 -9999 -9999 -9999 -9999 -9999 -9999 -9999 -9999 -9999 -9999 -9999 -9999 
-9999 -9999 -9999 -9999 -9999 -9999 -9999 -9999 -9999 -9999 -9999 -9999 -9999 -9999 -9999 -9999 -9999 -9999 -9999 -9999 -9999 -9999 -9999 -9999 -9999 -9999 -9999 -9999 -9999 -9999 -9999 -9999 -9999 -9999 -9999 11.350693702697753906 13.323847770690917969 -9999 -9999 -9999 -9999 8.9930629730224609375 2.3840692043304443359 1.1152178049087524414 6.6992354393005371094 3.6596629619598388672 1.1466295719146728516 4.1433892250061035156 14.227154731750488281 21.887918472290039062 -9999 -9999 -9999 -9999 -9999 -9999 -9999 -9999 -9999 -9999 -9999 -9999 -9999 -9999 21.069202423095703125 -9999 -9999 -9999 -9999 -9999 -9999 -9999 -9999 -9999 -9999 -9999 -9999 -9999 -9999 -9999 -9999 -9999 -9999 -9999 -9999 -9999 -9999 -9999 -9999 -9999 -9999 -9999 -9999 -9999 -9999 -9999 -9999 -9999 -9999 -9999 -9999 13.704837799072265625 3.2611951828002929688 4.3622589111328125 5.14203643798828125 2.6081929206848144531 8.25495147705078125 9.642665863037109375 3.2860543727874755859 -9999 -9999 -9999 9.9367198944091796875 -9999 -9999 -9999 -9999 -9999 -9999 -9999 -9999 -9999 -9999 -9999 -9999 -9999 -9999 
