ncols        127
nrows        131
xllcorner    -71.681135979344
yllcorner    -16.519694133538
cellsize     0.001836012963
NODATA_value nan
7.3966488838195800781 7.3961420059204101562 7.3946232795715332031 7.3920941352844238281 7.3885588645935058594 7.384021759033203125 7.3786616325378417969 7.4528045654296875 7.528522491455078125 7.6058592796325683594 7.6848602294921875 7.76557159423828125 7.8480410575866699219 7.9323182106018066406 8.0184526443481445312 8.1064977645874023438 8.1965036392211914062 8.2891683578491210938 8.3848505020141601562 8.4827880859375 8.5830469131469726562 8.6856975555419921875 8.7909717559814453125 8.900539398193359375 9.0128793716430664062 9.1280832290649414062 9.2462396621704101562 9.3674459457397460938 9.4917964935302734375 9.61939239501953125 9.7503337860107421875 9.8847255706787109375 10.022670745849609375 10.164278984069824219 10.309658050537109375 10.458916664123535156 10.612164497375488281 10.769511222839355469 10.931065559387207031 11.096935272216796875 11.267223358154296875 11.442029953002929688 11.621451377868652344 11.805576324462890625 11.994484901428222656 12.188246726989746094 12.386918067932128906 12.590541839599609375 12.799139976501464844 13.012712478637695312 13.231236457824707031 13.454656600952148438 13.682881355285644531 13.915782928466796875 14.154763221740722656 14.405913352966308594 14.663052558898925781 14.934681892395019531 15.212049484252929688 15.49485015869140625 15.782691001892089844 16.07508087158203125 16.37142181396484375 16.670988082885742188 16.97292327880859375 17.276220321655273438 17.579721450805664062 17.882099151611328125 18.181856155395507812 18.477325439453125 18.766668319702148438 19.047885894775390625 19.318838119506835938 19.57726287841796875 19.854120254516601562 20.2473297119140625 20.63660430908203125 21.019090652465820312 21.391611099243164062 21.750688552856445312 22.092588424682617188 22.49079132080078125 23.080394744873046875 23.67572021484375 24.272552490234375 24.865789413452148438 25.449398040771484375 26.016407012939453125 26.558965682983398438 27.068490982055664062 27.535875320434570312 28.398317337036132812 29.38559722900390625 30.388011932373046875 31.393945693969726562 32.388477325439453125 33.353199005126953125 34.26633453369140625 35.10329437255859375 35.8377838134765625 36.443492889404296875 36.89626312255859375 37.17650604248046875 37.2714080810546875 37.2714080810546875 37.2714080810546875 37.2714080810546875 37.17650604248046875 36.89626312255859375 36.443492889404296875 35.8377838134765625 35.10329437255859375 34.26633453369140625 33.353199005126953125 32.388477325439453125 31.393945693969726562 30.388011932373046875 29.38559722900390625 28.398317337036132812 27.434858322143554688 26.501401901245117188 25.602087020874023438 24.73941802978515625 23.914646148681640625 23.1280670166015625 22.379283905029296875 21.66739654541015625 
7.4813847541809082031 7.48085784912109375 7.4792776107788085938 7.47664642333984375 7.4729685783386230469 7.4682488441467285156 7.4624948501586914062 7.4864168167114257812 7.5633397102355957031 7.6419377326965332031 7.7222580909729003906 7.8043508529663085938 7.8882670402526855469 7.9740595817565917969 8.0617828369140625 8.1514921188354492188 8.243244171142578125 8.3370990753173828125 8.433116912841796875 8.531787872314453125 8.6340608596801757812 8.73883056640625 8.8461732864379882812 8.95616912841796875 9.0688982009887695312 9.1864061355590820312 9.3071689605712890625 9.43112945556640625 9.5583925247192382812 9.689067840576171875 9.823268890380859375 9.9611110687255859375 10.102713584899902344 10.248196601867675781 10.397683143615722656 10.551299095153808594 10.709170341491699219 10.871425628662109375 11.0381927490234375 11.209599494934082031 11.385771751403808594 11.566832542419433594 11.752903938293457031 11.94409942626953125 12.140527725219726562 12.342286109924316406 12.549463272094726562 12.762131690979003906 12.9803466796875 13.204142570495605469 13.433526992797851562 13.668480873107910156 13.908946990966796875 14.154828071594238281 14.405978202819824219 14.663121223449707031 14.934749603271484375 15.212197303771972656 15.506910324096679688 15.808152198791503906 16.115568161010742188 16.428693771362304688 16.7469482421875 17.069606781005859375 17.395799636840820312 17.724481582641601562 18.054430007934570312 18.38422393798828125 18.712236404418945312 19.036630630493164062 19.35535430908203125 19.666154861450195312 19.966587066650390625 20.254041671752929688 20.525785446166992188 20.902105331420898438 21.333690643310546875 21.759595870971679688 22.176214218139648438 22.579532623291015625 22.965179443359375 23.3284912109375 23.881013870239257812 24.546062469482421875 25.217021942138671875 25.888296127319335938 26.553071975708007812 27.203273773193359375 27.829580307006835938 28.421567916870117188 28.967945098876953125 29.574878692626953125 30.701807022094726562 31.857847213745117188 33.03060150146484375 34.203212738037109375 35.35385894775390625 36.45556640625 37.476657867431640625 38.382030487060546875 39.135456085205078125 39.702789306640625 40.05576324462890625 40.1756134033203125 40.1756134033203125 40.1756134033203125 40.1756134033203125 40.05576324462890625 39.702789306640625 39.135456085205078125 38.382030487060546875 37.476657867431640625 36.45556640625 35.35385894775390625 34.203212738037109375 33.03060150146484375 31.857847213745117188 30.701807022094726562 29.574878692626953125 28.485700607299804688 27.439876556396484375 26.44063568115234375 25.48941802978515625 24.5863494873046875 23.730621337890625 22.920787811279296875 22.15499114990234375 
7.5683956146240234375 7.5678472518920898438 7.5662021636962890625 7.5634636878967285156 7.5596356391906738281 7.5547237396240234375 7.5487356185913085938 7.54167938232421875 7.5975136756896972656 7.6773629188537597656 7.7589931488037109375 7.8424587249755859375 7.9278130531311035156 8.0151128768920898438 8.1044178009033203125 8.1957855224609375 8.289279937744140625 8.3849630355834960938 8.4829015731811523438 8.5831613540649414062 8.6858129501342773438 8.7910919189453125 8.9006595611572265625 9.0130014419555664062 9.1282052993774414062 9.2463636398315429688 9.3675699234008789062 9.4937105178833007812 9.6238803863525390625 9.7576341629028320312 9.8950967788696289062 10.036396026611328125 10.181666374206542969 10.331041336059570312 10.484660148620605469 10.642666816711425781 10.805204391479492188 10.972421646118164062 11.144467353820800781 11.321490287780761719 11.503643035888671875 11.691073417663574219 11.883930206298828125 12.082357406616210938 12.286493301391601562 12.496468544006347656 12.712406158447265625 12.934415817260742188 13.162588119506835938 13.396999359130859375 13.637697219848632812 13.884700775146484375 14.137997627258300781 14.397528648376464844 14.663188934326171875 14.934816360473632812 15.212268829345703125 15.506979942321777344 15.808220863342285156 16.1280975341796875 16.456434249877929688 16.7918243408203125 17.13372039794921875 17.481420516967773438 17.83405303955078125 18.190553665161132812 18.54964447021484375 18.909816741943359375 19.269317626953125 19.626132965087890625 19.977985382080078125 20.322332382202148438 20.656385421752929688 20.97713470458984375 21.281385421752929688 21.591796875 22.071287155151367188 22.546731948852539062 23.014049530029296875 23.468622207641601562 23.905330657958984375 24.318635940551757812 24.719072341918945312 25.463037490844726562 26.218835830688476562 26.980457305908203125 27.74031829833984375 28.489145278930664062 29.215923309326171875 29.90799713134765625 30.551324844360351562 31.13095855712890625 32.09189605712890625 33.427677154541015625 34.7994232177734375 36.188823699951171875 37.57059478759765625 38.911708831787109375 40.171421051025390625 41.302555084228515625 42.254497528076171875 42.977947235107421875 43.43100738525390625 43.585369110107421875 43.585369110107421875 43.585369110107421875 43.585369110107421875 43.43100738525390625 42.977947235107421875 42.254497528076171875 41.302555084228515625 40.171421051025390625 38.911708831787109375 37.57059478759765625 36.188823699951171875 34.7994232177734375 33.427677154541015625 32.09189605712890625 30.8045196533203125 29.573329925537109375 28.402545928955078125 27.293773651123046875 26.246761322021484375 25.260004043579101562 24.331167221069335938 23.457433700561523438 22.635715484619140625 
7.6577744483947753906 7.6572031974792480469 7.6554903984069824219 7.6526384353637695312 7.6486520767211914062 7.6435370445251464844 7.6373019218444824219 7.629955291748046875 7.6310019493103027344 7.7120900154113769531 7.7950191497802734375 7.8798451423645019531 7.9666266441345214844 8.0554246902465820312 8.1463003158569335938 8.2393178939819335938 8.334545135498046875 8.4320497512817382812 8.5319032669067382812 8.6341772079467773438 8.7389478683471679688 8.8462915420532226562 8.956287384033203125 9.0690183639526367188 9.18653106689453125 9.3072957992553710938 9.4312562942504882812 9.5585203170776367188 9.6891965866088867188 9.8249559402465820312 9.9656734466552734375 10.1104278564453125 10.259366989135742188 10.412641525268554688 10.570407867431640625 10.732825279235839844 10.900059700012207031 11.072278976440429688 11.249653816223144531 11.432360649108886719 11.620574951171875 11.814474105834960938 12.014237403869628906 12.22003936767578125 12.432055473327636719 12.65045166015625 12.875390052795410156 13.107020378112792969 13.345479011535644531 13.590887069702148438 13.843338966369628906 14.102904319763183594 14.369618415832519531 14.643475532531738281 14.924420356750488281 15.212339401245117188 15.507050514221191406 15.808289527893066406 16.128171920776367188 16.45650482177734375 16.804803848266601562 17.164056777954101562 17.531421661376953125 17.906240463256835938 18.28766632080078125 18.674631118774414062 19.065826416015625 19.459669113159179688 19.85428619384765625 20.247484207153320312 20.636745452880859375 21.01921844482421875 21.391725540161132812 21.750787734985351562 22.092672348022460938 22.413448333740234375 22.851451873779296875 23.383504867553710938 23.90924835205078125 24.423389434814453125 24.919946670532226562 25.392322540283203125 25.833436965942382812 26.426570892333984375 27.27936553955078125 28.145599365234375 29.017019271850585938 29.883127212524414062 30.73101043701171875 31.54535675048828125 32.3086700439453125 33.001827239990234375 33.604953765869140625 35.095149993896484375 36.703639984130859375 38.357013702392578125 40.02715301513671875 41.674526214599609375 43.247173309326171875 44.681488037109375 45.90576934814453125 46.847198486328125 47.441783905029296875 47.645267486572265625 47.645267486572265625 47.645267486572265625 47.645267486572265625 47.441783905029296875 46.847198486328125 45.90576934814453125 44.681488037109375 43.247173309326171875 41.674526214599609375 40.02715301513671875 38.357013702392578125 36.703639984130859375 35.095149993896484375 33.550128936767578125 32.079700469970703125 30.689456939697265625 29.38105010986328125 28.153469085693359375 27.003980636596679688 25.928802490234375 24.923593521118164062 23.983777999877929688 23.104764938354492188 
7.7496194839477539062 7.7490243911743164062 7.7472391128540039062 7.7442679405212402344 7.7401142120361328125 7.7347850799560546875 7.7282886505126953125 7.7206354141235351562 7.7118372917175292969 7.746074676513671875 7.8302874565124511719 7.9164605140686035156 8.0046558380126953125 8.0949373245239257812 8.1873712539672851562 8.2820272445678710938 8.3789758682250976562 8.4782915115356445312 8.5800495147705078125 8.6843290328979492188 8.7912111282348632812 8.9007806777954101562 9.01312255859375 9.1283273696899414062 9.246486663818359375 9.367694854736328125 9.4938411712646484375 9.6240110397338867188 9.7577657699584960938 9.895229339599609375 10.036530494689941406 10.183048248291015625 10.335648536682128906 10.492818832397460938 10.654732704162597656 10.821570396423339844 10.993517875671386719 11.170763969421386719 11.353506088256835938 11.541945457458496094 11.736286163330078125 11.936736106872558594 12.143507957458496094 12.3568115234375 12.5768585205078125 12.803859710693359375 13.038018226623535156 13.279531478881835938 13.528586387634277344 13.7853546142578125 14.04998779296875 14.322613716125488281 14.603325843811035156 14.892182350158691406 15.189189910888671875 15.494297027587890625 15.807383537292480469 16.128244400024414062 16.456577301025390625 16.804880142211914062 17.16413116455078125 17.54480743408203125 17.939554214477539062 18.343694686889648438 18.75643157958984375 19.176729202270507812 19.603269577026367188 20.034423828125 20.468214035034179688 20.902276992797851562 21.3338470458984375 21.759737014770507812 22.176340103149414062 22.57964324951171875 22.965274810791015625 23.328571319580078125 23.6760101318359375 24.27281951904296875 24.866033554077148438 25.449615478515625 26.01659393310546875 26.559123992919921875 27.0686187744140625 27.535974502563476562 28.398756027221679688 29.386007308959960938 30.38838958740234375 31.394285202026367188 32.38877105712890625 33.353443145751953125 34.266529083251953125 35.103443145751953125 35.837886810302734375 36.85211181640625 38.74060821533203125 40.71456146240234375 42.74497222900390625 44.78650665283203125 46.774265289306640625 48.62277984619140625 50.229339599609375 51.483795166015625 52.285015106201171875 52.56084442138671875 52.56084442138671875 52.56084442138671875 52.56084442138671875 52.285015106201171875 51.483795166015625 50.229339599609375 48.62277984619140625 46.774265289306640625 44.78650665283203125 42.74497222900390625 40.71456146240234375 38.74060821533203125 36.85211181640625 35.065555572509765625 33.3884429931640625 31.8221435546875 30.36411285400390625 29.009418487548828125 27.751844406127929688 26.5845947265625 25.500762939453125 24.493612289428710938 23.556751251220703125 
7.8440337181091308594 7.8434133529663085938 7.8415522575378417969 7.8384542465209960938 7.8341236114501953125 7.8285679817199707031 7.821796417236328125 7.8138194084167480469 7.8046503067016601562 7.7943029403686523438 7.8647513389587402344 7.9522547721862792969 8.0418462753295898438 8.1335954666137695312 8.2275714874267578125 8.323848724365234375 8.4225034713745117188 8.5236148834228515625 8.6272640228271484375 8.7335367202758789062 8.8425197601318359375 8.954303741455078125 9.0689840316772460938 9.1866559982299804688 9.3074216842651367188 9.4313831329345703125 9.5586481094360351562 9.6893262863159179688 9.8250913619995117188 9.9658098220825195312 10.110565185546875 10.2595062255859375 10.412781715393066406 10.571386337280273438 10.737437248229980469 10.908689498901367188 11.085350990295410156 11.267635345458984375 11.455763816833496094 11.649967193603515625 11.8504791259765625 12.057541847229003906 12.271402359008789062 12.492310523986816406 12.720519065856933594 12.956284523010253906 13.199859619140625 13.451493263244628906 13.711428642272949219 13.979897499084472656 14.257117271423339844 14.54328155517578125 14.838556289672851562 15.14307403564453125 15.45691680908203125 15.78011322021484375 16.112621307373046875 16.454311370849609375 16.804956436157226562 17.164205551147460938 17.544887542724609375 17.939634323120117188 18.35741424560546875 18.793186187744140625 19.239910125732421875 19.696622848510742188 20.162038803100585938 20.634515762329101562 21.112001419067382812 21.591985702514648438 22.071460723876953125 22.5468902587890625 23.014192581176757812 23.468746185302734375 23.905439376831054688 24.3187255859375 24.702754974365234375 25.21732330322265625 25.88857269287109375 26.553319931030273438 27.203489303588867188 27.829763412475585938 28.421716690063476562 28.968061447143554688 29.575376510620117188 30.70227813720703125 31.858285903930664062 33.030994415283203125 34.203563690185546875 35.354156494140625 36.455806732177734375 37.476840972900390625 38.3821563720703125 39.135532379150390625 40.898296356201171875 43.258914947509765625 45.738368988037109375 48.288848876953125 50.832763671875 53.2571258544921875 55.41403961181640625 57.13291168212890625 58.247592926025390625 58.634487152099609375 58.634487152099609375 58.634487152099609375 58.634487152099609375 58.247592926025390625 57.13291168212890625 55.41403961181640625 53.2571258544921875 50.832763671875 48.288848876953125 45.738368988037109375 43.258914947509765625 40.898296356201171875 38.68202972412109375 36.62024688720703125 34.71318817138671875 32.95514678955078125 31.337182998657226562 29.848852157592773438 28.479297637939453125 27.217885971069335938 26.054559707641601562 24.980020523071289062 23.985780715942382812 
7.9411273002624511719 7.9404797554016113281 7.9385380744934082031 7.9353060722351074219 7.9307889938354492188 7.9249939918518066406 7.9179310798645019531 7.9096117019653320312 7.9000496864318847656 7.8892612457275390625 7.8983621597290039062 7.9871759414672851562 8.0781450271606445312 8.1713409423828125 8.2668399810791015625 8.3647203445434570312 8.4650621414184570312 8.5679502487182617188 8.6734724044799804688 8.7817201614379882812 8.8927860260009765625 9.0067701339721679688 9.1237735748291015625 9.2439012527465820312 9.3672628402709960938 9.4939708709716796875 9.6241426467895507812 9.7578983306884765625 9.89536285400390625 10.036664962768554688 10.18318939208984375 10.335790634155273438 10.492961883544921875 10.654877662658691406 10.82171630859375 10.993963241577148438 11.175323486328125 11.362637519836425781 11.556154251098632812 11.756132125854492188 11.962840080261230469 12.176554679870605469 12.39756011962890625 12.626150131225585938 12.862624168395996094 13.107285499572753906 13.360442161560058594 13.622403144836425781 13.893473625183105469 14.173954010009765625 14.464133262634277344 14.764286041259765625 15.074662208557128906 15.395479202270507812 15.726914405822753906 16.069091796875 16.422067642211914062 16.785814285278320312 17.160200119018554688 17.5449676513671875 17.9397125244140625 18.3574981689453125 18.793268203735351562 19.25384521484375 19.737377166748046875 20.233791351318359375 20.7418975830078125 21.260089874267578125 21.786294937133789062 22.317890167236328125 22.851648330688476562 23.3836822509765625 23.909410476684570312 24.423532485961914062 24.920068740844726562 25.392425537109375 25.83351898193359375 26.235980987548828125 26.980772018432617188 27.740602493286132812 28.4893951416015625 29.216136932373046875 29.908172607421875 30.551462173461914062 31.131061553955078125 32.092433929443359375 33.42818450927734375 34.79988861083984375 36.189243316650390625 37.570953369140625 38.9120025634765625 40.1716461181640625 41.302715301513671875 42.2545928955078125 43.150604248046875 45.97156524658203125 49.006191253662109375 52.212795257568359375 55.506839752197265625 58.74514007568359375 61.7163543701171875 64.15085601806640625 65.763702392578125 66.3300933837890625 66.3300933837890625 66.3300933837890625 66.3300933837890625 65.763702392578125 64.15085601806640625 61.7163543701171875 58.74514007568359375 55.506839752197265625 52.212795257568359375 49.006191253662109375 45.97156524658203125 43.150604248046875 40.556949615478515625 38.18743896484375 36.029781341552734375 34.06737518310546875 32.282222747802734375 30.656524658203125 29.1735382080078125 27.817960739135742188 26.576028823852539062 25.435506820678710938 24.385576248168945312 
8.0410146713256835938 8.0403394699096679688 8.0383129119873046875 8.034938812255859375 8.030223846435546875 8.0241756439208984375 8.0168046951293945312 8.0081224441528320312 7.9981455802917480469 7.9868898391723632812 7.9743742942810058594 8.0211734771728515625 8.1134967803955078125 8.208118438720703125 8.3051166534423828125 8.4045763015747070312 8.5065813064575195312 8.6112241744995117188 8.7185964584350585938 8.82879638671875 8.941925048828125 9.0580883026123046875 9.1773939132690429688 9.2999582290649414062 9.4258985519409179688 9.5553369522094726562 9.6884021759033203125 9.8252267837524414062 9.965946197509765625 10.110703468322753906 10.259644508361816406 10.412921905517578125 10.571533203125 10.737586021423339844 10.908840179443359375 11.08550262451171875 11.267787933349609375 11.455918312072753906 11.654393196105957031 11.860136032104492188 12.073040008544921875 12.29341888427734375 12.521599769592285156 12.757920265197753906 13.002730369567871094 13.256386756896972656 13.519257545471191406 13.791715621948242188 14.074137687683105469 14.366900444030761719 14.670376777648925781 14.984929084777832031 15.31090545654296875 15.648627281188964844 15.998381614685058594 16.360408782958984375 16.734888076782226562 17.121913909912109375 17.521486282348632812 17.933469772338867188 18.357583999633789062 18.7933502197265625 19.253934860229492188 19.73746490478515625 20.247753143310546875 20.787342071533203125 21.342220306396484375 21.910905838012695312 22.491367340087890625 23.08094024658203125 23.676227569580078125 24.273021697998046875 24.866214752197265625 25.449777603149414062 26.016735076904296875 26.55924224853515625 27.068716049194335938 27.53604888916015625 28.14595794677734375 29.017345428466796875 29.883417129516601562 30.731260299682617188 31.545564651489257812 32.308834075927734375 33.001949310302734375 33.60503387451171875 35.09574127197265625 36.704189300537109375 38.357513427734375 40.027591705322265625 41.67488861083984375 43.247455596923828125 44.681690216064453125 45.90589141845703125 46.847255706787109375 48.808837890625 52.51839447021484375 56.56278228759765625 60.868907928466796875 65.27286529541015625 69.483367919921875 73.0701141357421875 75.52144622802734375 76.39748382568359375 76.39748382568359375 76.39748382568359375 76.39748382568359375 75.52144622802734375 73.0701141357421875 69.483367919921875 65.27286529541015625 60.868907928466796875 56.56278228759765625 52.51839447021484375 48.808837890625 45.45165252685546875 42.434261322021484375 39.729907989501953125 37.3067626953125 35.1327362060546875 33.177799224853515625 31.41490936279296875 29.82025909423828125 28.373125076293945312 27.055585861206054688 25.852193832397460938 24.749637603759765625 
8.1438198089599609375 8.1431131362915039062 8.1409969329833984375 8.1374731063842773438 8.1325483322143554688 8.126232147216796875 8.118534088134765625 8.1094694137573242188 8.0990533828735351562 8.08730316162109375 8.0742397308349609375 8.0598850250244140625 8.1478481292724609375 8.2438678741455078125 8.3423395156860351562 8.4433507919311523438 8.546993255615234375 8.6533632278442382812 8.7625579833984375 8.874683380126953125 8.9898471832275390625 9.10816192626953125 9.2297449111938476562 9.3547201156616210938 9.4832143783569335938 9.6153612136840820312 9.7512998580932617188 9.8911724090576171875 10.035131454467773438 10.183330535888671875 10.335932731628417969 10.493105888366699219 10.655022621154785156 10.821863174438476562 10.994116783142089844 11.175478935241699219 11.362793922424316406 11.55631256103515625 11.756292343139648438 11.963002204895019531 12.180735588073730469 12.407764434814453125 12.64311981201171875 12.887187004089355469 13.140368461608886719 13.403081893920898438 13.67575836181640625 13.958841323852539062 14.252786636352539062 14.558055877685546875 14.875115394592285156 15.204428672790527344 15.546456336975097656 15.901638031005859375 16.27039337158203125 16.65309906005859375 17.050079345703125 17.461591720581054688 17.887788772583007812 18.328706741333007812 18.784223556518554688 19.254024505615234375 19.737550735473632812 20.2478485107421875 20.787433624267578125 21.355922698974609375 21.9618988037109375 22.586212158203125 23.22698974609375 23.881620407104492188 24.546632766723632812 25.217550277709960938 25.8887786865234375 26.55350494384765625 27.20365142822265625 27.82990264892578125 28.4218292236328125 28.968149185180664062 29.457109451293945312 30.388767242431640625 31.394622802734375 32.389064788818359375 33.35369110107421875 34.266727447509765625 35.1035919189453125 35.837985992431640625 36.8527984619140625 38.741260528564453125 40.7151641845703125 42.745510101318359375 44.786960601806640625 46.774627685546875 48.62303924560546875 50.22949981689453125 51.483875274658203125 52.2850341796875 56.196376800537109375 61.2864990234375 66.94268798828125 73.02402496337890625 79.16996002197265625 84.70677947998046875 88.6748199462890625 90.132904052734375 90.132904052734375 90.132904052734375 90.132904052734375 88.6748199462890625 84.70677947998046875 79.16996002197265625 73.02402496337890625 66.94268798828125 61.2864990234375 56.196376800537109375 51.690616607666015625 47.730037689208984375 44.254184722900390625 41.19916534423828125 38.505428314208984375 36.120540618896484375 33.99961090087890625 32.104740142822265625 30.40412139892578125 28.871112823486328125 27.483369827270507812 26.22210693359375 25.07147216796875 
8.2496709823608398438 8.2489328384399414062 8.2467203140258789062 8.2430372238159179688 8.2378911972045898438 8.2312898635864257812 8.2232465744018554688 8.213775634765625 8.2028932571411132812 8.1906194686889648438 8.1769762039184570312 8.1619873046875 8.18114471435546875 8.278533935546875 8.378448486328125 8.4809808731079101562 8.5862293243408203125 8.6942930221557617188 8.805278778076171875 8.9192972183227539062 9.0364627838134765625 9.1568965911865234375 9.2807245254516601562 9.4080781936645507812 9.5390958786010742188 9.673919677734375 9.8127012252807617188 9.9555950164794921875 10.102766990661621094 10.254384994506835938 10.410628318786621094 10.571681022644042969 10.737734794616699219 10.908989906311035156 11.085653305053710938 11.267940521240234375 11.456072807312011719 11.6545562744140625 11.860301017761230469 12.073206901550292969 12.293587684631347656 12.521769523620605469 12.761699676513671875 13.013492584228515625 13.275044441223144531 13.546833038330078125 13.829360008239746094 14.123147964477539062 14.428735733032226562 14.746678352355957031 15.077548027038574219 15.421922683715820312 15.780386924743652344 16.153520584106445312 16.541891098022460938 16.946039199829101562 17.3664703369140625 17.803623199462890625 18.257856369018554688 18.729412078857421875 19.218387603759765625 19.724679946899414062 20.247943878173828125 20.787527084350585938 21.356023788452148438 21.961996078491210938 22.599214553833007812 23.284612655639648438 23.99225616455078125 24.719747543334960938 25.463678359985351562 26.219434738159179688 26.981006622314453125 27.740814208984375 28.489582061767578125 29.216297149658203125 29.908304214477539062 30.55156707763671875 31.131137847900390625 31.858722686767578125 33.031391143798828125 34.20391082763671875 35.35445404052734375 36.45604705810546875 37.477020263671875 38.382282257080078125 39.1356048583984375 40.89907073974609375 43.2596435546875 45.7390289306640625 48.289424896240234375 50.8332366943359375 53.257472991943359375 55.4142608642578125 57.13301849365234375 58.247623443603515625 59.888641357421875 66.22812652587890625 73.62805938720703125 82.09168243408203125 91.30770111083984375 100.324188232421875 107.29904937744140625 109.9875335693359375 109.9875335693359375 109.9875335693359375 109.9875335693359375 107.29904937744140625 100.324188232421875 91.30770111083984375 82.09168243408203125 73.62805938720703125 66.22812652587890625 59.888641357421875 54.48950958251953125 49.88506317138671875 45.939296722412109375 42.53632354736328125 39.581066131591796875 36.996738433837890625 34.721584320068359375 32.70589447021484375 30.90947723388671875 29.299650192260742188 27.84967041015625 26.53749847412109375 25.34485626220703125 
8.3587055206298828125 8.3579339981079101562 8.3556203842163085938 8.35176849365234375 8.346385955810546875 8.3394832611083984375 8.3310728073120117188 8.321170806884765625 8.309795379638671875 8.2969675064086914062 8.2827091217041015625 8.267047882080078125 8.2500104904174804688 8.3120574951171875 8.4133806228637695312 8.5173997879028320312 8.624217987060546875 8.73394012451171875 8.8466796875 8.9625530242919921875 9.0816822052001953125 9.204196929931640625 9.330230712890625 9.4599237442016601562 9.5934238433837890625 9.7308864593505859375 9.8724718093872070312 10.018349647521972656 10.168697357177734375 10.323700904846191406 10.483551979064941406 10.648455619812011719 10.818620681762695312 10.99427032470703125 11.175634384155273438 11.362951278686523438 11.556471824645996094 11.756452560424804688 11.963163375854492188 12.180907249450683594 12.407938003540039062 12.6432952880859375 12.887364387512207031 13.140547752380371094 13.406238555908203125 13.687073707580566406 13.979447364807128906 14.283961296081542969 14.601248741149902344 14.93196868896484375 15.276804924011230469 15.636465072631835938 16.0116729736328125 16.403165817260742188 16.81168365478515625 17.237957000732421875 17.682695388793945312 18.146570205688476562 18.630178451538085938 19.134031295776367188 19.6584930419921875 20.203754425048828125 20.769754409790039062 21.356122970581054688 21.962095260620117188 22.599321365356445312 23.284715652465820312 24.003885269165039062 24.785381317138671875 25.5942230224609375 26.4272918701171875 27.280042648315429688 28.146226882934570312 29.017591476440429688 29.883634567260742188 30.731449127197265625 31.545721054077148438 32.3089599609375 33.002040863037109375 33.605098724365234375 34.800357818603515625 36.18965911865234375 37.57131195068359375 38.912296295166015625 40.171871185302734375 41.3028717041015625 42.254688262939453125 43.259822845458984375 45.972442626953125 49.007015228271484375 52.213531494140625 55.507457733154296875 58.74561309814453125 61.716663360595703125 64.15100860595703125 65.7637481689453125 66.3300933837890625 71.07025146484375 80.57227325439453125 92.25560760498046875 106.276763916015625 121.78311920166015625 135.450531005859375 141.2225494384765625 141.2225494384765625 141.2225494384765625 141.2225494384765625 135.450531005859375 121.78311920166015625 106.276763916015625 92.25560760498046875 80.57227325439453125 71.07025146484375 63.350017547607421875 57.02648162841796875 51.7884674072265625 47.397922515869140625 43.6754608154296875 40.48580169677734375 37.7261505126953125 35.31754302978515625 33.198657989501953125 31.321292877197265625 29.647144317626953125 28.145450592041015625 26.791255950927734375 25.564128875732421875 
8.4710712432861328125 8.4702634811401367188 8.4678411483764648438 8.463809967041015625 8.4581775665283203125 8.450954437255859375 8.4421548843383789062 8.4317951202392578125 8.4198961257934570312 8.4064788818359375 8.3915691375732421875 8.375194549560546875 8.3573856353759765625 8.3443813323974609375 8.4470758438110351562 8.55254364013671875 8.6608915328979492188 8.7722311019897460938 8.8866825103759765625 9.0043668746948242188 9.1254167556762695312 9.249965667724609375 9.3781585693359375 9.5101442337036132812 9.6460809707641601562 9.7861337661743164062 9.9304761886596679688 10.079289436340332031 10.232767105102539062 10.391107559204101562 10.554523468017578125 10.723233222961425781 10.897471427917480469 11.077478408813476562 11.263509750366210938 11.455830574035644531 11.654719352722167969 11.86046600341796875 12.073373794555664062 12.293755531311035156 12.521940231323242188 12.761879920959472656 13.013675689697265625 13.275229454040527344 13.54701995849609375 13.829549789428710938 14.125370025634765625 14.440570831298828125 14.769547462463378906 15.113070487976074219 15.471949577331542969 15.8470306396484375 16.239192962646484375 16.649351119995117188 17.07843780517578125 17.527402877807617188 17.997196197509765625 18.488756179809570312 19.002977371215820312 19.540683746337890625 20.10259246826171875 20.6892547607421875 21.30100250244140625 21.937854766845703125 22.599428176879882812 23.284820556640625 24.004001617431640625 24.785491943359375 25.603448867797851562 26.502725601196289062 27.436130523681640625 28.399526596069335938 29.38672637939453125 30.389049530029296875 31.394876480102539062 32.389286041259765625 33.353878021240234375 34.266876220703125 35.103702545166015625 35.838062286376953125 36.704742431640625 38.358013153076171875 40.028026580810546875 41.67525482177734375 43.24774169921875 44.681888580322265625 45.90601348876953125 46.84731292724609375 49.0072174072265625 52.519412994384765625 56.56372833251953125 60.86972808837890625 65.27352142333984375 69.4838104248046875 73.07035064697265625 75.52150726318359375 76.39748382568359375 76.39748382568359375 87.01384735107421875 102.5479736328125 123.46857452392578125 151.018707275390625 181.7006988525390625 197.55322265625 197.55322265625 197.55322265625 197.55322265625 181.7006988525390625 151.018707275390625 123.46857452392578125 102.5479736328125 87.01384735107421875 75.29630279541015625 66.24359130859375 59.08223724365234375 53.2956695556640625 48.5329437255859375 44.550018310546875 41.173095703125 38.2755889892578125 35.763401031494140625 33.56524658203125 31.626237869262695312 29.9034576416015625 28.362901687622070312 26.977289199829101562 25.72449493408203125 
8.5869207382202148438 8.5860748291015625 8.583538055419921875 8.5793170928955078125 8.57341766357421875 8.5658550262451171875 8.556640625 8.545795440673828125 8.5333395004272460938 8.5192975997924804688 8.5036954879760742188 8.48656463623046875 8.4679365158081054688 8.447845458984375 8.4794750213623046875 8.5863475799560546875 8.6961803436279296875 8.8090925216674804688 8.9252071380615234375 9.0446557998657226562 9.1675739288330078125 9.2941074371337890625 9.4244060516357421875 9.5586299896240234375 9.6969470977783203125 9.8395338058471679688 9.9865751266479492188 10.13826751708984375 10.2948150634765625 10.456435203552246094 10.623355865478515625 10.795816421508789062 10.974069595336914062 11.158380508422851562 11.349027633666992188 11.546305656433105469 11.750522613525390625 11.961999893188476562 12.181078910827636719 12.408111572265625 12.64347076416015625 12.887540817260742188 13.140726089477539062 13.406429290771484375 13.687267303466796875 13.979642868041992188 14.284159660339355469 14.601449012756347656 14.932811737060546875 15.289080619812011719 15.661982536315917969 16.052516937255859375 16.461732864379882812 16.890737533569335938 17.340684890747070312 17.81276702880859375 18.3082122802734375 18.82826995849609375 19.374176025390625 19.947147369384765625 20.54831695556640625 21.178705215454101562 21.839138031005859375 22.530164718627929688 23.251947402954101562 24.004116058349609375 24.785604476928710938 25.603572845458984375 26.50284576416015625 27.44135284423828125 28.487131118774414062 29.576250076293945312 30.703104019165039062 31.859050750732421875 33.0316925048828125 34.204174041748046875 35.35467529296875 36.456226348876953125 37.4771575927734375 38.382373809814453125 39.135662078857421875 40.71576690673828125 42.7460479736328125 44.787418365478515625 46.774990081787109375 48.623302459716796875 50.229663848876953125 51.483951568603515625 53.257732391357421875 56.563961029052734375 61.287708282470703125 66.94379425048828125 73.02495574951171875 79.17063140869140625 84.70714569091796875 88.6749267578125 90.132904052734375 90.132904052734375 91.75254058837890625 110.78818511962890625 139.31671142578125 185.373779296875 261.898284912109375 329.5323486328125 329.5323486328125 329.5323486328125 329.5323486328125 261.898284912109375 185.373779296875 139.31671142578125 110.78818511962890625 91.75254058837890625 78.24341583251953125 68.1912994384765625 60.432544708251953125 54.268463134765625 49.256099700927734375 45.101787567138671875 41.60343170166015625 38.61756134033203125 36.039569854736328125 33.791431427001953125 31.813785552978515625 30.060674667358398438 28.495981216430664062 27.090925216674804688 25.822294235229492188 
8.7064199447631835938 8.7055330276489257812 8.7028751373291015625 8.6984500885009765625 8.6922693252563476562 8.6843433380126953125 8.6746892929077148438 8.6633272171020507812 8.650279998779296875 8.6355733871459960938 8.619235992431640625 8.6013021469116210938 8.5818042755126953125 8.5607805252075195312 8.5457963943481445312 8.6187486648559570312 8.73001861572265625 8.844451904296875 8.9621782302856445312 9.0833349227905273438 9.2080669403076171875 9.33652496337890625 9.4688701629638671875 9.6052703857421875 9.7459049224853515625 9.8909587860107421875 10.040632247924804688 10.195133209228515625 10.354681015014648438 10.519509315490722656 10.689862251281738281 10.866000175476074219 11.048195838928222656 11.236738204956054688 11.431932449340820312 11.634099006652832031 11.843578338623046875 12.060727119445800781 12.285923004150390625 12.519561767578125 12.762061119079589844 13.013858795166015625 13.275414466857910156 13.547206878662109375 13.829738616943359375 14.125573158264160156 14.440775871276855469 14.769755363464355469 15.11328125 15.472163200378417969 15.847246170043945312 16.251752853393554688 16.677991867065429688 17.125883102416992188 17.596818923950195312 18.092271804809570312 18.613779067993164062 19.162939071655273438 19.741399765014648438 20.350820541381835938 20.992855072021484375 21.669086456298828125 22.38097381591796875 23.129751205444335938 23.916315078735351562 24.741064071655273438 25.603696823120117188 26.502965927124023438 27.441486358642578125 28.487262725830078125 29.576375961303710938 30.806077957153320312 32.0933837890625 33.429073333740234375 34.8007049560546875 36.189971923828125 37.571582794189453125 38.912517547607421875 40.172039031982421875 41.302989959716796875 42.2547607421875 43.26036834716796875 45.73969268798828125 48.29000091552734375 50.833705902099609375 53.25782012939453125 55.41448211669921875 57.133129119873046875 58.74596405029296875 61.71689605712890625 66.94406890869140625 73.62955474853515625 82.093017578125 91.308746337890625 100.3248138427734375 107.29924774169921875 109.9875335693359375 109.9875335693359375 109.9875335693359375 114.0378265380859375 146.2444000244140625 204.115875244140625 338.64971923828125 1001 1001 1001 1001 338.64971923828125 204.115875244140625 146.2444000244140625 114.0378265380859375 93.5219573974609375 79.30918121337890625 68.88155364990234375 60.904659271240234375 54.605388641357421875 49.50485992431640625 45.290630340576171875 41.750148773193359375 38.73380279541015625 36.1332244873046875 33.867992401123046875 31.877172470092773438 30.113748550415039062 28.540863037109375 27.12921905517578125 25.855230331420898438 
8.8297443389892578125 8.8288135528564453125 8.8260259628295898438 8.8213853836059570312 8.8149023056030273438 8.806591033935546875 8.7964677810668945312 8.7845563888549804688 8.7708787918090820312 8.7554655075073242188 8.7383470535278320312 8.7195577621459960938 8.6991367340087890625 8.6771221160888671875 8.6633281707763671875 8.67469024658203125 8.7623376846313476562 8.8782367706298828125 8.9975175857543945312 9.12032318115234375 9.2468061447143554688 9.377124786376953125 9.5114488601684570312 9.64995574951171875 9.7928342819213867188 9.9402818679809570312 10.092509269714355469 10.249738693237304688 10.412204742431640625 10.580156326293945312 10.753855705261230469 10.933582305908203125 11.119630813598632812 11.312313079833984375 11.511961936950683594 11.718926429748535156 11.9335784912109375 12.156310081481933594 12.387539863586425781 12.627706527709960938 12.877276420593261719 13.136740684509277344 13.406620025634765625 13.687460899353027344 13.979839324951171875 14.284358024597167969 14.601650238037109375 14.933027267456054688 15.28929901123046875 15.662204742431640625 16.05274200439453125 16.461961746215820312 16.89096832275390625 17.353240966796875 17.845117568969726562 18.363986968994140625 18.911733627319335938 19.490358352661132812 20.101961135864257812 20.748731613159179688 21.43292236328125 22.156805038452148438 22.922611236572265625 23.732446670532226562 24.588171005249023438 25.4912261962890625 26.442417144775390625 27.441619873046875 28.487392425537109375 29.57649993896484375 30.80622100830078125 32.093517303466796875 33.55184173583984375 35.09677886962890625 36.7051544189453125 38.35839080810546875 40.02835845947265625 41.675525665283203125 43.247955322265625 44.682041168212890625 45.90610504150390625 46.84735870361328125 49.00783538818359375 52.214267730712890625 55.508075714111328125 58.746082305908203125 61.71697235107421875 64.15116119384765625 65.76378631591796875 69.4841461181640625 73.62992095947265625 82.093353271484375 92.257537841796875 106.2784576416015625 121.784271240234375 135.450927734375 141.2225494384765625 141.2225494384765625 141.2225494384765625 141.2225494384765625 151.0204315185546875 204.1173858642578125 338.651824951171875 1001 338.651824951171875 329.5323486328125 329.5323486328125 261.899169921875 185.3748779296875 139.317718505859375 110.7890472412109375 91.75328826904296875 78.2440643310546875 68.19187164306640625 60.4330596923828125 54.26892852783203125 49.256526947021484375 45.102176666259765625 41.603794097900390625 38.617900848388671875 36.039886474609375 33.791728973388671875 31.81406402587890625 30.060939788818359375 28.4962310791015625 27.091161727905273438 25.822521209716796875 
8.9570789337158203125 8.9561023712158203125 8.9531755447387695312 8.9483051300048828125 8.9415006637573242188 8.9327783584594726562 8.9221563339233398438 8.9096584320068359375 8.8953113555908203125 8.8791446685791015625 8.8611936569213867188 8.8414964675903320312 8.82009124755859375 8.797023773193359375 8.784557342529296875 8.7964687347412109375 8.806591033935546875 8.9103784561157226562 9.03115081787109375 9.1555395126342773438 9.2837047576904296875 9.415813446044921875 9.5520420074462890625 9.692577362060546875 9.8376188278198242188 9.9873752593994140625 10.142069816589355469 10.301937103271484375 10.467226028442382812 10.638201713562011719 10.815146446228027344 10.998356819152832031 11.188149452209472656 11.384862899780273438 11.5888519287109375 11.80049896240234375 12.020207405090332031 12.248407363891601562 12.485554695129394531 12.732135772705078125 12.988667488098144531 13.255696296691894531 13.533806800842285156 13.823615074157714844 14.125775337219238281 14.440981864929199219 14.769964218139648438 15.113492965698242188 15.472376823425292969 15.847462654113769531 16.251985549926757812 16.678228378295898438 17.126123428344726562 17.597064971923828125 18.092519760131835938 18.625837326049804688 19.199735641479492188 19.807878494262695312 20.452878952026367188 21.137521743774414062 21.864755630493164062 22.637659072875976562 23.459394454956054688 24.333143234252929688 25.261987686157226562 26.248744964599609375 27.295743942260742188 28.404491424560546875 29.57523345947265625 30.806362152099609375 32.093654632568359375 33.55199432373046875 35.096927642822265625 36.854007720947265625 38.742401123046875 40.716217041015625 42.746448516845703125 44.78775787353515625 46.775264739990234375 48.62349700927734375 50.229785919189453125 51.484012603759765625 52.520435333251953125 56.564670562744140625 60.87055206298828125 65.27417755126953125 69.48426055908203125 73.07057952880859375 75.521575927734375 79.171142578125 84.707427978515625 92.258026123046875 106.2788848876953125 123.47129058837890625 151.02099609375 181.7017364501953125 197.55322265625 197.55322265625 197.55322265625 197.55322265625 197.55322265625 261.90087890625 338.6539306640625 1001 338.6539306640625 204.1189117431640625 197.55322265625 181.7012176513671875 151.0198516845703125 123.46993255615234375 102.54931640625 87.015106201171875 75.297454833984375 66.2446441650390625 59.08319854736328125 53.296550750732421875 48.53376007080078125 44.55077362060546875 41.173793792724609375 38.2762451171875 35.76401519775390625 33.565826416015625 31.6267852783203125 29.9039764404296875 28.363393783569335938 26.977758407592773438 25.724943161010742188 
9.0886240005493164062 9.0875988006591796875 9.0845241546630859375 9.0794076919555664062 9.0722599029541015625 9.063098907470703125 9.051944732666015625 9.0388212203979492188 9.0237588882446289062 9.0067911148071289062 8.98795318603515625 8.9672870635986328125 8.9448366165161132812 8.9206476211547851562 8.9096593856811523438 8.92215728759765625 8.9327783584594726562 8.9415006637573242188 9.0630044937133789062 9.1889066696166992188 9.3186788558959960938 9.4524984359741210938 9.5905504226684570312 9.7330293655395507812 9.8801441192626953125 10.032115936279296875 10.189178466796875 10.351580619812011719 10.519585609436035156 10.693474769592285156 10.873547554016113281 11.060120582580566406 11.25353240966796875 11.454143524169921875 11.662340164184570312 11.878529548645019531 12.103151321411132812 12.336671829223632812 12.579587936401367188 12.832433700561523438 13.095775604248046875 13.370221138000488281 13.6564178466796875 13.955056190490722656 14.266874313354492188 14.592658042907714844 14.9332427978515625 15.289518356323242188 15.662426948547363281 16.052967071533203125 16.462188720703125 16.891199111938476562 17.35349273681640625 17.845373153686523438 18.364246368408203125 18.911996841430664062 19.490625381469726562 20.112651824951171875 20.790897369384765625 21.513477325439453125 22.284122467041015625 23.106836318969726562 23.985881805419921875 24.925725936889648438 25.930955886840820312 27.0061492919921875 28.155641555786132812 29.383211135864257812 30.691593170166015625 32.08179473876953125 33.552150726318359375 35.097072601318359375 36.85417938232421875 38.742565155029296875 40.900424957275390625 43.260913848876953125 45.740192413330078125 48.290431976318359375 50.834056854248046875 53.25807952880859375 55.41464996337890625 57.133209228515625 58.24767303466796875 61.288921356201171875 66.9449005126953125 73.02588653564453125 79.1713104248046875 84.70751953125 88.6750335693359375 91.309539794921875 100.325286865234375 107.2993927001953125 123.4719696044921875 151.021575927734375 185.378204345703125 261.901763916015625 329.5323486328125 329.5323486328125 329.5323486328125 329.5323486328125 329.5323486328125 338.656005859375 1001 338.656005859375 261.90087890625 185.377105712890625 141.2225494384765625 135.450836181640625 121.78398895263671875 106.27803802490234375 92.25705718994140625 80.57375335693359375 71.071685791015625 63.35138702392578125 57.027774810791015625 51.78968048095703125 47.39905548095703125 43.67652130126953125 40.4868011474609375 37.72708892822265625 35.318431854248046875 33.199497222900390625 31.322088241577148438 29.647899627685546875 28.146169662475585938 26.791942596435546875 25.564786911010742188 
9.2245922088623046875 9.2235136032104492188 9.2202806472778320312 9.2149019241333007812 9.2073888778686523438 9.1977586746215820312 9.18603515625 9.172245025634765625 9.1564197540283203125 9.1385955810546875 9.1188116073608398438 9.0971136093139648438 9.07354736328125 9.0481653213500976562 9.038822174072265625 9.0519456863403320312 9.0630998611450195312 9.0722608566284179688 9.0930089950561523438 9.2203454971313476562 9.35164642333984375 9.4870929718017578125 9.6268777847290039062 9.7712078094482421875 9.9202985763549804688 10.074382781982421875 10.233704566955566406 10.398528099060058594 10.56912994384765625 10.745806694030761719 10.928874969482421875 11.118672370910644531 11.315557479858398438 11.519917488098144531 11.732160568237304688 11.952729225158691406 12.182092666625976562 12.420754432678222656 12.669256210327148438 12.9281768798828125 13.198136329650878906 13.479801177978515625 13.773885726928710938 14.081157684326171875 14.402441024780273438 14.738615989685058594 15.090631484985351562 15.459501266479492188 15.846311569213867188 16.25222015380859375 16.678466796875 17.12636566162109375 17.597309112548828125 18.092767715454101562 18.626108169555664062 19.200014114379882812 19.808160781860351562 20.453165054321289062 21.137813568115234375 21.872564315795898438 22.686357498168945312 23.558954238891601562 24.495861053466796875 25.503053665161132812 26.586923599243164062 27.754205703735351562 29.011804580688476562 30.366510391235351562 31.8245391845703125 33.390811920166015625 35.06787872314453125 36.854351043701171875 38.74272918701171875 40.900615692138671875 43.261096954345703125 45.9739837646484375 49.008453369140625 52.21482086181640625 55.508541107177734375 58.74643707275390625 61.717205047607421875 64.15128326416015625 65.76381683349609375 66.94518280029296875 73.63104248046875 82.0943603515625 91.3097991943359375 100.325439453125 107.2994384765625 109.9875335693359375 121.7851409912109375 135.45123291015625 151.02215576171875 185.3793182373046875 261.902618408203125 338.658111572265625 1001 1001 1001 1001 1001 1001 1001 338.658111572265625 204.1219482421875 151.02099609375 123.47129058837890625 107.29924774169921875 100.3248138427734375 91.308746337890625 82.093017578125 73.62955474853515625 66.22966766357421875 59.89017486572265625 54.491001129150390625 49.88649749755859375 45.940670013427734375 42.537628173828125 39.582309722900390625 36.99791717529296875 34.722705841064453125 32.70696258544921875 30.910495758056640625 29.300622940063476562 27.850599288940429688 26.538389205932617188 25.345708847045898438 
9.3652095794677734375 9.36407470703125 9.3606729507446289062 9.3550128936767578125 9.3471078872680664062 9.3369770050048828125 9.3246450424194335938 9.3101415634155273438 9.2935018539428710938 9.2747631072998046875 9.2539701461791992188 9.2311697006225585938 9.2064142227172851562 9.1797590255737304688 9.1722459793090820312 9.1860361099243164062 9.1977596282958984375 9.2073888778686523438 9.2149019241333007812 9.2497854232788085938 9.3825283050537109375 9.5195102691650390625 9.6609334945678710938 9.8070125579833984375 9.9579725265502929688 10.114055633544921875 10.27552032470703125 10.442639350891113281 10.615705490112304688 10.795030593872070312 10.980948448181152344 11.173814773559570312 11.374011039733886719 11.581945419311523438 11.798056602478027344 12.0228118896484375 12.256716728210449219 12.500311851501464844 12.754179000854492188 13.018944740295410156 13.295283317565917969 13.583919525146484375 13.885638236999511719 14.201282501220703125 14.531764030456542969 14.878066062927246094 15.24124908447265625 15.622458457946777344 16.022928237915039062 16.44399261474609375 16.8870849609375 17.3537445068359375 17.845628738403320312 18.364505767822265625 18.912261962890625 19.490894317626953125 20.112947463989257812 20.791200637817382812 21.51378631591796875 22.284435272216796875 23.107156753540039062 23.9881134033203125 24.98241424560546875 26.057012557983398438 27.220394134521484375 28.481861114501953125 29.851461410522460938 31.339830398559570312 32.95781707763671875 34.7158660888671875 36.6229095458984375 38.68463897705078125 40.90081024169921875 43.261280059814453125 45.974201202392578125 49.00865936279296875 52.521198272705078125 56.565380096435546875 60.8711700439453125 65.27466583251953125 69.48459625244140625 73.0707550048828125 75.5216217041015625 76.39748382568359375 82.094696044921875 92.2594757080078125 106.2801513671875 121.785430908203125 135.4513397216796875 141.2225494384765625 151.0227203369140625 181.7025299072265625 197.55322265625 261.90350341796875 338.66021728515625 1001 1001 338.66021728515625 329.5323486328125 329.5323486328125 329.5323486328125 329.5323486328125 329.5323486328125 261.902618408203125 185.3793182373046875 139.3217010498046875 110.79247283935546875 92.258026123046875 84.707244873046875 79.170806884765625 73.0251922607421875 66.94406890869140625 61.2880096435546875 56.197948455810546875 51.69219970703125 47.731601715087890625 44.255710601806640625 41.200641632080078125 38.5068511962890625 36.12191009521484375 34.00092315673828125 32.105998992919921875 30.405330657958984375 28.872274398803710938 27.484483718872070312 26.223176956176757812 25.07250213623046875 
9.5107183456420898438 9.5095233917236328125 9.5059404373168945312 9.4999790191650390625 9.4916553497314453125 9.4809885025024414062 9.468006134033203125 9.452739715576171875 9.4352273941040039062 9.4155111312866210938 9.39363861083984375 9.3696613311767578125 9.3436365127563476562 9.3156223297119140625 9.3101434707641601562 9.32464599609375 9.3369779586791992188 9.3471078872680664062 9.3550128936767578125 9.3606729507446289062 9.41124725341796875 9.5496683120727539062 9.6926279067993164062 9.8403472900390625 9.9930620193481445312 10.15102386474609375 10.314500808715820312 10.4837799072265625 10.659166336059570312 10.840987205505371094 11.029592514038085938 11.2253570556640625 11.428682327270507812 11.6399993896484375 11.859772682189941406 12.088499069213867188 12.326716423034667969 12.575001716613769531 12.833978652954101562 13.104319572448730469 13.386752128601074219 13.682061195373535156 13.991100311279296875 14.314789772033691406 14.654129981994628906 15.010206222534179688 15.384196281433105469 15.777379989624023438 16.1911468505859375 16.62700653076171875 17.086603164672851562 17.571714401245117188 18.084276199340820312 18.62638092041015625 19.200290679931640625 19.808443069458007812 20.45345306396484375 21.138105392456054688 21.872890472412109375 22.686689376831054688 23.559293746948242188 24.49620819091796875 25.503406524658203125 26.587282180786132812 27.820646286010742188 29.176301956176757812 30.659360885620117188 32.285129547119140625 34.070339202880859375 36.032787322998046875 38.190471649169921875 40.559970855712890625 43.153575897216796875 45.974422454833984375 49.0088653564453125 52.521453857421875 56.565616607666015625 61.289829254150390625 66.94573211669921875 73.02658843994140625 79.17181396484375 84.707794189453125 88.67511749267578125 90.132904052734375 92.25995635986328125 106.28057861328125 123.4740142822265625 151.0233001708984375 181.702789306640625 197.55322265625 197.55322265625 261.90435791015625 329.5323486328125 338.662322998046875 1001 1001 338.662322998046875 261.90350341796875 197.55322265625 197.55322265625 197.55322265625 197.55322265625 197.55322265625 181.7022705078125 151.02215576171875 123.47264862060546875 102.55200958251953125 87.01761627197265625 75.29975128173828125 69.484039306640625 65.2738494873046875 60.87014007568359375 56.564197540283203125 52.519924163818359375 48.810428619384765625 45.4532623291015625 42.4358673095703125 39.731487274169921875 37.30831146240234375 35.134243011474609375 33.179256439208984375 31.416322708129882812 29.821624755859375 28.37444305419921875 27.056859970092773438 25.853424072265625 24.750825881958007812 
9.6613788604736328125 9.6601190567016601562 9.6563425064086914062 9.650058746337890625 9.641284942626953125 9.63004302978515625 9.616363525390625 9.6002798080444335938 9.5818338394165039062 9.5610713958740234375 9.5380449295043945312 9.5128087997436523438 9.4854259490966796875 9.4559602737426757812 9.4527406692504882812 9.468006134033203125 9.4809885025024414062 9.4916553497314453125 9.4999799728393554688 9.5059404373168945312 9.5095233917236328125 9.5774898529052734375 9.7218761444091796875 9.871120452880859375 10.0254669189453125 10.185177803039550781 10.350529670715332031 10.521821975708007812 10.699373245239257812 10.883523941040039062 11.074639320373535156 11.273114204406738281 11.479368209838867188 11.69385528564453125 11.917063713073730469 12.149519920349121094 12.39179229736328125 12.64449310302734375 12.90828704833984375 13.183892250061035156 13.472086906433105469 13.773717880249023438 14.089702606201171875 14.421041488647460938 14.768822669982910156 15.134232521057128906 15.518568038940429688 15.923244476318359375 16.3498077392578125 16.799953460693359375 17.27553558349609375 17.77858734130859375 18.311328887939453125 18.876201629638671875 19.47586822509765625 20.11324310302734375 20.791501998901367188 21.514093399047851562 22.284749984741210938 23.10747528076171875 23.98847198486328125 24.982782363891601562 26.057390213012695312 27.220781326293945312 28.4822540283203125 29.851863861083984375 31.417972564697265625 33.18096160888671875 35.1360015869140625 37.310115814208984375 39.73333740234375 42.437740325927734375 45.455142974853515625 48.812282562255859375 52.521709442138671875 56.56584930419921875 61.290130615234375 66.946014404296875 73.63216400146484375 82.095367431640625 91.3105926513671875 100.3259124755859375 107.29958343505859375 109.9875335693359375 109.9875335693359375 123.47469329833984375 151.02386474609375 185.3826446533203125 261.905242919921875 329.5323486328125 329.5323486328125 338.664398193359375 1001 1001 1001 338.664398193359375 261.90435791015625 185.3815460205078125 151.0227203369140625 141.2225494384765625 141.2225494384765625 141.2225494384765625 141.2225494384765625 135.45123291015625 121.7851409912109375 106.27973175048828125 92.2589874267578125 80.5757293701171875 71.0736083984375 63.353214263916015625 58.74596405029296875 55.507923126220703125 52.214084625244140625 49.00762939453125 45.973102569580078125 43.152202606201171875 40.558574676513671875 38.1890716552734375 36.031398773193359375 34.068973541259765625 32.283786773681640625 30.658050537109375 29.17502593994140625 27.819406509399414062 26.577432632446289062 25.436868667602539062 24.386898040771484375 
9.817470550537109375 9.8161401748657226562 9.8121557235717773438 9.8055257797241210938 9.7962694168090820312 9.7844114303588867188 9.7699832916259765625 9.7530231475830078125 9.7335758209228515625 9.71169281005859375 9.6874284744262695312 9.6608457565307617188 9.6320104598999023438 9.6009922027587890625 9.60028076171875 9.6163644790649414062 9.6300439834594726562 9.641284942626953125 9.650058746337890625 9.6563425064086914062 9.6601190567016601562 9.6613788604736328125 9.748600006103515625 9.8992462158203125 10.055094718933105469 10.2164154052734375 10.383495330810546875 10.556643486022949219 10.736191749572753906 10.922493934631347656 11.115930557250976562 11.316910743713378906 11.525876045227050781 11.743299484252929688 11.969695091247558594 12.205614089965820312 12.451655387878417969 12.708466529846191406 12.976748466491699219 13.257266044616699219 13.550846099853515625 13.858393669128417969 14.180891036987304688 14.519414901733398438 14.875139236450195312 15.249352455139160156 15.643466949462890625 16.059032440185546875 16.4977569580078125 16.961515426635742188 17.452379226684570312 17.972637176513671875 18.524810791015625 19.1116943359375 19.736377716064453125 20.40227508544921875 21.113162994384765625 21.8732147216796875 22.687023162841796875 23.55963134765625 24.496553421020507812 25.503759384155273438 26.587640762329101562 27.8210601806640625 29.176727294921875 30.65979766845703125 32.28557586669921875 34.070796966552734375 36.1240997314453125 38.50913238525390625 41.203006744384765625 44.258152008056640625 47.734104156494140625 51.694736480712890625 56.200466156005859375 61.290435791015625 66.9462890625 73.632537841796875 82.095703125 92.26092529296875 106.28142547607421875 121.7863006591796875 135.4516448974609375 141.2225494384765625 141.2225494384765625 151.024444580078125 185.383758544921875 261.906097412109375 338.66650390625 1001 1001 1001 1001 338.66650390625 329.5323486328125 261.905242919921875 185.3826446533203125 151.0233001708984375 123.4740142822265625 109.9875335693359375 109.9875335693359375 109.9875335693359375 109.9875335693359375 107.2994384765625 100.325439453125 91.3097991943359375 82.0943603515625 73.63104248046875 66.23120880126953125 59.8917083740234375 54.492496490478515625 50.833705902099609375 48.29000091552734375 45.73969268798828125 43.26036834716796875 40.899845123291015625 38.683635711669921875 36.621883392333984375 34.71483612060546875 32.956790924072265625 31.338811874389648438 29.850458145141601562 28.480875015258789062 27.21942901611328125 26.05606842041015625 24.981492996215820312 23.987216949462890625 
9.979290008544921875 9.977886199951171875 9.9736766815185546875 9.9666757583618164062 9.9569005966186523438 9.9443798065185546875 9.9291477203369140625 9.91124725341796875 9.8907260894775390625 9.8676395416259765625 9.84204864501953125 9.814022064208984375 9.78363037109375 9.7509508132934570312 9.7530241012573242188 9.7699842453002929688 9.784412384033203125 9.7962694168090820312 9.8055257797241210938 9.8121557235717773438 9.8161401748657226562 9.817470550537109375 9.817470550537109375 9.9246454238891601562 10.081858634948730469 10.244642257690429688 10.413293838500976562 10.588131904602050781 10.769498825073242188 10.957760810852050781 11.153314590454101562 11.3565826416015625 11.568024635314941406 11.788133621215820312 12.017444610595703125 12.256536483764648438 12.506033897399902344 12.7666168212890625 13.039025306701660156 13.324063301086425781 13.622606277465820312 13.935612678527832031 14.264130592346191406 14.60930633544921875 14.972398757934570312 15.354793548583984375 15.758015632629394531 16.183748245239257812 16.63385009765625 17.110382080078125 17.615629196166992188 18.152132034301757812 18.722719192504882812 19.33054351806640625 19.979124069213867188 20.672399520874023438 21.414773941040039062 22.211179733276367188 23.067140579223632812 23.988832473754882812 24.983150482177734375 26.057767868041992188 27.221166610717773438 28.482648849487304688 29.852266311645507812 31.418443679809570312 33.18144989013671875 35.136505126953125 37.310634613037109375 39.73386383056640625 42.540569305419921875 45.943756103515625 49.889728546142578125 54.49436187744140625 59.893627166748046875 66.2331390380859375 73.632904052734375 82.096038818359375 92.26140594482421875 106.28185272216796875 123.47605133056640625 151.0250244140625 181.7035675048828125 197.55322265625 197.55322265625 197.55322265625 261.906951904296875 338.668609619140625 1001 1001 338.668609619140625 329.5323486328125 329.5323486328125 261.906097412109375 197.55322265625 181.7030487060546875 151.02386474609375 123.47469329833984375 106.28057861328125 92.25995635986328125 90.132904052734375 90.132904052734375 90.132904052734375 88.6750640869140625 84.707611083984375 79.171478271484375 73.026123046875 66.94518280029296875 61.28922271728515625 56.199207305908203125 51.6934661865234375 47.732852935791015625 44.787532806396484375 42.746181488037109375 40.715915679931640625 38.742076873779296875 36.85366058349609375 35.067165374755859375 33.39008331298828125 31.823801040649414062 30.365772247314453125 29.01107025146484375 27.75347900390625 26.586206436157226562 25.502347946166992188 24.495168685913085938 23.558275222778320312 
10.147161483764648438 10.145676612854003906 10.141226768493652344 10.133824348449707031 10.123491287231445312 10.110258102416992188 10.0941619873046875 10.075249671936035156 10.0535736083984375 10.029194831848144531 10.002180099487304688 9.9726037979125976562 9.9405431747436523438 9.9060821533203125 9.9112482070922851562 9.9291486740112304688 9.9443807601928710938 9.9569005966186523438 9.9666757583618164062 9.9736776351928710938 9.977886199951171875 9.979290008544921875 9.979290008544921875 9.979290008544921875 10.105676651000976562 10.269770622253417969 10.439828872680664062 10.616181373596191406 10.7991790771484375 10.989200592041015625 11.18665313720703125 11.391976356506347656 11.605645179748535156 11.828169822692871094 12.060107231140136719 12.302056312561035156 12.5546722412109375 12.818661689758300781 13.094799041748046875 13.383927345275878906 13.686967849731445312 14.004927635192871094 14.338914871215820312 14.690143585205078125 15.0599517822265625 15.449817657470703125 15.861371994018554688 16.296422958374023438 16.75698089599609375 17.245281219482421875 17.763814926147460938 18.315370559692382812 18.903072357177734375 19.530431747436523438 20.201396942138671875 20.920431137084960938 21.692575454711914062 22.5235443115234375 23.419826507568359375 24.388790130615234375 25.43881988525390625 26.579441070556640625 27.821474075317382812 29.177152633666992188 30.660234451293945312 32.286022186279296875 34.071254730224609375 36.1246490478515625 38.509700775146484375 41.2035980224609375 44.258762359619140625 47.734729766845703125 51.793712615966796875 57.032077789306640625 63.35595703125 71.07649993896484375 80.5786895751953125 92.2618865966796875 106.2822723388671875 123.4767303466796875 151.0255889892578125 185.3859710693359375 261.9078369140625 329.5323486328125 329.5323486328125 329.5323486328125 338.67071533203125 1001 1001 338.67071533203125 261.906951904296875 197.55322265625 197.55322265625 181.70330810546875 151.024444580078125 135.4515380859375 121.7860107421875 106.281005859375 92.26043701171875 82.09503173828125 76.39748382568359375 76.39748382568359375 76.39748382568359375 75.5216064453125 73.0706939697265625 69.48448944091796875 65.274505615234375 60.87096405029296875 56.565143585205078125 52.52094268798828125 48.811489105224609375 45.45433807373046875 42.4369354248046875 40.028247833251953125 38.358264923095703125 36.70501708984375 35.096630096435546875 33.551685333251953125 32.081310272216796875 30.69110107421875 29.38271331787109375 28.155139923095703125 27.005647659301757812 25.93045806884765625 24.925233840942382812 23.985395431518554688 23.106357574462890625 
10.321428298950195312 10.319856643676757812 10.31514739990234375 10.307313919067382812 10.296380043029785156 10.282378196716308594 10.265351295471191406 10.245349884033203125 10.222431182861328125 10.19666290283203125 10.168117523193359375 10.136875152587890625 10.103022575378417969 10.066651344299316406 10.075250625610351562 10.094162940979003906 10.110259056091308594 10.123492240905761719 10.133824348449707031 10.141226768493652344 10.145676612854003906 10.147161483764648438 10.147161483764648438 10.147161483764648438 10.147161483764648438 10.291720390319824219 10.463015556335449219 10.640697479248046875 10.825128555297851562 11.016696929931640625 11.215821266174316406 11.422954559326171875 11.638584136962890625 11.863239288330078125 12.097493171691894531 12.341966629028320312 12.597336769104003906 12.864339828491210938 13.143778800964355469 13.436532974243164062 13.743562698364257812 14.065922737121582031 14.404773712158203125 14.761393547058105469 15.137192726135253906 15.533732414245605469 15.9527435302734375 16.396152496337890625 16.866106033325195312 17.365001678466796875 17.895528793334960938 18.460712432861328125 19.063953399658203125 19.709108352661132812 20.400541305541992188 21.143220901489257812 21.942819595336914062 22.80582427978515625 23.739690780639648438 24.7530059814453125 25.855680465698242188 27.05919647216796875 28.376863479614257812 29.824131011962890625 31.418914794921875 33.18193817138671875 35.1370086669921875 37.31114959716796875 39.734394073486328125 42.54122161865234375 45.9444427490234375 49.89044952392578125 54.49510955810546875 59.894397735595703125 66.25042724609375 75.3037872314453125 87.0220184326171875 102.55672454833984375 123.4774169921875 151.0261688232421875 185.3870849609375 261.90869140625 338.67279052734375 1001 1001 1001 1001 1001 338.67279052734375 261.9078369140625 185.3859710693359375 151.0250244140625 141.2225494384765625 135.4516448974609375 121.7863006591796875 107.29958343505859375 100.3259124755859375 91.3105926513671875 82.095367431640625 73.63216400146484375 66.94573211669921875 66.3300933837890625 66.3300933837890625 65.76381683349609375 64.15128326416015625 61.717205047607421875 58.74643707275390625 55.508541107177734375 52.21482086181640625 49.008453369140625 45.9739837646484375 43.153118133544921875 40.559505462646484375 38.190006256103515625 36.189971923828125 34.8007049560546875 33.429073333740234375 32.0933837890625 30.806077957153320312 29.574941635131835938 28.404191970825195312 27.295440673828125 26.248439788818359375 25.26168060302734375 24.3328399658203125 23.459093093872070312 22.637359619140625 
10.502465248107910156 10.500800132751464844 10.495809555053710938 10.487509727478027344 10.475927352905273438 10.46109771728515625 10.443067550659179688 10.421892166137695312 10.397634506225585938 10.37036895751953125 10.340176582336425781 10.307143211364746094 10.271364212036132812 10.232939720153808594 10.245351791381835938 10.265353202819824219 10.282379150390625 10.296380043029785156 10.307313919067382812 10.31514739990234375 10.319856643676757812 10.321428298950195312 10.321428298950195312 10.321428298950195312 10.321428298950195312 10.321428298950195312 10.482775688171386719 10.661597251892089844 10.847255706787109375 11.040148735046386719 11.2407073974609375 11.449392318725585938 11.666705131530761719 11.893189430236816406 12.129433631896972656 12.376077651977539062 12.633818626403808594 12.903416633605957031 13.185702323913574219 13.481583595275878906 13.792057991027832031 14.118222236633300781 14.461282730102539062 14.822573661804199219 15.203569412231445312 15.605906486511230469 16.031406402587890625 16.482097625732421875 16.960254669189453125 17.468420028686523438 18.009466171264648438 18.586622238159179688 19.20355987548828125 19.86444091796875 20.574022293090820312 21.337747573852539062 22.161874771118164062 23.053636550903320312 24.021417617797851562 25.074979782104492188 26.225751876831054688 27.487163543701171875 28.875062942504882812 30.408235549926757812 32.109027862548828125 34.00408172607421875 36.125194549560546875 38.510272979736328125 41.204189300537109375 44.25937652587890625 47.73535919189453125 51.794521331787109375 57.032939910888671875 63.35687255859375 71.07746124267578125 80.579681396484375 92.26285552978515625 110.799346923828125 139.329681396484375 185.3881988525390625 261.909576416015625 338.674896240234375 1001 1001 338.674896240234375 329.5323486328125 329.5323486328125 329.5323486328125 261.90869140625 185.3870849609375 151.0255889892578125 123.4767303466796875 109.9875335693359375 107.29962921142578125 100.3260650634765625 91.31085205078125 84.7078857421875 79.1719818115234375 73.02681732177734375 66.946014404296875 61.290130615234375 58.634487152099609375 58.634487152099609375 58.2476806640625 57.133235931396484375 55.414703369140625 53.258167266845703125 50.83417510986328125 48.290576934814453125 45.7403564453125 43.261096954345703125 40.900615692138671875 38.684436798095703125 36.62270355224609375 34.71566009521484375 33.03179168701171875 31.859159469604492188 30.703222274780273438 29.576375961303710938 28.487262725830078125 27.441486358642578125 26.442279815673828125 25.491086959838867188 24.588029861450195312 23.73230743408203125 22.9224700927734375 22.156665802001953125 
10.690671920776367188 10.688905715942382812 10.683612823486328125 10.674810409545898438 10.662527084350585938 10.646802902221679688 10.627688407897949219 10.605244636535644531 10.579543113708496094 10.550663948059082031 10.518693923950195312 10.483732223510742188 10.445879936218261719 10.405246734619140625 10.421893119812011719 10.443068504333496094 10.461098670959472656 10.475928306579589844 10.48751068115234375 10.495809555053710938 10.500800132751464844 10.502465248107910156 10.502465248107910156 10.502465248107910156 10.502465248107910156 10.502465248107910156 10.500800132751464844 10.678806304931640625 10.865479469299316406 11.059469223022460938 11.261212348937988281 11.471181869506835938 11.689889907836914062 11.917889595031738281 12.155783653259277344 12.40422821044921875 12.663936614990234375 12.935688972473144531 13.220338821411132812 13.518820762634277344 13.832162857055664062 14.161495208740234375 14.508066177368164062 14.873255729675292969 15.258592605590820312 15.665781021118164062 16.096715927124023438 16.553516387939453125 17.038564682006835938 17.554533004760742188 18.104444503784179688 18.69171905517578125 19.320253372192382812 19.994485855102539062 20.719516754150390625 21.50121307373046875 22.346363067626953125 23.262868881225585938 24.259958267211914062 25.348485946655273438 26.541284561157226562 27.853624343872070312 29.3037872314453125 30.913808822631835938 32.71044158935546875 34.72635650634765625 37.0017547607421875 39.586345672607421875 42.541873931884765625 45.94512939453125 49.89116668701171875 54.49585723876953125 59.89516448974609375 66.2514801025390625 75.30493927001953125 87.02327728271484375 102.558074951171875 123.4787750244140625 151.027313232421875 204.1356201171875 338.677001953125 1001 1001 338.677001953125 261.909576416015625 197.55322265625 197.55322265625 197.55322265625 181.7040863037109375 151.0261688232421875 123.4774169921875 106.2822723388671875 92.2618865966796875 88.6751708984375 84.707977294921875 79.172149658203125 73.07086944580078125 69.48482513427734375 65.274993896484375 60.87158203125 56.56584930419921875 52.56084442138671875 52.56084442138671875 52.2850799560546875 51.484050750732421875 50.229869842529296875 48.623630523681640625 46.77544403076171875 44.78798675537109375 42.7467193603515625 40.716518402099609375 38.74272918701171875 36.854351043701171875 35.06787872314453125 33.390811920166015625 31.8245391845703125 30.389238357543945312 29.386932373046875 28.399745941162109375 27.436361312866210938 26.502965927124023438 25.603696823120117188 24.741064071655273438 23.916315078735351562 23.129751205444335938 22.38097381591796875 21.669086456298828125 
10.886486053466796875 10.884610176086425781 10.878988265991210938 10.869641304016113281 10.856598854064941406 10.839906692504882812 10.819620132446289062 10.795806884765625 10.768544197082519531 10.737921714782714844 10.704034805297851562 10.6669921875 10.626905441284179688 10.583894729614257812 10.605246543884277344 10.627689361572265625 10.646802902221679688 10.662527084350585938 10.674810409545898438 10.683612823486328125 10.688905715942382812 10.690671920776367188 10.690671920776367188 10.690671920776367188 10.690671920776367188 10.690671920776367188 10.688905715942382812 10.692264556884765625 10.879734039306640625 11.074584007263183594 11.277257919311523438 11.488236427307128906 11.708038330078125 11.937228202819824219 12.176419258117675781 12.426279067993164062 12.687536239624023438 12.960985183715820312 13.24749755859375 13.548029899597167969 13.8636322021484375 14.195465087890625 14.54480743408203125 14.91307830810546875 15.301851272583007812 15.712880134582519531 16.148122787475585938 16.609773635864257812 17.1002960205078125 17.622472763061523438 18.17945098876953125 18.77480316162109375 19.412611007690429688 20.097543716430664062 20.834985733032226562 21.631153106689453125 22.4932861328125 23.429840087890625 24.450771331787109375 25.567859649658203125 26.795156478881835938 28.149538040161132812 29.65143585205078125 31.325809478759765625 33.20342254638671875 35.32257843017578125 37.73148345947265625 40.491466522216796875 43.681488037109375 47.40435028076171875 51.795330047607421875 57.033802032470703125 63.3577880859375 71.07842254638671875 80.5806732177734375 92.263824462890625 110.80106353759765625 139.3316802978515625 185.3904266357421875 261.91131591796875 338.679107666015625 1001 338.679107666015625 261.910430908203125 185.389312744140625 151.0267333984375 141.2225494384765625 141.2225494384765625 135.4519500732421875 121.78717041015625 106.2826995849609375 92.2623748779296875 82.09637451171875 75.52166748046875 73.07093048095703125 69.48493194580078125 65.2751617431640625 61.717437744140625 58.746791839599609375 55.509002685546875 52.21537017822265625 49.009067535400390625 47.645267486572265625 47.441837310791015625 46.847400665283203125 45.906200408935546875 44.682193756103515625 43.2481689453125 41.675800323486328125 40.0286865234375 38.3587646484375 36.705570220947265625 35.09722137451171875 33.55230712890625 32.0819549560546875 30.691759109497070312 29.383378982543945312 28.155809402465820312 27.28033447265625 26.427598953247070312 25.594547271728515625 24.785717010498046875 24.004230499267578125 23.252065658569335938 22.530284881591796875 21.839258193969726562 21.17882537841796875 
11.090375900268554688 11.088381767272949219 11.082404136657714844 11.072465896606445312 11.05860137939453125 11.040860176086425781 11.019304275512695312 10.994007110595703125 10.965055465698242188 10.932546615600585938 10.896589279174804688 10.857298851013183594 10.814800262451171875 10.76922607421875 10.795808792114257812 10.819621086120605469 10.839907646179199219 10.856599807739257812 10.869641304016113281 10.878989219665527344 10.884610176086425781 10.886486053466796875 10.886486053466796875 10.886486053466796875 10.886486053466796875 10.886486053466796875 10.884610176086425781 10.878989219665527344 10.889966964721679688 11.085434913635253906 11.288778305053710938 11.500482559204101562 11.721072196960449219 11.951119422912597656 12.191245079040527344 12.442124366760253906 12.704496383666992188 12.979167938232421875 13.267024040222167969 13.569035530090332031 13.886270523071289062 14.21990966796875 14.571254730224609375 14.941753387451171875 15.333011627197265625 15.746822357177734375 16.185186386108398438 16.650354385375976562 17.144853591918945312 17.671543121337890625 18.233661651611328125 18.834897994995117188 19.479471206665039062 20.172224044799804688 20.918750762939453125 21.725534439086914062 22.600149154663085938 23.551481246948242188 24.590030670166015625 25.728300094604492188 26.981275558471679688 28.367090225219726562 29.907867431640625 31.630893707275390625 33.5701751708984375 35.768634796142578125 38.281169891357421875 41.1790618896484375 44.556430816650390625 48.539867401123046875 53.303173065185546875 59.0904083251953125 66.252532958984375 75.30609130859375 87.0245361328125 102.559417724609375 123.480133056640625 151.0284576416015625 204.1386566162109375 338.68121337890625 1001 1001 338.68121337890625 204.1386566162109375 151.027313232421875 123.4787750244140625 109.9875335693359375 109.9875335693359375 107.299774169921875 100.3265380859375 91.3116455078125 82.09670257568359375 73.6336517333984375 66.94684600830078125 64.15143585205078125 61.7175140380859375 58.74691009521484375 55.509159088134765625 53.25843048095703125 50.83452606201171875 48.29100799560546875 45.740856170654296875 43.585369110107421875 43.43105316162109375 42.978115081787109375 42.254856109619140625 41.3031463623046875 40.172267913818359375 38.912811279296875 37.571941375732421875 36.190387725830078125 34.801174163818359375 33.429584503173828125 32.09392547607421875 30.806646347045898438 29.575527191162109375 28.404790878295898438 27.296047210693359375 26.249050140380859375 25.464044570922851562 24.720134735107421875 23.9926605224609375 23.285030364990234375 22.599643707275390625 21.93807220458984375 21.3012237548828125 20.689479827880859375 
11.302852630615234375 11.300728797912597656 11.294365882873535156 11.283785820007324219 11.269028663635253906 11.250148773193359375 11.227214813232421875 11.200308799743652344 11.169526100158691406 11.134976387023925781 11.096776008605957031 11.055054664611816406 11.009949684143066406 10.965057373046875 10.994008064270019531 11.019305229187011719 11.040861129760742188 11.058602333068847656 11.072465896606445312 11.082404136657714844 11.088381767272949219 11.090375900268554688 11.090375900268554688 11.090375900268554688 11.090375900268554688 11.090375900268554688 11.088381767272949219 11.082404136657714844 11.072465896606445312 11.091981887817382812 11.295728683471679688 11.507870674133300781 11.728936195373535156 11.959500312805175781 12.200189590454101562 12.451684951782226562 12.714730262756347656 12.990140914916992188 13.278807640075683594 13.581712722778320312 13.899934768676757812 14.234665870666503906 14.587223052978515625 14.959070205688476562 15.351833343505859375 15.767328262329101562 16.207584381103515625 16.674884796142578125 17.171796798706054688 17.70122528076171875 18.266468048095703125 18.87128448486328125 19.519975662231445312 20.217493057250976562 20.969560623168945312 21.782831192016601562 22.665082931518554688 23.625471115112304688 24.674840927124023438 25.826145172119140625 27.094964981079101562 28.500232696533203125 30.065158843994140625 31.818529129028320312 33.796466827392578125 36.044933319091796875 38.62329864501953125 41.609600067138671875 45.10845184326171875 49.263347625732421875 54.276401519775390625 60.441314697265625 68.201080322265625 78.25445556640625 91.76515960693359375 110.80278778076171875 139.33367919921875 185.39263916015625 261.91302490234375 338.68328857421875 1001 338.68328857421875 261.91217041015625 185.3915252685546875 139.3326873779296875 110.8019256591796875 92.263336181640625 90.132904052734375 88.6752471923828125 84.70825958251953125 79.1726531982421875 73.02774810791015625 66.94712066650390625 61.29134368896484375 57.133342742919921875 55.41492462158203125 53.258514404296875 50.834644317626953125 48.6238250732421875 46.77571868896484375 44.788330078125 42.747119903564453125 40.71697235107421875 40.055797576904296875 39.702930450439453125 39.135753631591796875 38.38253021240234375 37.477386474609375 36.4565277099609375 35.355045318603515625 34.20461273193359375 33.03218841552734375 31.859598159790039062 30.703693389892578125 29.576873779296875 28.487783432006835938 27.44202423095703125 26.442829132080078125 25.491641998291015625 24.588590621948242188 23.882053375244140625 23.227445602416992188 22.586687088012695312 21.962388992309570312 21.356426239013671875 20.770061492919921875 20.204067230224609375 
11.524471282958984375 11.522206306457519531 11.515422821044921875 11.504144668579101562 11.488416671752929688 11.468298912048339844 11.443867683410644531 11.415213584899902344 11.382444381713867188 11.345678329467773438 11.305047035217285156 11.260693550109863281 11.2127685546875 11.169528961181640625 11.200310707092285156 11.227215766906738281 11.250149726867675781 11.269029617309570312 11.283785820007324219 11.294365882873535156 11.300728797912597656 11.302852630615234375 11.302852630615234375 11.302852630615234375 11.302852630615234375 11.302852630615234375 11.300728797912597656 11.294365882873535156 11.283785820007324219 11.269029617309570312 11.317742347717285156 11.526722908020019531 11.744162559509277344 11.970574378967285156 12.206510543823242188 12.454912185668945312 12.718183517456054688 12.993842124938964844 13.282781600952148438 13.585986137390136719 13.904539108276367188 14.239636421203613281 14.592600822448730469 14.964900016784667969 15.358168601989746094 15.774228096008300781 16.215120315551757812 16.683135986328125 17.180856704711914062 17.711206436157226562 18.277498245239257812 18.883516311645507812 19.533594131469726562 20.232713699340820312 20.986646652221679688 21.80210113525390625 22.686925888061523438 23.650365829467773438 24.703390121459960938 25.859096527099609375 27.13327789306640625 28.545135498046875 30.118257522583007812 31.881946563720703125 33.8730621337890625 36.138629913330078125 38.739593505859375 41.756381988525390625 45.297382354736328125 49.5122222900390625 54.6134796142578125 60.91364288330078125 68.89163970947265625 79.3206939697265625 93.53534698486328125 114.0538177490234375 146.2642059326171875 204.141693115234375 338.685394287109375 1001 1001 338.685394287109375 204.141693115234375 151.0284576416015625 123.480133056640625 102.559417724609375 87.0245361328125 76.39748382568359375 75.52172088623046875 73.07110595703125 69.48526763916015625 65.2756500244140625 60.872406005859375 56.56679534912109375 52.52272796630859375 50.230030059814453125 48.623889923095703125 46.775806427001953125 44.78844451904296875 43.248378753662109375 41.676074981689453125 40.02901458740234375 38.359142303466796875 37.17653656005859375 36.896381378173828125 36.44374847412109375 35.838214874267578125 35.103923797607421875 34.26717376708984375 33.354248046875 32.389728546142578125 31.395383834838867188 30.389616012573242188 29.3873443603515625 28.40018463134765625 27.436824798583984375 26.503448486328125 25.604192733764648438 24.74156951904296875 23.916828155517578125 23.130270004272460938 22.491861343383789062 21.9114227294921875 21.3427581787109375 20.78789520263671875 20.248321533203125 19.725065231323242188 
11.755832672119140625 11.753415107727050781 11.746171951293945312 11.734133720397949219 11.717348098754882812 11.695881843566894531 11.669819831848144531 11.639265060424804688 11.604334831237792969 11.565161705017089844 11.521890640258789062 11.474680900573730469 11.423699378967285156 11.382447242736816406 11.415215492248535156 11.443868637084960938 11.46829986572265625 11.488417625427246094 11.504144668579101562 11.515422821044921875 11.522206306457519531 11.524471282958984375 11.524471282958984375 11.524471282958984375 11.524471282958984375 11.524471282958984375 11.522206306457519531 11.515422821044921875 11.504144668579101562 11.488417625427246094 11.46829986572265625 11.568881034851074219 11.789007186889648438 12.018335342407226562 12.257444381713867188 12.506959915161132812 12.7675628662109375 13.039991378784179688 13.325049400329589844 13.623613357543945312 13.936642646789550781 14.265183448791503906 14.610383033752441406 14.973501205444335938 15.358301162719726562 15.774365425109863281 16.215261459350585938 16.68328094482421875 17.18100738525390625 17.711360931396484375 18.277658462524414062 18.8836822509765625 19.533763885498046875 20.232891082763671875 20.9868316650390625 21.8022918701171875 22.687124252319335938 23.65057373046875 24.70360565185546875 25.859323501586914062 27.133516311645507812 28.54538726806640625 30.11852264404296875 31.882226943969726562 33.873363494873046875 36.138950347900390625 38.73993682861328125 41.756748199462890625 45.297779083251953125 49.51265716552734375 54.613956451416015625 60.914173126220703125 68.89223480224609375 79.32137298583984375 93.53614044189453125 114.0547637939453125 146.2653656005859375 204.143218994140625 338.6875 1001 1001 338.6875 204.143218994140625 146.2653656005859375 114.0547637939453125 93.53614044189453125 80.5811614990234375 71.0789031982421875 65.76389312744140625 64.15155029296875 61.717746734619140625 58.747264862060546875 55.50962066650390625 52.216106414794921875 49.009891510009765625 45.97552490234375 44.682392120361328125 43.24845123291015625 41.676166534423828125 40.172435760498046875 38.91303253173828125 37.57221221923828125 36.190700531005859375 34.801525115966796875 34.465610504150390625 34.0988311767578125 33.605243682861328125 33.002254486083984375 32.309246063232421875 31.546083450317382812 30.731885910034179688 29.884141921997070312 29.018161773681640625 28.146856307983398438 27.280721664428710938 26.428010940551757812 25.59497833251953125 24.786165237426757812 24.00469207763671875 23.252534866333007812 22.53076171875 21.839740753173828125 21.260639190673828125 20.74246978759765625 20.234384536743164062 19.737987518310546875 19.2544708251953125 
11.997594833374023438 11.9950103759765625 11.98726654052734375 11.974397659301757812 11.956457138061523438 11.933519363403320312 11.905680656433105469 11.873052597045898438 11.835768699645996094 11.793974876403808594 11.747834205627441406 11.697520256042480469 11.643220901489257812 11.604337692260742188 11.639267921447753906 11.669821739196777344 11.695882797241210938 11.717349052429199219 11.734134674072265625 11.746172904968261719 11.753415107727050781 11.755832672119140625 11.755832672119140625 11.755832672119140625 11.755832672119140625 11.755832672119140625 11.753415107727050781 11.746172904968261719 11.734134674072265625 11.717349052429199219 11.695882797241210938 11.669821739196777344 11.829053878784179688 12.061008453369140625 12.302976608276367188 12.55561065673828125 12.819620132446289062 13.095778465270996094 13.384928703308105469 13.687991142272949219 14.005974769592285156 14.339985847473144531 14.691239356994628906 15.061075210571289062 15.450968742370605469 15.862551689147949219 16.297634124755859375 16.7582244873046875 17.246557235717773438 17.765125274658203125 18.316717147827148438 18.904458999633789062 19.533935546875 20.233068466186523438 20.9870147705078125 21.80248260498046875 22.68732452392578125 23.650781631469726562 24.703823089599609375 25.859552383422851562 27.133756637573242188 28.5456390380859375 30.118787765502929688 31.882509231567382812 33.873661041259765625 36.1392669677734375 38.740276336669921875 41.75711822509765625 45.298175811767578125 49.513088226318359375 54.61443328857421875 60.914699554443359375 68.89282989501953125 79.322052001953125 93.53692626953125 114.05570220947265625 146.26654052734375 204.1447296142578125 338.689605712890625 1001 1001 338.689605712890625 204.1447296142578125 146.26654052734375 114.05570220947265625 93.53692626953125 79.322052001953125 68.89282989501953125 60.914699554443359375 57.133426666259765625 55.41509246826171875 53.258777618408203125 50.83499908447265625 48.29158782958984375 45.74151611328125 43.262371063232421875 41.303302764892578125 40.17249298095703125 38.91310882568359375 37.572299957275390625 36.456707000732421875 35.3552703857421875 34.20487213134765625 33.0324859619140625 32.3405303955078125 32.039318084716796875 31.631992340087890625 31.13134002685546875 30.551843643188476562 29.908657073974609375 29.216724395751953125 28.490081787109375 27.741382598876953125 26.98163604736328125 26.220119476318359375 25.464410781860351562 24.720521926879882812 23.99306488037109375 23.285448074340820312 22.600072860717773438 21.938510894775390625 21.301670074462890625 20.689929962158203125 20.162637710571289062 19.697244644165039062 19.2405548095703125 18.793848037719726562 
12.250475883483886719 12.247707366943359375 12.239416122436523438 12.225638389587402344 12.206435203552246094 12.181888580322265625 12.15210723876953125 12.117216110229492188 12.077363967895507812 12.032712936401367188 11.983445167541503906 11.929754257202148438 11.871847152709960938 11.835771560668945312 11.873055458068847656 11.905681610107421875 11.933520317077636719 11.956458091735839844 11.974397659301757812 11.98726654052734375 11.9950103759765625 11.997594833374023438 11.997594833374023438 11.997594833374023438 11.997594833374023438 11.997594833374023438 11.9950103759765625 11.98726654052734375 11.974397659301757812 11.956458091735839844 11.933520317077636719 11.905681610107421875 11.873055458068847656 12.098402976989746094 12.3428955078125 12.598285675048828125 12.865309715270996094 13.144770622253417969 13.437546730041503906 13.744599342346191406 14.066984176635742188 14.40586090087890625 14.762507438659667969 15.138334274291992188 15.534903526306152344 15.953945159912109375 16.397386550903320312 16.867374420166015625 17.366306304931640625 17.896871566772460938 18.462093353271484375 19.065378189086914062 19.710575103759765625 20.4020538330078125 21.144784927368164062 21.944433212280273438 22.807493209838867188 23.74141693115234375 24.754791259765625 25.85977935791015625 27.13399505615234375 28.54589080810546875 30.119052886962890625 31.88278961181640625 33.873958587646484375 36.13958740234375 38.7406158447265625 41.75748443603515625 45.298572540283203125 49.513523101806640625 54.614910125732421875 60.91522979736328125 68.89342498779296875 79.32273101806640625 93.5377197265625 114.05664825439453125 146.2677001953125 204.1462554931640625 338.69171142578125 1001 338.69171142578125 261.9156494140625 185.3959808349609375 139.336669921875 110.80536651611328125 91.76738739013671875 78.25640106201171875 68.20281219482421875 60.44286346435546875 54.277801513671875 50.230152130126953125 48.624088287353515625 46.776081085205078125 44.788787841796875 42.74765777587890625 40.7175750732421875 38.74387359619140625 37.477565765380859375 36.456768035888671875 35.355342864990234375 34.267322540283203125 33.354434967041015625 32.389949798583984375 31.395639419555664062 30.467321395874023438 30.217012405395507812 29.877157211303710938 29.457302093505859375 28.968412399291992188 28.422166824340820312 27.83031463623046875 27.204137802124023438 26.5540618896484375 25.889400482177734375 25.218231201171875 24.547367095947265625 23.8824005126953125 23.227809906005859375 22.587066650390625 21.962781906127929688 21.356828689575195312 20.770473480224609375 20.2044830322265625 19.659231185913085938 19.177371978759765625 18.757099151611328125 18.344385147094726562 
12.515259742736816406 12.51229095458984375 12.503398895263671875 12.48862457275390625 12.468036651611328125 12.441728591918945312 12.409819602966308594 12.372452735900878906 12.329792022705078125 12.28202056884765625 12.229339599609375 12.171967506408691406 12.110132217407226562 12.077366828918457031 12.117218971252441406 12.152109146118164062 12.181890487670898438 12.206435203552246094 12.22563934326171875 12.239417076110839844 12.247707366943359375 12.250475883483886719 12.250475883483886719 12.250475883483886719 12.250475883483886719 12.250475883483886719 12.247707366943359375 12.239417076110839844 12.22563934326171875 12.206435203552246094 12.181890487670898438 12.152109146118164062 12.117218971252441406 12.130352020263671875 12.377016067504882812 12.634777069091796875 12.90439605712890625 13.186703681945800781 13.482607841491699219 13.793107032775878906 14.119296073913574219 14.462384223937988281 14.823701858520507812 15.2047271728515625 15.607095718383789062 16.032627105712890625 16.4833526611328125 16.961545944213867188 17.46974945068359375 18.010835647583007812 18.58803558349609375 19.20501708984375 19.865945816040039062 20.5755767822265625 21.33935546875 22.163541793823242188 23.055364608764648438 24.0232086181640625 25.076839447021484375 26.227685928344726562 27.48917388916015625 28.877157211303710938 30.410417556762695312 32.111301422119140625 34.006450653076171875 36.139904022216796875 38.74095916748046875 41.75785064697265625 45.29897308349609375 49.513957977294921875 54.615386962890625 60.915760040283203125 68.89402008056640625 79.3234100341796875 93.53850555419921875 114.057586669921875 146.26885986328125 204.1477813720703125 338.693817138671875 1001 338.693817138671875 204.1477813720703125 151.03076171875 123.48285675048828125 102.5621185302734375 87.0270538330078125 75.3083953857421875 66.25463104248046875 59.092334747314453125 53.30493927001953125 48.54149627685546875 44.682544708251953125 43.24866485595703125 41.6764373779296875 40.029449462890625 38.35964202880859375 36.70653533935546875 35.10407257080078125 34.26737213134765625 33.354496002197265625 32.390026092529296875 31.546239852905273438 30.732074737548828125 29.884359359741210938 29.018407821655273438 28.593801498413085938 28.307430267333984375 27.95212554931640625 27.536298751831054688 27.069036483764648438 26.55963897705078125 26.01720428466796875 25.4503173828125 24.866823196411132812 24.273691177368164062 23.6769561767578125 23.08171844482421875 22.492191314697265625 21.911767959594726562 21.34311676025390625 20.788265228271484375 20.248701095581054688 19.725452423095703125 19.219171524047851562 18.730205535888671875 18.288351058959960938 17.906949996948242188 
12.792807579040527344 12.789617538452148438 12.780065536499023438 12.764197349548339844 12.74208831787109375 12.713846206665039062 12.679604530334472656 12.639522552490234375 12.593785285949707031 12.542597770690917969 12.486186981201171875 12.424793243408203125 12.358673095703125 12.329794883728027344 12.372455596923828125 12.409821510314941406 12.441729545593261719 12.468037605285644531 12.488625526428222656 12.503398895263671875 12.51229095458984375 12.515259742736816406 12.515259742736816406 12.515259742736816406 12.515259742736816406 12.515259742736816406 12.51229095458984375 12.503398895263671875 12.488625526428222656 12.468037605285644531 12.441729545593261719 12.409821510314941406 12.372455596923828125 12.329794883728027344 12.405172348022460938 12.6649017333984375 12.936676025390625 13.221348762512207031 13.519855499267578125 13.833222389221191406 14.162580490112304688 14.509179115295410156 14.874396324157714844 15.259764671325683594 15.66698455810546875 16.097951889038085938 16.554790496826171875 17.039875030517578125 17.555883407592773438 18.105836868286132812 18.693157196044921875 19.321737289428710938 19.996023178100585938 20.72110748291015625 21.50286102294921875 22.348073959350585938 23.264644622802734375 24.261806488037109375 25.35041046142578125 26.543292999267578125 27.855722427368164062 29.305980682373046875 30.916107177734375 32.712848663330078125 34.72888946533203125 37.00441741943359375 39.589145660400390625 42.544818878173828125 45.948223114013671875 49.894405364990234375 54.615863800048828125 60.916286468505859375 68.89461517333984375 79.32408905029296875 93.5392913818359375 114.05853271484375 146.2700347900390625 204.1492919921875 338.6959228515625 1001 338.6959228515625 204.1492919921875 146.2700347900390625 114.05853271484375 93.5392913818359375 80.5831451416015625 71.0808258056640625 63.360080718994140625 57.03595733642578125 51.797351837158203125 47.40624237060546875 43.683261871337890625 40.493137359619140625 38.913326263427734375 37.57257080078125 36.191120147705078125 34.80199432373046875 33.43047332763671875 32.30941009521484375 31.546291351318359375 30.732137680053710938 29.908788681030273438 29.216884613037109375 28.490268707275390625 27.741594314575195312 27.139192581176757812 26.895730972290039062 26.592565536499023438 26.236215591430664062 25.833826065063476562 25.392803192138671875 24.920520782470703125 24.424055099487304688 23.910001754760742188 23.38433837890625 22.85236358642578125 22.318658828735351562 21.787113189697265625 21.260953903198242188 20.7427978515625 20.234724044799804688 19.738338470458984375 19.25482940673828125 18.785043716430664062 18.329540252685546875 17.888631820678710938 17.482143402099609375 
13.084064483642578125 13.080632209777832031 13.070352554321289062 13.053278923034667969 13.029496192932128906 12.999126434326171875 12.962319374084472656 12.919254302978515625 12.87014007568359375 12.81520843505859375 12.754710197448730469 12.688917160034179688 12.618115425109863281 12.593789100646972656 12.639525413513183594 12.679606437683105469 12.713848114013671875 12.742089271545410156 12.764197349548339844 12.780065536499023438 12.789618492126464844 12.792807579040527344 12.792807579040527344 12.792807579040527344 12.792807579040527344 12.792807579040527344 12.789618492126464844 12.780065536499023438 12.764197349548339844 12.742089271545410156 12.713848114013671875 12.679606437683105469 12.639525413513183594 12.593789100646972656 12.5426025390625 12.688508033752441406 12.961978912353515625 13.248514175415039062 13.549071311950683594 13.864699363708496094 14.196558952331542969 14.545929908752441406 14.914229393005371094 15.303033828735351562 15.714095115661621094 16.149372100830078125 16.611059188842773438 17.101621627807617188 17.62384033203125 18.1808624267578125 18.776262283325195312 19.414117813110351562 20.0991058349609375 20.836603164672851562 21.632833480834960938 22.495031356811523438 23.431657791137695312 24.452665328979492188 25.569837570190429688 26.7972259521484375 28.151706695556640625 29.653713226318359375 31.328203201293945312 33.2059478759765625 35.32524871826171875 37.734310150146484375 40.494472503662109375 43.68468475341796875 47.407756805419921875 51.798969268798828125 57.03768157958984375 63.361911773681640625 71.08275604248046875 80.58512115478515625 93.5400848388671875 114.05947113037109375 146.2711944580078125 204.15081787109375 338.697998046875 1001 338.697998046875 204.15081787109375 146.2711944580078125 114.05947113037109375 93.5400848388671875 79.32476806640625 68.89521026611328125 60.91681671142578125 54.61634063720703125 49.8933258056640625 45.9471893310546875 42.5438385009765625 39.5882110595703125 37.003528594970703125 35.35556793212890625 34.20522308349609375 33.0328826904296875 31.860364913940429688 30.704519271850585938 29.908832550048828125 29.216938018798828125 28.490331649780273438 27.83045196533203125 27.2042999267578125 26.554246902465820312 25.889608383178710938 25.61988067626953125 25.359247207641601562 25.051748275756835938 24.703044891357421875 24.319086074829101562 23.905870437622070312 23.469249725341796875 23.01476287841796875 22.547527313232421875 22.072160720825195312 21.592742919921875 21.112810134887695312 20.635372161865234375 20.162937164306640625 19.697557449340820312 19.240877151489257812 18.794179916381835938 18.358430862426757812 17.93433380126953125 17.52236175537109375 17.122800827026367188 
13.390073776245117188 13.386372566223144531 13.3752899169921875 13.356885910034179688 13.331256866455078125 13.298540115356445312 13.258905410766601562 13.212556838989257812 13.15972900390625 13.100680351257324219 13.035696983337402344 12.965082168579101562 12.889155387878417969 12.870144844055175781 12.919257164001464844 12.962321281433105469 12.999128341674804688 13.029498100280761719 13.053278923034667969 13.070353507995605469 13.080632209777832031 13.084064483642578125 13.084064483642578125 13.084064483642578125 13.084064483642578125 13.084064483642578125 13.080632209777832031 13.070353507995605469 13.053278923034667969 13.029498100280761719 12.999128341674804688 12.962321281433105469 12.919257164001464844 12.870144844055175781 12.815213203430175781 12.754715919494628906 12.980166435241699219 13.268046379089355469 13.570081710815429688 13.887343406677246094 14.221009254455566406 14.572383880615234375 14.942912101745605469 15.334202766418457031 15.748045921325683594 16.1864471435546875 16.651651382446289062 17.146190643310546875 17.672922134399414062 18.235086441040039062 18.836370468139648438 19.48099517822265625 20.17380523681640625 20.920389175415039062 21.727237701416015625 22.60192108154296875 23.553327560424804688 24.591960906982421875 25.730318069458007812 26.98339080810546875 28.369310379028320312 29.910207748413085938 31.633363723754882812 33.57279205322265625 35.771411895751953125 38.284130096435546875 41.18222808837890625 44.559833526611328125 48.543537139892578125 53.30715179443359375 59.0947418212890625 66.25727081298828125 75.311279296875 87.0301971435546875 102.56549072265625 123.48626708984375 151.03363037109375 204.15234375 338.700103759765625 1001 338.700103759765625 204.15234375 146.272369384765625 114.06041717529296875 93.54087066650390625 79.32544708251953125 68.89580535888671875 60.917346954345703125 54.616817474365234375 49.5152587890625 45.300167083740234375 41.758953094482421875 38.74198150634765625 36.14086151123046875 34.005924224853515625 32.390247344970703125 31.395977020263671875 30.390277862548828125 29.388063430786132812 28.4223175048828125 27.83049774169921875 27.20435333251953125 26.559757232666015625 26.017345428466796875 25.450479507446289062 24.867006301879882812 24.461565017700195312 24.2359466552734375 23.968900680541992188 23.664953231811523438 23.328912734985351562 22.965686798095703125 22.580125808715820312 22.176891326904296875 21.760354995727539062 21.334527969360351562 20.90301513671875 20.469007492065429688 20.035268783569335938 19.604158401489257812 19.1776580810546875 18.757396697998046875 18.344690322875976562 17.940578460693359375 17.5458526611328125 17.161100387573242188 16.7867279052734375 
13.711983680725097656 13.70798492431640625 13.696014404296875 13.676136970520019531 13.648466110229492188 13.613155364990234375 13.570398330688476562 13.520425796508789062 13.463501930236816406 13.399922370910644531 13.330004692077636719 13.254093170166015625 13.17254638671875 13.159732818603515625 13.212560653686523438 13.258908271789550781 13.298542022705078125 13.331257820129394531 13.356885910034179688 13.375290870666503906 13.386372566223144531 13.390073776245117188 13.390073776245117188 13.390073776245117188 13.390073776245117188 13.390073776245117188 13.386372566223144531 13.375290870666503906 13.356885910034179688 13.331257820129394531 13.298542022705078125 13.258908271789550781 13.212560653686523438 13.159732818603515625 13.100686073303222656 13.035703659057617188 12.99114227294921875 13.279832839965820312 13.582762718200683594 13.901011466979980469 14.235769271850585938 14.58835601806640625 14.960233688354492188 15.353029251098632812 15.768557548522949219 16.208850860595703125 16.676187515258789062 17.173139572143554688 17.702611923217773438 18.267900466918945312 18.872766494750976562 19.521511077880859375 20.219085693359375 20.97121429443359375 21.784549713134765625 22.666872024536132812 23.627336502075195312 24.676792144775390625 25.82818603515625 27.097108840942382812 28.5024871826171875 30.067537307739257812 31.821044921875 33.799137115478515625 36.047779083251953125 38.6263427734375 41.6128692626953125 45.1119842529296875 49.267192840576171875 54.280609130859375 60.44596099853515625 68.206268310546875 78.26030731201171875 91.77184295654296875 110.81052398681640625 139.342681884765625 185.40264892578125 261.920867919921875 338.70220947265625 1001 338.70220947265625 204.1538543701171875 146.273529052734375 114.0613555908203125 93.54166412353515625 79.3261260986328125 68.89640045166015625 60.917877197265625 54.6172943115234375 49.51569366455078125 45.300563812255859375 41.7593231201171875 38.7423248291015625 36.14118194580078125 33.875453948974609375 31.884195327758789062 30.120382308959960938 29.018733978271484375 28.147485733032226562 27.281400680541992188 26.559797286987304688 26.017393112182617188 25.450534820556640625 24.920642852783203125 24.424198150634765625 23.910161972045898438 23.405548095703125 23.209005355834960938 22.975717544555664062 22.7093353271484375 22.4137725830078125 22.093065261840820312 21.751249313354492188 21.392253875732421875 21.01981353759765625 20.6374053955078125 20.248205184936523438 19.855062484741210938 19.460498809814453125 19.066701889038085938 18.675550460815429688 18.288625717163085938 17.90723419189453125 17.532444000244140625 17.165105819702148438 16.805875778198242188 16.4552459716796875 
14.051066398620605469 14.046738624572753906 14.033781051635742188 14.012270927429199219 13.982335090637207031 13.944149971008300781 13.897934913635253906 13.843953132629394531 13.782505035400390625 13.713922500610351562 13.638567924499511719 13.556827545166015625 13.469103813171386719 13.463506698608398438 13.520429611206054688 13.570401191711425781 13.613157272338867188 13.648467063903808594 13.676137924194335938 13.696014404296875 13.707985877990722656 13.711983680725097656 13.711983680725097656 13.711983680725097656 13.711983680725097656 13.711983680725097656 13.707985877990722656 13.696014404296875 13.676137924194335938 13.648467063903808594 13.613157272338867188 13.570401191711425781 13.520429611206054688 13.463506698608398438 13.399928092956542969 13.330012321472167969 13.254101753234863281 13.283807754516601562 13.587037086486816406 13.90561676025390625 14.240741729736328125 14.5937347412109375 14.966064453125 15.359365463256835938 15.77545928955078125 16.216386795043945312 16.684442520141601562 17.182203292846679688 17.712594985961914062 18.278934478759765625 18.88500213623046875 19.535131454467773438 20.234310150146484375 20.98830413818359375 21.803823471069335938 22.688718795776367188 23.652238845825195312 24.705347061157226562 25.861146926879882812 27.13542938232421875 28.54740142822265625 30.120647430419921875 31.884477615356445312 33.875751495361328125 36.141498565673828125 38.742664337158203125 41.7596893310546875 45.300960540771484375 49.516124725341796875 54.617771148681640625 60.918407440185546875 68.89699554443359375 79.32680511474609375 93.542449951171875 114.0623016357421875 146.2747039794921875 204.1553802490234375 338.704315185546875 1001 1001 338.704315185546875 204.1553802490234375 146.2747039794921875 114.0623016357421875 93.542449951171875 79.32680511474609375 68.89699554443359375 60.918407440185546875 54.617771148681640625 49.516124725341796875 45.300960540771484375 41.7596893310546875 38.742664337158203125 36.141498565673828125 33.875751495361328125 31.884477615356445312 30.120647430419921875 28.54740142822265625 27.13542938232421875 26.2207183837890625 25.465051651000976562 24.920684814453125 24.424245834350585938 23.910215377807617188 23.4693756103515625 23.014905929565429688 22.547687530517578125 22.2668609619140625 22.061948776245117188 21.827301025390625 21.56612396240234375 21.281757354736328125 20.977575302124023438 20.656892776489257812 20.322906494140625 19.9786224365234375 19.626832962036132812 19.270074844360351562 18.910627365112304688 18.550504684448242188 18.19145965576171875 17.835000991821289062 17.4824066162109375 17.134738922119140625 16.792873382568359375 16.457508087158203125 16.129194259643554688 
14.408735275268554688 14.404040336608886719 14.389984130859375 14.366657257080078125 14.334202766418457031 14.29282379150390625 14.242770195007324219 14.184342384338378906 14.11788177490234375 14.043766021728515625 13.962405204772949219 13.874235153198242188 13.779711723327636719 13.782509803771972656 13.843956947326660156 13.897937774658203125 13.944151878356933594 13.982336044311523438 14.012270927429199219 14.033781051635742188 14.046738624572753906 14.051066398620605469 14.051066398620605469 14.051066398620605469 14.051066398620605469 14.051066398620605469 14.046738624572753906 14.033781051635742188 14.012270927429199219 13.982336044311523438 13.944151878356933594 13.897937774658203125 13.843956947326660156 13.782509803771972656 13.71392822265625 13.638575553894042969 13.556836128234863281 13.469114303588867188 13.587154388427734375 13.905736923217773438 14.240863800048828125 14.593860626220703125 14.96619415283203125 15.359498023986816406 15.77559661865234375 16.216527938842773438 16.684587478637695312 17.182353973388671875 17.712749481201171875 18.279094696044921875 18.885168075561523438 19.535303115844726562 20.234487533569335938 20.98848724365234375 21.804014205932617188 22.6889190673828125 23.652446746826171875 24.705564498901367188 25.8613739013671875 27.135669708251953125 28.5476531982421875 30.120914459228515625 31.88475799560546875 33.8760528564453125 36.141819000244140625 38.743007659912109375 41.7600555419921875 45.301361083984375 49.516559600830078125 54.61824798583984375 60.918933868408203125 68.89759063720703125 79.327484130859375 93.543243408203125 114.06324005126953125 146.2758636474609375 204.1569061279296875 338.7064208984375 1001 338.7064208984375 261.922607421875 185.4048614501953125 139.3446807861328125 110.81224822998046875 91.7733306884765625 78.26160430908203125 68.20742034912109375 60.446994781494140625 54.281543731689453125 49.268047332763671875 45.11277008056640625 41.613597869873046875 38.627017974853515625 36.048412322998046875 33.799732208251953125 31.821603775024414062 30.068065643310546875 28.502988815307617188 27.097585678100585938 25.828639984130859375 24.677225112915039062 23.906015396118164062 23.469417572021484375 23.01495361328125 22.580236434936523438 22.177019119262695312 21.760498046875 21.39968109130859375 21.218774795532226562 21.011098861694335938 20.779294967651367188 20.526140213012695312 20.254461288452148438 19.967073440551757812 19.666706085205078125 19.355968475341796875 19.037305831909179688 18.712970733642578125 18.385013580322265625 18.055273056030273438 17.725372314453125 17.396734237670898438 17.070581436157226562 16.747959136962890625 16.429737091064453125 16.116640090942382812 15.809248924255371094 
14.78656005859375 14.781455039978027344 14.76617431640625 14.740818977355957031 14.705557823181152344 14.660618782043457031 14.606292724609375 14.542921066284179688 14.470892906188964844 14.390641212463378906 14.302630424499511719 14.207354545593261719 14.105327606201171875 14.117886543273925781 14.184347152709960938 14.242774009704589844 14.292825698852539062 14.334204673767089844 14.366658210754394531 14.389985084533691406 14.404040336608886719 14.408735275268554688 14.408735275268554688 14.408735275268554688 14.408735275268554688 14.408735275268554688 14.404040336608886719 14.389985084533691406 14.366658210754394531 14.334204673767089844 14.292825698852539062 14.242774009704589844 14.184347152709960938 14.117886543273925781 14.043772697448730469 13.962412834167480469 13.87424468994140625 13.779723167419433594 13.679315567016601562 13.905856132507324219 14.240986824035644531 14.59398651123046875 14.9663238525390625 15.359631538391113281 15.775732994079589844 16.216669082641601562 16.684732437133789062 17.18250274658203125 17.712903976440429688 18.279253005981445312 18.885332107543945312 19.535474777221679688 20.2346649169921875 20.988672256469726562 21.80420684814453125 22.689119338989257812 23.652654647827148438 24.705781936645507812 25.861602783203125 27.135908126831054688 28.54790496826171875 30.121179580688476562 31.885040283203125 33.87635040283203125 36.1421356201171875 38.74334716796875 41.760425567626953125 45.3017578125 49.516994476318359375 54.618724822998046875 60.919464111328125 68.89818572998046875 79.32816314697265625 93.54402923583984375 114.06418609619140625 146.27703857421875 204.1584320068359375 338.708526611328125 1001 1001 338.708526611328125 204.1584320068359375 146.27703857421875 114.06418609619140625 93.54402923583984375 79.32816314697265625 68.89818572998046875 60.919464111328125 54.618724822998046875 49.516994476318359375 45.3017578125 41.760425567626953125 38.74334716796875 36.1421356201171875 33.87635040283203125 31.885040283203125 30.121179580688476562 28.54790496826171875 27.135908126831054688 25.861602783203125 24.705781936645507812 23.652654647827148438 22.689119338989257812 22.177061080932617188 21.760545730590820312 21.392368316650390625 21.019941329956054688 20.637546539306640625 20.438587188720703125 20.253965377807617188 20.047382354736328125 19.821153640747070312 19.577663421630859375 19.319301605224609375 19.048414230346679688 18.767259597778320312 18.477979660034179688 18.182569503784179688 17.882867813110351562 17.58054351806640625 17.27709197998046875 16.973840713500976562 16.671947479248046875 16.372419357299804688 16.076114654541015625 15.783755302429199219 15.495942115783691406 
15.1862945556640625 15.180730819702148438 15.1640777587890625 15.136453628540039062 15.098051071166992188 15.049136161804199219 14.990038871765136719 14.921154022216796875 14.842927932739257812 14.755853652954101562 14.66046142578125 14.557312965393066406 14.446990966796875 14.470898628234863281 14.542924880981445312 14.606296539306640625 14.66062164306640625 14.70555877685546875 14.740819931030273438 14.76617431640625 14.781455039978027344 14.78656005859375 14.78656005859375 14.78656005859375 14.78656005859375 14.78656005859375 14.781455039978027344 14.76617431640625 14.740819931030273438 14.70555877685546875 14.66062164306640625 14.606296539306640625 14.542924880981445312 14.470898628234863281 14.39064788818359375 14.302639007568359375 14.207364082336425781 14.105340003967285156 13.997092247009277344 13.905976295471191406 14.241109848022460938 14.594113349914550781 14.96645355224609375 15.359765052795410156 15.775870323181152344 16.216810226440429688 16.684877395629882812 17.182653427124023438 17.713060379028320312 18.279413223266601562 18.885498046875 19.53564453125 20.234842300415039062 20.988857269287109375 21.8043975830078125 22.689317703247070312 23.652862548828125 24.705999374389648438 25.861829757690429688 27.136148452758789062 28.54815673828125 30.1214447021484375 31.88532257080078125 33.87664794921875 36.1424560546875 38.74369049072265625 41.760791778564453125 45.302154541015625 49.517429351806640625 54.61920166015625 60.919994354248046875 68.89878082275390625 79.3288421630859375 93.54482269287109375 114.06512451171875 146.2781982421875 204.1599578857421875 338.71063232421875 1001 1001 338.71063232421875 204.1599578857421875 146.2781982421875 114.06512451171875 93.54482269287109375 79.3288421630859375 68.89878082275390625 60.919994354248046875 54.61920166015625 49.517429351806640625 45.302154541015625 41.760791778564453125 38.74369049072265625 36.1424560546875 33.87664794921875 31.88532257080078125 30.1214447021484375 28.54815673828125 27.136148452758789062 25.861829757690429688 24.705999374389648438 23.652862548828125 22.689317703247070312 21.8043975830078125 21.019985198974609375 20.656995773315429688 20.32302093505859375 19.978750228881835938 19.714792251586914062 19.549983978271484375 19.365159988403320312 19.162263870239257812 18.9433135986328125 18.710346221923828125 18.465379714965820312 18.210371017456054688 17.94719696044921875 17.677625656127929688 17.403301239013671875 17.125730514526367188 16.846284866333007812 16.566190719604492188 16.286542892456054688 16.00829315185546875 15.73227691650390625 15.459204673767089844 15.189680099487304688 
15.60990142822265625 15.603821754455566406 15.585628509521484375 15.555456161499023438 15.513529777526855469 15.460155487060546875 15.395716667175292969 15.320667266845703125 15.2355194091796875 15.140839576721191406 15.037234306335449219 14.925343513488769531 14.805828094482421875 14.84293365478515625 14.921158790588378906 14.990042686462402344 15.049138069152832031 15.098052978515625 15.136454582214355469 15.164078712463378906 15.180730819702148438 15.1862945556640625 15.1862945556640625 15.1862945556640625 15.1862945556640625 15.1862945556640625 15.180730819702148438 15.164078712463378906 15.136454582214355469 15.098052978515625 15.049138069152832031 14.990042686462402344 14.921158790588378906 14.84293365478515625 14.755861282348632812 14.660470962524414062 14.557324409484863281 14.447003364562988281 14.330105781555175781 14.207232475280761719 14.241232872009277344 14.594239234924316406 14.966583251953125 15.359897613525390625 15.776006698608398438 16.216951370239257812 16.685022354125976562 17.182802200317382812 17.713214874267578125 18.279573440551757812 18.885663986206054688 19.535816192626953125 20.235019683837890625 20.989040374755859375 21.804590225219726562 22.689517974853515625 23.653072357177734375 24.706216812133789062 25.862058639526367188 27.136386871337890625 28.54840850830078125 30.12171173095703125 31.885602951049804688 33.876949310302734375 36.142772674560546875 38.744029998779296875 41.76116180419921875 45.302555084228515625 49.517864227294921875 54.619678497314453125 60.92052459716796875 68.89937591552734375 79.32952117919921875 93.5456085205078125 114.066070556640625 146.2793731689453125 204.161468505859375 338.712738037109375 1001 338.712738037109375 261.924346923828125 185.4070892333984375 139.3466796875 110.81396484375 91.77481842041015625 78.262908935546875 68.2085723876953125 60.448032379150390625 54.282482147216796875 49.268901824951171875 45.113555908203125 41.614322662353515625 38.627696990966796875 36.049041748046875 33.800323486328125 31.822162628173828125 30.068593978881835938 28.503488540649414062 27.098062515258789062 25.82909393310546875 24.6776580810546875 23.62816619873046875 22.667667388916015625 21.785312652587890625 20.971948623657226562 20.219793319702148438 19.66680908203125 19.356084823608398438 19.041654586791992188 18.893960952758789062 18.727996826171875 18.545406341552734375 18.347900390625 18.1372222900390625 17.915109634399414062 17.68326568603515625 17.443334579467773438 17.196880340576171875 16.945369720458984375 16.69016265869140625 16.4325103759765625 16.173543930053710938 15.914282798767089844 15.655628204345703125 15.398377418518066406 15.143221855163574219 14.890760421752929688 
16.0595855712890625 16.05292510986328125 16.032993316650390625 15.999950408935546875 15.954056739807128906 15.89566802978515625 15.825228691101074219 15.74326324462890625 15.650363922119140625 15.547182083129882812 15.434414863586425781 15.312790870666503906 15.183065414428710938 15.235526084899902344 15.320672035217285156 15.395721435546875 15.460158348083496094 15.513531684875488281 15.555457115173339844 15.585628509521484375 15.603821754455566406 15.60990142822265625 15.60990142822265625 15.60990142822265625 15.60990142822265625 15.60990142822265625 15.603821754455566406 15.585628509521484375 15.555457115173339844 15.513531684875488281 15.460158348083496094 15.395721435546875 15.320672035217285156 15.235526084899902344 15.140848159790039062 15.037244796752929688 14.925355911254882812 14.805842399597167969 14.679379463195800781 14.546645164489746094 14.408313751220703125 14.594365119934082031 14.966711997985839844 15.3600311279296875 15.776144027709960938 16.217092514038085938 16.685167312622070312 17.182952880859375 17.713369369506835938 18.279733657836914062 18.885828018188476562 19.53598785400390625 20.235197067260742188 20.989225387573242188 21.804780960083007812 22.689718246459960938 23.653280258178710938 24.706434249877929688 25.862287521362304688 27.136627197265625 28.5486602783203125 30.121976852416992188 31.885885238647460938 33.877246856689453125 36.143093109130859375 38.744373321533203125 41.76152801513671875 45.302951812744140625 49.518299102783203125 54.62015533447265625 60.921054840087890625 68.89997100830078125 79.3302001953125 93.5464019775390625 114.0670166015625 146.280548095703125 204.162994384765625 338.71484375 1001 338.71484375 204.162994384765625 151.0364990234375 123.48967742919921875 102.5688629150390625 87.03334808349609375 75.3141632080078125 66.2599029541015625 59.0971527099609375 53.30936431884765625 48.545574188232421875 44.5617218017578125 41.183990478515625 38.28577423095703125 35.77295684814453125 33.574245452880859375 31.634735107421875 29.911508560180664062 28.370546340942382812 26.984567642211914062 25.731439590454101562 24.5930328369140625 23.554355621337890625 22.602907180786132812 21.728185653686523438 20.923959732055664062 20.204824447631835938 19.53376007080078125 18.906307220458984375 18.478094100952148438 18.281330108642578125 18.131786346435546875 17.966936111450195312 17.788236618041992188 17.597185134887695312 17.395280838012695312 17.184009552001953125 16.964813232421875 16.739070892333984375 16.508096694946289062 16.273113250732421875 16.035257339477539062 15.795569419860839844 15.554991722106933594 15.314373016357421875 15.074468612670898438 14.83594512939453125 14.599385261535644531 
16.537830352783203125 16.530511856079101562 16.50861358642578125 16.472326278686523438 16.421949386596679688 16.357900619506835938 16.280698776245117188 16.190950393676757812 16.089344024658203125 15.976630210876464844 15.853611946105957031 15.721125602722167969 15.5800323486328125 15.650371551513671875 15.743268966674804688 15.82523345947265625 15.895670890808105469 15.954058647155761719 15.999951362609863281 16.032993316650390625 16.05292510986328125 16.0595855712890625 16.0595855712890625 16.0595855712890625 16.0595855712890625 16.0595855712890625 16.05292510986328125 16.032993316650390625 15.999951362609863281 15.954058647155761719 15.895670890808105469 15.82523345947265625 15.743268966674804688 15.650371551513671875 15.547191619873046875 15.43442535400390625 15.312804222106933594 15.183080673217773438 15.046019554138183594 14.902386665344238281 14.752939224243164062 14.598421096801757812 14.966841697692871094 15.360163688659667969 15.776281356811523438 16.217233657836914062 16.685312271118164062 17.183101654052734375 17.71352386474609375 18.2798919677734375 18.88599395751953125 19.536159515380859375 20.23537445068359375 20.989408493041992188 21.804973602294921875 22.689916610717773438 23.6534881591796875 24.706651687622070312 25.862514495849609375 27.136867523193359375 28.54891204833984375 30.122243881225585938 31.886165618896484375 33.8775482177734375 36.143413543701171875 38.744716644287109375 41.76189422607421875 45.30335235595703125 49.51873016357421875 54.620635986328125 60.9215850830078125 68.90056610107421875 79.33087921142578125 93.54718780517578125 114.06795501708984375 146.281707763671875 204.164520263671875 338.716949462890625 1001 338.716949462890625 204.164520263671875 151.0382232666015625 123.49172210693359375 102.57088470458984375 87.03524017333984375 75.31589508056640625 66.26148223876953125 59.098598480224609375 53.31069183349609375 48.546802520751953125 44.56285858154296875 41.185047149658203125 38.286762237548828125 35.773883819580078125 33.5751190185546875 31.635560989379882812 29.912288665771484375 28.381494522094726562 27.06366729736328125 25.859998703002929688 24.757175445556640625 23.74372100830078125 22.809720993041992188 21.946588516235351562 21.146869659423828125 20.40407562255859375 19.712533950805664062 19.067277908325195312 18.463937759399414062 17.898662567138671875 17.5728759765625 17.423585891723632812 17.26143646240234375 17.087720870971679688 16.903736114501953125 16.710779190063476562 16.510112762451171875 16.302965164184570312 16.0904998779296875 15.873823165893554688 15.653962135314941406 15.431870460510253906 15.208418846130371094 14.984398841857910156 14.781455039978027344 14.78656005859375 14.78656005859375 
17.04744720458984375 17.039379119873046875 17.01525115966796875 16.975276947021484375 16.919816970825195312 16.84935760498046875 16.76450347900390625 16.665967941284179688 16.554548263549804688 16.431116104125976562 16.296596527099609375 16.15195465087890625 15.998174667358398438 16.089351654052734375 16.19095611572265625 16.280702590942382812 16.357904434204101562 16.4219512939453125 16.47232818603515625 16.508615493774414062 16.530511856079101562 16.537830352783203125 16.537830352783203125 16.537830352783203125 16.537830352783203125 16.537830352783203125 16.530511856079101562 16.508615493774414062 16.47232818603515625 16.4219512939453125 16.357904434204101562 16.280702590942382812 16.19095611572265625 16.089351654052734375 15.976640701293945312 15.853623390197753906 15.721139907836914062 15.580049514770507812 15.431219100952148438 15.275517463684082031 15.113795280456542969 14.946882247924804688 14.966971397399902344 15.360297203063964844 15.776417732238769531 16.217374801635742188 16.685457229614257812 17.183252334594726562 17.713678359985351562 18.28005218505859375 18.886157989501953125 19.536329269409179688 20.235551834106445312 20.989593505859375 21.805164337158203125 22.69011688232421875 23.653696060180664062 24.70687103271484375 25.862743377685546875 27.137105941772460938 28.549163818359375 30.122509002685546875 31.886447906494140625 33.87784576416015625 36.14373016357421875 38.74505615234375 41.762264251708984375 45.30374908447265625 49.5191650390625 54.621112823486328125 60.922115325927734375 68.90116119384765625 79.3315582275390625 93.54798126220703125 114.06890106201171875 146.2828826904296875 204.166046142578125 338.71905517578125 1001 338.71905517578125 261.927825927734375 185.4115447998046875 139.350677490234375 110.817413330078125 91.77779388427734375 78.26551055908203125 68.21088409423828125 60.450099945068359375 54.28435516357421875 49.270610809326171875 45.115131378173828125 41.615779876708984375 38.629047393798828125 36.130962371826171875 34.009613037109375 32.114337921142578125 30.413331985473632812 28.879953384399414062 27.49185943603515625 26.230268478393554688 25.07932281494140625 24.025600433349609375 23.057668685913085938 22.165765762329101562 21.341503143310546875 20.577653884887695312 19.867954254150390625 19.20696258544921875 18.5899200439453125 18.012662887573242188 17.471525192260742188 16.963270187377929688 16.764886856079101562 16.60652923583984375 16.438478469848632812 16.261861801147460938 16.077795028686523438 15.887363433837890625 15.691607475280761719 15.491518020629882812 15.288027763366699219 15.098057746887207031 15.136457443237304688 15.164079666137695312 15.180730819702148438 15.1862945556640625 15.1862945556640625 
17.591625213623046875 17.582704544067382812 17.5560302734375 17.511857986450195312 17.450609207153320312 17.372858047485351562 17.279317855834960938 17.1708221435546875 17.048303604125976562 16.912778854370117188 16.765317916870117188 16.607036590576171875 16.439062118530273438 16.554555892944335938 16.665975570678710938 16.764509201049804688 16.849361419677734375 16.919820785522460938 16.975278854370117188 17.01525115966796875 17.039379119873046875 17.04744720458984375 17.04744720458984375 17.04744720458984375 17.04744720458984375 17.04744720458984375 17.039379119873046875 17.01525115966796875 16.975278854370117188 16.919820785522460938 16.849361419677734375 16.764509201049804688 16.665975570678710938 16.554555892944335938 16.431125640869140625 16.296609878540039062 16.15196990966796875 15.998192787170410156 15.836266517639160156 15.667171478271484375 15.491869926452636719 15.311288833618164062 15.126320838928222656 15.360430717468261719 15.776555061340332031 16.217515945434570312 16.685604095458984375 17.183401107788085938 17.713832855224609375 18.28021240234375 18.886323928833007812 19.536500930786132812 20.235729217529296875 20.989778518676757812 21.805356979370117188 22.690317153930664062 23.653903961181640625 24.707088470458984375 25.862970352172851562 27.137346267700195312 28.549417495727539062 30.122776031494140625 31.886730194091796875 33.878143310546875 36.14405059814453125 38.74539947509765625 41.762630462646484375 45.30414581298828125 49.51959991455078125 54.62158966064453125 60.92264556884765625 68.90175628662109375 79.33223724365234375 93.54877471923828125 114.06984710693359375 146.2840423583984375 204.167572021484375 338.721160888671875 1001 1001 338.721160888671875 204.167572021484375 146.2840423583984375 114.06984710693359375 93.54877471923828125 79.33223724365234375 68.90175628662109375 60.92264556884765625 54.62158966064453125 49.8987274169921875 45.952350616455078125 42.548748016357421875 39.5928802490234375 37.007968902587890625 34.732269287109375 32.716068267822265625 30.9191741943359375 29.308908462524414062 27.858522415161132812 26.5459747314453125 25.3529815673828125 24.26427459716796875 23.267017364501953125 22.3503570556640625 21.505060195922851562 20.723230361938476562 19.998073577880859375 19.323720932006835938 18.69507598876953125 18.107696533203125 17.55768585205078125 17.041624069213867188 16.556489944458007812 16.151506423950195312 15.99765777587890625 15.835658073425292969 15.666490554809570312 15.491115570068359375 15.320688247680664062 15.395732879638671875 15.46016693115234375 15.513537406921386719 15.555459976196289062 15.585629463195800781 15.603822708129882812 15.60990142822265625 15.60990142822265625 
18.174007415771484375 18.1641082763671875 18.134515762329101562 18.085535049438476562 18.017665863037109375 17.931589126586914062 17.82814788818359375 17.70832061767578125 17.573207855224609375 17.423994064331054688 17.261928558349609375 17.08829498291015625 16.912790298461914062 17.048313140869140625 17.17082977294921875 17.279323577880859375 17.372861862182617188 17.450611114501953125 17.511857986450195312 17.5560302734375 17.582706451416015625 17.591625213623046875 17.591625213623046875 17.591625213623046875 17.591625213623046875 17.591625213623046875 17.582706451416015625 17.5560302734375 17.511857986450195312 17.450611114501953125 17.372861862182617188 17.279323577880859375 17.17082977294921875 17.048313140869140625 16.912790298461914062 16.765333175659179688 16.607053756713867188 16.439081192016601562 16.262546539306640625 16.07855987548828125 15.888208389282226562 15.692531585693359375 15.492519378662109375 15.35422515869140625 15.769787788391113281 16.210117340087890625 16.677494049072265625 17.174486160278320312 17.704000473022460938 18.269334793090820312 18.874250411987304688 19.523046493530273438 20.220678329467773438 20.972867965698242188 21.786268234252929688 22.66866302490234375 23.62920379638671875 24.678743362426757812 25.830230712890625 27.099254608154296875 28.504743576049804688 30.069917678833007812 31.8235626220703125 33.80181121826171875 36.050624847412109375 38.62938690185546875 41.61614227294921875 45.1155242919921875 49.271038055419921875 54.284824371337890625 60.450618743896484375 68.211456298828125 78.26616668701171875 91.77854156494140625 110.81827545166015625 139.3516845703125 185.41265869140625 261.928680419921875 338.7232666015625 1001 338.7232666015625 204.1690826416015625 146.28521728515625 114.07079315185546875 93.549560546875 80.591064453125 71.08853912353515625 63.367412567138671875 57.0428619384765625 51.80382537841796875 47.4123077392578125 43.688953399658203125 40.49848175048828125 37.738086700439453125 35.3288116455078125 33.209320068359375 31.331401824951171875 29.656751632690429688 28.154600143432617188 26.79998779296875 25.572479248046875 24.455194473266601562 23.434083938598632812 22.497364044189453125 21.635076522827148438 20.838764190673828125 20.101190567016601562 19.416131973266601562 18.778207778930664062 18.18274688720703125 17.625665664672851562 17.1033935546875 16.6127777099609375 16.151042938232421875 15.715718269348144531 15.434458732604980469 15.547219276428222656 15.650393486022949219 15.7432861328125 15.825245857238769531 15.895680427551269531 15.954064369201660156 15.999955177307128906 16.032995223999023438 16.05292510986328125 16.0595855712890625 16.0595855712890625 
18.798761367797851562 18.7877349853515625 18.75478363037109375 18.700273513793945312 18.624797821044921875 18.529170989990234375 18.414394378662109375 18.281627655029296875 18.132165908813476562 17.967401504516601562 17.788793563842773438 17.597835540771484375 17.424007415771484375 17.57321929931640625 17.708330154418945312 17.828153610229492188 17.931592941284179688 18.017669677734375 18.085536956787109375 18.134517669677734375 18.1641082763671875 18.174007415771484375 18.174007415771484375 18.174007415771484375 18.174007415771484375 18.174007415771484375 18.1641082763671875 18.134517669677734375 18.085536956787109375 18.017669677734375 17.931592941284179688 17.828153610229492188 17.708330154418945312 17.57321929931640625 17.424007415771484375 17.261943817138671875 17.088314056396484375 16.9044189453125 16.711549758911132812 16.510974884033203125 16.303913116455078125 16.091535568237304688 15.874940872192382812 15.655160903930664062 15.749407768249511719 16.187847137451171875 16.653095245361328125 17.147678375244140625 17.674457550048828125 18.23667144775390625 18.838010787963867188 19.482692718505859375 20.175561904907226562 20.922212600708007812 21.72913360595703125 22.603893280029296875 23.555383682250976562 24.594106674194335938 25.732561111450195312 26.985742568969726562 28.371782302856445312 29.912809371948242188 31.636110305786132812 33.5756988525390625 35.774501800537109375 38.28742218017578125 41.18575286865234375 44.5636138916015625 48.547618865966796875 53.31157684326171875 59.0995635986328125 66.26253509521484375 75.31705474853515625 87.0364990234375 102.572235107421875 123.4930877685546875 151.0393829345703125 204.1706085205078125 338.725372314453125 1001 338.725372314453125 204.1706085205078125 151.04052734375 123.49444580078125 102.57358551025390625 87.03775787353515625 75.318206787109375 66.2635955810546875 59.10052490234375 53.31246185302734375 48.548435211181640625 44.564373016357421875 41.18645477294921875 38.288082122802734375 35.775119781494140625 33.576282501220703125 31.636659622192382812 29.913330078125 28.37227630615234375 26.98621368408203125 25.733011245727539062 24.59453582763671875 23.55579376220703125 22.604288101196289062 21.729513168334960938 20.922578811645507812 20.175914764404296875 19.4830322265625 18.838338851928710938 18.236988067626953125 17.674764633178710938 17.147975921630859375 16.653383255004882812 16.188127517700195312 15.749680519104003906 15.853659629821777344 15.976670265197753906 16.089376449584960938 16.190975189208984375 16.280717849731445312 16.357913970947265625 16.42195892333984375 16.472330093383789062 16.508617401123046875 16.530511856079101562 16.537830352783203125 16.537830352783203125 
19.470684051513671875 19.458354949951171875 19.421518325805664062 19.360612869262695312 19.276357650756835938 19.169725418090820312 19.041912078857421875 18.8943023681640625 18.728429794311523438 18.545938491821289062 18.348535537719726562 18.13796234130859375 17.967416763305664062 18.132177352905273438 18.281637191772460938 18.414400100708007812 18.529176712036132812 18.6248016357421875 18.700275421142578125 18.754785537719726562 18.7877349853515625 18.798761367797851562 18.798761367797851562 18.798761367797851562 18.798761367797851562 18.798761367797851562 18.7877349853515625 18.754785537719726562 18.700275421142578125 18.6248016357421875 18.529176712036132812 18.414400100708007812 18.281637191772460938 18.132177352905273438 17.967416763305664062 17.788812637329101562 17.597856521606445312 17.396051406860351562 17.184879302978515625 16.965780258178710938 16.74013519287109375 16.50925445556640625 16.274362564086914062 16.036592483520507812 15.796986579895019531 16.150903701782226562 16.612634658813476562 17.103244781494140625 17.625513076782226562 18.182588577270507812 18.778045654296875 19.415964126586914062 20.101016998291015625 20.83858489990234375 21.634889602661132812 22.49716949462890625 23.433881759643554688 24.454984664916992188 25.57225799560546875 26.7997589111328125 28.154359817504882812 29.656497955322265625 31.331134796142578125 33.20903778076171875 35.32851409912109375 37.737773895263671875 40.49814605712890625 43.688594818115234375 47.411930084228515625 51.8034210205078125 57.04242706298828125 63.366954803466796875 71.0880584716796875 80.59056854248046875 93.55113983154296875 114.0726776123046875 146.2875518798828125 204.1721343994140625 338.72747802734375 1001 338.72747802734375 261.931304931640625 185.4160003662109375 139.3546905517578125 110.82086181640625 91.7807769775390625 78.26811981201171875 68.21318817138671875 60.45217132568359375 54.286228179931640625 49.272319793701171875 45.116703033447265625 41.617237091064453125 38.630405426025390625 36.05157470703125 33.802700042724609375 31.82440185546875 30.070711135864257812 28.505496978759765625 27.099969863891601562 25.830911636352539062 24.679393768310546875 23.629827499389648438 22.669260025024414062 21.78684234619140625 20.973419189453125 20.221210479736328125 19.5235595703125 18.874744415283203125 18.26981353759765625 17.704463958740234375 17.17493438720703125 16.677928924560546875 16.210538864135742188 16.152017593383789062 16.296649932861328125 16.43115997314453125 16.554582595825195312 16.665994644165039062 16.764524459838867188 16.84937286376953125 16.919826507568359375 16.975282669067382812 17.015253067016601562 17.039381027221679688 17.04744720458984375 17.04744720458984375 
20.195329666137695312 20.181482315063476562 20.140125274658203125 20.071788787841796875 19.977342605590820312 19.85796356201171875 19.715087890625 19.55037689208984375 19.365655899047851562 19.162872314453125 18.94403839111328125 18.71118927001953125 18.545953750610351562 18.728443145751953125 18.894313812255859375 19.041919708251953125 19.16973114013671875 19.276361465454101562 19.360614776611328125 19.421518325805664062 19.458354949951171875 19.470684051513671875 19.470684051513671875 19.470684051513671875 19.470684051513671875 19.470684051513671875 19.458354949951171875 19.421518325805664062 19.360614776611328125 19.276361465454101562 19.16973114013671875 19.041919708251953125 18.894313812255859375 18.728443145751953125 18.545953750610351562 18.348554611206054688 18.1379852294921875 17.915981292724609375 17.684247970581054688 17.444425582885742188 17.198076248168945312 16.946666717529296875 16.691558837890625 16.434000015258789062 16.175121307373046875 16.2562103271484375 16.68251800537109375 17.130475997924804688 17.60147857666015625 18.107696533203125 18.69507598876953125 19.323720932006835938 19.998073577880859375 20.723230361938476562 21.505060195922851562 22.3503570556640625 23.267017364501953125 24.26427459716796875 25.3529815673828125 26.5459747314453125 27.858522415161132812 29.308908462524414062 30.9191741943359375 32.716068267822265625 34.732269287109375 37.007968902587890625 39.5928802490234375 42.548748016357421875 45.952350616455078125 49.8987274169921875 54.623500823974609375 60.92476654052734375 68.904144287109375 79.33495330810546875 93.55193328857421875 114.0736236572265625 146.288726806640625 204.1736602783203125 338.729583740234375 1001 1001 338.729583740234375 204.1736602783203125 146.288726806640625 114.0736236572265625 93.55193328857421875 79.33495330810546875 68.904144287109375 60.92476654052734375 54.623500823974609375 49.52133941650390625 45.3057403564453125 41.764102935791015625 38.74676513671875 36.145328521728515625 33.87934112548828125 31.887857437133789062 30.12384033203125 28.550424575805664062 27.138303756713867188 25.86388397216796875 24.707960128784179688 23.6547393798828125 22.691114425659179688 21.806123733520507812 20.990514755249023438 20.236440658569335938 19.5371856689453125 18.88698577880859375 18.280851364135742188 17.714450836181640625 17.184001922607421875 16.686183929443359375 16.43914031982421875 16.607105255126953125 16.765377044677734375 16.9128265380859375 17.048341751098632812 17.1708526611328125 17.279340744018554688 17.372873306274414062 17.450618743896484375 17.51186370849609375 17.556032180786132812 17.582706451416015625 17.591625213623046875 17.591625213623046875 
20.979154586791992188 20.963531494140625 20.916881561279296875 20.839857101440429688 20.7335205078125 20.59929656982421875 20.438928604125976562 20.25441741943359375 20.047952651977539062 19.821849822998046875 19.5784912109375 19.320262908935546875 19.162889480590820312 19.365671157836914062 19.550388336181640625 19.715097427368164062 19.857969284057617188 19.977346420288085938 20.071790695190429688 20.140125274658203125 20.181482315063476562 20.195329666137695312 20.195329666137695312 20.195329666137695312 20.195329666137695312 20.195329666137695312 20.181482315063476562 20.140125274658203125 20.071790695190429688 19.977346420288085938 19.857969284057617188 19.715097427368164062 19.550388336181640625 19.365671157836914062 19.162889480590820312 18.944059371948242188 18.711214065551757812 18.466367721557617188 18.211481094360351562 17.948427200317382812 17.6789703369140625 17.404756546020507812 17.127290725708007812 16.847944259643554688 16.567943572998046875 16.4481353759765625 16.891300201416015625 17.358034133911132812 17.849988937377929688 18.368936538696289062 18.916761398315429688 19.495458602905273438 20.107128143310546875 20.75395965576171875 21.438201904296875 22.165950775146484375 23.057861328125 24.025798797607421875 25.079530715942382812 26.230482101440429688 27.492084503173828125 28.880186080932617188 30.41357421875 32.114589691162109375 34.00988006591796875 36.131237030029296875 38.630741119384765625 41.6175994873046875 45.117095947265625 49.2727508544921875 54.2866973876953125 60.452686309814453125 68.21376800537109375 78.268768310546875 91.78151702880859375 110.82172393798828125 139.355682373046875 185.4171142578125 261.932159423828125 338.731689453125 1001 338.731689453125 204.1751861572265625 146.289886474609375 114.07456207275390625 93.55272674560546875 79.33563232421875 68.9047393798828125 60.925296783447265625 54.6239776611328125 49.5217742919921875 45.306140899658203125 41.76447296142578125 38.74710845947265625 36.1456451416015625 33.879642486572265625 31.8881378173828125 30.124105453491210938 28.550678253173828125 27.138544082641601562 25.86411285400390625 24.708177566528320312 23.654947280883789062 22.691314697265625 21.806314468383789062 20.99069976806640625 20.2366180419921875 19.537357330322265625 18.887151718139648438 18.281011581420898438 17.714605331420898438 17.18415069580078125 16.765390396118164062 16.912837982177734375 17.088369369506835938 17.261991500854492188 17.424047470092773438 17.573251724243164062 17.708354949951171875 17.828172683715820312 17.931608200073242188 18.01767730712890625 18.085542678833007812 18.134519577026367188 18.164110183715820312 18.174007415771484375 18.174007415771484375 
21.82971954345703125 21.812002182006835938 21.759119033813476562 21.671875 21.551572799682617188 21.39996337890625 21.21916961669921875 21.01161956787109375 20.7799530029296875 20.526941299438476562 20.25540924072265625 19.968168258666992188 19.821870803833007812 20.047969818115234375 20.254430770874023438 20.438938140869140625 20.599302291870117188 20.733524322509765625 20.839860916137695312 20.916883468627929688 20.963531494140625 20.979154586791992188 20.979154586791992188 20.979154586791992188 20.979154586791992188 20.979154586791992188 20.963531494140625 20.916883468627929688 20.839860916137695312 20.733524322509765625 20.599302291870117188 20.438938140869140625 20.254430770874023438 20.047969818115234375 19.821870803833007812 19.57851409912109375 19.32028961181640625 19.04953765869140625 18.76851654052734375 18.479366302490234375 18.18408203125 17.884500503540039062 17.582288742065429688 17.278942108154296875 16.975788116455078125 16.673986434936523438 17.09098052978515625 17.576177597045898438 18.088825225830078125 18.631017684936523438 19.205011367797851562 19.8132476806640625 20.458337783813476562 21.143068313598632812 21.870380401611328125 22.643352508544921875 23.465145111083984375 24.338937759399414062 25.267801284790039062 26.25455474853515625 27.301519393920898438 28.506250381469726562 30.071506500244140625 31.825242996215820312 33.803592681884765625 36.052524566650390625 38.631420135498046875 41.618328094482421875 45.117885589599609375 49.2736053466796875 54.28763580322265625 60.453723907470703125 68.21492767333984375 78.27007293701171875 91.78301239013671875 110.82344818115234375 139.3576812744140625 185.419342041015625 261.93389892578125 338.733795166015625 1001 338.733795166015625 204.1767120361328125 146.2910614013671875 114.07550811767578125 93.5535125732421875 79.33631134033203125 68.90533447265625 60.9258270263671875 54.624454498291015625 49.52220916748046875 45.306537628173828125 41.76483917236328125 38.7474517822265625 36.145965576171875 33.879940032958984375 31.88842010498046875 30.124372482299804688 28.550930023193359375 27.138782501220703125 25.864339828491210938 24.708395004272460938 23.655155181884765625 22.691514968872070312 21.806507110595703125 20.990884780883789062 20.236795425415039062 19.53752899169921875 18.887315750122070312 18.281171798706054688 17.714761734008789062 17.184301376342773438 17.262006759643554688 17.424060821533203125 17.597917556762695312 17.7888641357421875 17.96746063232421875 18.132213592529296875 18.281663894653320312 18.41442108154296875 18.529191970825195312 18.624811172485351562 18.700281143188476562 18.754787445068359375 18.787736892700195312 18.798761367797851562 18.798761367797851562 
22.755926132202148438 22.735721588134765625 22.675443649291992188 22.5760955810546875 22.439291000366210938 22.267190933227539062 22.062408447265625 21.827905654907226562 21.566884994506835938 21.282682418823242188 20.978664398193359375 20.658147811889648438 20.526964187622070312 20.779972076416015625 21.01163482666015625 21.219181060791015625 21.39997100830078125 21.551578521728515625 21.671876907348632812 21.759119033813476562 21.812002182006835938 21.82971954345703125 21.82971954345703125 21.82971954345703125 21.82971954345703125 21.82971954345703125 21.812002182006835938 21.759119033813476562 21.671876907348632812 21.551578521728515625 21.39997100830078125 21.219181060791015625 21.01163482666015625 20.779972076416015625 20.526964187622070312 20.255435943603515625 19.968198776245117188 19.6679840087890625 19.357395172119140625 19.038875579833984375 18.7146759033203125 18.386846542358398438 18.057226181030273438 17.727436065673828125 17.398900985717773438 17.072841644287109375 17.345598220825195312 17.817731857299804688 18.316064834594726562 18.881038665771484375 19.480810165405273438 20.118288040161132812 20.796649932861328125 21.519342422485351562 22.290096282958984375 23.112913131713867188 23.992052078247070312 24.931976318359375 25.9372711181640625 27.01250457763671875 28.162008285522460938 29.389553070068359375 30.6978607177734375 32.292972564697265625 34.07834625244140625 36.1462860107421875 38.747791290283203125 41.765209197998046875 45.30693817138671875 49.52264404296875 54.624935150146484375 60.926357269287109375 68.9059295654296875 79.3369903564453125 93.5543060302734375 114.07645416259765625 146.292236328125 204.1782379150390625 338.73590087890625 1001 1001 338.73590087890625 204.1782379150390625 146.292236328125 114.07645416259765625 93.5543060302734375 79.3369903564453125 68.9059295654296875 60.926357269287109375 54.624935150146484375 49.52264404296875 45.30693817138671875 41.765209197998046875 38.747791290283203125 36.1462860107421875 33.88024139404296875 31.888702392578125 30.124639511108398438 28.551181793212890625 27.1390228271484375 25.864568710327148438 24.708612442016601562 23.655363082885742188 22.691715240478515625 21.806699752807617188 20.991069793701171875 20.236972808837890625 19.537700653076171875 18.887481689453125 18.281332015991210938 17.714916229248046875 17.59793853759765625 17.788881301879882812 17.96747589111328125 18.138051986694335938 18.348611831665039062 18.546003341674804688 18.728483200073242188 18.894344329833984375 19.041942596435546875 19.169748306274414062 19.276372909545898438 19.360620498657226562 19.421522140502929688 19.458356857299804688 19.470684051513671875 19.470684051513671875 
23.768335342407226562 23.74515533447265625 23.676042556762695312 23.562250137329101562 23.405801773071289062 23.209390640258789062 22.976255416870117188 22.710041046142578125 22.414655685424804688 22.0941314697265625 21.752504348754882812 21.393693923950195312 21.28270721435546875 21.566905975341796875 21.827920913696289062 22.062419891357421875 22.267198562622070312 22.439296722412109375 22.576099395751953125 22.675445556640625 22.735721588134765625 22.755926132202148438 22.755926132202148438 22.755926132202148438 22.755926132202148438 22.755926132202148438 22.735721588134765625 22.675445556640625 22.576099395751953125 22.439296722412109375 22.267198562622070312 22.062419891357421875 21.827920913696289062 21.566905975341796875 21.28270721435546875 20.978694915771484375 20.658182144165039062 20.324361801147460938 19.980241775512695312 19.62860870361328125 19.271997451782226562 18.912687301635742188 18.552692413330078125 18.19376373291015625 17.837411880493164062 17.484910964965820312 17.601970672607421875 18.097490310668945312 18.619062423706054688 19.16828155517578125 19.746791839599609375 20.40755462646484375 21.11856842041015625 21.87874603271484375 22.69268035888671875 23.565412521362304688 24.502454757690429688 25.509771347045898438 26.593753814697265625 27.76113128662109375 29.018798828125 30.373540878295898438 31.831560134887695312 33.39776611328125 35.14481353759765625 37.31917572021484375 39.7425994873046875 42.551372528076171875 45.955104827880859375 49.901611328125 54.6254119873046875 60.92688751220703125 68.906524658203125 79.33766937255859375 93.5550994873046875 114.07740020751953125 146.29339599609375 204.1797637939453125 338.738006591796875 1001 338.738006591796875 261.934783935546875 185.4204559326171875 139.3586883544921875 110.824310302734375 91.78375244140625 78.27072906494140625 68.2154998779296875 60.454242706298828125 54.288105010986328125 49.2740325927734375 45.11827850341796875 41.61869049072265625 38.6317596435546875 36.0528411865234375 33.803890228271484375 31.82552337646484375 30.07176971435546875 28.506500244140625 27.100923538208007812 25.831821441650390625 24.680263519287109375 23.630659103393554688 22.670057296752929688 21.787607192993164062 20.974155426025390625 20.221918106079101562 19.524244308471679688 18.87540435791015625 18.270452499389648438 17.91608428955078125 18.138074874877929688 18.348630905151367188 18.546018600463867188 18.728496551513671875 18.944122314453125 19.162942886352539062 19.36571502685546875 19.55042266845703125 19.715124130249023438 19.857988357543945312 19.977359771728515625 20.071798324584960938 20.14012908935546875 20.181484222412109375 20.195329666137695312 20.195329666137695312 
24.879568099975585938 24.8527984619140625 24.773035049438476562 24.641870498657226562 24.461862564086914062 24.236400604248046875 23.969532012939453125 23.665777206420898438 23.3299407958984375 22.966924667358398438 22.581575393676757812 22.178548812866210938 22.094160079956054688 22.414678573608398438 22.71006011962890625 22.976268768310546875 23.209400177001953125 23.4058074951171875 23.562253952026367188 23.676042556762695312 23.74515533447265625 23.768335342407226562 23.768335342407226562 23.768335342407226562 23.768335342407226562 23.768335342407226562 23.74515533447265625 23.676042556762695312 23.562253952026367188 23.4058074951171875 23.209400177001953125 22.976268768310546875 22.71006011962890625 22.414678573608398438 22.094160079956054688 21.752536773681640625 21.393732070922851562 21.021478652954101562 20.639247894287109375 20.250215530395507812 19.857233047485351562 19.4628143310546875 19.06915283203125 18.67812347412109375 18.2913055419921875 17.910009384155273438 17.850503921508789062 18.369459152221679688 18.917291641235351562 19.495996475219726562 20.10767364501953125 20.754510879516601562 21.43875885009765625 22.216985702514648438 23.073102951049804688 23.994953155517578125 24.989429473876953125 26.06420135498046875 27.227750778198242188 28.48937225341796875 29.859111785888671875 31.347591400146484375 32.9656524658203125 34.72371673583984375 36.630706787109375 38.69228363037109375 41.213382720947265625 44.26886749267578125 47.745086669921875 51.80706787109375 57.04631805419921875 63.37108612060546875 71.09239959716796875 80.59503173828125 93.55588531494140625 114.07834625244140625 146.2945709228515625 204.1812896728515625 338.7401123046875 1001 338.7401123046875 204.1812896728515625 151.0434112548828125 123.49786376953125 102.57696533203125 87.04091644287109375 75.32109832763671875 66.26622772216796875 59.102939605712890625 53.314678192138671875 48.550479888916015625 44.566265106201171875 41.1882171630859375 38.289730072021484375 35.77666473388671875 33.57773590087890625 31.638034820556640625 29.914632797241210938 28.373514175415039062 26.987392425537109375 25.734134674072265625 24.595609664916992188 23.55682373046875 22.605276107788085938 21.73046112060546875 20.923490524291992188 20.176794052124023438 19.483880996704101562 18.839159011840820312 18.237781524658203125 18.466482162475585938 18.711313247680664062 18.94414520263671875 19.162961959838867188 19.365728378295898438 19.578586578369140625 19.821929931640625 20.048017501831054688 20.254468917846679688 20.438968658447265625 20.599323272705078125 20.733537673950195312 20.839868545532226562 20.9168853759765625 20.963533401489257812 20.979154586791992188 20.979154586791992188 
26.104833602905273438 26.073698043823242188 25.980983734130859375 25.828739166259765625 25.620235443115234375 25.359783172607421875 25.052490234375 24.704011917114257812 24.32028961181640625 23.907312393188476562 23.470930099487304688 23.016674041748046875 22.96695709228515625 23.329967498779296875 23.665798187255859375 23.969547271728515625 24.23641204833984375 24.461870193481445312 24.641876220703125 24.773036956787109375 24.852800369262695312 24.879568099975585938 24.879568099975585938 24.879568099975585938 24.879568099975585938 24.879568099975585938 24.852800369262695312 24.773036956787109375 24.641876220703125 24.461870193481445312 24.23641204833984375 23.969547271728515625 23.665798187255859375 23.329967498779296875 22.96695709228515625 22.581613540649414062 22.178590774536132812 21.76226043701171875 21.336627960205078125 20.905298233032226562 20.471460342407226562 20.037874221801757812 19.606904983520507812 19.180528640747070312 18.7603759765625 18.347766876220703125 18.09774017333984375 18.631563186645507812 19.205568313598632812 19.813816070556640625 20.45891571044921875 21.14365386962890625 21.870973587036132812 22.643953323364257812 23.465753555297851562 24.395238876342773438 25.445465087890625 26.586290359497070312 27.828525543212890625 29.184404373168945312 30.6676788330078125 32.29364776611328125 34.07903289794921875 36.0416107177734375 38.199359893798828125 40.568836212158203125 43.16228485107421875 45.9828033447265625 49.902332305908203125 54.507472991943359375 59.90709686279296875 66.26781463623046875 75.32283782958984375 87.04280853271484375 102.5789947509765625 123.499908447265625 151.045135498046875 204.1828155517578125 338.742218017578125 1001 338.742218017578125 204.1828155517578125 146.295745849609375 114.07929229736328125 93.55667877197265625 80.5940399169921875 71.09143829345703125 63.37017059326171875 57.045452117919921875 51.806255340576171875 47.414585113525390625 43.691089630126953125 40.50048828125 37.739978790283203125 35.330596923828125 33.21100616455078125 31.333002090454101562 29.658273696899414062 28.156049728393554688 26.801370620727539062 25.573801040649414062 24.456460952758789062 23.435298919677734375 22.498529434204101562 21.636199951171875 20.839845657348632812 20.10223388671875 19.417139053344726562 18.77918243408203125 18.768657684326171875 19.049663543701171875 19.320400238037109375 19.578609466552734375 19.821950912475585938 20.04803466796875 20.25551605224609375 20.52703094482421875 20.780025482177734375 21.011678695678710938 21.219213485717773438 21.399993896484375 21.551593780517578125 21.671886444091796875 21.759122848510742188 21.812002182006835938 21.82971954345703125 21.82971954345703125 
27.46263885498046875 27.426130294799804688 27.317508697509765625 27.139436721801757812 26.896154403686523438 26.593202590942382812 26.237096786499023438 25.834966659545898438 25.394214630126953125 24.922204971313476562 24.426008224487304688 23.912210464477539062 23.9073486328125 24.320318222045898438 24.704036712646484375 25.052509307861328125 25.359796524047851562 25.620244979858398438 25.82874298095703125 25.980985641479492188 26.073698043823242188 26.104833602905273438 26.104833602905273438 26.104833602905273438 26.104833602905273438 26.104833602905273438 26.073698043823242188 25.980985641479492188 25.82874298095703125 25.620244979858398438 25.359796524047851562 25.052509307861328125 24.704036712646484375 24.320318222045898438 23.9073486328125 23.470972061157226562 23.016721725463867188 22.549713134765625 22.074558258056640625 21.5953369140625 21.115583419799804688 20.6383056640625 20.166013717651367188 19.7007598876953125 19.244190216064453125 18.79758453369140625 18.369720458984375 18.9175567626953125 19.496265411376953125 20.118883132934570312 20.7972564697265625 21.519960403442382812 22.2907257080078125 23.113554000854492188 23.992702484130859375 24.932634353637695312 25.937936782836914062 27.066440582275390625 28.384366989135742188 29.831899642944335938 31.426952362060546875 33.190242767333984375 35.145572662353515625 37.31995391845703125 39.743396759033203125 42.447948455810546875 45.46538543701171875 48.822383880615234375 52.531421661376953125 57.047183990478515625 63.372005462646484375 71.0933685302734375 80.5960235595703125 92.278839111328125 110.8277587890625 139.362701416015625 185.4249114990234375 261.938262939453125 338.74432373046875 1001 338.74432373046875 204.1843414306640625 146.296905517578125 114.080230712890625 93.55747222900390625 79.33971405029296875 68.90831756591796875 60.9284820556640625 54.6268463134765625 49.90125274658203125 45.954761505126953125 42.551044464111328125 39.595062255859375 37.010044097900390625 34.734241485595703125 32.717945098876953125 30.92096710205078125 29.310619354248046875 27.860157012939453125 26.54753875732421875 25.354482650756835938 24.265714645385742188 23.268402099609375 22.351690292358398438 21.506345748901367188 20.724470138549804688 19.999271392822265625 19.324878692626953125 19.039045333862304688 19.357549667358398438 19.668123245239257812 19.968320846557617188 20.255542755126953125 20.527051925659179688 20.7800445556640625 21.011692047119140625 21.282781600952148438 21.566967010498046875 21.827970504760742188 22.062458038330078125 22.2672271728515625 22.439313888549804688 22.576108932495117188 22.675451278686523438 22.735723495483398438 22.755926132202148438 22.755926132202148438 
28.975717544555664062 28.932523727416992188 28.80414581298828125 28.594097137451171875 28.3079376220703125 27.952890396118164062 27.537349700927734375 27.070392608642578125 26.561305999755859375 26.019182205200195312 25.452594757080078125 24.869384765625 24.922246932983398438 25.394250869750976562 25.834995269775390625 26.237117767333984375 26.593217849731445312 26.896165847778320312 27.13944244384765625 27.317510604858398438 27.426130294799804688 27.46263885498046875 27.46263885498046875 27.46263885498046875 27.46263885498046875 27.46263885498046875 27.426130294799804688 27.317510604858398438 27.13944244384765625 26.896165847778320312 26.593217849731445312 26.237117767333984375 25.834995269775390625 25.394250869750976562 24.922246932983398438 24.426055908203125 23.912265777587890625 23.386850357055664062 22.855104446411132812 22.3216094970703125 21.790252685546875 21.264257431030273438 20.746246337890625 20.238298416137695312 19.742017745971679688 19.25859832763671875 18.79766845703125 19.25859832763671875 19.814098358154296875 20.459203720092773438 21.143945693969726562 21.879398345947265625 22.693346023559570312 23.566095352172851562 24.50315093994140625 25.510480880737304688 26.59447479248046875 27.761861801147460938 29.019536972045898438 30.416492462158203125 32.117633819580078125 34.0130462646484375 36.1345367431640625 38.519989013671875 41.21427154541015625 44.269786834716796875 47.74603271484375 51.706813812255859375 56.21246337890625 61.30197906494140625 66.95684051513671875 75.3239898681640625 87.0440673828125 102.580352783203125 123.50127410888671875 151.046295166015625 204.1858673095703125 338.746429443359375 1001 1001 338.746429443359375 204.1858673095703125 146.2980804443359375 114.0811767578125 93.55826568603515625 79.34039306640625 68.90891265869140625 60.929012298583984375 54.627323150634765625 49.52481842041015625 45.308933258056640625 41.76705169677734375 38.74950408935546875 36.147884368896484375 34.01172637939453125 32.116363525390625 30.41527557373046875 28.881818771362304688 27.49365234375 26.231990814208984375 25.080982208251953125 24.027196884155273438 23.059207916259765625 22.167249679565429688 21.342937469482421875 20.579038619995117188 19.869295120239257812 19.272199630737304688 19.628795623779296875 19.980413436889648438 20.32451629638671875 20.658319473266601562 20.978811264038085938 21.282806396484375 21.566987991333007812 21.8279876708984375 22.09424591064453125 22.4147491455078125 22.710115432739257812 22.976312637329101562 23.209430694580078125 23.405828475952148438 23.562265396118164062 23.67604827880859375 23.745157241821289062 23.768335342407226562 23.768335342407226562 
30.672319412231445312 30.620706558227539062 30.467487335205078125 30.217370986938476562 29.877775192260742188 29.458225250244140625 28.96967315673828125 28.423784255981445312 27.8322906494140625 27.2064666748046875 26.556726455688476562 25.892377853393554688 26.019227981567382812 26.561346054077148438 27.070425033569335938 27.537374496459960938 27.952909469604492188 28.307950973510742188 28.594102859497070312 28.804149627685546875 28.932525634765625 28.975717544555664062 28.975717544555664062 28.975717544555664062 28.975717544555664062 28.975717544555664062 28.932525634765625 28.804149627685546875 28.594102859497070312 28.307950973510742188 27.952909469604492188 27.537374496459960938 27.070425033569335938 26.561346054077148438 26.019227981567382812 25.452650070190429688 24.869447708129882812 24.276584625244140625 23.680095672607421875 23.085077285766601562 22.495744705200195312 21.915491104125976562 21.346982955932617188 20.792253494262695312 20.252786636352539062 19.742105484008789062 19.258687973022460938 19.742105484008789062 20.252786636352539062 20.797559738159179688 21.52027130126953125 22.291040420532226562 23.113874435424804688 23.99567413330078125 24.990169525146484375 26.064960479736328125 27.228527069091796875 28.49016571044921875 29.859920501708984375 31.34841156005859375 32.966480255126953125 34.735935211181640625 37.011821746826171875 39.596935272216796875 42.553012847900390625 45.956829071044921875 49.903415679931640625 54.50859832763671875 59.908252716064453125 66.24784088134765625 73.6471099853515625 82.10880279541015625 92.27980804443359375 110.8294830322265625 139.3647003173828125 185.4271392822265625 261.94000244140625 338.74853515625 1001 338.74853515625 261.939117431640625 185.426025390625 139.36370849609375 110.82862091064453125 91.78748321533203125 78.27398681640625 68.21839141845703125 60.4568328857421875 54.290447235107421875 49.27617645263671875 45.12024688720703125 41.620513916015625 38.633453369140625 36.0544281005859375 33.805377960205078125 31.826925277709960938 30.073095321655273438 28.507757186889648438 27.102117538452148438 25.861852645874023438 24.758966445922851562 23.745450973510742188 22.81139373779296875 21.948205947875976562 21.1484375 20.4055938720703125 19.714006423950195312 19.857456207275390625 20.250423431396484375 20.639438629150390625 21.021650314331054688 21.393884658813476562 21.7526702880859375 22.094272613525390625 22.41477203369140625 22.710134506225585938 22.97632598876953125 23.330047607421875 23.665863037109375 23.96959686279296875 24.236446380615234375 24.461893081665039062 24.641887664794921875 24.773044586181640625 24.852800369262695312 24.879568099975585938 24.879568099975585938 
32.587985992431640625 32.5256195068359375 32.340732574462890625 32.039760589599609375 31.632747650146484375 31.132463455200195312 30.55336761474609375 29.910596847534179688 29.219079971313476562 28.492837905883789062 27.744510650634765625 26.985105514526367188 27.206521987915039062 27.83233642578125 28.423822402954101562 28.96970367431640625 29.458248138427734375 29.877790451049804688 30.217380523681640625 30.46749114990234375 30.620706558227539062 30.672319412231445312 30.672319412231445312 30.672319412231445312 30.672319412231445312 30.672319412231445312 30.620706558227539062 30.46749114990234375 30.217380523681640625 29.877790451049804688 29.458248138427734375 28.96970367431640625 28.423822402954101562 27.83233642578125 27.206521987915039062 26.556789398193359375 25.89244842529296875 25.221569061279296875 24.550966262817382812 23.886228561401367188 23.23183441162109375 22.591260910034179688 21.967113494873046875 21.361272811889648438 20.792345046997070312 20.252882003784179688 19.742193222045898438 20.252882003784179688 20.792345046997070312 21.361272811889648438 21.967113494873046875 22.6936798095703125 23.566436767578125 24.503498077392578125 25.510835647583007812 26.594835281372070312 27.829357147216796875 29.185260772705078125 30.668558120727539062 32.294544219970703125 34.07994842529296875 36.04254150390625 38.200298309326171875 40.56977081298828125 43.693584442138671875 47.417247772216796875 51.809093475341796875 57.048480987548828125 63.373386383056640625 71.094818115234375 80.5975189208984375 92.2802886962890625 106.2984161376953125 123.50264739990234375 151.0474395751953125 204.1889190673828125 338.750640869140625 1001 1001 338.750640869140625 204.1889190673828125 151.046295166015625 123.50127410888671875 102.580352783203125 87.0440673828125 75.3239898681640625 66.2688751220703125 59.10535430908203125 53.31689453125 48.552524566650390625 44.5681610107421875 41.189983367919921875 38.291378021240234375 35.7782135009765625 33.579193115234375 31.639410018920898438 29.915935516357421875 28.374752044677734375 26.988569259643554688 25.735258102416992188 24.596683502197265625 23.55785369873046875 22.606264114379882812 21.731410980224609375 20.925642013549804688 20.20645904541015625 20.195329666137695312 20.471704483032226562 20.905527114868164062 21.3368377685546875 21.762451171875 22.178762435913085938 22.581762313842773438 22.967084884643554688 23.330074310302734375 23.665884017944335938 23.96961212158203125 24.320409774780273438 24.70410919189453125 25.052564620971679688 25.359836578369140625 25.620271682739257812 25.82875823974609375 25.980993270874023438 26.073699951171875 26.104833602905273438 26.104833602905273438 
34.7680816650390625 34.69174957275390625 34.465862274169921875 34.0993804931640625 33.606174468994140625 33.003631591796875 32.31110382080078125 31.548429489135742188 30.734710693359375 29.887414932250976562 29.021848678588867188 28.150909423828125 28.492900848388671875 29.219133377075195312 29.910642623901367188 30.553401947021484375 31.132488250732421875 31.632764816284179688 32.039768218994140625 32.34073638916015625 32.5256195068359375 32.587985992431640625 32.587985992431640625 32.587985992431640625 32.587985992431640625 32.587985992431640625 32.5256195068359375 32.34073638916015625 32.039768218994140625 31.632764816284179688 31.132488250732421875 30.553401947021484375 29.910642623901367188 29.219133377075195312 28.492900848388671875 27.7445831298828125 26.985185623168945312 26.223979949951171875 25.468542098999023438 24.724885940551757812 23.997625350952148438 23.29016876220703125 22.604923248291015625 21.967212677001953125 21.3613739013671875 20.792438507080078125 20.252977371215820312 20.792438507080078125 21.3613739013671875 21.967212677001953125 22.604923248291015625 23.29016876220703125 24.0098876953125 24.99053955078125 26.065338134765625 27.228914260864257812 28.49056243896484375 29.860322952270507812 31.427900314331054688 33.19122314453125 35.14658355712890625 37.32099151611328125 39.744457244873046875 42.449024200439453125 45.466464996337890625 48.823451995849609375 53.318225860595703125 59.10680389404296875 66.27045440673828125 75.3257293701171875 87.04596710205078125 102.5823822021484375 123.503326416015625 151.0480194091796875 185.4293670654296875 261.941741943359375 338.75274658203125 1001 338.75274658203125 261.94085693359375 185.428253173828125 139.3657073974609375 110.83034515380859375 92.27931976318359375 80.596527099609375 71.09384918212890625 63.372467041015625 57.04761505126953125 51.808284759521484375 47.416484832763671875 43.69287109375 40.502162933349609375 37.74155426025390625 35.33208465576171875 33.212413787841796875 31.334337234497070312 29.659542083740234375 28.157257080078125 26.802524566650390625 25.574903488159179688 24.457515716552734375 23.436311721801757812 22.49950408935546875 21.637136459350585938 20.979154586791992188 20.979154586791992188 20.979154586791992188 21.115854263305664062 21.595590591430664062 22.074792861938476562 22.5499267578125 23.01691436767578125 23.471139907836914062 23.90749359130859375 24.320440292358398438 24.704133987426757812 25.052583694458007812 25.394353866577148438 25.835079193115234375 26.2371826171875 26.593265533447265625 26.896196365356445312 27.139461517333984375 27.317518234252929688 27.4261322021484375 27.46263885498046875 27.46263885498046875 
37.2714080810546875 37.1766204833984375 36.896701812744140625 36.444438934326171875 35.839382171630859375 35.105632781982421875 34.2694549560546875 33.357105255126953125 32.393131256103515625 31.399290084838867188 30.393970489501953125 29.392087936401367188 29.88748931884765625 30.734773635864257812 31.548482894897460938 32.311145782470703125 33.003662109375 33.606197357177734375 34.099391937255859375 34.4658660888671875 34.691753387451171875 34.7680816650390625 34.7680816650390625 34.7680816650390625 34.7680816650390625 34.7680816650390625 34.691753387451171875 34.4658660888671875 34.099391937255859375 33.606197357177734375 33.003662109375 32.311145782470703125 31.548482894897460938 30.734773635864257812 29.88748931884765625 29.021930694580078125 28.150999069213867188 27.285190582275390625 26.432758331298828125 25.599956512451171875 24.791330337524414062 24.010004043579101562 23.29027557373046875 22.605031967163085938 21.967309951782226562 21.361474990844726562 20.792531967163085938 21.361474990844726562 21.967309951782226562 22.605031967163085938 23.29027557373046875 24.010004043579101562 24.791330337524414062 25.609914779663085938 26.595195770263671875 27.82977294921875 29.185688018798828125 30.668996810913085938 32.294994354248046875 34.080410003662109375 36.135639190673828125 38.5211334228515625 41.21546173095703125 44.271015167236328125 47.74729156494140625 51.708087921142578125 56.2137298583984375 61.303195953369140625 68.220703125 78.2765960693359375 91.79046630859375 110.83206939697265625 139.367706298828125 185.43048095703125 261.942626953125 338.754852294921875 1001 1001 338.754852294921875 204.1919708251953125 151.0474395751953125 123.50264739990234375 102.58170318603515625 87.0453338623046875 75.3251495361328125 66.269927978515625 59.907867431640625 54.5082244873046875 49.903057098388671875 45.956485748291015625 42.552684783935546875 39.596622467041015625 37.01152801513671875 34.735652923583984375 32.71929168701171875 30.922246932983398438 29.311841964721679688 27.861326217651367188 26.548658370971679688 25.355554580688476562 24.266744613647460938 23.269392013549804688 22.352643966674804688 21.82971954345703125 21.82971954345703125 21.82971954345703125 21.82971954345703125 21.82971954345703125 22.32189178466796875 22.855365753173828125 23.387090682983398438 23.912481307983398438 24.42624664306640625 24.922410964965820312 25.394388198852539062 25.83510589599609375 26.237203598022460938 26.593280792236328125 27.070522308349609375 27.537448883056640625 27.952962875366210938 28.307987213134765625 28.59412384033203125 28.804159164428710938 28.932527542114257812 28.975717544555664062 28.975717544555664062 
40.1756134033203125 40.055904388427734375 39.703338623046875 39.136638641357421875 38.38401031494140625 37.479526519775390625 36.45935821533203125 35.358547210693359375 34.20873260498046875 33.036865234375 31.864757537841796875 30.734836578369140625 31.39937591552734375 32.393207550048828125 33.357166290283203125 34.269504547119140625 35.105670928955078125 35.83940887451171875 36.444454193115234375 36.896709442138671875 37.1766204833984375 37.2714080810546875 37.2714080810546875 37.2714080810546875 37.2714080810546875 37.2714080810546875 37.1766204833984375 36.896709442138671875 36.444454193115234375 35.83940887451171875 35.105670928955078125 34.269504547119140625 33.357166290283203125 32.393207550048828125 31.39937591552734375 30.39406585693359375 29.392190933227539062 28.405366897583007812 27.442281723022460938 26.509124755859375 25.61003875732421875 24.79144287109375 24.010120391845703125 23.290380477905273438 22.605138778686523438 21.967409133911132812 21.361576080322265625 21.967409133911132812 22.605138778686523438 23.290380477905273438 24.010120391845703125 24.79144287109375 25.61003875732421875 26.509124755859375 27.44835662841796875 28.493923187255859375 29.860727310180664062 31.428375244140625 33.191715240478515625 35.14708709716796875 37.32151031494140625 39.74498748779296875 42.55432891845703125 45.958209991455078125 49.9048614501953125 54.510101318359375 59.90979766845703125 66.2493896484375 73.64861297607421875 82.1101531982421875 93.562225341796875 114.085906982421875 146.3039398193359375 204.1934967041015625 338.7569580078125 1001 1001 338.7569580078125 261.942626953125 185.43048095703125 139.367706298828125 110.83206939697265625 92.2802886962890625 80.5975189208984375 71.094818115234375 63.373386383056640625 57.048480987548828125 51.809093475341796875 47.74603271484375 44.269786834716796875 41.21427154541015625 38.519989013671875 36.1345367431640625 34.0130462646484375 32.117633819580078125 30.416492462158203125 28.882986068725585938 27.49477386474609375 26.233068466186523438 25.082017898559570312 24.028194427490234375 23.060171127319335938 22.73572540283203125 22.755926132202148438 22.755926132202148438 22.755926132202148438 22.755926132202148438 22.755926132202148438 23.085390090942382812 23.680387496948242188 24.276853561401367188 24.869691848754882812 25.452867507934570312 26.01941680908203125 26.561504364013671875 27.070554733276367188 27.5374755859375 27.952981948852539062 28.4239349365234375 28.969791412353515625 29.458311080932617188 29.877832412719726562 30.217405319213867188 30.467502593994140625 30.620710372924804688 30.672319412231445312 30.672319412231445312 
43.585369110107421875 43.43119049072265625 42.9786529541015625 42.256000518798828125 41.305042266845703125 40.174983978271484375 38.916355133056640625 37.576263427734375 36.19541168212890625 34.80680084228515625 33.43570709228515625 32.393280029296875 33.03696441650390625 34.208820343017578125 35.358623504638671875 36.45941925048828125 37.479572296142578125 38.38404083251953125 39.13665771484375 39.703350067138671875 40.055908203125 40.1756134033203125 40.1756134033203125 40.1756134033203125 40.1756134033203125 40.1756134033203125 40.055908203125 39.703350067138671875 39.13665771484375 38.38404083251953125 37.479572296142578125 36.45941925048828125 35.358623504638671875 34.208820343017578125 33.03696441650390625 31.864866256713867188 30.70937347412109375 29.5828857421875 28.494054794311523438 27.448492050170898438 26.509246826171875 25.610164642333984375 24.791555404663085938 24.010236740112304688 23.290485382080078125 22.60524749755859375 21.967508316040039062 22.60524749755859375 23.290485382080078125 24.010236740112304688 24.791555404663085938 25.610164642333984375 26.509246826171875 27.448492050170898438 28.494054794311523438 29.5828857421875 30.8134765625 32.295444488525390625 34.080867767333984375 36.136188507080078125 38.521709442138671875 41.21605682373046875 44.27162933349609375 47.747920989990234375 51.810718536376953125 57.050212860107421875 63.375225067138671875 71.0967559814453125 80.5995025634765625 92.28223419189453125 106.30011749267578125 123.50537872314453125 151.04974365234375 204.1950225830078125 338.759063720703125 1001 338.759063720703125 261.9434814453125 185.4315948486328125 151.0485992431640625 123.5040130615234375 102.5830535888671875 87.046600341796875 75.3263092041015625 66.27098846435546875 59.908641815185546875 54.50897216796875 49.903778076171875 45.95717620849609375 42.553340911865234375 39.74365997314453125 37.32021331787109375 35.145824432373046875 33.19049072265625 31.427190780639648438 29.832128524780273438 28.384588241577148438 27.066654205322265625 25.862882614135742188 24.759962081909179688 23.7464141845703125 23.676059722900390625 23.745159149169921875 23.768335342407226562 23.768335342407226562 23.768335342407226562 23.768335342407226562 23.768335342407226562 23.886577606201171875 24.551294326782226562 25.221874237060546875 25.892724990844726562 26.557037353515625 27.206737518310546875 27.832521438598632812 28.42397308349609375 28.969820022583007812 29.458333969116210938 29.91077423095703125 30.553506851196289062 31.132566452026367188 31.632816314697265625 32.039798736572265625 32.34075164794921875 32.525623321533203125 32.587985992431640625 32.587985992431640625 
47.645267486572265625 47.44202423095703125 46.848117828369140625 45.907711029052734375 44.684665679931640625 43.251659393310546875 41.680278778076171875 40.034061431884765625 38.3649139404296875 36.712352752685546875 35.35869598388671875 34.208911895751953125 34.806915283203125 36.195514678955078125 37.57635498046875 38.9164276123046875 40.17504119873046875 41.305084228515625 42.256023406982421875 42.978664398193359375 43.431194305419921875 43.585369110107421875 43.585369110107421875 43.585369110107421875 43.585369110107421875 43.585369110107421875 43.431194305419921875 42.978664398193359375 42.256023406982421875 41.305084228515625 40.17504119873046875 38.9164276123046875 37.57635498046875 36.195514678955078125 34.806915283203125 33.4358367919921875 32.1005859375 30.813617706298828125 29.583011627197265625 28.4941864013671875 27.448627471923828125 26.509366989135742188 25.610288619995117188 24.791667938232421875 24.010351181030273438 23.290590286254882812 22.605356216430664062 23.258314132690429688 24.010351181030273438 24.791667938232421875 25.610288619995117188 26.509366989135742188 27.448627471923828125 28.4941864013671875 29.583011627197265625 30.813617706298828125 32.1005859375 33.55995941162109375 35.147594451904296875 37.32202911376953125 39.745517730712890625 42.55498504638671875 45.95890045166015625 49.905582427978515625 54.510852813720703125 59.9105682373046875 66.2725677490234375 75.32804107666015625 87.048492431640625 102.5850830078125 123.50606536865234375 151.050323486328125 185.433837890625 261.945220947265625 338.761199951171875 1001 338.761199951171875 204.1965484619140625 151.049163818359375 123.50469207763671875 106.29926300048828125 92.2812652587890625 80.5985107421875 71.09578704833984375 63.37430572509765625 57.049346923828125 51.809906005859375 47.746662139892578125 44.2704010009765625 41.21486663818359375 38.52056121826171875 36.1350860595703125 34.07949066162109375 32.294097900390625 30.668119430541992188 29.184831619262695312 27.82894134521484375 26.58669281005859375 25.445858001708984375 24.461938858032226562 24.64191436767578125 24.7730560302734375 24.852804183959960938 24.879568099975585938 24.879568099975585938 24.879568099975585938 24.879568099975585938 24.879568099975585938 24.879568099975585938 25.46891021728515625 26.224323272705078125 26.985502243041992188 27.744867324829101562 28.493150711059570312 29.219348907470703125 29.910818099975585938 30.553541183471679688 31.13259124755859375 31.632833480834960938 32.31127166748046875 33.003757476806640625 33.606258392333984375 34.099430084228515625 34.465885162353515625 34.6917572021484375 34.7680816650390625 34.7680816650390625 
52.56084442138671875 52.28533935546875 51.4850311279296875 50.23191070556640625 48.62691497802734375 46.77999114990234375 44.79370880126953125 42.753452301025390625 40.7240753173828125 38.91650390625 37.576446533203125 36.195621490478515625 36.712490081787109375 38.365039825439453125 40.03417205810546875 41.680370330810546875 43.251728057861328125 44.68471527099609375 45.907741546630859375 46.848133087158203125 47.442028045654296875 47.645267486572265625 47.645267486572265625 47.645267486572265625 47.645267486572265625 47.645267486572265625 47.442028045654296875 46.848133087158203125 45.907741546630859375 44.68471527099609375 43.251728057861328125 41.680370330810546875 40.03417205810546875 38.365039825439453125 36.712490081787109375 35.10465240478515625 33.560115814208984375 32.1007232666015625 30.813760757446289062 29.58313751220703125 28.494318008422851562 27.448762893676757812 26.509489059448242188 25.610414505004882812 24.791780471801757812 24.010467529296875 23.258432388305664062 23.923274993896484375 24.747922897338867188 25.610414505004882812 26.509489059448242188 27.448762893676757812 28.494318008422851562 29.58313751220703125 30.813760757446289062 32.1007232666015625 33.560115814208984375 35.10465240478515625 36.863006591796875 38.750919342041015625 41.21665191650390625 44.272243499755859375 47.7485504150390625 51.81153106689453125 57.05107879638671875 63.3761444091796875 71.09771728515625 80.600494384765625 92.283203125 110.8355255126953125 139.3717193603515625 185.4349517822265625 261.94610595703125 338.7633056640625 1001 1001 338.7633056640625 204.1980743408203125 146.3074493408203125 114.0887451171875 93.56459808349609375 82.1098175048828125 73.6482391357421875 66.24900054931640625 59.909412384033203125 54.509723663330078125 49.904499053955078125 45.95786285400390625 42.553997039794921875 39.744190216064453125 37.32073211669921875 35.146331787109375 33.19097900390625 31.427663803100585938 29.85971832275390625 28.48996734619140625 27.22833251953125 26.064769744873046875 25.35991668701171875 25.620325088500976562 25.828790664672851562 25.981006622314453125 26.073703765869140625 26.104833602905273438 26.104833602905273438 26.104833602905273438 26.104833602905273438 26.104833602905273438 26.104833602905273438 26.433172225952148438 27.285581588745117188 28.15135955810546875 29.022258758544921875 29.887781143188476562 30.735025405883789062 31.5486907958984375 32.311309814453125 33.003787994384765625 33.606281280517578125 34.2696533203125 35.10578155517578125 35.83948516845703125 36.444499969482421875 36.896728515625 37.17662811279296875 37.2714080810546875 37.2714080810546875 
58.634487152099609375 58.248046875 57.13462066650390625 55.41753387451171875 53.262615203857421875 50.84018707275390625 48.297954559326171875 45.748836517333984375 43.27040863037109375 41.680461883544921875 40.034282684326171875 38.36516571044921875 38.7510833740234375 40.7242279052734375 42.7535858154296875 44.7938232421875 46.78008270263671875 48.626979827880859375 50.231952667236328125 51.485050201416015625 52.285343170166015625 52.56084442138671875 52.56084442138671875 52.56084442138671875 52.56084442138671875 52.56084442138671875 52.285343170166015625 51.485050201416015625 50.231952667236328125 48.626979827880859375 46.78008270263671875 44.7938232421875 42.7535858154296875 40.7242279052734375 38.7510833740234375 36.863178253173828125 35.104801177978515625 33.560272216796875 32.100856781005859375 30.81390380859375 29.583263397216796875 28.494447708129882812 27.448896408081054688 26.509609222412109375 25.610538482666015625 24.748050689697265625 23.923402786254882812 24.595766067504882812 25.498762130737304688 26.44985198974609375 27.448896408081054688 28.494447708129882812 29.583263397216796875 30.81390380859375 32.100856781005859375 33.560272216796875 35.104801177978515625 36.863178253173828125 38.7510833740234375 40.910511016845703125 43.27040863037109375 45.98523712158203125 49.906307220458984375 54.51160430908203125 59.911342620849609375 66.27362823486328125 75.32920074462890625 87.0497589111328125 102.5864410400390625 123.5074310302734375 151.051483154296875 204.1996002197265625 338.765411376953125 1001 1001 338.765411376953125 261.94610595703125 185.4349517822265625 139.3717193603515625 110.8355255126953125 91.79344940185546875 78.279205322265625 68.22301483154296875 61.303195953369140625 56.2137298583984375 51.708087921142578125 47.74729156494140625 44.271015167236328125 41.21546173095703125 38.5211334228515625 36.135639190673828125 34.07994842529296875 32.294544219970703125 30.668558120727539062 29.185260772705078125 27.829357147216796875 26.59447479248046875 26.23731231689453125 26.593358993530273438 26.896257400512695312 27.139497756958007812 27.317535400390625 27.426136016845703125 27.46263885498046875 27.46263885498046875 27.46263885498046875 27.46263885498046875 27.46263885498046875 27.46263885498046875 27.46263885498046875 28.405809402465820312 29.392604827880859375 30.394445419311523438 31.399717330932617188 32.39350128173828125 33.35741424560546875 34.269702911376953125 35.1058197021484375 35.839508056640625 36.459598541259765625 37.479709625244140625 38.384136199951171875 39.136714935302734375 39.70337677001953125 40.055912017822265625 40.1756134033203125 40.1756134033203125 
66.3300933837890625 65.76436614990234375 64.1533050537109375 61.721240997314453125 58.752590179443359375 55.5166015625 52.224414825439453125 49.01917266845703125 46.78017425537109375 44.79393768310546875 42.753719329833984375 40.7243804931640625 40.91070556640625 43.27059173583984375 45.749004364013671875 48.298099517822265625 50.840305328369140625 53.26270294189453125 55.417591094970703125 57.134647369384765625 58.24805450439453125 58.634487152099609375 58.634487152099609375 58.634487152099609375 58.634487152099609375 58.634487152099609375 58.24805450439453125 57.134647369384765625 55.417591094970703125 53.26270294189453125 50.840305328369140625 48.298099517822265625 45.749004364013671875 43.27059173583984375 40.91070556640625 38.751251220703125 36.863353729248046875 35.104949951171875 33.560428619384765625 32.100994110107421875 30.814046859741210938 29.5833892822265625 28.494579315185546875 27.449031829833984375 26.44998931884765625 25.498903274536132812 24.595907211303710938 25.270257949829101562 26.257009506225585938 27.303958892822265625 28.412601470947265625 29.583169937133789062 30.814046859741210938 32.100994110107421875 33.560428619384765625 35.104949951171875 36.863353729248046875 38.751251220703125 40.91070556640625 43.27059173583984375 45.9854583740234375 49.01917266845703125 52.534244537353515625 57.051944732666015625 63.377063751220703125 71.09868621826171875 80.60149383544921875 92.2841796875 110.83725738525390625 139.3737335205078125 185.4371795654296875 261.947845458984375 338.76751708984375 1001 338.76751708984375 261.94696044921875 185.436065673828125 151.0509033203125 123.506744384765625 102.58576202392578125 87.04912567138671875 75.32862091064453125 66.273101806640625 59.109218597412109375 53.320446014404296875 48.823719024658203125 45.46673583984375 42.4492950439453125 39.744720458984375 37.32125091552734375 35.1468353271484375 33.19146728515625 31.42813873291015625 29.860120773315429688 28.49036407470703125 27.22872161865234375 27.070714950561523438 27.537599563598632812 27.953073501586914062 28.3080596923828125 28.594167709350585938 28.804178237915039062 28.93253326416015625 28.975717544555664062 28.975717544555664062 28.975717544555664062 28.975717544555664062 28.975717544555664062 28.975717544555664062 28.975717544555664062 29.5833892822265625 30.70984649658203125 31.865306854248046875 33.037364959716796875 34.20917510986328125 35.358921051025390625 36.459659576416015625 37.479755401611328125 38.384166717529296875 39.1367340087890625 40.17520904541015625 41.305202484130859375 42.25609588623046875 42.97869873046875 43.431201934814453125 43.585369110107421875 43.585369110107421875 
76.39748382568359375 75.5224609375 73.07379150390625 69.49044036865234375 65.2832183837890625 60.8819122314453125 56.57769012451171875 53.262790679931640625 50.840423583984375 48.298244476318359375 45.749172210693359375 43.585369110107421875 43.585369110107421875 45.98567962646484375 49.019378662109375 52.224597930908203125 55.516754150390625 58.75270843505859375 61.721317291259765625 64.15334320068359375 65.764373779296875 66.3300933837890625 66.3300933837890625 66.3300933837890625 66.3300933837890625 66.3300933837890625 65.764373779296875 64.15334320068359375 61.721317291259765625 58.75270843505859375 55.516754150390625 52.224597930908203125 49.019378662109375 45.98567962646484375 43.27077484130859375 40.910900115966796875 38.751415252685546875 36.863525390625 35.105098724365234375 33.560588836669921875 32.101131439208984375 30.814189910888671875 29.583318710327148438 28.412752151489257812 27.304111480712890625 26.25716400146484375 25.270412445068359375 25.939937591552734375 27.015188217163085938 28.164697647094726562 29.392230987548828125 30.70050811767578125 32.090518951416015625 33.560588836669921875 35.105098724365234375 36.863525390625 38.751415252685546875 40.910900115966796875 43.27077484130859375 45.98567962646484375 49.019378662109375 52.5345001220703125 56.57769012451171875 61.305332183837890625 66.95990753173828125 75.33036041259765625 87.051025390625 102.58779144287109375 123.50879669189453125 151.0526275634765625 204.2026519775390625 338.769622802734375 1001 1001 338.769622802734375 204.2026519775390625 151.051483154296875 123.5074310302734375 106.30097198486328125 92.283203125 80.600494384765625 71.09771728515625 63.3761444091796875 57.05107879638671875 51.81153106689453125 47.419528961181640625 43.6957244873046875 40.5702362060546875 38.20076751708984375 36.04300689697265625 34.080410003662109375 32.294994354248046875 30.668996810913085938 29.185688018798828125 27.82977294921875 27.832752227783203125 28.424160003662109375 28.969966888427734375 29.458440780639648438 29.877920150756835938 30.217454910278320312 30.467525482177734375 30.620716094970703125 30.672319412231445312 30.672319412231445312 30.672319412231445312 30.672319412231445312 30.672319412231445312 30.672319412231445312 30.672319412231445312 30.814189910888671875 32.101131439208984375 33.43634796142578125 34.8073883056640625 36.195934295654296875 37.576717376708984375 38.91672515869140625 40.175266265869140625 41.305240631103515625 42.2561187744140625 43.25194549560546875 44.68486785888671875 45.9078369140625 46.848178863525390625 47.44203948974609375 47.645267486572265625 47.645267486572265625 
90.132904052734375 88.67650604248046875 84.712615966796875 79.18059539794921875 73.0387115478515625 66.96018218994140625 61.72139739990234375 58.75283050537109375 55.516910552978515625 52.22478485107421875 49.019588470458984375 47.645267486572265625 47.645267486572265625 49.019588470458984375 52.534755706787109375 56.5779266357421875 60.882122039794921875 65.28337860107421875 69.4905548095703125 73.0738525390625 75.5224761962890625 76.39748382568359375 76.39748382568359375 76.39748382568359375 76.39748382568359375 76.39748382568359375 75.5224761962890625 73.0738525390625 69.4905548095703125 65.28337860107421875 60.882122039794921875 56.5779266357421875 52.534755706787109375 49.019588470458984375 45.98590087890625 43.27095794677734375 40.91109466552734375 38.75157928466796875 36.86370086669921875 35.10524749755859375 33.5607452392578125 32.0906829833984375 30.700674057006835938 29.392398834228515625 28.164867401123046875 27.015356063842773438 25.940103530883789062 26.596639633178710938 27.764057159423828125 29.021753311157226562 30.3765106201171875 31.83452606201171875 33.40070343017578125 35.077564239501953125 36.86370086669921875 38.75157928466796875 40.91109466552734375 43.27095794677734375 45.98590087890625 49.019588470458984375 52.534755706787109375 56.5779266357421875 61.305633544921875 66.96018218994140625 73.65123748779296875 82.11251068115234375 92.28514862060546875 110.83898162841796875 139.3757476806640625 185.4394073486328125 261.9495849609375 338.771728515625 1001 338.771728515625 261.94873046875 185.43829345703125 139.3747406005859375 110.8381195068359375 92.28369140625 82.1111602783203125 73.6497344970703125 66.25055694580078125 59.91095733642578125 54.511226654052734375 49.90594482421875 45.9592437744140625 42.5553131103515625 39.59912109375 37.0139007568359375 34.737911224365234375 32.967098236083984375 31.349025726318359375 29.860525131225585938 28.49076080322265625 28.493465423583984375 29.219617843627929688 29.911039352416992188 30.553714752197265625 31.132719039916992188 31.6329193115234375 32.039859771728515625 32.340778350830078125 32.525630950927734375 32.587985992431640625 32.587985992431640625 32.587985992431640625 32.587985992431640625 32.587985992431640625 32.587985992431640625 32.587985992431640625 32.587985992431640625 33.5607452392578125 35.10524749755859375 36.713047027587890625 38.365543365478515625 40.034610748291015625 41.680736541748046875 43.25201416015625 44.684917449951171875 45.907867431640625 46.8481903076171875 48.627178192138671875 50.232074737548828125 51.485111236572265625 52.285358428955078125 52.56084442138671875 52.56084442138671875 
109.9875335693359375 107.30211639404296875 100.3341064453125 91.324310302734375 82.11284637451171875 73.651611328125 69.49066162109375 65.28354644775390625 60.882328033447265625 56.57816314697265625 53.262966156005859375 52.56084442138671875 52.56084442138671875 52.535015106201171875 56.57816314697265625 61.305938720703125 66.9604644775390625 73.03894805908203125 79.18076324462890625 84.71270751953125 88.6765289306640625 90.132904052734375 90.132904052734375 90.132904052734375 90.132904052734375 90.132904052734375 88.6765289306640625 84.71270751953125 79.18076324462890625 73.03894805908203125 66.9604644775390625 61.305938720703125 56.57816314697265625 52.535015106201171875 49.019794464111328125 45.98612213134765625 43.27114105224609375 40.911289215087890625 38.751743316650390625 36.863872528076171875 35.0777435302734375 33.40088653564453125 31.834711074829101562 30.376695632934570312 29.021938323974609375 27.764240264892578125 26.596820831298828125 27.304416656494140625 28.49254608154296875 29.862344741821289062 31.350870132446289062 32.968963623046875 34.7270355224609375 36.633998870849609375 38.695514678955078125 40.911289215087890625 43.27114105224609375 45.98612213134765625 49.019794464111328125 52.535015106201171875 56.57816314697265625 61.305938720703125 66.9604644775390625 73.651611328125 82.11284637451171875 92.28563690185546875 106.3031005859375 123.51016998291015625 151.0537872314453125 204.205718994140625 338.77386474609375 1001 1001 338.77386474609375 204.205718994140625 151.0526275634765625 123.50879669189453125 102.58779144287109375 87.051025390625 75.33036041259765625 66.95906829833984375 61.304416656494140625 56.214992523193359375 51.709362030029296875 47.7485504150390625 44.272243499755859375 41.21665191650390625 38.522281646728515625 36.13674163818359375 34.015163421630859375 32.119663238525390625 30.418439865112304688 29.020275115966796875 29.219671249389648438 29.911085128784179688 30.735340118408203125 31.548954010009765625 32.311519622802734375 33.003940582275390625 33.60638427734375 34.0995025634765625 34.465915679931640625 34.69176483154296875 34.7680816650390625 34.7680816650390625 34.7680816650390625 34.7680816650390625 34.7680816650390625 34.7680816650390625 34.7680816650390625 34.7680816650390625 35.105396270751953125 36.863872528076171875 38.751743316650390625 40.724834442138671875 42.75412750244140625 44.794281005859375 46.78044891357421875 48.6272430419921875 50.23211669921875 51.48513031005859375 53.262966156005859375 55.417758941650390625 57.13472747802734375 58.248073577880859375 58.634487152099609375 58.634487152099609375 
141.2225494384765625 135.4569244384765625 121.8013916015625 106.30352783203125 92.2861175537109375 84.712799072265625 79.18093109130859375 73.0391845703125 66.9607391357421875 61.721553802490234375 58.7530670166015625 58.634487152099609375 58.634487152099609375 58.248081207275390625 61.306243896484375 66.9607391357421875 73.65198516845703125 82.11318206787109375 91.3245697021484375 100.334259033203125 107.30216217041015625 109.9875335693359375 109.9875335693359375 109.9875335693359375 109.9875335693359375 109.9875335693359375 107.30216217041015625 100.334259033203125 91.3245697021484375 82.11318206787109375 73.65198516845703125 66.9607391357421875 61.306243896484375 56.578403472900390625 52.53527069091796875 49.020000457763671875 45.9863433837890625 43.27132415771484375 40.9114837646484375 38.69571685791015625 36.634204864501953125 34.72724151611328125 32.96916961669921875 31.351076126098632812 29.862546920776367188 28.49274444580078125 27.231052398681640625 28.165203094482421875 29.392734527587890625 30.701005935668945312 32.297245025634765625 34.08270263671875 36.045337677001953125 38.203113555908203125 40.57257843017578125 43.16596221923828125 45.9863433837890625 49.020000457763671875 52.53527069091796875 56.578403472900390625 61.306243896484375 66.9607391357421875 73.65198516845703125 82.11318206787109375 92.2861175537109375 106.30352783203125 123.5108489990234375 151.0543670654296875 185.441650390625 261.951324462890625 338.775970458984375 1001 338.775970458984375 261.950469970703125 185.440521240234375 139.376739501953125 110.83984375 92.28466033935546875 80.60198974609375 71.0991668701171875 63.37752532958984375 57.052379608154296875 52.53372955322265625 48.8247833251953125 45.467815399169921875 42.45037078857421875 39.745784759521484375 37.322292327880859375 35.147846221923828125 33.192447662353515625 31.429086685180664062 29.83396148681640625 29.888217926025390625 30.735403060913085938 31.549005508422851562 32.3938751220703125 33.35772705078125 34.269954681396484375 35.106006622314453125 35.83963775634765625 36.44458770751953125 36.896770477294921875 37.1766357421875 37.2714080810546875 37.2714080810546875 37.2714080810546875 37.2714080810546875 37.2714080810546875 37.2714080810546875 37.2714080810546875 37.2714080810546875 37.2714080810546875 38.7519073486328125 40.9114837646484375 43.27132415771484375 45.74967193603515625 48.298679351806640625 50.840778350830078125 53.26305389404296875 55.417812347412109375 57.134754180908203125 58.7530670166015625 61.721553802490234375 64.1534576416015625 65.764404296875 66.3300933837890625 66.3300933837890625 
197.55322265625 181.7171173095703125 151.054931640625 123.51153564453125 107.30220794677734375 100.33441925048828125 91.32483673095703125 82.113525390625 73.6523590087890625 69.4908905029296875 66.3300933837890625 66.3300933837890625 66.3300933837890625 65.7644195556640625 66.96102142333984375 73.6523590087890625 82.113525390625 92.2866058349609375 106.303955078125 121.8016815185546875 135.45703125 141.2225494384765625 141.2225494384765625 141.2225494384765625 141.2225494384765625 141.2225494384765625 135.45703125 121.8016815185546875 106.303955078125 92.2866058349609375 82.113525390625 73.6523590087890625 66.96102142333984375 61.306549072265625 56.578639984130859375 52.535526275634765625 49.020206451416015625 45.98656463623046875 43.16619110107421875 40.572811126708984375 38.203350067138671875 36.04557037353515625 34.082935333251953125 32.2974700927734375 30.671413421630859375 29.18804168701171875 28.1519927978515625 29.022308349609375 30.37706756591796875 31.8350830078125 33.40125274658203125 35.149616241455078125 37.324108123779296875 39.74764251708984375 42.452259063720703125 45.4697113037109375 48.82665252685546875 52.535526275634765625 56.578639984130859375 61.306549072265625 66.96102142333984375 73.6523590087890625 82.113525390625 92.2866058349609375 106.303955078125 123.51153564453125 151.054931640625 185.4427642822265625 261.95220947265625 338.778076171875 1001 1001 338.778076171875 204.208770751953125 151.0537872314453125 123.51016998291015625 102.58914947509765625 87.05228424072265625 75.33152008056640625 66.2757415771484375 59.912113189697265625 54.512355804443359375 49.9070281982421875 45.985015869140625 43.164581298828125 40.57117462158203125 38.2017059326171875 36.043941497802734375 34.081325531005859375 32.295894622802734375 30.6698760986328125 30.395015716552734375 31.400228500366210938 32.393947601318359375 33.3577880859375 34.2700042724609375 35.359294891357421875 36.4599609375 37.479984283447265625 38.3843231201171875 39.1368255615234375 39.703426361083984375 40.055927276611328125 40.1756134033203125 40.1756134033203125 40.1756134033203125 40.1756134033203125 40.1756134033203125 40.1756134033203125 40.1756134033203125 40.1756134033203125 40.1756134033203125 40.91168212890625 43.27150726318359375 45.98656463623046875 49.020206451416015625 52.225337982177734375 55.517375946044921875 58.753185272216796875 61.721630096435546875 64.15350341796875 65.7644195556640625 69.4908905029296875 73.07402801513671875 75.52252960205078125 76.39748382568359375 76.39748382568359375 
329.5323486328125 261.95306396484375 185.443878173828125 151.055511474609375 135.4571380615234375 121.801971435546875 106.30438232421875 92.2870941162109375 84.71298980712890625 79.18126678466796875 76.39748382568359375 76.39748382568359375 76.39748382568359375 75.52254486083984375 73.65273284912109375 82.113861083984375 92.2870941162109375 106.30438232421875 123.5122222900390625 151.055511474609375 181.717376708984375 197.55322265625 197.55322265625 197.55322265625 197.55322265625 197.55322265625 181.717376708984375 151.055511474609375 123.5122222900390625 106.30438232421875 92.2870941162109375 82.113861083984375 73.65273284912109375 66.9613037109375 61.306854248046875 56.578876495361328125 52.5357818603515625 48.8269195556640625 45.469982147216796875 42.4525299072265625 39.7479095458984375 37.324371337890625 35.149868011474609375 33.194408416748046875 31.4309844970703125 30.395111083984375 29.393327713012695312 29.862951278686523438 31.3514862060546875 32.96958160400390625 34.727657318115234375 36.634616851806640625 38.6961212158203125 41.21903228759765625 44.2747039794921875 47.751068115234375 51.7119140625 56.217529296875 61.306854248046875 66.9613037109375 73.65273284912109375 82.113861083984375 92.2870941162109375 106.30438232421875 123.5122222900390625 151.055511474609375 185.443878173828125 261.95306396484375 338.780181884765625 1001 1001 338.780181884765625 261.95220947265625 185.4427642822265625 139.378753662109375 110.84157562255859375 92.28563690185546875 80.6029815673828125 71.10013580322265625 63.378444671630859375 57.05324554443359375 51.81356048583984375 47.749492645263671875 44.273166656494140625 41.2175445556640625 38.6945037841796875 36.632968902587890625 34.7259979248046875 32.967926025390625 31.34984588623046875 30.710559844970703125 31.865968704223632812 33.0379638671875 34.2097015380859375 35.35936737060546875 36.46002197265625 37.577167510986328125 38.917095184326171875 40.1755523681640625 41.305438995361328125 42.256237030029296875 42.978763580322265625 43.43122100830078125 43.585369110107421875 43.585369110107421875 43.585369110107421875 43.585369110107421875 43.585369110107421875 43.585369110107421875 43.585369110107421875 43.585369110107421875 43.585369110107421875 43.585369110107421875 45.986785888671875 49.020416259765625 52.5357818603515625 56.578876495361328125 60.8829498291015625 65.2840423583984375 69.49100494384765625 73.07408905029296875 75.52254486083984375 79.18126678466796875 84.71298980712890625 88.67661285400390625 90.132904052734375 90.132904052734375 
1001 338.78228759765625 261.953948974609375 197.55322265625 181.7176513671875 151.05609130859375 123.51290130615234375 107.30230712890625 100.3347320556640625 91.3253631591796875 90.132904052734375 90.132904052734375 90.132904052734375 88.6766357421875 84.71308135986328125 92.2875823974609375 106.3048095703125 123.51290130615234375 151.05609130859375 185.4449920654296875 261.953948974609375 329.5323486328125 329.5323486328125 329.5323486328125 329.5323486328125 329.5323486328125 261.953948974609375 185.4449920654296875 151.05609130859375 123.51290130615234375 106.3048095703125 92.2875823974609375 82.11419677734375 73.65311431884765625 66.961578369140625 61.307159423828125 56.217845916748046875 51.7122344970703125 47.751384735107421875 44.2750091552734375 41.219329833984375 38.52486419677734375 36.13922119140625 34.209789276123046875 33.03806304931640625 31.866079330444335938 30.7106781005859375 30.701501846313476562 32.29792022705078125 34.083393096923828125 36.0460357666015625 38.20381927490234375 40.57328033447265625 43.166652679443359375 45.987010955810546875 49.909198760986328125 54.51461029052734375 59.914432525634765625 66.25405120849609375 73.65311431884765625 82.11419677734375 92.2875823974609375 106.3048095703125 123.51290130615234375 151.05609130859375 185.4449920654296875 261.953948974609375 338.78228759765625 1001 1001 338.78228759765625 261.95306396484375 185.443878173828125 151.054931640625 123.51153564453125 102.59050750732421875 87.05355072021484375 75.33267974853515625 66.27680206298828125 59.9128875732421875 54.5131072998046875 49.90775299072265625 45.960971832275390625 42.556957244873046875 39.74658203125 37.323070526123046875 35.1486053466796875 33.399967193603515625 31.833784103393554688 30.815046310424804688 32.101947784423828125 33.437114715576171875 34.808094024658203125 36.196567535400390625 37.577259063720703125 38.91716766357421875 40.175609588623046875 41.6811981201171875 43.25237274169921875 44.68517303466796875 45.908023834228515625 46.8482666015625 47.4420623779296875 47.645267486572265625 47.645267486572265625 47.645267486572265625 47.645267486572265625 47.645267486572265625 47.645267486572265625 47.645267486572265625 47.645267486572265625 47.645267486572265625 47.645267486572265625 48.82718658447265625 52.536041259765625 56.579113006591796875 61.307159423828125 66.961578369140625 73.039886474609375 79.18143463134765625 84.71308135986328125 88.6766357421875 91.3253631591796875 100.3347320556640625 107.30230712890625 109.9875335693359375 109.9875335693359375 
1001 1001 338.784423828125 329.5323486328125 261.954833984375 185.44610595703125 141.2225494384765625 135.45733642578125 121.80255889892578125 109.9875335693359375 109.9875335693359375 109.9875335693359375 109.9875335693359375 107.30236053466796875 100.33489227294921875 102.59253692626953125 123.51358795166015625 151.056671142578125 185.44610595703125 261.954833984375 338.784423828125 1001 1001 1001 1001 1001 338.784423828125 261.954833984375 185.44610595703125 151.056671142578125 123.51358795166015625 106.30522918701171875 92.28806304931640625 82.114532470703125 73.6534881591796875 66.2544403076171875 59.91481781005859375 54.514987945556640625 49.9095611572265625 45.96269989013671875 42.55860137939453125 39.6022491455078125 37.5773468017578125 36.1966705322265625 34.808208465576171875 33.437244415283203125 32.102085113525390625 31.83563995361328125 33.401805877685546875 35.1503753662109375 37.32489013671875 39.748439788818359375 42.453067779541015625 45.470523834228515625 48.82745361328125 52.536296844482421875 57.05541229248046875 63.38074493408203125 71.10256195068359375 80.60546875 92.28806304931640625 106.30522918701171875 123.51358795166015625 151.056671142578125 185.44610595703125 261.954833984375 338.784423828125 1001 1001 338.784423828125 261.953948974609375 185.4449920654296875 151.055511474609375 123.5122222900390625 106.303955078125 92.2866058349609375 80.603973388671875 71.101104736328125 63.379364013671875 57.054111480712890625 51.814373016357421875 47.7501220703125 44.27378082275390625 41.2181396484375 38.523715972900390625 36.138118743896484375 34.0820159912109375 32.29656982421875 30.815189361572265625 32.102085113525390625 33.56168365478515625 35.10614013671875 36.713878631591796875 38.366298675537109375 40.03527069091796875 41.6812896728515625 43.252445220947265625 44.794857025146484375 46.78090667724609375 48.62757110595703125 50.23232269287109375 51.4852294921875 52.285388946533203125 52.56084442138671875 52.56084442138671875 52.56084442138671875 52.56084442138671875 52.56084442138671875 52.56084442138671875 52.56084442138671875 52.56084442138671875 52.56084442138671875 52.56084442138671875 52.56084442138671875 56.21816253662109375 61.307464599609375 66.96186065673828125 73.6534881591796875 82.114532470703125 91.32563018798828125 100.33489227294921875 107.30236053466796875 109.9875335693359375 121.80255889892578125 135.45733642578125 141.2225494384765625 141.2225494384765625 
338.786529541015625 1001 1001 1001 338.786529541015625 204.2148895263671875 197.55322265625 181.718170166015625 151.0572509765625 141.2225494384765625 141.2225494384765625 141.2225494384765625 141.2225494384765625 135.4574432373046875 121.80284881591796875 110.84503173828125 139.3827667236328125 185.447235107421875 261.9556884765625 338.786529541015625 1001 1001 1001 338.786529541015625 338.786529541015625 1001 1001 338.786529541015625 261.9556884765625 185.447235107421875 151.0572509765625 123.51427459716796875 106.30565643310546875 92.28855133056640625 80.60596466064453125 71.1030426025390625 63.381206512451171875 57.055843353271484375 51.815998077392578125 47.42371368408203125 43.699649810791015625 41.6813812255859375 40.035381317138671875 38.366424560546875 36.714019775390625 35.106292724609375 33.561840057373046875 32.970203399658203125 34.72827911376953125 36.6352386474609375 38.696727752685546875 41.2199249267578125 44.27562713623046875 47.75201416015625 51.712871551513671875 56.218479156494140625 61.307769775390625 66.96213531494140625 75.33499908447265625 87.05608367919921875 102.5932159423828125 123.51427459716796875 151.0572509765625 185.447235107421875 261.9556884765625 338.786529541015625 1001 1001 338.786529541015625 261.954833984375 185.44610595703125 151.05609130859375 123.51290130615234375 106.30438232421875 92.2870941162109375 82.113525390625 73.6523590087890625 66.25327301025390625 59.91365814208984375 54.513858795166015625 49.908473968505859375 45.96166229248046875 42.557613372802734375 39.747112274169921875 37.323589324951171875 35.14910888671875 33.193675994873046875 31.430273056030273438 32.102222442626953125 33.561840057373046875 35.106292724609375 36.8649139404296875 38.752727508544921875 40.72574615478515625 42.75493621826171875 44.794971466064453125 46.78099822998046875 48.6276397705078125 50.84136962890625 53.26348876953125 55.4180908203125 57.134891510009765625 58.248119354248046875 58.634487152099609375 58.634487152099609375 58.634487152099609375 58.634487152099609375 58.634487152099609375 58.634487152099609375 58.634487152099609375 58.634487152099609375 58.634487152099609375 58.634487152099609375 58.634487152099609375 59.9152069091796875 66.25482177734375 73.65386199951171875 82.11487579345703125 92.28855133056640625 106.30565643310546875 121.80284881591796875 135.4574432373046875 141.2225494384765625 151.0572509765625 181.718170166015625 197.55322265625 197.55322265625 
261.9556884765625 329.5323486328125 338.78863525390625 1001 338.78863525390625 329.5323486328125 329.5323486328125 261.956573486328125 197.55322265625 197.55322265625 197.55322265625 197.55322265625 197.55322265625 181.7184295654296875 151.0578155517578125 141.2225494384765625 151.0578155517578125 204.2164154052734375 338.78863525390625 1001 1001 338.78863525390625 329.5323486328125 261.9556884765625 261.9556884765625 338.78863525390625 1001 1001 338.78863525390625 261.956573486328125 185.4483489990234375 151.0578155517578125 123.51496124267578125 102.59389495849609375 87.0567169189453125 75.33557891845703125 66.279449462890625 59.11502838134765625 53.325775146484375 49.021244049072265625 46.781085968017578125 44.795085906982421875 42.75507354736328125 40.725894927978515625 38.752895355224609375 36.86508941650390625 35.106441497802734375 34.08408355712890625 36.0467376708984375 38.204524993896484375 40.573986053466796875 43.1673431396484375 45.987674713134765625 49.910282135009765625 54.51573944091796875 59.915592193603515625 66.25521087646484375 73.65423583984375 82.11521148681640625 92.28903961181640625 110.8459014892578125 139.3837738037109375 185.4483489990234375 261.956573486328125 338.78863525390625 1001 1001 338.78863525390625 261.9556884765625 185.447235107421875 151.056671142578125 123.51358795166015625 106.3048095703125 92.2875823974609375 82.113861083984375 73.65273284912109375 66.96102142333984375 61.306549072265625 56.217212677001953125 51.711597442626953125 47.75075531005859375 44.274394989013671875 41.2187347412109375 38.524288177490234375 36.138671875 34.0824737548828125 32.29701995849609375 32.102359771728515625 33.5619964599609375 35.106441497802734375 36.86508941650390625 38.752895355224609375 40.912654876708984375 43.272426605224609375 45.75067138671875 48.299549102783203125 50.841487884521484375 53.263576507568359375 55.518154144287109375 58.753780364990234375 61.722019195556640625 64.15369415283203125 65.76447296142578125 66.3300933837890625 66.3300933837890625 66.3300933837890625 66.3300933837890625 66.3300933837890625 66.3300933837890625 66.3300933837890625 66.3300933837890625 66.3300933837890625 66.3300933837890625 66.3300933837890625 66.3300933837890625 71.10352325439453125 80.6064605712890625 92.28903961181640625 106.30608367919921875 123.51496124267578125 151.0578155517578125 181.7184295654296875 197.55322265625 197.55322265625 261.956573486328125 329.5323486328125 329.5323486328125 
181.718170166015625 204.2179412841796875 338.790740966796875 1001 1001 1001 1001 338.790740966796875 329.5323486328125 329.5323486328125 329.5323486328125 329.5323486328125 329.5323486328125 261.957427978515625 197.55322265625 197.55322265625 197.55322265625 261.957427978515625 338.790740966796875 1001 338.790740966796875 261.956573486328125 197.55322265625 181.718170166015625 185.4483489990234375 261.956573486328125 338.790740966796875 1001 1001 338.790740966796875 261.957427978515625 185.449462890625 139.3847808837890625 110.84676361083984375 91.80316162109375 78.2877044677734375 68.2305450439453125 61.308380126953125 56.580066680908203125 53.26366424560546875 50.84160614013671875 48.2996978759765625 45.7508392333984375 43.272609710693359375 40.91284942626953125 38.75305938720703125 36.865264892578125 35.839813232421875 37.3256683349609375 39.749240875244140625 42.453876495361328125 45.47133636474609375 48.82825469970703125 52.537067413330078125 57.056713104248046875 63.382129669189453125 71.10401153564453125 80.606964111328125 92.28952789306640625 106.30651092529296875 123.5156402587890625 151.0583953857421875 204.2179412841796875 338.790740966796875 1001 1001 338.790740966796875 261.956573486328125 185.4483489990234375 151.0572509765625 123.51427459716796875 106.30522918701171875 92.28806304931640625 82.11419677734375 73.65311431884765625 66.9613037109375 61.306854248046875 56.578639984130859375 52.535526275634765625 48.82665252685546875 45.4697113037109375 42.452259063720703125 39.74764251708984375 37.324108123779296875 35.149616241455078125 33.194164276123046875 32.092144012451171875 33.56215667724609375 35.10659027099609375 36.865264892578125 38.75305938720703125 40.91284942626953125 43.272609710693359375 45.987895965576171875 49.021450042724609375 52.226451873779296875 55.518310546875 58.75389862060546875 61.72209930419921875 65.2848663330078125 69.49156951904296875 73.07437896728515625 75.5226287841796875 76.39748382568359375 76.39748382568359375 76.39748382568359375 76.39748382568359375 76.39748382568359375 76.39748382568359375 76.39748382568359375 76.39748382568359375 76.39748382568359375 76.39748382568359375 76.39748382568359375 76.39748382568359375 79.1821136474609375 87.05735015869140625 102.594573974609375 123.5156402587890625 151.0583953857421875 185.449462890625 261.957427978515625 329.5323486328125 329.5323486328125 338.790740966796875 1001 1001 
139.3847808837890625 185.449462890625 261.957427978515625 329.5323486328125 329.5323486328125 338.7928466796875 1001 1001 1001 1001 1001 1001 1001 338.7928466796875 329.5323486328125 329.5323486328125 329.5323486328125 338.7928466796875 1001 1001 338.7928466796875 204.2194671630859375 151.0578155517578125 135.4574432373046875 151.0578155517578125 185.449462890625 261.957427978515625 338.7928466796875 1001 1001 338.7928466796875 204.2194671630859375 146.3238677978515625 114.1020050048828125 93.5756988525390625 82.11588287353515625 73.65499114990234375 66.96297454833984375 61.72217559814453125 58.754016876220703125 55.518466949462890625 52.226634979248046875 49.021656036376953125 45.988117218017578125 43.272792816162109375 40.913043975830078125 39.136959075927734375 38.38454437255859375 38.52629852294921875 41.22081756591796875 44.27655029296875 47.752960205078125 51.713832855224609375 56.219432830810546875 61.308685302734375 66.96297454833984375 75.33673858642578125 87.0579833984375 102.59525299072265625 123.516326904296875 151.0589752197265625 185.4505767822265625 261.95831298828125 338.7928466796875 1001 338.7928466796875 261.957427978515625 185.449462890625 151.0578155517578125 123.51496124267578125 106.30565643310546875 92.28855133056640625 82.114532470703125 73.6534881591796875 66.961578369140625 61.307159423828125 56.578876495361328125 52.5357818603515625 49.020206451416015625 45.98656463623046875 43.16619110107421875 40.572811126708984375 38.203350067138671875 36.04557037353515625 34.082935333251953125 32.394466400146484375 33.4025421142578125 35.079364776611328125 36.865436553955078125 38.753223419189453125 40.913043975830078125 43.272792816162109375 45.988117218017578125 49.021656036376953125 52.537322998046875 56.580303192138671875 60.88419342041015625 65.28502655029296875 69.49167633056640625 73.07444000244140625 79.18228912353515625 84.7135467529296875 88.6767730712890625 90.132904052734375 90.132904052734375 90.132904052734375 90.132904052734375 90.132904052734375 90.132904052734375 90.132904052734375 90.132904052734375 90.132904052734375 90.132904052734375 90.132904052734375 90.132904052734375 91.326690673828125 100.3355255126953125 110.847625732421875 139.3857879638671875 185.4505767822265625 261.95831298828125 338.7928466796875 1001 1001 1001 1001 1001 
123.5156402587890625 151.0583953857421875 181.71868896484375 197.55322265625 197.55322265625 261.95831298828125 329.5323486328125 329.5323486328125 338.79498291015625 1001 1001 338.79498291015625 1001 1001 1001 1001 1001 1001 1001 338.79498291015625 261.95831298828125 185.4505767822265625 139.3857879638671875 110.847625732421875 123.5156402587890625 151.0583953857421875 185.4505767822265625 261.95831298828125 338.79498291015625 1001 338.79498291015625 204.22100830078125 151.0595550537109375 123.5170135498046875 106.30736541748046875 92.290496826171875 82.11621856689453125 73.655364990234375 69.491790771484375 65.28519439697265625 60.884403228759765625 56.580539703369140625 52.5375823974609375 49.021862030029296875 45.988338470458984375 43.168033599853515625 42.256404876708984375 41.30571746826171875 40.1759490966796875 42.560245513916015625 45.964427947998046875 49.91136932373046875 54.51686859130859375 59.916751861572265625 66.256378173828125 73.655364990234375 82.11621856689453125 92.290496826171875 110.8484954833984375 139.3867950439453125 185.4517059326171875 261.959197998046875 338.79498291015625 1001 1001 338.79498291015625 204.22100830078125 151.0583953857421875 123.5156402587890625 106.30608367919921875 92.28903961181640625 82.11487579345703125 73.65386199951171875 66.96186065673828125 61.307464599609375 56.579113006591796875 52.536041259765625 49.020416259765625 45.986785888671875 43.27150726318359375 40.91168212890625 38.695919036865234375 36.634410858154296875 34.727451324462890625 33.038665771484375 34.21031951904296875 35.359893798828125 36.6360626220703125 38.697536468505859375 40.913238525390625 43.272975921630859375 45.988338470458984375 49.021862030029296875 52.5375823974609375 56.580539703369140625 61.308990478515625 66.96324920654296875 73.041290283203125 79.18245697021484375 84.7136383056640625 91.32695770263671875 100.33568572998046875 107.30260467529296875 109.9875335693359375 109.9875335693359375 109.9875335693359375 109.9875335693359375 109.9875335693359375 109.9875335693359375 109.9875335693359375 109.9875335693359375 109.9875335693359375 109.9875335693359375 109.9875335693359375 109.9875335693359375 109.9875335693359375 121.80401611328125 135.4578399658203125 151.0595550537109375 204.22100830078125 338.79498291015625 1001 1001 338.79498291015625 329.5323486328125 329.5323486328125 329.5323486328125 
106.30651092529296875 121.80342864990234375 135.4576416015625 141.2225494384765625 151.0589752197265625 181.7189483642578125 197.55322265625 197.55322265625 261.959197998046875 329.5323486328125 329.5323486328125 261.959197998046875 329.5323486328125 329.5323486328125 329.5323486328125 329.5323486328125 329.5323486328125 329.5323486328125 329.5323486328125 261.959197998046875 185.4517059326171875 151.0589752197265625 123.516326904296875 102.59525299072265625 106.30651092529296875 123.516326904296875 151.0589752197265625 204.2225341796875 338.797088623046875 1001 338.797088623046875 261.960052490234375 185.45281982421875 151.0601348876953125 123.5177001953125 106.30779266357421875 92.290985107421875 84.7137298583984375 79.18262481689453125 73.0415191650390625 66.963531494140625 61.309295654296875 56.580780029296875 52.537837982177734375 48.8290557861328125 46.848369598388671875 45.908237457275390625 44.685527801513671875 43.252872467041015625 44.277164459228515625 47.75359344482421875 51.81803131103515625 57.058013916015625 63.383510589599609375 71.10546112060546875 80.60845184326171875 92.290985107421875 106.30779266357421875 123.5177001953125 151.0601348876953125 204.2225341796875 338.797088623046875 1001 1001 338.797088623046875 261.959197998046875 185.4517059326171875 139.3867950439453125 110.8484954833984375 92.28952789306640625 82.11521148681640625 73.65423583984375 66.96213531494140625 61.307769775390625 56.57935333251953125 52.536296844482421875 49.02062225341796875 45.987010955810546875 43.27169036865234375 40.911876678466796875 38.752071380615234375 36.86421966552734375 35.078105926513671875 33.438014984130859375 34.808917999267578125 36.197299957275390625 37.577892303466796875 38.91768646240234375 40.574920654296875 43.168262481689453125 45.988559722900390625 49.02207183837890625 52.537837982177734375 56.580780029296875 61.309295654296875 66.963531494140625 73.65573883056640625 82.1165618896484375 91.32721710205078125 100.33583831787109375 107.30265045166015625 121.8043060302734375 135.45794677734375 141.2225494384765625 141.2225494384765625 141.2225494384765625 141.2225494384765625 141.2225494384765625 141.2225494384765625 141.2225494384765625 141.2225494384765625 141.2225494384765625 141.2225494384765625 141.2225494384765625 141.2225494384765625 141.2225494384765625 151.0601348876953125 181.719482421875 197.55322265625 261.960052490234375 338.797088623046875 1001 338.797088623046875 261.959197998046875 197.55322265625 197.55322265625 197.55322265625 
91.32642364501953125 100.33536529541015625 107.3025054931640625 109.9875335693359375 121.80371856689453125 135.4577484130859375 141.2225494384765625 151.0595550537109375 181.719207763671875 197.55322265625 197.55322265625 181.719207763671875 197.55322265625 197.55322265625 197.55322265625 197.55322265625 197.55322265625 197.55322265625 197.55322265625 181.719207763671875 151.0595550537109375 123.5170135498046875 106.30693817138671875 92.290008544921875 93.5780792236328125 114.1048431396484375 146.3273773193359375 204.22406005859375 338.7991943359375 1001 1001 338.7991943359375 261.9609375 185.4539337158203125 151.0607147216796875 123.5183868408203125 107.30269622802734375 100.33599853515625 91.327484130859375 82.1168975830078125 73.6561126708984375 66.96381378173828125 61.309600830078125 56.2203826904296875 52.285427093505859375 51.4853668212890625 50.232608795166015625 48.628032684326171875 46.781543731689453125 45.965118408203125 49.9120941162109375 54.5176239013671875 59.9175262451171875 66.28209686279296875 75.33847808837890625 87.05988311767578125 102.59728240966796875 123.5183868408203125 151.0607147216796875 185.4539337158203125 261.9609375 338.7991943359375 1001 338.7991943359375 261.960052490234375 185.45281982421875 151.0595550537109375 123.5170135498046875 102.5959320068359375 87.05861663818359375 75.33731842041015625 66.9624176025390625 61.308074951171875 56.57958984375 52.53655242919921875 49.0208282470703125 45.987232208251953125 43.27187347412109375 40.91207122802734375 38.75223541259765625 36.8643951416015625 35.105693817138671875 34.2104949951171875 35.360042572021484375 36.71485137939453125 38.36717987060546875 40.036045074462890625 41.6819305419921875 43.2529449462890625 45.47241973876953125 48.82932281494140625 52.53809356689453125 56.58101654052734375 61.309600830078125 66.96381378173828125 73.6561126708984375 82.1168975830078125 92.291473388671875 106.30821990966796875 121.804595947265625 135.4580535888671875 151.0607147216796875 181.7197418212890625 197.55322265625 197.55322265625 197.55322265625 197.55322265625 197.55322265625 197.55322265625 197.55322265625 197.55322265625 197.55322265625 197.55322265625 197.55322265625 197.55322265625 197.55322265625 197.55322265625 261.9609375 329.5323486328125 338.7991943359375 1001 1001 338.7991943359375 204.22406005859375 151.0595550537109375 141.2225494384765625 141.2225494384765625 
79.1821136474609375 84.7134552001953125 88.6767425537109375 91.326690673828125 100.3355255126953125 107.30255126953125 109.9875335693359375 121.80401611328125 135.4578399658203125 141.2225494384765625 141.2225494384765625 135.4578399658203125 141.2225494384765625 141.2225494384765625 141.2225494384765625 141.2225494384765625 141.2225494384765625 141.2225494384765625 141.2225494384765625 135.4578399658203125 121.80401611328125 106.30736541748046875 92.290496826171875 82.11588287353515625 91.80615234375 110.85022735595703125 139.3888092041015625 185.4539337158203125 261.9609375 338.80133056640625 1001 1001 338.80133056640625 261.961822509765625 185.455047607421875 151.0612945556640625 135.4581451416015625 121.8048858642578125 106.30864715576171875 92.29195404052734375 82.1172332763671875 73.656494140625 66.25754547119140625 59.917911529541015625 58.2481689453125 57.135082244873046875 55.418483734130859375 53.264102935791015625 50.842197418212890625 49.02248382568359375 52.22737884521484375 57.058879852294921875 63.384433746337890625 71.10643768310546875 80.6094512939453125 92.29195404052734375 110.8510894775390625 139.3898162841796875 185.455047607421875 261.961822509765625 338.80133056640625 1001 1001 338.80133056640625 204.2256011962890625 151.0601348876953125 123.5177001953125 106.30736541748046875 92.290496826171875 80.6079559326171875 71.10498046875 63.38304901123046875 57.05757904052734375 52.53681182861328125 49.02103424072265625 45.987453460693359375 43.27205657958984375 40.912265777587890625 38.752399444580078125 36.864566802978515625 35.10584259033203125 34.80915069580078125 36.197513580322265625 37.57807159423828125 38.917835235595703125 40.726806640625 42.75588226318359375 44.7957763671875 46.781635284423828125 48.628101348876953125 51.71511077880859375 56.220699310302734375 61.309906005859375 66.96408843994140625 73.656494140625 82.1172332763671875 92.29195404052734375 106.30864715576171875 123.51906585693359375 151.0612945556640625 181.720001220703125 197.55322265625 261.961822509765625 329.5323486328125 329.5323486328125 329.5323486328125 329.5323486328125 329.5323486328125 329.5323486328125 329.5323486328125 329.5323486328125 329.5323486328125 329.5323486328125 329.5323486328125 329.5323486328125 329.5323486328125 329.5323486328125 338.80133056640625 1001 1001 1001 338.80133056640625 261.9609375 185.4539337158203125 139.3888092041015625 110.85022735595703125 109.9875335693359375 
69.49156951904296875 73.07437896728515625 75.5226287841796875 79.18228912353515625 84.7135467529296875 88.6767730712890625 91.32695770263671875 100.33568572998046875 107.30260467529296875 109.9875335693359375 109.9875335693359375 107.30260467529296875 109.9875335693359375 109.9875335693359375 109.9875335693359375 109.9875335693359375 109.9875335693359375 109.9875335693359375 109.9875335693359375 107.30260467529296875 100.33568572998046875 91.32695770263671875 82.11621856689453125 75.33847808837890625 87.05988311767578125 102.59728240966796875 123.5183868408203125 151.0607147216796875 185.455047607421875 261.961822509765625 338.803436279296875 1001 1001 338.803436279296875 261.962677001953125 197.55322265625 181.7202606201171875 151.061859130859375 123.51975250244140625 106.30907440185546875 92.29244232177734375 80.60994720458984375 71.1069183349609375 66.3300933837890625 65.7645416259765625 64.15396881103515625 61.722564697265625 58.754611968994140625 55.519245147705078125 52.538608551025390625 56.581493377685546875 60.88523101806640625 66.2831573486328125 75.33963775634765625 87.06114959716796875 102.59864044189453125 123.51975250244140625 151.061859130859375 204.2271270751953125 338.803436279296875 1001 1001 338.803436279296875 261.961822509765625 185.455047607421875 139.3898162841796875 110.8510894775390625 92.290985107421875 82.11621856689453125 73.655364990234375 66.256378173828125 59.916751861572265625 54.51686859130859375 49.91136932373046875 45.987674713134765625 43.27223968505859375 40.9124603271484375 38.7525634765625 37.2714080810546875 37.2714080810546875 37.176662445068359375 36.896862030029296875 38.367431640625 40.03626251220703125 41.6821136474609375 43.273708343505859375 45.751842498779296875 48.300567626953125 50.842315673828125 53.264190673828125 55.418537139892578125 59.918300628662109375 66.2579345703125 73.65686798095703125 82.1175689697265625 92.29244232177734375 106.30907440185546875 123.51975250244140625 151.061859130859375 185.4561767578125 261.962677001953125 329.5323486328125 338.803436279296875 1001 1001 1001 1001 1001 1001 1001 1001 1001 1001 1001 1001 1001 1001 1001 1001 338.803436279296875 329.5323486328125 261.961822509765625 185.455047607421875 151.0607147216796875 123.5183868408203125 102.59728240966796875 90.132904052734375 
61.72209930419921875 64.1537322998046875 65.7644805908203125 69.49167633056640625 73.07444000244140625 75.52264404296875 79.18245697021484375 84.7136383056640625 88.67679595947265625 90.132904052734375 90.132904052734375 88.67679595947265625 90.132904052734375 90.132904052734375 90.132904052734375 90.132904052734375 90.132904052734375 90.132904052734375 90.132904052734375 88.67679595947265625 84.7136383056640625 79.18245697021484375 73.041290283203125 71.10594940185546875 80.60895538330078125 92.291473388671875 106.30821990966796875 123.51906585693359375 151.0612945556640625 185.4561767578125 261.962677001953125 338.8055419921875 1001 1001 338.8055419921875 329.5323486328125 261.96356201171875 185.4572906494140625 151.06243896484375 123.52043914794921875 102.5993194580078125 87.0617828369140625 79.1833038330078125 76.39748382568359375 75.522735595703125 73.07479095458984375 69.4923553466796875 65.28601837158203125 60.885440826416015625 56.581729888916015625 61.310516357421875 66.9646453857421875 73.04245758056640625 80.610443115234375 92.29293060302734375 110.85282135009765625 139.391815185546875 185.4572906494140625 261.96356201171875 338.8055419921875 1001 338.8055419921875 261.962677001953125 185.4561767578125 151.0612945556640625 123.51906585693359375 102.59796142578125 87.060516357421875 75.33905792236328125 66.96324920654296875 61.308990478515625 56.21974945068359375 51.71414947509765625 47.753276824951171875 44.27685546875 41.2211151123046875 40.1756134033203125 40.1756134033203125 40.1756134033203125 40.1756134033203125 40.055957794189453125 39.703540802001953125 40.72711181640625 42.756153106689453125 44.7960052490234375 46.781818389892578125 49.022899627685546875 52.227748870849609375 55.51940155029296875 58.754730224609375 61.722644805908203125 64.1540069580078125 71.1074066162109375 80.610443115234375 92.29293060302734375 106.30950164794921875 123.52043914794921875 151.06243896484375 185.4572906494140625 261.96356201171875 338.8055419921875 1001 1001 1001 338.8055419921875 329.5323486328125 329.5323486328125 329.5323486328125 329.5323486328125 329.5323486328125 338.8055419921875 1001 338.8055419921875 1001 1001 1001 338.8055419921875 329.5323486328125 329.5323486328125 261.962677001953125 197.55322265625 181.720001220703125 151.0612945556640625 123.51906585693359375 106.30821990966796875 92.291473388671875 80.60895538330078125 
55.418201446533203125 57.134944915771484375 58.754016876220703125 61.72217559814453125 64.15377044677734375 65.76448822021484375 69.491790771484375 73.074493408203125 75.5226593017578125 76.39748382568359375 76.39748382568359375 75.5226593017578125 76.39748382568359375 76.39748382568359375 76.39748382568359375 76.39748382568359375 76.39748382568359375 76.39748382568359375 76.39748382568359375 75.5226593017578125 73.074493408203125 69.491790771484375 65.28519439697265625 66.2571563720703125 73.6561126708984375 82.1168975830078125 92.29195404052734375 106.30864715576171875 123.51975250244140625 151.061859130859375 185.4572906494140625 261.96356201171875 338.807647705078125 1001 1001 1001 338.807647705078125 261.96441650390625 185.458404541015625 139.392822265625 110.85369110107421875 100.33663177490234375 91.32854461669921875 90.132904052734375 88.67696380615234375 84.71419525146484375 79.1834716796875 73.042694091796875 66.96492767333984375 61.310821533203125 66.96492767333984375 73.65761566162109375 82.11824798583984375 91.32854461669921875 102.59999847412109375 123.52112579345703125 151.063018798828125 204.230194091796875 338.807647705078125 1001 1001 338.807647705078125 204.230194091796875 151.061859130859375 123.51975250244140625 106.30864715576171875 92.29195404052734375 80.6094512939453125 71.10643768310546875 63.384433746337890625 57.058879852294921875 52.5375823974609375 48.82878875732421875 45.471874237060546875 43.585369110107421875 43.585369110107421875 43.585369110107421875 43.585369110107421875 43.585369110107421875 43.585369110107421875 43.431255340576171875 42.978908538818359375 43.274074554443359375 45.752178192138671875 48.3008575439453125 50.84255218505859375 53.26436614990234375 56.581966400146484375 60.885646820068359375 65.28618621826171875 69.49246978759765625 73.0748443603515625 75.52275848388671875 87.06241607666015625 102.59999847412109375 123.52112579345703125 151.063018798828125 185.458404541015625 261.96441650390625 338.807647705078125 1001 1001 338.807647705078125 329.5323486328125 261.96356201171875 197.55322265625 197.55322265625 197.55322265625 197.55322265625 197.55322265625 261.96356201171875 329.5323486328125 261.96356201171875 329.5323486328125 329.5323486328125 329.5323486328125 261.96356201171875 197.55322265625 197.55322265625 181.7202606201171875 151.061859130859375 135.4581451416015625 121.8048858642578125 106.30864715576171875 92.29195404052734375 82.1168975830078125 73.6561126708984375 
50.23244476318359375 51.485286712646484375 53.263751983642578125 55.4182586669921875 57.13497161865234375 58.7541351318359375 61.72225189208984375 64.15380859375 65.76450347900390625 66.3300933837890625 66.3300933837890625 65.76450347900390625 66.3300933837890625 66.3300933837890625 66.3300933837890625 66.3300933837890625 66.3300933837890625 66.3300933837890625 66.3300933837890625 65.76450347900390625 64.15380859375 61.72225189208984375 58.7541351318359375 61.309600830078125 66.96381378173828125 73.656494140625 82.1172332763671875 92.29244232177734375 106.30907440185546875 123.52043914794921875 151.06243896484375 185.458404541015625 261.96441650390625 329.5323486328125 338.809783935546875 1001 1001 338.809783935546875 204.231719970703125 151.0635986328125 135.45855712890625 121.80605316162109375 109.9875335693359375 109.9875335693359375 107.30294036865234375 100.3367919921875 91.3288116455078125 82.11858367919921875 73.65799713134765625 66.9652099609375 73.65799713134765625 82.11858367919921875 92.29390716552734375 106.31035614013671875 121.80605316162109375 139.393829345703125 185.45953369140625 261.965301513671875 338.809783935546875 1001 338.809783935546875 261.96441650390625 185.458404541015625 139.392822265625 110.85369110107421875 92.29244232177734375 82.1172332763671875 73.656494140625 66.25754547119140625 59.917911529541015625 54.51799774169921875 49.912456512451171875 47.442111968994140625 47.645267486572265625 47.645267486572265625 47.645267486572265625 47.645267486572265625 47.645267486572265625 47.645267486572265625 47.645267486572265625 47.442111968994140625 46.84845733642578125 45.98989105224609375 49.0233154296875 52.228118896484375 55.519710540771484375 58.75496673583984375 61.722797393798828125 66.9652099609375 73.04293060302734375 79.1836395263671875 84.71428680419921875 88.6769866943359375 92.29390716552734375 110.85455322265625 139.393829345703125 185.45953369140625 261.965301513671875 338.809783935546875 1001 1001 338.809783935546875 261.96441650390625 197.55322265625 181.72052001953125 151.06243896484375 141.2225494384765625 141.2225494384765625 141.2225494384765625 151.06243896484375 181.72052001953125 197.55322265625 181.72052001953125 197.55322265625 197.55322265625 197.55322265625 181.72052001953125 151.06243896484375 141.2225494384765625 135.458251953125 121.80517578125 107.3027496337890625 100.33615875244140625 91.32775115966796875 82.1172332763671875 73.656494140625 66.96381378173828125 
45.908145904541015625 46.848323822021484375 48.627834320068359375 50.232486724853515625 51.4853057861328125 53.2638397216796875 55.418315887451171875 57.13500213623046875 58.24814605712890625 58.634487152099609375 58.634487152099609375 58.24814605712890625 58.634487152099609375 58.634487152099609375 58.634487152099609375 58.634487152099609375 58.634487152099609375 58.634487152099609375 58.634487152099609375 58.24814605712890625 57.13500213623046875 55.418315887451171875 53.2638397216796875 56.58101654052734375 61.309906005859375 66.96408843994140625 73.65686798095703125 82.1175689697265625 92.29293060302734375 106.30950164794921875 123.52112579345703125 151.063018798828125 181.7207794189453125 197.55322265625 261.965301513671875 338.8118896484375 1001 338.8118896484375 261.9661865234375 197.55322265625 181.7213134765625 151.064178466796875 141.2225494384765625 141.2225494384765625 135.4586639404296875 121.80634307861328125 106.31078338623046875 92.29439544677734375 82.118927001953125 75.52278900146484375 80.6119384765625 92.29439544677734375 106.31078338623046875 123.52249908447265625 151.064178466796875 181.7213134765625 204.233245849609375 338.8118896484375 1001 1001 338.8118896484375 204.233245849609375 151.063018798828125 123.52112579345703125 102.59999847412109375 87.06241607666015625 75.34079742431640625 66.96408843994140625 61.309906005859375 56.220699310302734375 52.228305816650390625 51.485485076904296875 52.285457611083984375 52.56084442138671875 52.56084442138671875 52.56084442138671875 52.56084442138671875 52.56084442138671875 52.56084442138671875 52.56084442138671875 52.285457611083984375 51.485485076904296875 50.23285675048828125 52.539638519287109375 56.5824432373046875 60.8860626220703125 65.2865142822265625 69.4926910400390625 73.6583709716796875 82.118927001953125 91.329071044921875 100.33695220947265625 107.3029937744140625 109.9875335693359375 123.52249908447265625 151.064178466796875 204.233245849609375 338.8118896484375 1001 1001 338.8118896484375 261.965301513671875 185.45953369140625 151.063018798828125 135.4583587646484375 121.80547332763671875 109.9875335693359375 109.9875335693359375 109.9875335693359375 121.80547332763671875 135.4583587646484375 141.2225494384765625 135.4583587646484375 141.2225494384765625 141.2225494384765625 141.2225494384765625 135.4583587646484375 121.80547332763671875 109.9875335693359375 107.30279541015625 100.3363189697265625 91.3280181884765625 84.71392059326171875 79.18296051025390625 73.0419921875 66.96408843994140625 61.309906005859375 
42.256359100341796875 43.2527313232421875 44.6854248046875 45.908176422119140625 46.848339080810546875 48.627902984619140625 50.2325286865234375 51.48532867431640625 52.2854156494140625 52.56084442138671875 52.56084442138671875 52.2854156494140625 52.56084442138671875 52.56084442138671875 52.56084442138671875 52.56084442138671875 52.56084442138671875 52.56084442138671875 52.56084442138671875 52.2854156494140625 51.48532867431640625 50.2325286865234375 49.02227783203125 52.53835296630859375 56.5812530517578125 61.310211181640625 66.9643707275390625 73.6572418212890625 82.11791229248046875 92.29341888427734375 106.30992889404296875 121.80576324462890625 135.458465576171875 151.0635986328125 204.2347869873046875 338.813995361328125 1001 1001 338.813995361328125 329.5323486328125 261.967041015625 197.55322265625 197.55322265625 197.55322265625 181.7215728759765625 151.06475830078125 123.52318572998046875 106.31121063232421875 92.2948760986328125 88.67704010009765625 87.0643157958984375 102.6020355224609375 123.52318572998046875 151.06475830078125 185.461761474609375 261.967041015625 329.5323486328125 338.813995361328125 1001 338.813995361328125 261.9661865234375 185.4606475830078125 139.39483642578125 110.8554229736328125 92.29341888427734375 80.6109466552734375 73.0750274658203125 69.49280548095703125 65.28668212890625 60.88626861572265625 56.58267974853515625 57.13524627685546875 58.2482147216796875 58.634487152099609375 58.634487152099609375 58.634487152099609375 58.634487152099609375 58.634487152099609375 58.634487152099609375 58.634487152099609375 58.2482147216796875 57.13524627685546875 55.41881561279296875 56.58267974853515625 61.311740875244140625 66.96576690673828125 73.04339599609375 79.18398284912109375 84.7144775390625 92.2948760986328125 106.31121063232421875 121.80663299560546875 135.458770751953125 141.2225494384765625 151.06475830078125 185.461761474609375 261.967041015625 338.813995361328125 1001 338.813995361328125 261.9661865234375 185.4606475830078125 151.0635986328125 123.52181243896484375 107.30284881591796875 100.3364715576171875 91.328277587890625 90.132904052734375 91.328277587890625 100.3364715576171875 107.30284881591796875 109.9875335693359375 107.30284881591796875 109.9875335693359375 109.9875335693359375 109.9875335693359375 107.30284881591796875 100.3364715576171875 91.328277587890625 88.67690277099609375 84.71401214599609375 79.183135986328125 73.07466888427734375 69.49212646484375 65.2856903076171875 60.8850250244140625 56.5812530517578125 
39.13694000244140625 40.175891876220703125 41.305675506591796875 42.256381988525390625 43.252803802490234375 44.685474395751953125 45.908206939697265625 46.848354339599609375 47.44208526611328125 47.645267486572265625 47.645267486572265625 47.44208526611328125 47.645267486572265625 47.645267486572265625 47.645267486572265625 47.645267486572265625 47.645267486572265625 47.645267486572265625 47.645267486572265625 47.44208526611328125 46.848354339599609375 45.908206939697265625 45.989002227783203125 49.02248382568359375 52.538608551025390625 56.581493377685546875 61.310516357421875 66.9646453857421875 73.65761566162109375 82.11824798583984375 91.32854461669921875 100.33663177490234375 110.85628509521484375 139.395843505859375 185.461761474609375 261.967041015625 338.816131591796875 1001 1001 1001 338.816131591796875 329.5323486328125 329.5323486328125 329.5323486328125 261.967926025390625 185.462890625 151.065338134765625 123.52386474609375 109.9875335693359375 107.30309295654296875 100.3372650146484375 110.85715484619140625 139.3968505859375 185.462890625 261.967926025390625 338.816131591796875 1001 1001 1001 338.816131591796875 204.2363128662109375 151.064178466796875 123.52249908447265625 107.30309295654296875 100.3372650146484375 91.3296051025390625 84.714569091796875 79.18415069580078125 73.04363250732421875 66.96604156494140625 61.723033905029296875 64.154205322265625 65.76461029052734375 66.3300933837890625 66.3300933837890625 66.3300933837890625 66.3300933837890625 66.3300933837890625 66.3300933837890625 66.3300933837890625 65.76461029052734375 64.154205322265625 61.723033905029296875 61.312046051025390625 66.96604156494140625 73.65911865234375 82.119598388671875 91.3296051025390625 100.3372650146484375 107.30309295654296875 123.52386474609375 151.065338134765625 181.721832275390625 197.55322265625 197.55322265625 261.967926025390625 338.816131591796875 1001 1001 338.816131591796875 204.2363128662109375 151.064178466796875 123.52249908447265625 106.31035614013671875 92.29390716552734375 84.71410369873046875 79.1833038330078125 76.39748382568359375 79.1833038330078125 84.71410369873046875 88.67693328857421875 90.132904052734375 88.67693328857421875 90.132904052734375 90.132904052734375 90.132904052734375 88.67693328857421875 84.71410369873046875 79.1833038330078125 75.5227203369140625 73.07472991943359375 69.49224090576171875 65.28585052490234375 61.7224884033203125 58.75449371337890625 55.5190887451171875 52.22737884521484375 
36.460384368896484375 37.480304718017578125 38.38454437255859375 39.136959075927734375 40.1759490966796875 41.30571746826171875 42.256404876708984375 42.97884368896484375 43.431240081787109375 43.585369110107421875 43.585369110107421875 43.431240081787109375 43.585369110107421875 43.585369110107421875 43.585369110107421875 43.585369110107421875 43.585369110107421875 43.585369110107421875 43.585369110107421875 43.431240081787109375 42.97884368896484375 42.256404876708984375 43.273525238037109375 45.989227294921875 49.022693634033203125 52.5388641357421875 56.581729888916015625 61.310821533203125 66.96492767333984375 73.042694091796875 79.1834716796875 87.0643157958984375 102.6020355224609375 123.52318572998046875 151.06475830078125 185.462890625 261.967926025390625 329.5323486328125 338.8182373046875 1001 1001 1001 1001 1001 338.8182373046875 261.96881103515625 185.4640045166015625 151.06591796875 141.2225494384765625 135.4589691162109375 121.807220458984375 123.5245513916015625 151.06591796875 204.23785400390625 338.8182373046875 1001 1001 338.8182373046875 329.5323486328125 261.967926025390625 185.462890625 151.06591796875 141.2225494384765625 135.4589691162109375 121.807220458984375 107.30313873291015625 100.33742523193359375 91.32987213134765625 82.11993408203125 73.6595001220703125 69.49303436279296875 73.07514190673828125 75.52283477783203125 76.39748382568359375 76.39748382568359375 76.39748382568359375 76.39748382568359375 76.39748382568359375 76.39748382568359375 76.39748382568359375 75.52283477783203125 73.07514190673828125 69.49303436279296875 66.3300933837890625 73.6595001220703125 82.11993408203125 92.2958526611328125 106.31206512451171875 121.807220458984375 135.4589691162109375 151.06591796875 185.4640045166015625 261.96881103515625 329.5323486328125 329.5323486328125 338.8182373046875 1001 1001 338.8182373046875 261.967926025390625 185.462890625 139.3968505859375 110.85715484619140625 92.29439544677734375 82.11858367919921875 73.65799713134765625 69.4923553466796875 66.3300933837890625 69.4923553466796875 73.07479095458984375 75.522735595703125 76.39748382568359375 75.522735595703125 76.39748382568359375 76.39748382568359375 76.39748382568359375 75.522735595703125 73.07479095458984375 69.4923553466796875 65.7645416259765625 64.15396881103515625 61.722564697265625 58.754611968994140625 55.519245147705078125 53.264102935791015625 50.842197418212890625 48.30042266845703125 
34.270351409912109375 35.106304168701171875 35.839839935302734375 36.460445404052734375 37.480350494384765625 38.38457489013671875 39.1369781494140625 39.70349884033203125 40.05594635009765625 40.1756134033203125 40.1756134033203125 40.05594635009765625 40.1756134033203125 40.1756134033203125 40.1756134033203125 40.1756134033203125 40.1756134033203125 40.1756134033203125 40.1756134033203125 40.05594635009765625 39.70349884033203125 39.1369781494140625 40.9140167236328125 43.273708343505859375 45.98944854736328125 49.022899627685546875 52.53912353515625 56.581966400146484375 60.885646820068359375 65.28618621826171875 71.109344482421875 80.61243438720703125 92.2948760986328125 106.31121063232421875 123.52386474609375 151.065338134765625 181.721832275390625 197.55322265625 261.96881103515625 329.5323486328125 329.5323486328125 329.5323486328125 338.82037353515625 1001 1001 338.82037353515625 261.96966552734375 197.55322265625 197.55322265625 181.72235107421875 151.066497802734375 151.066497802734375 185.465118408203125 261.96966552734375 338.82037353515625 1001 338.82037353515625 261.96881103515625 261.96966552734375 329.5323486328125 261.96966552734375 197.55322265625 197.55322265625 181.72235107421875 151.066497802734375 135.459075927734375 121.8075103759765625 106.31249237060546875 92.2963409423828125 82.12027740478515625 79.18448638916015625 84.714752197265625 88.6771240234375 90.132904052734375 90.132904052734375 90.132904052734375 90.132904052734375 90.132904052734375 90.132904052734375 90.132904052734375 88.6771240234375 84.714752197265625 79.18448638916015625 76.39748382568359375 80.61392974853515625 92.2963409423828125 106.31249237060546875 123.525238037109375 151.066497802734375 181.72235107421875 197.55322265625 261.96966552734375 338.82037353515625 1001 1001 1001 1001 338.82037353515625 261.96881103515625 185.4640045166015625 151.065338134765625 123.52386474609375 102.60271453857421875 87.06494903564453125 75.3431243896484375 66.9652099609375 61.722644805908203125 58.754730224609375 61.722644805908203125 64.1540069580078125 65.764556884765625 66.3300933837890625 65.764556884765625 66.3300933837890625 66.3300933837890625 66.3300933837890625 65.764556884765625 64.1540069580078125 61.722644805908203125 58.754730224609375 57.13510894775390625 55.418537139892578125 53.264190673828125 50.842315673828125 48.628101348876953125 46.781635284423828125 44.7957763671875 
32.3118896484375 33.004215240478515625 33.606571197509765625 34.2704010009765625 35.106342315673828125 35.83986663818359375 36.44472503662109375 36.896831512451171875 37.176654815673828125 37.2714080810546875 37.2714080810546875 37.176654815673828125 37.2714080810546875 37.2714080810546875 37.2714080810546875 37.2714080810546875 37.2714080810546875 37.2714080810546875 37.2714080810546875 37.176654815673828125 36.896831512451171875 36.866306304931640625 38.754047393798828125 40.914215087890625 43.273891448974609375 45.9896697998046875 49.023105621337890625 52.227931976318359375 55.519557952880859375 59.92023468017578125 66.25988006591796875 73.65874481201171875 82.1192626953125 92.2953643798828125 106.31163787841796875 121.8069305419921875 135.4588623046875 151.06591796875 181.7220916748046875 197.55322265625 197.55322265625 197.55322265625 261.96966552734375 338.822479248046875 1001 1001 338.822479248046875 329.5323486328125 329.5323486328125 261.970550537109375 197.55322265625 197.55322265625 261.970550537109375 338.822479248046875 1001 1001 338.822479248046875 261.970550537109375 338.822479248046875 1001 338.822479248046875 329.5323486328125 329.5323486328125 261.970550537109375 197.55322265625 181.7226104736328125 151.0670623779296875 123.5259246826171875 106.31291961669921875 92.2968292236328125 91.3303985595703125 100.337738037109375 107.3032379150390625 109.9875335693359375 109.9875335693359375 109.9875335693359375 109.9875335693359375 109.9875335693359375 109.9875335693359375 109.9875335693359375 107.3032379150390625 100.337738037109375 91.3303985595703125 90.132904052734375 91.3303985595703125 102.6047515869140625 123.5259246826171875 151.0670623779296875 185.46624755859375 261.970550537109375 329.5323486328125 338.822479248046875 1001 1001 338.822479248046875 329.5323486328125 329.5323486328125 261.96966552734375 185.465118408203125 151.06591796875 123.5245513916015625 106.31163787841796875 92.2953643798828125 80.61293792724609375 71.10982513427734375 63.387660980224609375 57.061920166015625 53.264278411865234375 55.4185943603515625 57.135135650634765625 58.2481842041015625 58.634487152099609375 58.2481842041015625 58.634487152099609375 58.634487152099609375 58.634487152099609375 58.2481842041015625 57.135135650634765625 55.4185943603515625 53.264278411865234375 51.48540496826171875 50.232692718505859375 48.62816619873046875 46.781726837158203125 44.79589080810546875 43.253017425537109375 41.6820220947265625 
30.5540618896484375 31.132976531982421875 31.633092880249023438 32.311931610107421875 33.00424957275390625 33.60659027099609375 34.0996246337890625 34.465972900390625 34.69178009033203125 34.7680816650390625 34.7680816650390625 34.69178009033203125 34.7680816650390625 34.7680816650390625 34.7680816650390625 34.7680816650390625 34.7680816650390625 34.7680816650390625 34.7680816650390625 34.69178009033203125 34.465972900390625 35.107486724853515625 36.866481781005859375 38.75421142578125 40.914409637451171875 43.274074554443359375 45.752178192138671875 48.3008575439453125 51.7170257568359375 56.222606658935546875 61.311740875244140625 66.96576690673828125 73.65911865234375 82.119598388671875 91.3296051025390625 100.3372650146484375 107.30309295654296875 121.807220458984375 135.4589691162109375 141.2225494384765625 141.2225494384765625 151.066497802734375 185.46624755859375 261.970550537109375 338.8245849609375 1001 1001 1001 1001 338.8245849609375 329.5323486328125 329.5323486328125 338.8245849609375 1001 1001 1001 338.8245849609375 338.8245849609375 1001 1001 1001 1001 1001 338.8245849609375 329.5323486328125 261.971435546875 185.4673614501953125 151.0676422119140625 123.526611328125 109.9875335693359375 109.9875335693359375 121.80809783935546875 135.4592742919921875 141.2225494384765625 141.2225494384765625 141.2225494384765625 141.2225494384765625 141.2225494384765625 141.2225494384765625 141.2225494384765625 135.4592742919921875 121.80809783935546875 109.9875335693359375 109.9875335693359375 109.9875335693359375 121.80809783935546875 139.40087890625 185.4673614501953125 261.971435546875 338.8245849609375 1001 1001 1001 338.8245849609375 261.970550537109375 197.55322265625 197.55322265625 181.72235107421875 151.066497802734375 123.525238037109375 106.31206512451171875 92.2958526611328125 82.119598388671875 73.65911865234375 66.2602691650390625 59.920623779296875 54.52063751220703125 49.9149932861328125 50.232730865478515625 51.485424041748046875 52.285442352294921875 52.56084442138671875 52.285442352294921875 52.56084442138671875 52.56084442138671875 52.56084442138671875 52.285442352294921875 51.485424041748046875 50.232730865478515625 48.628231048583984375 46.84841156005859375 45.90833282470703125 44.68567657470703125 43.25308990478515625 41.6821136474609375 40.176120758056640625 38.917835235595703125 
28.9702911376953125 29.458677291870117188 29.911527633666992188 30.554098129272460938 31.133001327514648438 31.63311004638671875 32.03997039794921875 32.34082794189453125 32.52564239501953125 32.587985992431640625 32.587985992431640625 32.52564239501953125 32.587985992431640625 32.587985992431640625 32.587985992431640625 32.587985992431640625 32.587985992431640625 32.587985992431640625 32.587985992431640625 32.52564239501953125 32.34082794189453125 33.56325531005859375 35.107635498046875 36.8666534423828125 38.754375457763671875 40.727264404296875 42.756290435791015625 45.474315643310546875 48.8311920166015625 52.53989410400390625 56.58267974853515625 61.312046051025390625 66.96604156494140625 73.04363250732421875 79.18415069580078125 84.714569091796875 91.32987213134765625 100.33742523193359375 107.30313873291015625 109.9875335693359375 109.9875335693359375 123.5259246826171875 151.0670623779296875 185.4673614501953125 261.971435546875 329.5323486328125 338.82672119140625 1001 1001 1001 1001 1001 1001 1001 338.82672119140625 1001 1001 1001 1001 338.82672119140625 338.82672119140625 1001 1001 1001 1001 338.82672119140625 261.9722900390625 185.468475341796875 151.0682220458984375 141.2225494384765625 141.2225494384765625 151.0682220458984375 181.72314453125 197.55322265625 197.55322265625 197.55322265625 197.55322265625 197.55322265625 197.55322265625 197.55322265625 181.72314453125 151.0682220458984375 141.2225494384765625 141.2225494384765625 141.2225494384765625 151.0682220458984375 181.72314453125 204.2439727783203125 338.82672119140625 1001 1001 338.82672119140625 329.5323486328125 261.971435546875 185.4673614501953125 151.0670623779296875 141.2225494384765625 135.459075927734375 121.8075103759765625 106.31249237060546875 92.2963409423828125 82.11993408203125 73.6595001220703125 66.96604156494140625 61.312046051025390625 56.22292327880859375 51.71734619140625 47.75643157958984375 45.90836334228515625 46.84842681884765625 47.442104339599609375 47.645267486572265625 47.442104339599609375 47.645267486572265625 47.645267486572265625 47.645267486572265625 47.442104339599609375 46.84842681884765625 45.90836334228515625 44.68572998046875 43.2531585693359375 42.256504058837890625 41.305873870849609375 40.176177978515625 38.917911529541015625 37.57816314697265625 36.460628509521484375 
27.537900924682617188 27.9532928466796875 28.42461395263671875 28.9703216552734375 29.458700180053710938 29.878091812133789062 30.217555999755859375 30.467571258544921875 30.6207275390625 30.672319412231445312 30.672319412231445312 30.6207275390625 30.672319412231445312 30.672319412231445312 30.672319412231445312 30.672319412231445312 30.672319412231445312 30.672319412231445312 30.672319412231445312 30.6207275390625 30.816617965698242188 32.103450775146484375 33.563411712646484375 35.107784271240234375 36.7154083251953125 38.36768341064453125 40.5767974853515625 43.170108795166015625 45.99033355712890625 49.0237274169921875 52.540149688720703125 56.582920074462890625 60.886478424072265625 65.28684234619140625 69.492919921875 73.07508087158203125 79.18431854248046875 84.71466064453125 88.677093505859375 90.132904052734375 92.2968292236328125 106.31291961669921875 123.526611328125 151.0676422119140625 181.7228851318359375 197.55322265625 261.9722900390625 329.5323486328125 329.5323486328125 329.5323486328125 329.5323486328125 329.5323486328125 329.5323486328125 329.5323486328125 261.9722900390625 329.5323486328125 338.828826904296875 1001 1001 338.828826904296875 261.9722900390625 329.5323486328125 329.5323486328125 338.828826904296875 1001 1001 338.828826904296875 261.973175048828125 197.55322265625 197.55322265625 197.55322265625 197.55322265625 261.973175048828125 329.5323486328125 329.5323486328125 329.5323486328125 329.5323486328125 329.5323486328125 329.5323486328125 329.5323486328125 261.973175048828125 197.55322265625 197.55322265625 197.55322265625 197.55322265625 197.55322265625 261.973175048828125 329.5323486328125 338.828826904296875 1001 338.828826904296875 261.9722900390625 197.55322265625 181.7228851318359375 151.0676422119140625 123.526611328125 109.9875335693359375 107.30318450927734375 100.33758544921875 91.33013153076171875 82.12027740478515625 73.65987396240234375 66.9663238525390625 61.312351226806640625 56.582920074462890625 52.540149688720703125 48.831462860107421875 45.47458648681640625 42.457118988037109375 42.9788970947265625 43.431255340576171875 43.585369110107421875 43.431255340576171875 43.585369110107421875 43.585369110107421875 43.585369110107421875 43.431255340576171875 43.431285858154296875 43.585369110107421875 43.585369110107421875 43.431285858154296875 42.979022979736328125 42.2567901611328125 41.3063507080078125 40.176860809326171875 39.137279510498046875 38.385082244873046875 
26.237592697143554688 26.593561172485351562 27.071136474609375 27.53792572021484375 27.953310012817382812 28.308218002319335938 28.594259262084960938 28.804220199584960938 28.932542800903320312 28.975717544555664062 28.975717544555664062 28.932542800903320312 28.975717544555664062 28.975717544555664062 28.975717544555664062 28.975717544555664062 28.975717544555664062 28.975717544555664062 28.975717544555664062 28.932542800903320312 29.585973739624023438 30.816761016845703125 32.103588104248046875 33.438655853271484375 34.809505462646484375 36.637920379638671875 38.6993560791015625 40.9149932861328125 43.274627685546875 45.990558624267578125 49.023937225341796875 52.22867584228515625 55.52017974853515625 58.7553253173828125 61.723033905029296875 65.28701019287109375 69.49303436279296875 73.07514190673828125 75.52283477783203125 76.39748382568359375 82.12061309814453125 92.2973175048828125 106.31334686279296875 121.80809783935546875 135.4592742919921875 151.0682220458984375 181.72314453125 197.55322265625 197.55322265625 197.55322265625 197.55322265625 197.55322265625 197.55322265625 197.55322265625 181.72314453125 197.55322265625 261.973175048828125 329.5323486328125 329.5323486328125 261.973175048828125 185.4696044921875 197.55322265625 197.55322265625 261.973175048828125 338.8309326171875 1001 1001 338.8309326171875 329.5323486328125 329.5323486328125 329.5323486328125 329.5323486328125 338.8309326171875 1001 1001 1001 1001 1001 1001 1001 338.8309326171875 329.5323486328125 329.5323486328125 329.5323486328125 329.5323486328125 329.5323486328125 338.8309326171875 1001 1001 1001 338.8309326171875 204.247039794921875 151.0682220458984375 135.4592742919921875 121.80809783935546875 106.31334686279296875 92.2973175048828125 88.6771240234375 84.714752197265625 79.18448638916015625 73.044097900390625 66.96660614013671875 61.312656402587890625 56.583156585693359375 52.540409088134765625 49.023937225341796875 45.990558624267578125 43.170337677001953125 40.57703399658203125 40.0559844970703125 40.1756134033203125 40.17691802978515625 41.683307647705078125 43.25402069091796875 44.686336517333984375 45.9087371826171875 46.848602294921875 47.442150115966796875 47.645267486572265625 47.645267486572265625 47.442150115966796875 46.848602294921875 45.9087371826171875 44.686336517333984375 43.25402069091796875 42.25681304931640625 41.306392669677734375 
25.052938461303710938 25.395046234130859375 25.835638046264648438 26.237613677978515625 26.593578338623046875 26.896402359008789062 27.139581680297851562 27.31757354736328125 27.426145553588867188 27.46263885498046875 27.46263885498046875 27.426145553588867188 27.46263885498046875 27.46263885498046875 27.46263885498046875 27.46263885498046875 27.46263885498046875 27.46263885498046875 27.46263885498046875 27.451602935791015625 28.497072219848632812 29.58577728271484375 30.71210479736328125 31.867401123046875 33.40438079833984375 35.08116912841796875 36.867176055908203125 38.7548675537109375 40.915187835693359375 43.274810791015625 45.75284576416015625 48.301441192626953125 50.84302520751953125 53.26471710205078125 55.520336151123046875 58.755443572998046875 61.723110198974609375 64.15424346923828125 65.764617919921875 66.96688079833984375 73.6606292724609375 82.12094879150390625 91.33066558837890625 100.33789825439453125 107.30328369140625 121.80838775634765625 135.459381103515625 141.2225494384765625 141.2225494384765625 141.2225494384765625 141.2225494384765625 141.2225494384765625 141.2225494384765625 141.2225494384765625 135.459381103515625 151.0688018798828125 181.7234039306640625 197.55322265625 197.55322265625 181.7234039306640625 151.0688018798828125 141.2225494384765625 151.0688018798828125 204.2485809326171875 338.83306884765625 1001 1001 338.83306884765625 1001 1001 1001 1001 1001 1001 338.83306884765625 329.5323486328125 329.5323486328125 329.5323486328125 338.83306884765625 1001 1001 1001 1001 1001 1001 1001 1001 1001 338.83306884765625 329.5323486328125 261.97406005859375 185.4707183837890625 139.403900146484375 110.86322021484375 100.33789825439453125 91.33066558837890625 82.12094879150390625 75.52285003662109375 73.07520294189453125 69.4931488037109375 65.28717803955078125 60.88689422607421875 56.58339691162109375 52.5406646728515625 49.024143218994140625 45.990779876708984375 43.274810791015625 42.256839752197265625 42.979045867919921875 43.431293487548828125 43.585369110107421875 43.585369110107421875 44.7975006103515625 46.783008575439453125 48.62908935546875 50.233264923095703125 51.485683441162109375 52.2855072021484375 52.56084442138671875 52.56084442138671875 52.2855072021484375 51.485683441162109375 50.233264923095703125 48.62908935546875 46.8486175537109375 45.9087677001953125 44.686389923095703125 
23.969936370849609375 24.321043014526367188 24.704618453979492188 25.052957534790039062 25.360118865966796875 25.620458602905273438 25.828866958618164062 25.98104095458984375 26.073711395263671875 26.104833602905273438 26.104833602905273438 26.073711395263671875 26.104833602905273438 26.104833602905273438 26.104833602905273438 26.104833602905273438 26.104833602905273438 26.104833602905273438 26.104833602905273438 26.512035369873046875 27.445079803466796875 28.408023834228515625 29.395753860473632812 30.703990936279296875 32.093929290771484375 33.56388092041015625 35.1082305908203125 36.867351531982421875 38.755035400390625 40.727870941162109375 42.756832122802734375 44.796581268310546875 46.782276153564453125 48.62856292724609375 50.843143463134765625 53.264804840087890625 55.418926239013671875 57.1352996826171875 58.248226165771484375 61.313266754150390625 66.9671630859375 73.0445709228515625 79.1848297119140625 84.71494293212890625 91.3309326171875 100.3380584716796875 107.30333709716796875 109.9875335693359375 109.9875335693359375 109.9875335693359375 109.9875335693359375 109.9875335693359375 109.9875335693359375 109.9875335693359375 107.30333709716796875 121.80867767333984375 135.45947265625 141.2225494384765625 141.2225494384765625 135.45947265625 121.80867767333984375 110.8640899658203125 139.4049072265625 185.4718475341796875 261.97491455078125 338.835174560546875 1001 1001 1001 338.835174560546875 338.835174560546875 1001 1001 338.835174560546875 261.97491455078125 197.55322265625 197.55322265625 197.55322265625 261.97491455078125 329.5323486328125 329.5323486328125 329.5323486328125 329.5323486328125 329.5323486328125 329.5323486328125 329.5323486328125 329.5323486328125 329.5323486328125 261.97491455078125 197.55322265625 181.723663330078125 151.0693817138671875 123.5286712646484375 102.60747528076171875 87.06938934326171875 79.1848297119140625 73.0445709228515625 66.9671630859375 64.1542816162109375 61.7231903076171875 58.75556182861328125 55.5204925537109375 52.229045867919921875 49.024349212646484375 45.991001129150390625 43.585369110107421875 44.68643951416015625 45.9087982177734375 46.8486328125 47.442157745361328125 47.645267486572265625 47.645267486572265625 48.629154205322265625 50.84409332275390625 53.265506744384765625 55.419376373291015625 57.135517120361328125 58.24828338623046875 58.634487152099609375 58.634487152099609375 58.24828338623046875 57.135517120361328125 55.419376373291015625 53.265506744384765625 51.4857025146484375 50.233306884765625 48.629154205322265625 
22.97662353515625 23.330629348754882812 23.66632843017578125 23.969953536987304688 24.236703872680664062 24.462062835693359375 24.641984939575195312 24.773088455200195312 24.852811813354492188 24.879568099975585938 24.879568099975585938 24.852811813354492188 24.879568099975585938 24.879568099975585938 24.879568099975585938 24.879568099975585938 24.879568099975585938 24.879568099975585938 24.879568099975585938 25.602672576904296875 26.435350418090820312 27.30731964111328125 28.415918350219726562 29.58641815185546875 30.817190170288085938 32.10399627685546875 33.564037322998046875 35.1083831787109375 36.71596527099609375 38.368190765380859375 40.03692626953125 41.682666778564453125 43.25351715087890625 44.796695709228515625 46.782367706298828125 48.628627777099609375 50.23297882080078125 51.48554229736328125 52.541179656982421875 56.58386993408203125 60.887310028076171875 65.287506103515625 69.49337005615234375 73.0753173828125 79.18499755859375 84.71503448486328125 88.6772003173828125 90.132904052734375 90.132904052734375 90.132904052734375 90.132904052734375 90.132904052734375 90.132904052734375 90.132904052734375 91.33119964599609375 100.33821868896484375 107.30338287353515625 109.9875335693359375 109.9875335693359375 107.30338287353515625 100.33821868896484375 102.608154296875 123.52935791015625 151.0699615478515625 185.47296142578125 261.975799560546875 329.5323486328125 329.5323486328125 329.5323486328125 261.975799560546875 261.975799560546875 338.837310791015625 1001 338.837310791015625 204.25164794921875 151.0699615478515625 141.2225494384765625 151.0699615478515625 181.7239227294921875 197.55322265625 197.55322265625 197.55322265625 197.55322265625 197.55322265625 197.55322265625 197.55322265625 197.55322265625 197.55322265625 181.7239227294921875 151.0699615478515625 135.4595794677734375 121.80896759033203125 106.31462860107421875 92.29877471923828125 80.616424560546875 71.11322784423828125 65.287506103515625 60.887310028076171875 57.135326385498046875 55.41898345947265625 53.264892578125 50.84326171875 48.301731109619140625 47.645267486572265625 47.645267486572265625 47.645267486572265625 48.629222869873046875 50.233348846435546875 51.485721588134765625 52.285518646240234375 52.56084442138671875 52.56084442138671875 53.265594482421875 55.521739959716796875 58.7565155029296875 61.723812103271484375 64.15459442138671875 65.76471710205078125 66.3300933837890625 66.3300933837890625 65.76471710205078125 64.15459442138671875 61.723812103271484375 58.7565155029296875 57.135547637939453125 55.419429779052734375 53.265594482421875 
22.0948944091796875 22.415285110473632812 22.710542678833007812 22.9766387939453125 23.209665298461914062 23.405981063842773438 23.562353134155273438 23.676088333129882812 23.745166778564453125 23.768335342407226562 23.768335342407226562 23.745166778564453125 23.768335342407226562 23.768335342407226562 23.768335342407226562 23.768335342407226562 23.768335342407226562 23.768335342407226562 24.000270843505859375 24.727418899536132812 25.501987457275390625 26.453031539916992188 27.452009201049804688 28.497467041015625 29.586565017700195312 30.817333221435546875 32.10413360595703125 33.439167022705078125 34.80997467041015625 36.19824981689453125 37.578704833984375 38.918354034423828125 40.176517486572265625 41.682758331298828125 43.253589630126953125 44.686031341552734375 45.908550262451171875 46.848514556884765625 49.0247650146484375 52.2294158935546875 55.520801544189453125 58.755802154541015625 61.723346710205078125 65.2876739501953125 69.4934844970703125 73.07537841796875 75.5229034423828125 76.39748382568359375 76.39748382568359375 76.39748382568359375 76.39748382568359375 76.39748382568359375 76.39748382568359375 76.39748382568359375 79.1851654052734375 84.71512603759765625 88.6772308349609375 90.132904052734375 90.132904052734375 88.6772308349609375 84.71512603759765625 92.29926300048828125 106.31505584716796875 123.5300445556640625 151.0705413818359375 181.72418212890625 197.55322265625 197.55322265625 197.55322265625 181.72418212890625 204.253173828125 338.83941650390625 1001 338.83941650390625 204.253173828125 151.0717010498046875 123.5314178466796875 121.80926513671875 135.459686279296875 141.2225494384765625 141.2225494384765625 141.2225494384765625 141.2225494384765625 141.2225494384765625 141.2225494384765625 141.2225494384765625 141.2225494384765625 141.2225494384765625 135.459686279296875 121.80926513671875 107.30342864990234375 100.33837127685546875 91.33145904541015625 82.1219635009765625 73.66175079345703125 66.26299285888671875 59.923336029052734375 55.520801544189453125 52.2294158935546875 50.233020782470703125 50.23339080810546875 51.48574066162109375 52.2855224609375 52.56084442138671875 52.56084442138671875 52.56084442138671875 53.265682220458984375 55.41948699951171875 57.1355743408203125 58.24829864501953125 58.634487152099609375 58.634487152099609375 58.756633758544921875 61.7238922119140625 65.288665771484375 69.49416351318359375 73.0757293701171875 75.52300262451171875 76.39748382568359375 76.39748382568359375 75.52300262451171875 73.0757293701171875 69.49416351318359375 65.7647247314453125 64.154632568359375 61.7238922119140625 58.756633758544921875 
21.283382415771484375 21.567462921142578125 21.828365325927734375 22.062757492065429688 22.2674407958984375 22.439455032348632812 22.576189041137695312 22.675487518310546875 22.7357330322265625 22.755926132202148438 22.755926132202148438 22.7357330322265625 22.755926132202148438 22.755926132202148438 22.755926132202148438 22.755926132202148438 22.755926132202148438 22.755926132202148438 23.234315872192382812 23.926382064819335938 24.750986099243164062 25.613412857055664062 26.512399673461914062 27.452146530151367188 28.497598648071289062 29.58628082275390625 30.712579727172851562 31.8678436279296875 33.03966522216796875 34.211200714111328125 35.3606414794921875 36.46105194091796875 37.57879638671875 38.918430328369140625 40.17657470703125 41.30615234375 42.256671905517578125 43.275543212890625 45.753513336181640625 48.302021026611328125 50.84349822998046875 53.26506805419921875 55.52095794677734375 58.75592041015625 61.723423004150390625 64.15439605712890625 65.7646636962890625 66.3300933837890625 66.3300933837890625 66.3300933837890625 66.3300933837890625 66.3300933837890625 66.3300933837890625 66.3300933837890625 69.49359893798828125 73.07543182373046875 75.522918701171875 76.39748382568359375 76.39748382568359375 75.522918701171875 73.66213226318359375 82.12230682373046875 92.29975128173828125 106.31548309326171875 121.8095550537109375 135.4597930908203125 141.2225494384765625 141.2225494384765625 141.2225494384765625 146.35089111328125 204.2547149658203125 338.841552734375 1001 338.841552734375 261.978424072265625 185.476318359375 139.408935546875 121.81043243408203125 109.9875335693359375 109.9875335693359375 109.9875335693359375 109.9875335693359375 109.9875335693359375 109.9875335693359375 109.9875335693359375 109.9875335693359375 109.9875335693359375 109.9875335693359375 107.3034820556640625 100.338531494140625 91.33172607421875 84.71521759033203125 79.18534088134765625 73.0452728271484375 66.9680023193359375 61.31418609619140625 56.225147247314453125 52.56084442138671875 52.56084442138671875 53.26576995849609375 55.4195404052734375 57.135601043701171875 58.2483062744140625 58.634487152099609375 58.634487152099609375 58.634487152099609375 58.75675201416015625 61.723968505859375 64.15467071533203125 65.76473236083984375 66.3300933837890625 66.3300933837890625 65.76473236083984375 69.4942779541015625 73.0757904052734375 79.186187744140625 84.7156829833984375 88.67739105224609375 90.132904052734375 90.132904052734375 88.67739105224609375 84.7156829833984375 79.186187744140625 75.52301788330078125 73.0757904052734375 69.4942779541015625 65.28882598876953125 
20.527587890625 20.780485153198242188 21.012042999267578125 21.21949005126953125 21.400190353393554688 21.551721572875976562 21.67195892333984375 21.759157180786132812 21.81201171875 21.82971954345703125 21.82971954345703125 21.81201171875 21.82971954345703125 21.82971954345703125 21.82971954345703125 21.82971954345703125 21.82971954345703125 21.9179229736328125 22.539630889892578125 23.261274337768554688 24.01325225830078125 24.79448699951171875 25.613536834716796875 26.512521743774414062 27.445547103881835938 28.408468246459960938 29.395090103149414062 30.396728515625 31.401763916015625 32.39528656005859375 33.35890960693359375 34.270900726318359375 35.360713958740234375 36.46111297607421875 37.480854034423828125 38.384922027587890625 39.13718414306640625 40.72847747802734375 42.757373809814453125 44.797039031982421875 46.782642364501953125 48.628826141357421875 50.843616485595703125 53.265155792236328125 55.41915130615234375 57.135410308837890625 58.248256683349609375 58.634487152099609375 58.634487152099609375 58.634487152099609375 58.634487152099609375 58.634487152099609375 58.634487152099609375 58.756038665771484375 61.72350311279296875 64.1544342041015625 65.76467132568359375 66.3300933837890625 66.3300933837890625 65.76467132568359375 66.96828460693359375 73.662506103515625 82.12264251708984375 91.33199310302734375 100.33869171142578125 107.30352783203125 109.9875335693359375 109.9875335693359375 114.124786376953125 146.3520660400390625 204.2562408447265625 338.843658447265625 1001 1001 338.843658447265625 204.2562408447265625 181.7252349853515625 151.0728607177734375 141.2225494384765625 141.2225494384765625 135.4601898193359375 121.81072235107421875 106.31719207763671875 92.30170440673828125 90.132904052734375 90.132904052734375 90.132904052734375 90.132904052734375 88.67728424072265625 84.7153167724609375 79.18550872802734375 73.07549285888671875 69.49371337890625 65.28800201416015625 60.88793182373046875 57.13562774658203125 58.24831390380859375 58.634487152099609375 58.634487152099609375 58.756870269775390625 61.724048614501953125 64.1547088623046875 65.76474761962890625 66.3300933837890625 66.3300933837890625 66.3300933837890625 66.3300933837890625 69.494384765625 73.07584381103515625 75.52303314208984375 76.39748382568359375 76.39748382568359375 75.52303314208984375 79.1863555908203125 84.71578216552734375 91.3330535888671875 100.339324951171875 107.3037261962890625 109.9875335693359375 109.9875335693359375 107.3037261962890625 100.339324951171875 91.3330535888671875 88.6774139404296875 84.71578216552734375 79.1863555908203125 73.07584381103515625 
19.822450637817382812 20.048444747924804688 20.2548065185546875 20.439222335815429688 20.599504470825195312 20.733655929565429688 20.839935302734375 20.9169158935546875 20.963541030883789062 20.979154586791992188 20.979154586791992188 20.963541030883789062 20.979154586791992188 20.979154586791992188 20.979154586791992188 20.979154586791992188 20.979154586791992188 21.30994415283203125 21.946664810180664062 22.608060836791992188 23.293224334716796875 24.013368606567382812 24.794599533081054688 25.603109359741210938 26.435764312744140625 27.288021087646484375 28.153621673583984375 29.02431488037109375 29.889606475830078125 30.736600875854492188 31.550001144409179688 32.395359039306640625 33.358974456787109375 34.2709503173828125 35.10675048828125 35.840145111083984375 36.716522216796875 38.368694305419921875 40.0373687744140625 41.683032989501953125 43.253803253173828125 44.79715728759765625 46.782733917236328125 48.6288909912109375 50.233142852783203125 51.485622406005859375 52.285491943359375 52.56084442138671875 52.56084442138671875 52.56084442138671875 52.56084442138671875 52.56084442138671875 52.56084442138671875 53.2652435302734375 55.419208526611328125 57.13543701171875 58.248264312744140625 58.634487152099609375 58.634487152099609375 58.248264312744140625 61.31479644775390625 66.96855926513671875 73.04573822021484375 79.18567657470703125 84.7154083251953125 88.67730712890625 90.132904052734375 91.82187652587890625 110.8684234619140625 139.409942626953125 185.477447509765625 261.97930908203125 338.845794677734375 1001 338.845794677734375 329.5323486328125 261.98016357421875 197.55322265625 197.55322265625 197.55322265625 181.725494384765625 151.0734405517578125 123.533477783203125 102.6122283935546875 87.0738372802734375 76.39748382568359375 76.39748382568359375 76.39748382568359375 75.52294921875 73.07555389404296875 69.4938201904296875 65.28816986083984375 61.72357940673828125 58.756992340087890625 61.724124908447265625 64.154754638671875 65.7647552490234375 66.3300933837890625 66.3300933837890625 66.3300933837890625 69.49449920654296875 73.07590484619140625 75.52304840087890625 76.39748382568359375 76.39748382568359375 76.39748382568359375 76.39748382568359375 79.18653106689453125 84.71587371826171875 88.6774444580078125 90.132904052734375 90.132904052734375 88.6774444580078125 91.33332061767578125 100.33948516845703125 107.30377197265625 121.81101226806640625 135.460296630859375 141.2225494384765625 141.2225494384765625 135.460296630859375 121.81101226806640625 109.9875335693359375 107.30377197265625 100.33948516845703125 91.33332061767578125 84.71587371826171875 
19.163427352905273438 19.366109848022460938 19.5507354736328125 19.715358734130859375 19.858156204223632812 19.977468490600585938 20.071859359741210938 20.140155792236328125 20.181491851806640625 20.195329666137695312 20.195329666137695312 20.181491851806640625 20.195329666137695312 20.195329666137695312 20.195329666137695312 20.195329666137695312 20.212236404418945312 20.778110504150390625 21.364315032958984375 21.970079421997070312 22.6081695556640625 23.293331146240234375 24.00067901611328125 24.727807998657226562 25.471309661865234375 26.2265625 26.987560272216796875 27.746725082397460938 28.494787216186523438 29.220746994018554688 29.911970138549804688 30.736663818359375 31.550052642822265625 32.312389373779296875 33.00458526611328125 33.606822967529296875 34.81044769287109375 36.19866943359375 37.579067230224609375 38.918651580810546875 40.176746368408203125 41.683124542236328125 43.253875732421875 44.686237335205078125 45.908672332763671875 46.84857177734375 47.442142486572265625 47.645267486572265625 47.645267486572265625 47.645267486572265625 47.645267486572265625 47.645267486572265625 47.645267486572265625 48.628955841064453125 50.233184814453125 51.4856414794921875 52.28549957275390625 52.56084442138671875 52.56084442138671875 52.542469024658203125 56.585063934326171875 60.888347625732421875 65.288330078125 69.49393463134765625 73.0756072998046875 75.5229644775390625 76.39748382568359375 87.0731964111328125 102.61154937744140625 123.5327911376953125 151.0728607177734375 204.2593231201171875 338.847900390625 1001 1001 1001 338.847900390625 329.5323486328125 329.5323486328125 329.5323486328125 261.981048583984375 185.4796905517578125 139.4119720458984375 110.8701629638671875 92.30268096923828125 84.71596527099609375 79.18669891357421875 73.047149658203125 66.97023773193359375 64.15451812744140625 61.72365570068359375 58.756275177001953125 60.88959503173828125 65.2893218994140625 69.4946136474609375 73.07596588134765625 75.52306365966796875 76.39748382568359375 76.39748382568359375 76.39748382568359375 79.18669891357421875 84.71596527099609375 88.67746734619140625 90.132904052734375 90.132904052734375 90.132904052734375 90.132904052734375 91.333587646484375 100.3396453857421875 107.30382537841796875 109.9875335693359375 109.9875335693359375 107.30382537841796875 107.30382537841796875 121.811309814453125 135.4604034423828125 151.0740203857421875 181.72576904296875 197.55322265625 197.55322265625 181.72576904296875 151.0740203857421875 141.2225494384765625 135.4604034423828125 121.811309814453125 107.30382537841796875 100.3396453857421875 
18.54645538330078125 18.728853225708007812 18.894634246826171875 19.042161941528320312 19.169902801513671875 19.2764739990234375 19.36067962646484375 19.42154693603515625 19.458362579345703125 19.470684051513671875 19.470684051513671875 19.458362579345703125 19.470684051513671875 19.470684051513671875 19.470684051513671875 19.470684051513671875 19.732635498046875 20.255746841430664062 20.795139312744140625 21.36441802978515625 21.970178604125976562 22.594226837158203125 23.234683990478515625 23.888936996459960938 24.5535125732421875 25.223932266235351562 25.894603729248046875 26.558717727661132812 27.2082061767578125 27.833768844604492188 28.49485015869140625 29.220800399780273438 29.912015914916992188 30.55448150634765625 31.133283615112304688 31.868284225463867188 33.040065765380859375 34.211551666259765625 35.36093902587890625 36.461292266845703125 37.579158782958984375 38.918727874755859375 40.1768035888671875 41.30631256103515625 42.25676727294921875 42.97901153564453125 43.43128204345703125 43.585369110107421875 43.585369110107421875 43.585369110107421875 43.585369110107421875 43.585369110107421875 43.585369110107421875 44.68628692626953125 45.908702850341796875 46.8485870361328125 47.44214630126953125 47.645267486572265625 47.645267486572265625 49.0258026123046875 52.2303466796875 55.52158355712890625 58.756397247314453125 61.723735809326171875 64.1545562744140625 65.76470184326171875 71.11614227294921875 80.61942291259765625 92.30170440673828125 110.8701629638671875 139.4119720458984375 185.4796905517578125 261.981048583984375 329.5323486328125 338.850006103515625 1001 1001 1001 1001 1001 338.850006103515625 204.2608489990234375 151.0746002197265625 123.53485107421875 107.30387115478515625 100.3397979736328125 91.3338470458984375 82.1250152587890625 73.6651458740234375 69.49472808837890625 66.3300933837890625 66.3300933837890625 66.97052001953125 73.04738616943359375 79.18686676025390625 84.71605682373046875 88.67749786376953125 90.132904052734375 90.132904052734375 90.132904052734375 91.3338470458984375 100.3397979736328125 107.30387115478515625 109.9875335693359375 109.9875335693359375 109.9875335693359375 109.9875335693359375 109.9875335693359375 121.8115997314453125 135.4604949951171875 141.2225494384765625 141.2225494384765625 135.4604949951171875 135.4604949951171875 151.0746002197265625 181.7260284423828125 197.55322265625 261.98193359375 329.5323486328125 329.5323486328125 261.98193359375 197.55322265625 197.55322265625 181.7260284423828125 151.0746002197265625 135.4604949951171875 121.8115997314453125 
17.967884063720703125 18.132558822631835938 18.281934738159179688 18.414625167846679688 18.52933502197265625 18.624904632568359375 18.700334548950195312 18.754812240600585938 18.78774261474609375 18.798761367797851562 18.798761367797851562 18.78774261474609375 18.798761367797851562 18.798761367797851562 18.798761367797851562 18.798761367797851562 19.261480331420898438 19.74483489990234375 20.255842208862304688 20.795232772827148438 21.349872589111328125 21.918272018432617188 22.498399734497070312 23.087587356567382812 23.682439804077148438 24.278745651245117188 24.87140655517578125 25.4543914794921875 26.020740509033203125 26.562620162963867188 27.208261489868164062 27.833814620971679688 28.425029754638671875 28.970645904541015625 29.458936691284179688 30.397108078002929688 31.402105331420898438 32.3955841064453125 33.359161376953125 34.271099090576171875 35.36101531982421875 36.461353302001953125 37.481037139892578125 38.385051727294921875 39.13726043701171875 39.7036285400390625 40.055980682373046875 40.1756134033203125 40.1756134033203125 40.1756134033203125 40.1756134033203125 40.1756134033203125 40.176860809326171875 41.3063507080078125 42.2567901611328125 42.979022979736328125 43.431285858154296875 43.585369110107421875 43.585369110107421875 45.754352569580078125 48.3027496337890625 50.84409332275390625 53.265506744384765625 55.419376373291015625 57.135517120361328125 59.9256591796875 66.2942962646484375 75.35184478759765625 87.07447052001953125 102.6129150390625 123.5341644287109375 151.0740203857421875 181.72576904296875 197.55322265625 261.98193359375 338.852142333984375 1001 1001 338.852142333984375 1001 338.852142333984375 261.982818603515625 185.48193359375 151.0751800537109375 135.460601806640625 121.8118896484375 106.31890106201171875 92.30365753173828125 84.716156005859375 79.18703460693359375 76.39748382568359375 76.39748382568359375 76.39748382568359375 82.1253509521484375 91.33411407470703125 100.33995819091796875 107.303924560546875 109.9875335693359375 109.9875335693359375 109.9875335693359375 109.9875335693359375 121.8118896484375 135.460601806640625 141.2225494384765625 141.2225494384765625 141.2225494384765625 141.2225494384765625 141.2225494384765625 151.0751800537109375 181.726287841796875 197.55322265625 197.55322265625 181.726287841796875 181.726287841796875 197.55322265625 261.982818603515625 329.5323486328125 338.852142333984375 1001 1001 338.852142333984375 329.5323486328125 329.5323486328125 261.982818603515625 197.55322265625 181.726287841796875 151.0751800537109375 
17.424444198608398438 17.573574066162109375 17.708608627319335938 17.828363418579101562 17.931741714477539062 18.017765045166015625 18.085592269897460938 18.134540557861328125 18.16411590576171875 18.174007415771484375 18.174007415771484375 18.16411590576171875 18.174007415771484375 18.174007415771484375 18.174007415771484375 18.3647308349609375 18.800336837768554688 19.261571884155273438 19.744922637939453125 20.241119384765625 20.748968124389648438 21.266864776611328125 21.792728424072265625 22.32393646240234375 22.857267379760742188 23.38883209228515625 23.914051055908203125 24.427633285522460938 24.923608779907226562 25.454446792602539062 26.020788192749023438 26.56266021728515625 27.071493148803710938 27.538202285766601562 28.15398406982421875 29.024644851684570312 29.88990020751953125 30.736852645874023438 31.550210952758789062 32.395656585693359375 33.359222412109375 34.271148681640625 35.106903076171875 35.84024810791015625 36.444950103759765625 36.896938323974609375 37.1766815185546875 37.2714080810546875 37.2714080810546875 37.2714080810546875 37.2714080810546875 37.2714080810546875 37.481082916259765625 38.385082244873046875 39.137279510498046875 39.703639984130859375 40.055980682373046875 40.1756134033203125 40.72924041748046875 42.75804901123046875 44.79761505126953125 46.783100128173828125 48.629154205322265625 50.233306884765625 51.82781219482421875 57.06844329833984375 63.394588470458984375 71.1171112060546875 80.62041473388671875 92.30268096923828125 106.31804656982421875 121.811309814453125 135.4604034423828125 151.0746002197265625 185.48193359375 261.982818603515625 329.5323486328125 329.5323486328125 338.854248046875 1001 1001 338.854248046875 261.983673095703125 197.55322265625 181.7265472412109375 151.0757598876953125 123.536224365234375 107.3039703369140625 100.340118408203125 91.334381103515625 90.132904052734375 90.132904052734375 90.132904052734375 92.30414581298828125 106.31932830810546875 121.8121795654296875 135.4607086181640625 141.2225494384765625 141.2225494384765625 141.2225494384765625 141.2225494384765625 151.0757598876953125 181.7265472412109375 197.55322265625 197.55322265625 197.55322265625 197.55322265625 197.55322265625 197.55322265625 261.983673095703125 329.5323486328125 329.5323486328125 261.983673095703125 261.983673095703125 329.5323486328125 338.854248046875 1001 1001 1001 1001 1001 1001 1001 338.854248046875 329.5323486328125 261.983673095703125 185.4830474853515625 
16.91320037841796875 17.04864501953125 17.17108917236328125 17.27951812744140625 17.372999191284179688 17.450700759887695312 17.51190948486328125 17.55605316162109375 17.582712173461914062 17.591625213623046875 17.591625213623046875 17.582712173461914062 17.591625213623046875 17.591625213623046875 17.591625213623046875 17.946432113647460938 18.364816665649414062 18.800420761108398438 19.2469482421875 19.703428268432617188 20.168577194213867188 20.640748977661132812 21.117893218994140625 21.59749603271484375 22.076555252075195312 22.551532745361328125 23.018352508544921875 23.472406387329101562 23.914104461669921875 24.42768096923828125 24.923648834228515625 25.395425796508789062 25.83594512939453125 26.237852096557617188 26.987878799438476562 27.747011184692382812 28.495038986206054688 29.2209625244140625 29.91214752197265625 30.73691558837890625 31.550262451171875 32.312557220458984375 33.004711151123046875 33.606903076171875 34.0998077392578125 34.46605682373046875 34.691799163818359375 34.7680816650390625 34.7680816650390625 34.7680816650390625 34.7680816650390625 34.7680816650390625 35.106937408447265625 35.840274810791015625 36.444965362548828125 36.896945953369140625 37.1766815185546875 37.2714080810546875 38.369327545166015625 40.0379180908203125 41.68349456787109375 43.254161834716796875 44.68643951416015625 45.97308349609375 49.92043304443359375 54.526294708251953125 59.9264373779296875 66.26611328125 73.664764404296875 82.12467193603515625 91.333587646484375 100.3396453857421875 107.30382537841796875 123.5355377197265625 151.0751800537109375 181.726287841796875 197.55322265625 197.55322265625 261.983673095703125 338.85638427734375 1001 1001 338.85638427734375 329.5323486328125 261.98455810546875 185.4841766357421875 141.2225494384765625 135.4608154296875 121.81247711181640625 109.9875335693359375 109.9875335693359375 109.9875335693359375 109.9875335693359375 109.9875335693359375 123.5369110107421875 151.0763397216796875 181.726806640625 197.55322265625 197.55322265625 197.55322265625 197.55322265625 197.55322265625 261.98455810546875 329.5323486328125 329.5323486328125 329.5323486328125 329.5323486328125 329.5323486328125 329.5323486328125 338.85638427734375 1001 1001 338.85638427734375 338.85638427734375 1001 1001 1001 338.85638427734375 329.5323486328125 338.85638427734375 1001 338.85638427734375 1001 1001 1001 338.85638427734375 204.2654571533203125 
16.43151092529296875 16.554866790771484375 16.666217803955078125 16.764692306518554688 16.849489212036132812 16.919902801513671875 16.9753265380859375 17.015272140502929688 17.039384841918945312 17.04744720458984375 17.04744720458984375 17.039384841918945312 17.04744720458984375 17.04744720458984375 17.170682907104492188 17.55191802978515625 17.94651031494140625 18.350469589233398438 18.762994766235351562 19.183050155639648438 19.609317779541015625 20.040164947509765625 20.473613739013671875 20.907304763793945312 21.338472366333007812 21.763933181762695312 22.180084228515625 22.582918167114257812 23.018402099609375 23.472448348999023438 23.908617019653320312 24.321374893188476562 24.70488739013671875 25.224237442016601562 25.8948822021484375 26.55896759033203125 27.208425521850585938 27.833953857421875 28.4951019287109375 29.22101593017578125 29.91219329833984375 30.554620742797851562 31.133386611938476562 31.633367538452148438 32.04012298583984375 32.3408966064453125 32.525661468505859375 32.587985992431640625 32.587985992431640625 32.587985992431640625 32.587985992431640625 32.587985992431640625 33.004741668701171875 33.60692596435546875 34.099822998046875 34.466064453125 34.691802978515625 34.811038970947265625 36.19919586181640625 37.57952117919921875 38.919025421142578125 40.177028656005859375 41.3064727783203125 44.2845611572265625 47.761173248291015625 51.722148895263671875 56.227691650390625 61.3166351318359375 66.97023773193359375 73.047149658203125 79.18669891357421875 84.71596527099609375 92.30365753173828125 106.31890106201171875 121.8118896484375 135.460601806640625 141.2225494384765625 151.0757598876953125 185.4841766357421875 261.98455810546875 338.8585205078125 1001 1001 1001 338.8585205078125 204.266998291015625 197.55322265625 181.727081298828125 151.076904296875 141.2225494384765625 141.2225494384765625 141.2225494384765625 141.2225494384765625 141.2225494384765625 151.076904296875 185.48529052734375 261.985443115234375 329.5323486328125 329.5323486328125 329.5323486328125 329.5323486328125 329.5323486328125 338.8585205078125 1001 1001 1001 1001 1001 1001 1001 1001 1001 1001 1001 1001 338.8585205078125 329.5323486328125 261.98455810546875 197.55322265625 261.98455810546875 329.5323486328125 261.98455810546875 329.5323486328125 338.8585205078125 1001 338.8585205078125 261.985443115234375 
15.977001190185546875 16.089643478393554688 16.19118499755859375 16.280874252319335938 16.35802459716796875 16.422029495239257812 16.472372055053710938 16.508634567260742188 16.530515670776367188 16.537830352783203125 16.537830352783203125 16.530515670776367188 16.537830352783203125 16.537830352783203125 16.811649322509765625 17.170759201049804688 17.53795623779296875 17.912584304809570312 18.293788909912109375 18.680505752563476562 19.071424484252929688 19.464962005615234375 19.859243392944335938 20.252080917358398438 20.640956878662109375 21.023021697998046875 21.39510345458984375 21.763980865478515625 22.180128097534179688 22.582956314086914062 22.968105316162109375 23.330921173095703125 23.682733535766601562 24.279016494750976562 24.871652603149414062 25.454610824584960938 26.020931243896484375 26.562780380249023438 27.208478927612304688 27.8339996337890625 28.425180435180664062 28.970762252807617188 29.45902252197265625 29.878309249877929688 30.217681884765625 30.46762847900390625 30.6207427978515625 30.672319412231445312 30.672319412231445312 30.672319412231445312 30.672319412231445312 30.672319412231445312 31.133411407470703125 31.63338470458984375 32.040130615234375 32.340900421142578125 32.525661468505859375 33.04056549072265625 34.211994171142578125 35.361316680908203125 36.461597442626953125 37.481220245361328125 39.75643157958984375 42.461177825927734375 45.478656768798828125 48.835475921630859375 52.54401397705078125 56.58649444580078125 60.88959503173828125 65.2893218994140625 69.4946136474609375 73.66551971435546875 82.1253509521484375 91.33411407470703125 100.33995819091796875 107.303924560546875 109.9875335693359375 123.5369110107421875 151.0763397216796875 185.48529052734375 261.985443115234375 329.5323486328125 338.860626220703125 1001 338.860626220703125 329.5323486328125 329.5323486328125 261.986297607421875 197.55322265625 197.55322265625 197.55322265625 197.55322265625 197.55322265625 197.55322265625 185.486419677734375 261.986297607421875 338.860626220703125 1001 1001 1001 1001 1001 1001 1001 338.860626220703125 329.5323486328125 329.5323486328125 329.5323486328125 329.5323486328125 329.5323486328125 329.5323486328125 329.5323486328125 329.5323486328125 329.5323486328125 329.5323486328125 261.985443115234375 197.55322265625 181.726806640625 151.0763397216796875 181.726806640625 197.55322265625 181.726806640625 204.268524169921875 338.860626220703125 1001 1001 338.860626220703125 
15.547532081604003906 15.650646209716796875 15.743483543395996094 15.825392723083496094 15.895783424377441406 15.954132080078125 15.999993324279785156 16.03301239013671875 16.052928924560546875 16.0595855712890625 16.0595855712890625 16.052928924560546875 16.0595855712890625 16.13470458984375 16.462907791137695312 16.798143386840820312 17.139862060546875 17.487361907958984375 17.8397674560546875 18.196016311645507812 18.554830551147460938 18.914701461791992188 19.273876190185546875 19.630342483520507812 19.981824874877929688 20.325786590576171875 20.659442901611328125 21.02306365966796875 21.3951416015625 21.753763198852539062 22.095205307006835938 22.4155426025390625 22.8575286865234375 23.389072418212890625 23.91426849365234375 24.427825927734375 24.92377471923828125 25.454664230346679688 26.020978927612304688 26.5628204345703125 27.071622848510742188 27.538303375244140625 27.953584671020507812 28.308401107788085938 28.594364166259765625 28.80426788330078125 28.93255615234375 28.975717544555664062 28.975717544555664062 28.975717544555664062 28.975717544555664062 28.975717544555664062 29.45904541015625 29.878322601318359375 30.217691421508789062 30.467632293701171875 30.6207427978515625 31.402532577514648438 32.395954132080078125 33.35947418212890625 34.271350860595703125 36.053279876708984375 38.211116790771484375 40.58055877685546875 43.173801422119140625 45.99388885498046875 49.02704620361328125 52.2314605712890625 55.522518157958984375 58.757110595703125 61.72420501708984375 66.97080230712890625 73.0476226806640625 79.18703460693359375 84.716156005859375 88.67752838134765625 92.30463409423828125 106.31975555419921875 123.53759765625 151.076904296875 181.727081298828125 204.2700653076171875 338.862762451171875 1001 1001 1001 1001 338.862762451171875 329.5323486328125 329.5323486328125 329.5323486328125 329.5323486328125 329.5323486328125 329.5323486328125 261.9871826171875 338.862762451171875 1001 1001 1001 1001 338.862762451171875 329.5323486328125 329.5323486328125 329.5323486328125 261.986297607421875 197.55322265625 197.55322265625 197.55322265625 197.55322265625 197.55322265625 197.55322265625 197.55322265625 197.55322265625 197.55322265625 197.55322265625 181.727081298828125 151.076904296875 135.4608154296875 121.81247711181640625 135.4608154296875 141.2225494384765625 139.4180145263671875 185.486419677734375 261.986297607421875 338.862762451171875 1001 338.862762451171875 
15.141168594360351562 15.235784530639648438 15.320874214172363281 15.395871162414550781 15.460264205932617188 15.513600349426269531 15.5554962158203125 15.585645675659179688 15.603826522827148438 15.60990142822265625 15.60990142822265625 15.603826522827148438 15.60990142822265625 15.814415931701660156 16.121686935424804688 16.434650421142578125 16.752719879150390625 17.07517242431640625 17.401134490966796875 17.729566574096679688 18.059240341186523438 18.388738632202148438 18.716434478759765625 19.040493011474609375 19.358865737915039062 19.669301986694335938 19.981868743896484375 20.325824737548828125 20.65947723388671875 20.979818344116210938 21.283658981323242188 21.597751617431640625 22.07678985595703125 22.551746368408203125 23.018545150756835938 23.472574234008789062 23.9143218994140625 24.427873611450195312 24.923814773559570312 25.395565032958984375 25.836057662963867188 26.23793792724609375 26.593812942504882812 26.896558761596679688 27.13967132568359375 27.317613601684570312 27.426156997680664062 27.46263885498046875 27.46263885498046875 27.46263885498046875 27.46263885498046875 27.538328170776367188 27.953603744506835938 28.308412551879882812 28.594371795654296875 28.804271697998046875 29.025056838989257812 29.89026641845703125 30.7371673583984375 31.550472259521484375 32.976222991943359375 34.73431396484375 36.64122772216796875 38.70259857177734375 40.918117523193359375 43.27756500244140625 45.7553558349609375 48.303623199462890625 50.8448028564453125 53.266033172607421875 56.586971282958984375 60.890010833740234375 65.2896575927734375 69.494842529296875 73.076080322265625 75.52309417724609375 82.12602996826171875 92.30512237548828125 106.3201904296875 121.81276702880859375 146.3638458251953125 204.2716064453125 338.8648681640625 1001 1001 1001 1001 1001 1001 1001 1001 1001 1001 1001 338.8648681640625 1001 1001 338.8648681640625 329.5323486328125 329.5323486328125 261.9871826171875 197.55322265625 197.55322265625 197.55322265625 181.7273406982421875 151.077484130859375 141.2225494384765625 141.2225494384765625 141.2225494384765625 141.2225494384765625 141.2225494384765625 141.2225494384765625 141.2225494384765625 141.2225494384765625 141.2225494384765625 135.460906982421875 121.81276702880859375 107.30401611328125 100.34027862548828125 107.30401611328125 109.9875335693359375 123.53829193115234375 151.077484130859375 204.2716064453125 338.8648681640625 1001 338.8648681640625 
14.756163597106933594 14.84317779541015625 14.92134857177734375 14.990183830261230469 15.049238204956054688 15.098116874694824219 15.136490821838378906 15.164094924926757812 15.180734634399414062 15.1862945556640625 15.1862945556640625 15.180734634399414062 15.218119621276855469 15.50078582763671875 15.78847503662109375 16.08069610595703125 16.3768463134765625 16.676202774047851562 16.977907180786132812 17.280956268310546875 17.584186553955078125 17.8862762451171875 18.185728073120117188 18.480876922607421875 18.769884109497070312 19.050760269165039062 19.358903884887695312 19.669336318969726562 19.969392776489257812 20.256467819213867188 20.527833938598632812 20.907533645629882812 21.33868408203125 21.764125823974609375 22.180255889892578125 22.58306884765625 23.01859283447265625 23.472616195678710938 23.908761978149414062 24.321496963500976562 24.704984664916992188 25.0532379150390625 25.360321044921875 25.620592117309570312 25.828943252563476562 25.981077194213867188 26.073720932006835938 26.104833602905273438 26.104833602905273438 26.104833602905273438 26.104833602905273438 26.237958908081054688 26.593828201293945312 26.89656829833984375 27.139677047729492188 27.317617416381835938 27.747369766235351562 28.49535369873046875 29.221231460571289062 30.383213043212890625 31.841218948364257812 33.407329559326171875 35.084056854248046875 36.869964599609375 38.75750732421875 40.730152130126953125 42.7588653564453125 44.798305511474609375 46.783649444580078125 49.027462005615234375 52.231830596923828125 55.522830963134765625 58.75734710693359375 61.724361419677734375 64.15486907958984375 66.9713592529296875 73.66664886474609375 82.12636566162109375 91.829376220703125 110.877105712890625 139.4200439453125 185.4886627197265625 261.988067626953125 338.86700439453125 1001 1001 1001 338.86700439453125 329.5323486328125 329.5323486328125 329.5323486328125 329.5323486328125 338.86700439453125 1001 1001 1001 338.86700439453125 261.988067626953125 197.55322265625 197.55322265625 181.72760009765625 151.07806396484375 141.2225494384765625 141.2225494384765625 135.4610137939453125 121.81305694580078125 109.9875335693359375 109.9875335693359375 109.9875335693359375 109.9875335693359375 109.9875335693359375 109.9875335693359375 109.9875335693359375 109.9875335693359375 109.9875335693359375 107.30406951904296875 100.34043121337890625 91.3349151611328125 84.716339111328125 88.677581787109375 93.603546142578125 114.13524627685546875 146.365020751953125 204.27313232421875 338.86700439453125 1001 338.86700439453125 
14.390933990478515625 14.471129417419433594 14.543104171752929688 14.6064300537109375 14.660715103149414062 14.70561981201171875 14.740854263305664062 14.7661895751953125 14.781458854675292969 14.78656005859375 14.78656005859375 14.781458854675292969 14.928865432739257812 15.194222450256347656 15.463619232177734375 15.736550331115722656 16.012411117553710938 16.29048919677734375 16.56995391845703125 16.849847793579101562 17.12908172607421875 17.40642547607421875 17.680513381958007812 17.94983673095703125 18.212755203247070312 18.480915069580078125 18.76992034912109375 19.050790786743164062 19.321392059326171875 19.579463958740234375 19.859468460083007812 20.252288818359375 20.641145706176757812 21.023193359375 21.39525604248046875 21.764173507690429688 22.1802978515625 22.58310699462890625 22.968233108520507812 23.331027984619140625 23.666646957397460938 23.970197677612304688 24.236879348754882812 24.462177276611328125 24.64205169677734375 24.7731170654296875 24.852819442749023438 24.879568099975585938 24.879568099975585938 24.879568099975585938 24.879568099975585938 25.053255081176757812 25.360334396362304688 25.620599746704101562 25.828948974609375 25.9810791015625 26.559278488159179688 27.208698272705078125 28.17093658447265625 29.39844512939453125 30.7066497802734375 32.096530914306640625 33.56639862060546875 35.110626220703125 36.71805572509765625 38.370082855224609375 40.03858184814453125 41.68404388427734375 43.277935028076171875 45.7556915283203125 48.30391693115234375 50.845043182373046875 53.266208648681640625 55.41982269287109375 57.135738372802734375 61.318164825439453125 66.97164154052734375 75.35650634765625 87.07955169677734375 102.61835479736328125 123.53966522216796875 151.078643798828125 185.489776611328125 261.98895263671875 329.5323486328125 338.869110107421875 1001 1001 338.869110107421875 204.2746734619140625 197.55322265625 197.55322265625 261.98895263671875 329.5323486328125 329.5323486328125 329.5323486328125 261.98895263671875 185.489776611328125 151.078643798828125 141.2225494384765625 135.46112060546875 121.8133544921875 109.9875335693359375 109.9875335693359375 107.30411529541015625 100.3405914306640625 91.33518218994140625 90.132904052734375 90.132904052734375 90.132904052734375 90.132904052734375 90.132904052734375 90.132904052734375 90.132904052734375 90.132904052734375 88.67760467529296875 84.7164306640625 79.1875457763671875 73.076202392578125 79.3800048828125 93.604339599609375 114.136199951171875 146.3662109375 204.2746734619140625 338.869110107421875 1001 1001 
14.044043540954589844 14.118104934692382812 14.184515953063964844 14.242899894714355469 14.292914390563964844 14.334261894226074219 14.366690635681152344 14.3899993896484375 14.404044151306152344 14.408735275268554688 14.408735275268554688 14.404044151306152344 14.645875930786132812 14.895020484924316406 15.147352218627929688 15.402365684509277344 15.659461021423339844 15.917947769165039062 16.177028656005859375 16.435800552368164062 16.693248748779296875 16.948238372802734375 17.19952392578125 17.445745468139648438 17.685436248779296875 17.949872970581054688 18.212787628173828125 18.467531204223632812 18.712232589721679688 18.944934844970703125 19.274080276489257812 19.63053131103515625 19.981996536254882812 20.325941085815429688 20.659580230712890625 21.023235321044921875 21.395294189453125 21.753896713256835938 22.095317840576171875 22.415636062622070312 22.71082305908203125 22.9768524169921875 23.209817886352539062 23.4060821533203125 23.562410354614257812 23.676115036010742188 23.745174407958984375 23.768335342407226562 23.768335342407226562 23.768335342407226562 23.768335342407226562 23.970212936401367188 24.236890792846679688 24.462184906005859375 24.642057418823242188 24.871959686279296875 25.454883575439453125 26.262859344482421875 27.309770584106445312 28.418338775634765625 29.588785171508789062 30.819482803344726562 32.1061859130859375 33.44109344482421875 34.81174468994140625 36.1998291015625 37.5800628662109375 38.919467926025390625 40.730457305908203125 42.759136199951171875 44.7985382080078125 46.783832550048828125 48.6296844482421875 50.233638763427734375 52.545299530029296875 57.071926116943359375 63.398288726806640625 71.121002197265625 80.62441253662109375 92.30658721923828125 106.32147216796875 123.54035186767578125 151.0792236328125 181.728118896484375 204.276214599609375 338.871246337890625 1001 1001 338.871246337890625 261.990692138671875 197.55322265625 181.7286529541015625 181.728118896484375 197.55322265625 197.55322265625 197.55322265625 181.728118896484375 151.0792236328125 123.54035186767578125 109.9875335693359375 107.304168701171875 100.34075164794921875 91.33544158935546875 90.132904052734375 88.67763519287109375 84.71652984619140625 79.18772125244140625 76.39748382568359375 76.39748382568359375 76.39748382568359375 76.39748382568359375 76.39748382568359375 76.39748382568359375 76.39748382568359375 76.39748382568359375 75.5231475830078125 73.07625579833984375 69.49517822265625 68.252044677734375 78.31195831298828125 91.83087921142578125 110.87884521484375 139.42205810546875 185.49090576171875 261.98980712890625 338.871246337890625 1001 
13.714185714721679688 13.782715797424316406 13.844117164611816406 13.898056983947753906 13.944234848022460938 13.982390403747558594 14.012301445007324219 14.033795356750488281 14.046742439270019531 14.051066398620605469 14.051066398620605469 14.138316154479980469 14.369405746459960938 14.603381156921386719 14.839811325073242188 15.078192710876464844 15.317943572998046875 15.558397293090820312 15.798798561096191406 16.038299560546875 16.275959014892578125 16.51073455810546875 16.741495132446289062 16.96701812744140625 17.199560165405273438 17.44577789306640625 17.685466766357421875 17.917062759399414062 18.138929367065429688 18.388936996459960938 18.716619491577148438 19.040662765502929688 19.359020233154296875 19.66944122314453125 19.9820404052734375 20.325979232788085938 20.65961456298828125 20.979936599731445312 21.28376007080078125 21.567773818969726562 21.828611373901367188 22.062944412231445312 22.267574310302734375 22.439542770385742188 22.57624053955078125 22.675510406494140625 22.735738754272460938 22.755926132202148438 22.755926132202148438 22.755926132202148438 22.755926132202148438 22.976865768432617188 23.209827423095703125 23.40608978271484375 23.562414169311523438 23.914539337158203125 24.601282119750976562 25.504236221313476562 26.455249786376953125 27.454179763793945312 28.499570846557617188 29.58817291259765625 30.714366912841796875 31.869501113891601562 33.041168212890625 34.2125244140625 35.36176300048828125 36.718334197998046875 38.37033843994140625 40.0388031005859375 41.684230804443359375 43.25473785400390625 44.6868438720703125 45.994998931884765625 49.92333984375 54.52931976318359375 59.92954254150390625 66.26923370361328125 73.66777801513671875 82.12738037109375 92.30707550048828125 106.3218994140625 121.813934326171875 139.423065185546875 185.492034912109375 261.990692138671875 338.87335205078125 1001 1001 338.87335205078125 329.5323486328125 261.9915771484375 185.4931488037109375 141.2225494384765625 141.2225494384765625 141.2225494384765625 135.4613189697265625 121.813934326171875 106.3218994140625 92.30707550048828125 88.6776580810546875 84.71662139892578125 79.18788909912109375 76.39748382568359375 75.523162841796875 73.07631683349609375 69.49529266357421875 66.3300933837890625 66.3300933837890625 66.3300933837890625 66.3300933837890625 66.3300933837890625 66.3300933837890625 66.3300933837890625 66.3300933837890625 65.7648162841796875 64.1549835205078125 61.7245941162109375 66.29961395263671875 75.35767364501953125 87.0808258056640625 102.619720458984375 123.54103851318359375 151.079803466796875 185.492034912109375 261.990692138671875 329.5323486328125 
13.400172233581542969 13.463703155517578125 13.520581245422363281 13.570513725280761719 13.613236427307128906 13.648518562316894531 13.676166534423828125 13.696026802062988281 13.707988739013671875 13.711983680725097656 13.711983680725097656 13.882083892822265625 14.099630355834960938 14.319428443908691406 14.541049957275390625 14.764003753662109375 14.987727165222167969 15.211585044860839844 15.434865951538085938 15.656777381896972656 15.8764495849609375 16.092929840087890625 16.305192947387695312 16.512134552001953125 16.741529464721679688 16.967046737670898438 17.186017990112304688 17.397060394287109375 17.598735809326171875 17.8864593505859375 18.1858978271484375 18.481031417846679688 18.770025253295898438 19.050886154174804688 19.359060287475585938 19.669475555419921875 19.969514846801757812 20.256574630737304688 20.527923583984375 20.78076171875 21.01226043701171875 21.219655990600585938 21.400308609008789062 21.551799774169921875 21.67200469970703125 21.759176254272460938 21.812015533447265625 21.82971954345703125 21.82971954345703125 21.82971954345703125 21.82971954345703125 22.062957763671875 22.267583847045898438 22.439548492431640625 22.576242446899414062 23.142000198364257812 23.928457260131835938 24.753032684326171875 25.615415573120117188 26.514345169067382812 27.447299957275390625 28.41013336181640625 29.396646499633789062 30.398157119750976562 31.403045654296875 32.39640045166015625 33.44135284423828125 34.811981201171875 36.200038909912109375 37.5802459716796875 38.91961669921875 40.177486419677734375 41.306789398193359375 44.2870330810546875 47.763706207275390625 51.724712371826171875 56.230236053466796875 61.31908416748046875 66.97248077392578125 73.66815948486328125 82.12772369384765625 91.33597564697265625 102.62039947509765625 123.54172515869140625 151.08038330078125 185.4931488037109375 261.9915771484375 338.87548828125 1001 1001 1001 338.87548828125 204.2792816162109375 146.3697509765625 114.1390533447265625 109.9875335693359375 107.30426788330078125 100.34107208251953125 91.33597564697265625 82.12772369384765625 75.5231781005859375 73.07637786865234375 69.4954071044921875 66.3300933837890625 65.76483154296875 64.15502166748046875 61.724674224853515625 58.757823944091796875 58.634487152099609375 58.634487152099609375 58.634487152099609375 58.634487152099609375 58.634487152099609375 58.634487152099609375 58.634487152099609375 58.248363494873046875 57.1358184814453125 57.072795867919921875 63.399211883544921875 71.12197113037109375 80.6254119873046875 92.30756378173828125 106.32232666015625 123.54172515869140625 151.08038330078125 181.7286529541015625 197.55322265625 
13.100917816162109375 13.159918785095214844 13.212704658508300781 13.259015083312988281 13.298617362976074219 13.33130645751953125 13.356913566589355469 13.375302314758300781 13.38637542724609375 13.390073776245117188 13.429018020629882812 13.631803512573242188 13.836658477783203125 14.043215751647949219 14.251056671142578125 14.459704399108886719 14.668621063232421875 14.877205848693847656 15.084789276123046875 15.290637016296386719 15.493946075439453125 15.693848609924316406 15.889413833618164062 16.092962265014648438 16.3052215576171875 16.5121612548828125 16.712614059448242188 16.905359268188476562 17.129261016845703125 17.40659332275390625 17.680667877197265625 17.949979782104492188 18.21288299560546875 18.481069564819335938 18.770061492919921875 19.050916671752929688 19.321500778198242188 19.579559326171875 19.822750091552734375 20.0486907958984375 20.255001068115234375 20.43936920166015625 20.599609375 20.733724594116210938 20.839975357055664062 20.916934967041015625 20.963544845581054688 20.979154586791992188 20.979154586791992188 20.979154586791992188 21.01227569580078125 21.219667434692382812 21.400316238403320312 21.551805496215820312 21.850641250610351562 22.541559219360351562 23.263174057006835938 24.015111923217773438 24.796295166015625 25.604742050170898438 26.437322616577148438 27.289487838745117188 28.154981613159179688 29.025552749633789062 29.890705108642578125 30.737546920776367188 31.869722366333007812 33.0413665771484375 34.21269989013671875 35.36191558837890625 36.4620819091796875 37.481586456298828125 39.75856781005859375 42.463344573974609375 45.480831146240234375 48.837619781494140625 52.54607391357421875 56.58840179443359375 61.31938934326171875 66.97275543212890625 73.04926300048828125 80.62591552734375 92.30805206298828125 106.32275390625 123.54241943359375 151.080963134765625 204.28082275390625 338.87762451171875 1001 1001 1001 338.87762451171875 204.28082275390625 151.082122802734375 123.543792724609375 106.32404327392578125 92.30951690673828125 84.71680450439453125 79.18822479248046875 73.04926300048828125 66.97275543212890625 64.15506744384765625 61.724750518798828125 58.757946014404296875 58.248371124267578125 57.135845184326171875 55.4200439453125 53.266559600830078125 52.56084442138671875 52.56084442138671875 52.56084442138671875 52.56084442138671875 52.56084442138671875 52.56084442138671875 52.56084442138671875 52.285572052001953125 51.485919952392578125 54.5300750732421875 59.930316925048828125 66.27001190185546875 73.6685333251953125 82.12805938720703125 92.30805206298828125 106.32275390625 121.81452178955078125 135.4615325927734375 141.2225494384765625 
12.815433502197265625 12.870321273803710938 12.919394493103027344 12.962423324584960938 12.99919891357421875 13.029543876647949219 13.053305625915527344 13.070364952087402344 13.08063507080078125 13.084064483642578125 13.196197509765625 13.387575149536132812 13.58054351806640625 13.774741172790527344 13.969761848449707031 14.165146827697753906 14.360384941101074219 14.554909706115722656 14.748094558715820312 14.939261436462402344 15.127671241760253906 15.312533378601074219 15.493978500366210938 15.693879127502441406 15.889440536499023438 16.079675674438476562 16.263544082641601562 16.439962387084960938 16.69341278076171875 16.948392868041992188 17.199665069580078125 17.445875167846679688 17.685552597045898438 17.950014114379882812 18.212915420532226562 18.467645645141601562 18.71233367919921875 18.945020675659179688 19.163698196411132812 19.366331100463867188 19.550909042358398438 19.715490341186523438 19.858249664306640625 19.977529525756835938 20.071893692016601562 20.140172958374023438 20.18149566650390625 20.195329666137695312 20.195329666137695312 20.195329666137695312 20.255014419555664062 20.439380645751953125 20.59961700439453125 20.733730316162109375 21.311742782592773438 21.948436737060546875 22.609798431396484375 23.29491424560546875 24.002208709716796875 24.729272842407226562 25.472696304321289062 26.227857589721679688 26.988752365112304688 27.747798919677734375 28.495731353759765625 29.396854400634765625 30.398347854614257812 31.403215408325195312 32.39655303955078125 33.359973907470703125 34.27175140380859375 36.05515289306640625 38.21300506591796875 40.582439422607421875 43.17565155029296875 45.99566650390625 49.02870941162109375 52.54633331298828125 56.5886383056640625 60.891468048095703125 66.2704010009765625 73.668914794921875 82.1284027099609375 92.30854034423828125 110.88232421875 139.4261016845703125 185.495391845703125 261.993316650390625 338.879730224609375 1001 338.879730224609375 329.5323486328125 261.99420166015625 185.49652099609375 151.08270263671875 123.5444793701171875 106.32447052001953125 92.31000518798828125 84.71736907958984375 79.18924713134765625 73.07684326171875 69.49631500244140625 65.764923095703125 64.1553802490234375 61.725376129150390625 58.758899688720703125 55.524860382080078125 52.234249114990234375 49.0301666259765625 47.645267486572265625 47.645267486572265625 47.645267486572265625 47.645267486572265625 47.645267486572265625 47.645267486572265625 47.44219970703125 47.764339447021484375 51.725353240966796875 56.23087310791015625 61.319698333740234375 66.9730377197265625 73.668914794921875 82.1284027099609375 91.33650970458984375 100.3413848876953125 107.30435943603515625 109.9875335693359375 
12.542813301086425781 12.593956947326660156 12.63965606689453125 12.6797027587890625 12.713915824890136719 12.742133140563964844 12.764222145080566406 12.780076980590820312 12.789620399475097656 12.792807579040527344 12.968781471252441406 13.149450302124023438 13.33129119873046875 13.513957023620605469 13.697053909301757812 13.880144119262695312 14.062743186950683594 14.244319915771484375 14.424291610717773438 14.602030754089355469 14.776860237121582031 14.948060035705566406 15.127701759338378906 15.312561988830566406 15.493030548095703125 15.66822052001953125 15.837202072143554688 16.038463592529296875 16.276111602783203125 16.510875701904296875 16.741626739501953125 16.967134475708007812 17.199701309204101562 17.4459075927734375 17.685583114624023438 17.91716766357421875 18.139020919799804688 18.3494415283203125 18.546697616577148438 18.7290496826171875 18.8947906494140625 19.042280197143554688 19.169986724853515625 19.27652740478515625 19.36071014404296875 19.42156219482421875 19.45836639404296875 19.470684051513671875 19.470684051513671875 19.470684051513671875 19.550920486450195312 19.7154998779296875 19.858255386352539062 20.21392059326171875 20.7797698974609375 21.36594390869140625 21.9716644287109375 22.59566497802734375 23.236064910888671875 23.89025115966796875 24.554746627807617188 25.225076675415039062 25.895648956298828125 26.55965423583984375 27.289684295654296875 28.155162811279296875 29.025716781616210938 29.890851974487304688 30.737672805786132812 31.550891876220703125 32.977886199951171875 34.735980987548828125 36.64288330078125 38.7042236328125 40.919681549072265625 43.2790374755859375 45.995891571044921875 49.028919219970703125 52.23313140869140625 56.23119354248046875 61.320003509521484375 66.97332000732421875 75.3600006103515625 87.08336639404296875 102.62244415283203125 123.543792724609375 151.082122802734375 204.283905029296875 338.881866455078125 1001 1001 1001 338.881866455078125 261.995086669921875 185.497650146484375 151.0832977294921875 123.545166015625 107.30460357666015625 100.3421783447265625 91.33783721923828125 84.71746063232421875 79.189422607421875 75.52332305908203125 73.076904296875 69.49642181396484375 65.2919769287109375 60.892925262451171875 56.590312957763671875 52.548137664794921875 49.03037261962890625 45.997447967529296875 43.585369110107421875 43.585369110107421875 43.585369110107421875 43.585369110107421875 43.43132781982421875 45.48137664794921875 48.83815765380859375 52.546588897705078125 56.588878631591796875 61.320003509521484375 66.97332000732421875 73.04973602294921875 79.188568115234375 84.7169952392578125 88.677764892578125 90.132904052734375 
12.282225608825683594 12.3299560546875 12.372579574584960938 12.409914016723632812 12.441794395446777344 12.46807861328125 12.488648414611816406 12.503409385681152344 12.512293815612792969 12.577319145202636719 12.746820449829101562 12.917437553405761719 13.088870048522949219 13.260777473449707031 13.4327850341796875 13.604475975036621094 13.775393486022949219 13.945040702819824219 14.112877845764160156 14.278325080871582031 14.440762519836425781 14.602060317993164062 14.776887893676757812 14.948085784912109375 15.11489105224609375 15.2765045166015625 15.435026168823242188 15.656928062438964844 15.876590728759765625 16.093061447143554688 16.305311203002929688 16.512243270874023438 16.741659164428710938 16.967164993286132812 17.186122894287109375 17.397153854370117188 17.598817825317382812 17.789632797241210938 17.968103408813476562 18.1327362060546875 18.282075881958007812 18.414731979370117188 18.52941131591796875 18.6249542236328125 18.700361251831054688 18.754823684692382812 18.787746429443359375 18.798761367797851562 18.798761367797851562 18.798761367797851562 18.894802093505859375 19.042287826538085938 19.228046417236328125 19.734195709228515625 20.257276535034179688 20.796632766723632812 21.351230621337890625 21.91957855224609375 22.499647140502929688 23.08876800537109375 23.683542251586914062 24.27976226806640625 24.872327804565429688 25.472881317138671875 26.228031158447265625 26.988910675048828125 27.747941970825195312 28.49585723876953125 29.2216644287109375 30.384706497192382812 31.842710494995117188 33.40880584716796875 35.08550262451171875 36.87136077880859375 38.75882720947265625 40.919879913330078125 43.279224395751953125 45.756862640380859375 48.8384246826171875 52.546848297119140625 57.0745391845703125 63.401065826416015625 71.1239166259765625 80.627410888671875 92.30951690673828125 110.884063720703125 139.4281158447265625 185.497650146484375 261.995086669921875 338.88397216796875 1001 1001 1001 338.88397216796875 261.995941162109375 185.4987640380859375 151.0838775634765625 135.4621429443359375 121.81627655029296875 107.304656982421875 100.34233856201171875 91.338104248046875 88.67792510986328125 84.71755218505859375 79.1895904541015625 73.0511474609375 66.97499847412109375 61.321842193603515625 56.590549468994140625 52.548397064208984375 48.84003448486328125 45.483280181884765625 42.465785980224609375 40.1756134033203125 40.1756134033203125 40.58290863037109375 43.176113128662109375 45.996112823486328125 49.029125213623046875 52.546848297119140625 56.58911895751953125 60.89188385009765625 65.29114532470703125 69.49585723876953125 73.07660675048828125 75.52324676513671875 76.39748382568359375 
12.032908439636230469 12.077520370483398438 12.117337226867675781 12.152196884155273438 12.181951522827148438 12.206475257873535156 12.225661277770996094 12.239426612854003906 12.247710227966308594 12.369935989379882812 12.530327796936035156 12.691517829895019531 12.853211402893066406 13.015085220336914062 13.176778793334960938 13.33789825439453125 13.498016357421875 13.656667709350585938 13.813352584838867188 13.967535972595214844 14.118653297424316406 14.278352737426757812 14.44078826904296875 14.599558830261230469 14.75397491455078125 14.903317451477050781 15.08493804931640625 15.290776252746582031 15.494075775146484375 15.693968772888183594 15.889523506164550781 16.0930938720703125 16.305341720581054688 16.512269973754882812 16.712711334228515625 16.905445098876953125 17.089206695556640625 17.262706756591796875 17.42464447021484375 17.573736190795898438 17.708734512329101562 17.828458786010742188 17.9318084716796875 18.017808914184570312 18.0856170654296875 18.134552001953125 18.164117813110351562 18.174007415771484375 18.174007415771484375 18.174007415771484375 18.282085418701171875 18.414737701416015625 18.79329681396484375 19.262926101684570312 19.746246337890625 20.242404937744140625 20.750209808349609375 21.268053054809570312 21.793855667114257812 22.3249969482421875 22.858251571655273438 23.389734268188476562 23.91486358642578125 24.554912567138671875 25.225231170654296875 25.895788192749023438 26.559778213500976562 27.209133148193359375 28.172288894653320312 29.399791717529296875 30.707979202270507812 32.09783172607421875 33.567657470703125 35.11182403564453125 36.871532440185546875 38.75899505615234375 40.7315216064453125 43.1763458251953125 45.996334075927734375 49.9255218505859375 54.531585693359375 59.931873321533203125 66.3028106689453125 75.36116790771484375 87.0846405029296875 102.623809814453125 123.545166015625 151.0832977294921875 185.4987640380859375 261.995941162109375 329.5323486328125 338.8861083984375 1001 1001 338.8861083984375 261.996826171875 197.55322265625 181.7304840087890625 151.0844573974609375 135.462249755859375 121.81656646728515625 109.9875335693359375 107.3047027587890625 100.342498779296875 91.33837127685546875 82.13077545166015625 73.6715545654296875 66.97528076171875 61.32215118408203125 56.23342132568359375 51.7279205322265625 47.766876220703125 44.29012298583984375 41.2339630126953125 38.538967132568359375 38.70462799072265625 40.920074462890625 43.279407501220703125 45.996334075927734375 49.02933502197265625 52.2335052490234375 55.52423858642578125 58.7584228515625 61.725063323974609375 64.15522003173828125 65.76488494873046875 66.3300933837890625 
11.794161796569824219 11.835918426513671875 11.873167991638183594 11.905765533447265625 11.933579444885253906 11.956495285034179688 11.974419593811035156 11.987276077270507812 12.01641082763671875 12.167463302612304688 12.3192901611328125 12.471638679504394531 12.624224662780761719 12.776738166809082031 12.928837776184082031 13.080152511596679688 13.230279922485351562 13.378788948059082031 13.52521514892578125 13.669069290161132812 13.813380241394042969 13.967562675476074219 14.118677139282226562 14.2661285400390625 14.409293174743652344 14.555056571960449219 14.748233795166015625 14.939391136169433594 15.1277923583984375 15.31264495849609375 15.494108200073242188 15.693998336791992188 15.889551162719726562 16.079774856567382812 16.263631820678710938 16.44004058837890625 16.607885360717773438 16.766042709350585938 16.913381576538085938 17.048791885375976562 17.17120361328125 17.279603958129882812 17.373060226440429688 17.450738906860351562 17.511932373046875 17.556062698364257812 17.582714080810546875 17.591625213623046875 17.591625213623046875 17.591625213623046875 17.708744049072265625 17.942144393920898438 18.366100311279296875 18.801675796508789062 19.2481689453125 19.704608917236328125 20.169710159301757812 20.6418304443359375 21.118913650512695312 21.598451614379882812 22.0774383544921875 22.552337646484375 23.088924407958984375 23.683689117431640625 24.279897689819335938 24.872449874877929688 25.455320358276367188 26.264093399047851562 27.31099700927734375 28.41954803466796875 29.589969635009765625 30.820629119873046875 32.107280731201171875 33.567813873291015625 35.111972808837890625 36.719310760498046875 38.704830169677734375 41.23276519775390625 44.28888702392578125 47.765605926513671875 51.834346771240234375 57.075412750244140625 63.4019927978515625 71.1248931884765625 80.62841033935546875 92.31049346923828125 106.32489776611328125 123.54586029052734375 151.0838775634765625 181.730224609375 197.55322265625 261.996826171875 338.88824462890625 1001 1001 338.88824462890625 329.5323486328125 261.997711181640625 197.55322265625 181.7307586669921875 151.0850372314453125 141.2225494384765625 135.46234130859375 121.816864013671875 106.3261871337890625 92.31195831298828125 82.13111114501953125 73.67192840576171875 66.273529052734375 59.93381500244140625 54.533477783203125 49.927337646484375 45.979679107666015625 42.57476806640625 39.61762237548828125 37.031490325927734375 38.759159088134765625 40.920269012451171875 43.279590606689453125 45.757198333740234375 48.305225372314453125 50.846111297607421875 53.266998291015625 55.42032623291015625 57.135982513427734375 58.248409271240234375 58.634487152099609375 
11.565340042114257812 11.604477882385253906 11.639375686645507812 11.669901847839355469 11.695939064025878906 11.717385292053222656 11.734154701232910156 11.746181488037109375 11.826643943786621094 11.969892501831054688 12.113669395446777344 12.257726669311523438 12.401795387268066406 12.545577049255371094 12.688750267028808594 12.830965995788574219 12.9718475341796875 13.110994338989257812 13.247977256774902344 13.38234710693359375 13.525241851806640625 13.669094085693359375 13.809854507446289062 13.946982383728027344 14.079912185668945312 14.244456291198730469 14.424420356750488281 14.602150917053222656 14.776971817016601562 14.948162078857421875 15.127821922302246094 15.312672615051269531 15.493131637573242188 15.66831207275390625 15.837284088134765625 15.999089241027832031 16.152746200561523438 16.297269821166992188 16.431674957275390625 16.55500030517578125 16.666322708129882812 16.7647705078125 16.849544525146484375 16.919939041137695312 16.975345611572265625 17.01528167724609375 17.039386749267578125 17.04744720458984375 17.04744720458984375 17.048801422119140625 17.17121124267578125 17.553136825561523438 17.947704315185546875 18.35163116455078125 18.764120101928710938 19.184133529663085938 19.610353469848632812 20.041149139404296875 20.474538803100585938 20.908166885375976562 21.339265823364257812 21.79400634765625 22.325139999389648438 22.8583831787109375 23.38985443115234375 23.914972305297851562 24.602415084838867188 25.505361557006835938 26.45635986328125 27.455266952514648438 28.5006256103515625 29.590118408203125 30.820774078369140625 32.107418060302734375 33.44225311279296875 35.16153717041015625 37.336360931396484375 39.760173797607421875 42.5737762451171875 45.9786376953125 49.92624664306640625 54.532344818115234375 59.932647705078125 66.2723541259765625 73.67079925537109375 82.130096435546875 92.31098175048828125 106.32532501220703125 121.81627655029296875 135.4621429443359375 151.0844573974609375 204.2900543212890625 338.890350341796875 1001 1001 1001 1001 338.890350341796875 329.5323486328125 261.99859619140625 197.55322265625 197.55322265625 181.73101806640625 151.0856170654296875 123.54792022705078125 106.3266143798828125 92.31244659423828125 80.6304168701171875 71.12683868408203125 63.403842926025390625 57.07715606689453125 51.8359832763671875 47.442440032958984375 43.717212677001953125 40.52503204345703125 37.763088226318359375 36.871883392333984375 38.7593231201171875 40.7318267822265625 42.760356903076171875 44.7995758056640625 46.784656524658203125 48.630279541015625 50.2340087890625 51.4860382080078125 52.285602569580078125 52.56084442138671875 
11.345849037170410156 11.382580757141113281 11.415319442749023438 11.443945884704589844 11.468353271484375 11.488451957702636719 11.504164695739746094 11.515431404113769531 11.641299247741699219 11.777196884155273438 11.913405418395996094 12.04969024658203125 12.185791015625 12.3214263916015625 12.456292152404785156 12.590060234069824219 12.722379684448242188 12.852877616882324219 12.981160163879394531 13.111020088195800781 13.248002052307128906 13.3823699951171875 13.51364898681640625 13.641347885131835938 13.775529861450195312 13.945169448852539062 14.112998008728027344 14.278436660766601562 14.440866470336914062 14.60218048095703125 14.776999473571777344 14.948187828063964844 15.114984512329101562 15.276589393615722656 15.4321746826171875 15.580888748168945312 15.721866607666015625 15.85424041748046875 15.977151870727539062 16.089765548706054688 16.191280364990234375 16.28094482421875 16.358074188232421875 16.422061920166015625 16.47238922119140625 16.508642196655273438 16.530517578125 16.537830352783203125 16.537830352783203125 16.555009841918945312 16.812810897827148438 17.171895980834960938 17.539064407348632812 17.91365814208984375 18.294826507568359375 18.681501388549804688 19.0723724365234375 19.46585845947265625 19.86008453369140625 20.252859115600585938 20.641973495483398438 21.119049072265625 21.59857940673828125 22.077554702758789062 22.5524444580078125 23.143049240112304688 23.92949676513671875 24.754056930541992188 25.616418838500976562 26.51531982421875 27.455402374267578125 28.500757217407226562 29.589307785034179688 30.715440750122070312 32.30808258056640625 34.093761444091796875 36.152225494384765625 38.53839111328125 41.233364105224609375 44.2895050048828125 47.76624298095703125 51.7272796630859375 56.232784271240234375 61.321537017822265625 66.97472381591796875 73.671173095703125 82.13043212890625 91.338104248046875 100.34233856201171875 110.887542724609375 139.432159423828125 185.50213623046875 261.99859619140625 329.5323486328125 338.892486572265625 1001 1001 1001 1001 338.892486572265625 329.5323486328125 329.5323486328125 261.99945068359375 185.503265380859375 151.0861968994140625 123.548614501953125 102.62722015380859375 87.08782196044921875 75.36408233642578125 66.30547332763671875 59.138828277587890625 53.347629547119140625 48.580875396728515625 44.5944366455078125 41.21443939208984375 38.314239501953125 35.799663543701171875 36.7195892333984375 38.3714752197265625 40.039798736572265625 41.68505859375 43.255382537841796875 44.6873016357421875 45.90932464599609375 46.848880767822265625 47.44222259521484375 47.645267486572265625 
11.13513946533203125 11.169657707214355469 11.200409889221191406 11.227289199829101562 11.250201225280761719 11.269062042236328125 11.283804893493652344 11.331715583801269531 11.460354804992675781 11.589327812194824219 11.718425750732421875 11.847421646118164062 11.976069450378417969 12.104101181030273438 12.231231689453125 12.357152938842773438 12.481537818908691406 12.604041099548339844 12.724298477172851562 12.852902412414550781 12.981183052062988281 13.106833457946777344 13.229419708251953125 13.348494529724121094 13.498143196105957031 13.656787872314453125 13.813464164733886719 13.967640876770019531 14.118749618530273438 14.27846527099609375 14.440892219543457031 14.599654197692871094 14.754060745239257812 14.903395652770996094 15.046916961669921875 15.183868408203125 15.31348419189453125 15.435002326965332031 15.547669410705566406 15.650757789611816406 15.743570327758789062 15.825458526611328125 15.895829200744628906 15.954161643981933594 16.000009536743164062 16.03302001953125 16.052930831909179688 16.0595855712890625 16.0595855712890625 16.135812759399414062 16.463993072509765625 16.79920196533203125 17.14089202880859375 17.4883575439453125 17.840724945068359375 18.196931838989257812 18.555700302124023438 18.91551971435546875 19.274641036987304688 19.631048202514648438 20.041280746459960938 20.47466278076171875 20.908281326293945312 21.3393707275390625 21.85161590576171875 22.542524337768554688 23.264125823974609375 24.016042709350585938 24.797201156616210938 25.616544723510742188 26.51544189453125 27.448354721069335938 28.502302169799804688 29.872280120849609375 31.442413330078125 33.206218719482421875 35.16204833984375 37.336883544921875 39.760707855224609375 42.46551513671875 45.48300933837890625 48.8397674560546875 52.548137664794921875 56.590312957763671875 61.321842193603515625 66.97499847412109375 73.0511474609375 79.1895904541015625 87.087188720703125 102.62653350830078125 123.54792022705078125 151.0856170654296875 181.73101806640625 197.55322265625 261.99945068359375 329.5323486328125 338.894622802734375 1001 1001 1001 1001 1001 338.894622802734375 262.000335693359375 185.5043792724609375 139.4341888427734375 110.8892822265625 91.83989715576171875 78.31984710693359375 68.25904083251953125 60.4932708740234375 54.323436737060546875 49.306293487548828125 45.147945404052734375 41.646144866943359375 38.6573028564453125 36.076717376708984375 34.813045501708984375 36.20098876953125 37.58106231689453125 38.9202880859375 40.177997589111328125 41.307147979736328125 42.25727081298828125 42.979248046875 43.43134307861328125 43.585369110107421875 
10.932703971862792969 10.965180397033691406 10.994103431701660156 11.019375801086425781 11.040910720825195312 11.058633804321289062 11.072484016418457031 11.161486625671386719 11.283774375915527344 11.406225204467773438 11.528639793395996094 11.650800704956054688 11.772474288940429688 11.893408775329589844 12.013333320617675781 12.131961822509765625 12.248989105224609375 12.364094734191894531 12.481562614440917969 12.604063987731933594 12.724320411682128906 12.841949462890625 12.956556320190429688 13.080278396606445312 13.230399131774902344 13.378900527954101562 13.525320053100585938 13.66916656494140625 13.813492774963378906 13.9676666259765625 14.118773460388183594 14.266217231750488281 14.409373283386230469 14.547595977783203125 14.680223464965820312 14.806582450866699219 14.925993919372558594 15.037784576416015625 15.141295433044433594 15.235886573791503906 15.320953369140625 15.395931243896484375 15.460306167602539062 15.513627052307128906 15.555511474609375 15.585652351379394531 15.60382843017578125 15.60990142822265625 15.60990142822265625 15.815454483032226562 16.122701644897460938 16.435638427734375 16.753675460815429688 17.0760955810546875 17.402019500732421875 17.730409622192382812 18.060037612915039062 18.389486312866210938 18.717130661010742188 19.072500228881835938 19.465978622436523438 19.860197067260742188 20.252964019775390625 20.701015472412109375 21.312643051147460938 21.949323654174804688 22.610666275024414062 23.2957611083984375 24.016160964965820312 24.797315597534179688 25.605724334716796875 26.605693817138671875 27.842296600341796875 29.198568344116210938 30.682220458984375 32.308536529541015625 34.0942230224609375 36.05702972412109375 38.214893341064453125 40.584323883056640625 43.177501678466796875 45.997447967529296875 49.03037261962890625 52.548397064208984375 56.590549468994140625 60.89313507080078125 65.29213714599609375 71.12683868408203125 80.6304168701171875 92.31244659423828125 106.3266143798828125 121.8171539306640625 135.4624481201171875 151.0861968994140625 181.7312774658203125 197.55322265625 262.000335693359375 329.5323486328125 329.5323486328125 338.896728515625 1001 1001 1001 338.896728515625 204.2946624755859375 146.3815460205078125 114.148590087890625 93.614715576171875 79.38892364501953125 68.95145416259765625 60.966876983642578125 54.66143798828125 49.555850982666015625 45.33739471435546875 41.7933349609375 38.77391815185546875 36.17067718505859375 33.90311431884765625 34.213497161865234375 35.362590789794921875 36.462627410888671875 37.48200225830078125 38.385715484619140625 39.13765716552734375 39.703815460205078125 40.056026458740234375 40.1756134033203125 
