ncols        127
nrows        131
xllcorner    -71.681135979344
yllcorner    -16.519694133538
cellsize     0.001836012963
NODATA_value -9999
11.0 11 11 11 11 11 11 11 11 11 11 11 11 11 11 11 11 11 11 11 11 11 11 11 11 11 11 11 11 11 11 11 11 11 11 11 11 11 11 11 11 11 11 11 11 11 11 11 11 11 11 11 11 11 11 11 11 11 11 11 11 11 11 11 11 11 11 11 11 11 11 11 11 11 11 11 11 11 11 11 11 11 11 11 11 11 11 11 11 11 11 11 11 11 11 11 11 11 11 11 11 11 11 11 11 11 11 11 11 11 11 11 11 11 11 11 11 11 11 11 11 11 11 11 11 11 11 
11 11 11 11 11 11 11 11 11 11 11 11 6 11 11 11 11 11 11 11 11 11 11 11 11 6 11 11 11 11 11 11 11 11 11 11 11 11 11 11 11 11 11 11 11 11 11 11 11 11 11 11 11 11 11 11 11 11 11 11 11 11 11 11 11 11 11 11 11 11 11 11 11 11 11 11 11 11 11 11 11 11 11 11 11 11 11 11 11 11 11 11 11 11 11 11 11 11 11 11 11 11 11 11 11 11 11 11 11 11 11 11 11 11 11 11 11 11 11 11 11 11 11 11 11 11 11 
11 11 11 11 11 11 11 11 11 11 11 11 2.6666667461395263672 2.6666667461395263672 11 11 11 11 11 11 11 11 11 2.6666667461395263672 11 11 11 11 11 11 11 11 11 11 11 11 11 11 11 11 11 11 11 11 11 11 11 11 11 11 11 11 11 11 11 11 11 11 11 11 11 11 11 11 11 11 11 11 11 2.6666667461395263672 11 11 11 11 11 11 11 11 11 11 11 11 11 11 11 11 11 11 11 11 11 11 11 11 11 11 11 11 11 11 11 11 11 11 11 11 11 11 11 11 11 11 11 11 11 11 11 11 11 11 11 11 11 11 11 11 11 
11 11 11 11 11 11 11 11 11 11 11 2.6666667461395263672 2.6666667461395263672 11 11 6 11 11 11 11 11 2.6666667461395263672 11 11 11 11 11 11 2.6666667461395263672 11 2.6666667461395263672 11 11 11 11 11 11 11 11 11 11 11 11 11 11 11 11 11 11 11 11 11 11 11 11 11 11 11 11 11 11 11 11 11 11 11 11 11 11 11 6 11 11 11 11 11 11 11 11 11 11 11 11 11 11 11 11 11 2.6666667461395263672 2.6666667461395263672 11 11 11 11 11 11 11 11 11 11 11 11 11 11 11 11 11 11 11 11 11 11 11 11 11 11 11 11 11 11 11 11 11 11 11 11 11 
11 11 11 11 11 11 11 11 11 11 11 2.6666667461395263672 6 6 6 6 11 11 11 11 11 11 11 2.6666667461395263672 11 11 11 11 11 11 11 11 11 11 11 11 11 11 11 11 11 11 11 11 11 11 11 11 11 11 11 11 11 11 11 11 11 11 11 11 11 11 11 11 11 11 11 11 11 6 2.6666667461395263672 2.6666667461395263672 11 11 11 11 2.6666667461395263672 11 11 11 11 11 11 11 11 11 11 11 11 2.6666667461395263672 11 11 11 11 11 11 11 11 11 11 11 11 11 11 11 11 11 11 11 11 11 11 11 11 11 11 11 11 11 11 11 11 11 11 11 11 11 
11 11 11 11 11 11 11 11 11 2.6666667461395263672 11 2.6666667461395263672 11 2.6666667461395263672 6 6 11 11 11 11 2.6666667461395263672 2.6666667461395263672 6 6 11 4.3333334922790527344 4.3333334922790527344 11 4.3333334922790527344 11 11 11 11 11 11 11 11 11 11 11 11 11 11 11 11 11 11 11 11 11 11 11 11 11 11 11 11 11 11 11 11 11 11 11 11 11 11 11 2.6666667461395263672 11 6 11 6 11 11 6 2.6666667461395263672 11 11 11 11 11 11 11 11 11 11 2.6666667461395263672 11 11 11 11 2.6666667461395263672 11 11 11 11 11 11 11 11 11 11 11 11 11 11 11 11 11 11 11 11 11 11 11 11 11 11 11 11 11 11 11 11 11 11 
11 11 11 11 11 11 11 11 11 2.6666667461395263672 2.6666667461395263672 2.6666667461395263672 11 6 6 6 2.6666667461395263672 11 11 11 2.6666667461395263672 2.6666667461395263672 6 11 11 4.3333334922790527344 4.3333334922790527344 11 4.3333334922790527344 11 11 11 11 11 11 11 11 11 11 11 11 11 11 11 11 11 11 11 11 11 11 11 11 11 11 11 11 11 11 11 11 11 11 11 11 11 11 11 11 11 11 11 11 11 11 11 2.6666667461395263672 11 11 11 11 11 11 2.6666667461395263672 2.6666667461395263672 11 11 6 11 11 2.6666667461395263672 11 2.6666667461395263672 11 11 11 11 11 11 11 11 11 11 11 11 11 11 11 11 11 11 11 11 11 11 11 11 11 11 11 11 11 11 11 11 11 11 
11 11 11 11 11 11 11 2.6666667461395263672 11 2.6666667461395263672 2.6666667461395263672 2.6666667461395263672 6 6 2.6666667461395263672 7.6666665077209472656 11 11 11 11 6 11 11 11 4.3333334922790527344 11 11 4.3333334922790527344 11 4.3333334922790527344 11 11 11 11 11 11 11 11 11 11 11 11 11 11 11 11 11 11 11 11 11 11 11 11 11 11 11 11 11 11 11 11 11 11 11 11 11 11 11 11 11 11 11 6 11 11 11 11 11 11 11 11 11 4.3333334922790527344 11 11 11 11 4.3333334922790527344 11 2.6666667461395263672 11 11 11 11 11 11 11 11 11 11 11 11 11 11 11 11 11 11 11 11 11 11 11 11 11 11 11 11 11 11 11 11 11 11 11 11 
11 11 11 11 11 11 11 11 2.6666667461395263672 2.6666667461395263672 2.6666667461395263672 2.6666667461395263672 2.6666667461395263672 2.6666667461395263672 11 11 11 11 11 11 11 11 11 2.6666667461395263672 4.3333334922790527344 11 11 11 11 11 6 6 6 11 11 11 11 11 11 11 11 11 11 11 11 11 11 11 11 11 11 11 11 11 11 11 11 11 11 11 11 11 11 11 11 11 11 11 11 11 11 11 6 6 11 11 11 11 11 11 11 2.6666667461395263672 4.3333334922790527344 11 11 11 11 11 11 11 11 2.6666667461395263672 2.6666667461395263672 11 11 11 11 11 11 11 11 11 11 11 11 11 11 11 11 11 11 11 11 11 11 11 11 11 11 11 11 11 11 11 11 11 11 
11 11 11 11 11 11 11 2.6666667461395263672 2.6666667461395263672 11 2.6666667461395263672 11 7.6666665077209472656 2.6666667461395263672 11 11 11 11 11 11 6 11 11 4.3333334922790527344 4.3333334922790527344 11 4.3333334922790527344 11 6 6 11 11 6 11 11 11 11 11 11 11 11 11 11 11 11 11 11 11 11 11 11 11 11 11 11 11 11 11 11 11 11 11 11 11 11 11 11 11 11 11 11 11 6 6 11 11 11 11 11 11 2.6666667461395263672 11 11 11 11 6 11 11 4.3333334922790527344 11 6 2.6666667461395263672 2.6666667461395263672 11 11 11 11 11 11 11 11 11 11 11 11 11 11 11 11 11 11 11 11 11 11 11 11 11 11 11 11 11 11 11 11 11 11 
11 11 11 11 11 11 11 2.6666667461395263672 2.6666667461395263672 2.6666667461395263672 11 2.6666667461395263672 11 2.6666667461395263672 11 11 11 11 11 11 2.6666667461395263672 2.6666667461395263672 11 4.3333334922790527344 4.3333334922790527344 4.3333334922790527344 4.3333334922790527344 11 2.6666667461395263672 6 11 6 11 11 11 11 11 11 11 11 11 11 11 11 11 11 11 11 11 11 11 11 11 11 11 11 11 11 11 11 11 11 11 11 11 11 11 11 11 11 11 11 6 11 11 11 11 11 11 11 2.6666667461395263672 11 11 4.3333334922790527344 11 4.3333334922790527344 4.3333334922790527344 11 4.3333334922790527344 11 6 11 11 11 11 11 11 11 11 11 11 11 11 11 11 11 11 11 11 11 11 11 11 11 11 11 11 11 11 11 11 11 11 11 11 11 11 
11 11 11 11 11 11 11 11 11 2.6666667461395263672 11 2.6666667461395263672 2.6666667461395263672 11 11 11 11 11 11 11 11 11 11 11 4.3333334922790527344 11 4.3333334922790527344 6 11 6 11 6 11 2.6666667461395263672 11 6 11 11 11 11 11 11 11 11 11 11 11 11 11 11 11 11 11 11 11 11 11 11 11 11 11 11 11 11 11 11 11 11 11 11 11 11 6 11 11 11 11 11 11 11 11 4.3333334922790527344 11 11 11 4.3333334922790527344 4.3333334922790527344 11 11 11 2.6666667461395263672 2.6666667461395263672 11 11 11 11 11 11 11 11 11 11 11 11 11 11 11 11 11 11 11 11 11 11 11 11 11 11 11 11 11 11 11 11 11 11 11 
11 11 11 11 11 11 11 11 11 2.6666667461395263672 2.6666667461395263672 2.6666667461395263672 11 11 11 11 11 11 11 11 11 11 6 6 6 11 11 11 6 6 11 2.6666667461395263672 6 6 6 6 11 11 11 11 11 11 11 11 11 11 11 11 11 11 11 11 11 11 11 11 11 11 11 11 11 11 11 11 11 11 11 11 11 11 11 11 11 2.6666667461395263672 11 11 11 11 11 11 11 4.3333334922790527344 11 11 11 11 11 11 2.6666667461395263672 11 11 11 11 11 11 11 11 11 11 11 11 11 11 11 11 11 11 11 11 11 11 11 11 11 11 11 11 11 11 11 11 11 11 11 11 11 11 
11 11 11 11 11 11 11 11 2.6666667461395263672 2.6666667461395263672 2.6666667461395263672 11 11 11 11 11 11 11 11 11 11 11 6 6 11 11 6 6 6 11 6 6 6 2.6666667461395263672 6 6 6 11 11 11 11 11 11 11 11 11 11 11 11 11 11 11 11 11 11 11 2.6666667461395263672 11 11 11 11 11 11 11 11 11 11 11 11 11 11 11 2.6666667461395263672 2.6666667461395263672 2.6666667461395263672 11 11 11 11 2.6666667461395263672 4.3333334922790527344 4.3333334922790527344 4.3333334922790527344 11 11 4.3333334922790527344 4.3333334922790527344 11 2.6666667461395263672 2.6666667461395263672 11 11 11 11 11 11 11 11 11 11 11 11 11 11 11 11 11 11 11 11 11 11 11 11 11 11 11 11 11 11 11 11 11 11 11 11 11 
11 11 11 11 11 11 11 7.6666665077209472656 7.6666665077209472656 2.6666667461395263672 11 11 11 11 11 11 2.6666667461395263672 2.6666667461395263672 6 11 11 11 11 4.3333334922790527344 11 6 2.6666667461395263672 6 6 11 6 11 11 6 11 6 6 4.3333334922790527344 11 11 11 11 11 11 11 11 11 11 11 11 11 11 11 11 11 11 11 11 11 11 11 11 11 11 11 11 11 11 11 11 11 4.3333334922790527344 11 4.3333334922790527344 11 11 11 11 11 4.3333334922790527344 4.3333334922790527344 4.3333334922790527344 4.3333334922790527344 11 11 4.3333334922790527344 11 11 11 2.6666667461395263672 11 11 11 11 11 11 11 11 11 11 11 11 11 11 11 11 11 11 11 11 11 11 11 11 11 11 11 11 11 11 11 11 11 11 11 11 11 
11 11 11 11 2.6666667461395263672 11 11 11 11 11 11 11 11 11 11 2.6666667461395263672 6 11 2.6666667461395263672 11 11 6 6 4.3333334922790527344 11 4.3333334922790527344 2.6666667461395263672 11 11 6 2.6666667461395263672 11 6 6 6 11 6 6 4.3333334922790527344 11 4.3333334922790527344 11 11 11 11 11 11 11 11 11 11 11 11 11 11 4.3333334922790527344 11 11 2.6666667461395263672 11 11 11 11 11 11 11 11 11 11 11 4.3333334922790527344 4.3333334922790527344 11 11 11 11 11 11 11 11 11 11 11 11 4.3333334922790527344 11 4.3333334922790527344 11 11 11 11 2.6666667461395263672 11 11 11 11 11 11 11 11 11 11 11 11 11 11 11 11 11 11 11 11 11 11 11 11 11 11 11 11 11 11 11 11 11 11 11 
11 11 11 11 2.6666667461395263672 11 11 11 2.6666667461395263672 7.6666665077209472656 11 11 11 11 2.6666667461395263672 6 6 11 11 11 11 6 2.6666667461395263672 4.3333334922790527344 11 4.3333334922790527344 6 11 2.6666667461395263672 4.3333334922790527344 11 4.3333334922790527344 6 6 11 6 6 2.6666667461395263672 6 11 4.3333334922790527344 11 11 11 11 11 11 11 11 11 11 11 11 11 11 11 11 11 2.6666667461395263672 11 11 11 11 11 11 11 11 6 11 4.3333334922790527344 6 11 4.3333334922790527344 4.3333334922790527344 11 11 11 11 4.3333334922790527344 4.3333334922790527344 4.3333334922790527344 4.3333334922790527344 4.3333334922790527344 4.3333334922790527344 4.3333334922790527344 4.3333334922790527344 11 11 11 11 11 2.6666667461395263672 11 11 11 11 11 11 11 11 11 11 11 11 11 11 11 11 11 11 11 11 11 11 11 11 11 11 11 11 11 11 11 11 11 11 11 
11 11 11 6 11 11 11 2.6666667461395263672 11 2.6666667461395263672 11 11 11 11 6 11 11 6 11 11 11 11 4.3333334922790527344 11 4.3333334922790527344 11 4.3333334922790527344 4.3333334922790527344 4.3333334922790527344 4.3333334922790527344 11 11 4.3333334922790527344 11 6 11 6 6 6 6 6 4.3333334922790527344 11 11 11 11 11 11 11 11 11 4.3333334922790527344 4.3333334922790527344 11 4.3333334922790527344 11 11 11 2.6666667461395263672 11 11 11 11 11 11 11 11 11 6 6 6 6 11 4.3333334922790527344 4.3333334922790527344 4.3333334922790527344 11 11 11 4.3333334922790527344 6 6 11 4.3333334922790527344 4.3333334922790527344 4.3333334922790527344 11 2.6666667461395263672 11 11 11 11 11 11 11 11 11 11 2.6666667461395263672 11 11 11 11 11 11 11 11 11 11 11 11 11 11 11 11 11 11 11 11 11 11 11 11 11 11 11 11 
11 11 11 11 11 11 11 2.6666667461395263672 11 11 11 11 11 6 11 6 11 6 6 2.6666667461395263672 6 4.3333334922790527344 11 4.3333334922790527344 4.3333334922790527344 11 4.3333334922790527344 4.3333334922790527344 4.3333334922790527344 11 2.6666667461395263672 2.6666667461395263672 11 11 2.6666667461395263672 2.6666667461395263672 6 11 6 6 6 4.3333334922790527344 6 11 11 11 11 11 11 11 11 4.3333334922790527344 4.3333334922790527344 11 11 11 6 11 11 11 11 11 11 11 11 11 11 11 11 4.3333334922790527344 6 4.3333334922790527344 4.3333334922790527344 4.3333334922790527344 11 4.3333334922790527344 4.3333334922790527344 4.3333334922790527344 4.3333334922790527344 11 11 11 11 11 11 4.3333334922790527344 11 11 11 11 11 11 11 11 11 11 11 11 11 11 11 11 11 11 11 11 11 11 11 11 11 11 11 11 11 11 11 11 11 11 11 11 11 11 11 11 11 
11 11 11 11 11 2.6666667461395263672 11 11 11 11 11 11 6 11 6 6 6 2.6666667461395263672 2.6666667461395263672 6 4.3333334922790527344 4.3333334922790527344 11 4.3333334922790527344 11 11 11 11 11 11 11 11 11 11 2.6666667461395263672 11 11 2.6666667461395263672 6 6 6 2.6666667461395263672 2.6666667461395263672 4.3333334922790527344 6 6 11 11 11 11 11 4.3333334922790527344 11 2.6666667461395263672 11 11 6 11 11 11 11 11 11 11 11 11 11 11 4.3333334922790527344 4.3333334922790527344 4.3333334922790527344 11 11 11 4.3333334922790527344 11 11 11 4.3333334922790527344 11 6 11 11 4.3333334922790527344 11 11 11 11 11 11 11 11 11 11 11 11 11 11 11 11 11 11 11 11 11 11 11 11 11 11 11 11 11 11 11 11 11 11 11 11 11 11 11 11 11 11 11 
11 11 11 11 11 2.6666667461395263672 2.6666667461395263672 11 11 11 11 11 2.6666667461395263672 6 11 11 11 11 11 11 4.3333334922790527344 4.3333334922790527344 6 11 11 11 11 11 4.3333334922790527344 11 2.6666667461395263672 4.3333334922790527344 11 6 6 11 11 11 6 6 6 6 11 4.3333334922790527344 6 6 6 4.3333334922790527344 4.3333334922790527344 11 4.3333334922790527344 4.3333334922790527344 11 4.3333334922790527344 11 4.3333334922790527344 11 11 11 11 11 2.6666667461395263672 11 11 11 11 11 11 2.6666667461395263672 4.3333334922790527344 11 11 4.3333334922790527344 2.6666667461395263672 11 11 11 11 11 4.3333334922790527344 11 11 11 11 6 11 11 11 11 11 11 11 11 11 11 11 11 11 11 11 11 11 11 11 11 11 11 11 11 11 11 11 11 11 11 11 11 11 11 11 11 11 11 11 11 11 11 
11 11 11 11 2.6666667461395263672 2.6666667461395263672 2.6666667461395263672 11 11 11 11 2.6666667461395263672 11 2.6666667461395263672 6 6 6 11 4.3333334922790527344 4.3333334922790527344 4.3333334922790527344 11 11 11 11 11 11 4.3333334922790527344 2.6666667461395263672 11 2.6666667461395263672 6 11 11 11 11 11 11 6 2.6666667461395263672 6 6 11 4.3333334922790527344 6 6 6 4.3333334922790527344 4.3333334922790527344 6 6 4.3333334922790527344 11 11 4.3333334922790527344 4.3333334922790527344 4.3333334922790527344 11 11 11 11 4.3333334922790527344 11 11 11 11 4.3333334922790527344 4.3333334922790527344 11 4.3333334922790527344 11 4.3333334922790527344 4.3333334922790527344 2.6666667461395263672 11 11 11 4.3333334922790527344 11 4.3333334922790527344 6 11 11 11 11 11 11 11 11 11 11 11 11 11 11 11 11 11 11 11 11 11 11 11 11 11 11 11 11 11 11 11 11 11 11 11 11 11 11 11 11 11 11 11 11 11 11 
11 11 11 2.6666667461395263672 2.6666667461395263672 2.6666667461395263672 11 11 11 11 11 2.6666667461395263672 2.6666667461395263672 2.6666667461395263672 11 11 11 4.3333334922790527344 4.3333334922790527344 4.3333334922790527344 4.3333334922790527344 11 11 11 11 11 11 4.3333334922790527344 4.3333334922790527344 11 11 6 11 6 11 11 4.3333334922790527344 4.3333334922790527344 11 11 6 6 6 11 11 6 6 4.3333334922790527344 11 6 6 4.3333334922790527344 11 4.3333334922790527344 4.3333334922790527344 4.3333334922790527344 4.3333334922790527344 11 11 11 11 4.3333334922790527344 4.3333334922790527344 11 4.3333334922790527344 4.3333334922790527344 4.3333334922790527344 4.3333334922790527344 4.3333334922790527344 6 6 4.3333334922790527344 4.3333334922790527344 11 11 11 2.6666667461395263672 2.6666667461395263672 4.3333334922790527344 11 6 6 11 11 11 11 11 11 11 11 11 11 11 11 11 11 11 11 11 11 11 11 11 11 11 11 11 11 11 11 11 11 11 11 11 11 11 11 11 11 11 11 11 11 11 11 11 
11 11 2.6666667461395263672 2.6666667461395263672 2.6666667461395263672 2.6666667461395263672 11 11 11 11 11 11 11 11 11 11 11 11 11 11 11 6 11 11 11 11 11 2.6666667461395263672 11 11 6 6 11 11 11 4.3333334922790527344 4.3333334922790527344 4.3333334922790527344 11 4.3333334922790527344 11 4.3333334922790527344 11 11 6 11 6 6 6 6 6 6 11 4.3333334922790527344 11 4.3333334922790527344 11 11 4.3333334922790527344 11 11 4.3333334922790527344 11 11 4.3333334922790527344 4.3333334922790527344 11 4.3333334922790527344 11 11 11 11 11 4.3333334922790527344 4.3333334922790527344 11 6 6 11 11 4.3333334922790527344 11 11 11 11 11 11 11 11 11 11 11 11 11 11 11 11 11 11 11 11 11 11 11 11 11 11 11 11 11 11 11 11 11 11 11 11 11 11 11 11 11 11 11 11 11 11 
11 11 2.6666667461395263672 6 2.6666667461395263672 2.6666667461395263672 11 11 11 11 11 11 2.6666667461395263672 11 2.6666667461395263672 11 11 2.6666667461395263672 2.6666667461395263672 11 11 11 11 11 11 11 11 11 11 2.6666667461395263672 6 6 11 11 11 4.3333334922790527344 4.3333334922790527344 4.3333334922790527344 11 11 4.3333334922790527344 11 4.3333334922790527344 11 4.3333334922790527344 11 6 6 6 6 11 6 11 4.3333334922790527344 4.3333334922790527344 4.3333334922790527344 4.3333334922790527344 4.3333334922790527344 11 11 11 4.3333334922790527344 4.3333334922790527344 4.3333334922790527344 6 6 6 6 6 6 4.3333334922790527344 11 11 4.3333334922790527344 11 6 6 11 11 4.3333334922790527344 11 11 11 11 11 11 11 11 11 11 11 11 11 11 11 11 11 11 11 11 11 11 11 11 11 11 11 11 11 11 11 11 11 11 11 11 11 11 11 11 11 11 11 11 11 11 11 
11 11 2.6666667461395263672 2.6666667461395263672 2.6666667461395263672 11 11 11 11 11 11 2.6666667461395263672 11 11 2.6666667461395263672 11 2.6666667461395263672 2.6666667461395263672 11 6 11 11 11 11 11 11 11 2.6666667461395263672 11 11 11 11 11 11 4.3333334922790527344 11 4.3333334922790527344 11 4.3333334922790527344 11 11 11 4.3333334922790527344 4.3333334922790527344 4.3333334922790527344 11 6 6 6 6 6 6 2.6666667461395263672 4.3333334922790527344 4.3333334922790527344 11 11 4.3333334922790527344 11 11 11 11 11 11 11 11 11 11 11 11 4.3333334922790527344 11 11 7.6666665077209472656 4.3333334922790527344 11 6 6 6 4.3333334922790527344 11 11 11 11 11 11 11 11 11 11 11 11 11 11 11 11 11 11 11 11 11 11 11 11 11 11 11 11 11 11 11 11 11 11 11 11 11 11 11 11 11 11 11 11 11 11 11 
11 11 2.6666667461395263672 2.6666667461395263672 11 11 11 11 11 11 11 2.6666667461395263672 11 11 2.6666667461395263672 2.6666667461395263672 2.6666667461395263672 11 11 11 11 11 11 11 11 11 11 11 11 11 6 6 11 11 11 11 4.3333334922790527344 4.3333334922790527344 11 4.3333334922790527344 11 11 4.3333334922790527344 4.3333334922790527344 11 4.3333334922790527344 6 6 6 6 11 4.3333334922790527344 11 4.3333334922790527344 11 4.3333334922790527344 4.3333334922790527344 6 6 6 11 6 6 6 6 6 6 6 6 6 11 11 7.6666665077209472656 4.3333334922790527344 7.6666665077209472656 7.6666665077209472656 11 11 11 6 11 11 11 11 11 11 11 11 11 11 11 11 11 11 11 11 11 11 11 11 11 11 11 11 11 11 11 11 11 11 11 11 11 11 11 11 11 11 11 11 11 11 11 11 11 11 11 
11 11 2.6666667461395263672 2.6666667461395263672 11 11 11 11 11 2.6666667461395263672 2.6666667461395263672 11 11 2.6666667461395263672 11 2.6666667461395263672 2.6666667461395263672 2.6666667461395263672 11 11 11 11 11 11 11 11 11 11 11 11 11 11 4.3333334922790527344 11 4.3333334922790527344 4.3333334922790527344 11 4.3333334922790527344 11 11 4.3333334922790527344 11 11 11 4.3333334922790527344 4.3333334922790527344 11 11 6 11 11 4.3333334922790527344 11 6 4.3333334922790527344 11 6 11 6 6 11 11 11 11 6 6 6 6 6 6 7.6666665077209472656 11 11 7.6666665077209472656 11 11 6 6 11 11 2.6666667461395263672 11 11 11 11 11 11 11 11 11 11 11 11 11 11 11 11 11 11 11 11 11 11 11 11 11 11 11 11 11 11 11 11 11 11 11 11 11 11 11 11 11 11 11 11 11 11 
11 11 11 11 11 11 11 11 11 2.6666667461395263672 11 11 2.6666667461395263672 2.6666667461395263672 11 11 11 11 11 11 11 11 11 11 11 11 11 11 11 11 11 11 4.3333334922790527344 11 11 11 11 11 11 4.3333334922790527344 11 11 4.3333334922790527344 11 4.3333334922790527344 4.3333334922790527344 4.3333334922790527344 6 6 6 6 6 11 11 4.3333334922790527344 11 11 11 6 6 11 6 6 11 6 6 6 6 6 6 6 6 7.6666665077209472656 11 11 11 7.6666665077209472656 6 6 11 11 11 11 11 11 11 11 11 11 11 11 11 11 11 11 11 11 11 11 11 11 11 11 11 11 11 11 11 11 11 11 11 11 11 11 11 11 11 11 11 11 11 11 11 11 11 11 
11 11 11 11 11 11 2.6666667461395263672 11 11 11 11 11 2.6666667461395263672 11 11 11 11 6 11 11 11 11 11 11 11 11 11 11 11 11 11 11 11 11 11 11 4.3333334922790527344 11 4.3333334922790527344 11 4.3333334922790527344 4.3333334922790527344 11 11 4.3333334922790527344 11 4.3333334922790527344 11 6 11 11 6 11 11 6 6 4.3333334922790527344 11 11 11 11 11 11 11 11 11 11 6 11 11 6 7.6666665077209472656 7.6666665077209472656 7.6666665077209472656 7.6666665077209472656 11 7.6666665077209472656 7.6666665077209472656 11 11 11 11 11 11 11 11 11 11 11 11 11 11 11 11 11 11 11 11 11 11 11 11 11 11 11 11 11 11 11 11 11 11 11 11 11 11 11 11 11 11 11 11 11 11 11 11 11 
11 11 11 11 11 11 11 11 11 2.6666667461395263672 11 11 11 11 11 2.6666667461395263672 11 11 11 11 11 11 11 11 11 11 11 11 11 11 4.3333334922790527344 4.3333334922790527344 4.3333334922790527344 11 11 4.3333334922790527344 4.3333334922790527344 4.3333334922790527344 11 11 11 11 4.3333334922790527344 4.3333334922790527344 4.3333334922790527344 11 4.3333334922790527344 11 6 6 11 6 6 6 11 4.3333334922790527344 11 11 11 11 11 11 11 11 11 11 11 11 11 11 7.6666665077209472656 7.6666665077209472656 7.6666665077209472656 11 7.6666665077209472656 7.6666665077209472656 11 11 11 11 11 11 11 11 11 11 11 11 11 11 2.6666667461395263672 11 6 11 11 11 11 11 11 11 11 11 11 11 11 11 11 11 11 11 11 11 11 11 11 11 11 11 11 11 11 11 11 11 11 11 11 
11 11 11 11 11 11 11 11 11 11 11 2.6666667461395263672 11 11 11 11 11 11 11 2.6666667461395263672 2.6666667461395263672 11 11 11 11 11 11 11 11 11 4.3333334922790527344 4.3333334922790527344 4.3333334922790527344 11 4.3333334922790527344 4.3333334922790527344 4.3333334922790527344 4.3333334922790527344 4.3333334922790527344 11 11 4.3333334922790527344 11 4.3333334922790527344 4.3333334922790527344 11 4.3333334922790527344 4.3333334922790527344 4.3333334922790527344 6 6 11 6 6 4.3333334922790527344 11 11 11 11 11 11 11 11 11 11 11 11 11 6 7.6666665077209472656 11 11 7.6666665077209472656 11 4.3333334922790527344 7.6666665077209472656 7.6666665077209472656 6 11 11 11 11 11 11 11 11 11 11 11 11 11 11 11 11 11 11 11 11 11 11 11 11 11 11 11 11 11 11 11 11 11 11 11 11 11 11 11 11 11 11 11 11 11 11 11 11 11 
11 11 11 11 11 11 11 11 2.6666667461395263672 11 11 11 2.6666667461395263672 11 11 11 11 11 11 2.6666667461395263672 11 11 11 11 11 11 11 11 11 11 11 11 4.3333334922790527344 4.3333334922790527344 4.3333334922790527344 4.3333334922790527344 11 4.3333334922790527344 4.3333334922790527344 11 11 4.3333334922790527344 11 11 11 11 11 11 11 6 11 11 11 11 11 11 11 11 11 11 11 11 11 11 11 11 11 11 6 7.6666665077209472656 7.6666665077209472656 6 11 4.3333334922790527344 4.3333334922790527344 7.6666665077209472656 7.6666665077209472656 6 2.6666667461395263672 11 11 11 11 11 11 11 11 4.3333334922790527344 11 6 2.6666667461395263672 11 11 11 11 11 11 11 11 11 11 11 11 11 11 11 11 11 11 11 11 11 11 11 11 11 11 11 11 11 11 11 11 11 11 11 11 
11 11 11 11 11 11 11 11 11 11 11 11 2.6666667461395263672 11 11 11 6 6 2.6666667461395263672 11 11 11 11 11 11 11 11 11 11 4.3333334922790527344 4.3333334922790527344 11 11 11 4.3333334922790527344 4.3333334922790527344 4.3333334922790527344 4.3333334922790527344 11 11 4.3333334922790527344 11 11 11 11 11 11 11 4.3333334922790527344 4.3333334922790527344 11 11 11 11 11 11 11 11 11 11 11 11 11 11 11 11 11 11 2.6666667461395263672 11 6 11 11 11 4.3333334922790527344 7.6666665077209472656 7.6666665077209472656 11 11 11 11 11 11 11 11 11 11 11 2.6666667461395263672 11 11 2.6666667461395263672 11 11 11 11 11 11 11 11 11 11 11 11 11 11 11 11 11 11 11 11 11 11 11 11 11 11 11 11 11 11 11 11 11 11 11 
11 11 11 11 11 11 11 11 11 11 11 11 11 6 11 11 11 11 2.6666667461395263672 2.6666667461395263672 2.6666667461395263672 11 11 11 11 11 11 11 4.3333334922790527344 11 11 11 11 4.3333334922790527344 4.3333334922790527344 4.3333334922790527344 11 11 4.3333334922790527344 4.3333334922790527344 4.3333334922790527344 4.3333334922790527344 4.3333334922790527344 4.3333334922790527344 11 4.3333334922790527344 11 4.3333334922790527344 6 11 11 6 11 7.6666665077209472656 7.6666665077209472656 7.6666665077209472656 11 11 11 11 11 11 11 11 11 11 11 11 11 11 6 11 4.3333334922790527344 6 11 6 11 11 11 11 11 11 11 11 11 2.6666667461395263672 11 11 11 6 6 11 11 11 11 11 11 11 11 11 11 11 11 11 11 11 11 11 11 11 11 11 11 11 11 11 11 11 11 11 11 11 11 11 11 11 11 
11 11 11 11 11 11 11 11 11 11 11 11 6 11 6 11 11 2.6666667461395263672 11 11 11 11 11 11 11 11 11 4.3333334922790527344 4.3333334922790527344 4.3333334922790527344 4.3333334922790527344 11 4.3333334922790527344 4.3333334922790527344 4.3333334922790527344 4.3333334922790527344 4.3333334922790527344 11 4.3333334922790527344 11 11 11 4.3333334922790527344 11 11 11 4.3333334922790527344 6 6 6 6 6 6 11 11 11 7.6666665077209472656 11 11 11 11 11 11 11 11 11 7.6666665077209472656 11 11 11 6 11 11 11 6 7.6666665077209472656 7.6666665077209472656 4.3333334922790527344 11 11 11 11 11 4.3333334922790527344 4.3333334922790527344 4.3333334922790527344 4.3333334922790527344 4.3333334922790527344 11 11 11 6 11 11 2.6666667461395263672 11 11 11 11 11 11 11 11 11 11 11 11 11 11 11 11 11 11 11 11 11 11 11 11 11 11 11 11 11 11 11 11 
11 11 11 11 11 11 11 11 11 11 11 11 11 6 6 6 2.6666667461395263672 11 2.6666667461395263672 11 2.6666667461395263672 11 2.6666667461395263672 11 11 11 11 11 4.3333334922790527344 4.3333334922790527344 11 4.3333334922790527344 4.3333334922790527344 11 11 4.3333334922790527344 11 11 11 11 4.3333334922790527344 2.6666667461395263672 11 6 6 11 6 11 11 6 6 11 11 6 11 7.6666665077209472656 11 7.6666665077209472656 11 11 11 11 11 11 11 11 11 7.6666665077209472656 6 11 11 11 6 11 6 7.6666665077209472656 7.6666665077209472656 11 11 11 11 11 11 4.3333334922790527344 4.3333334922790527344 11 4.3333334922790527344 6 11 11 11 6 11 6 11 11 11 11 11 11 11 11 11 11 11 11 11 11 11 11 11 11 11 11 11 11 11 11 11 11 11 11 11 11 11 11 11 
11 11 11 11 11 11 11 11 11 6 11 11 11 11 11 11 2.6666667461395263672 11 6 6 11 11 2.6666667461395263672 2.6666667461395263672 11 11 11 11 4.3333334922790527344 11 4.3333334922790527344 4.3333334922790527344 11 4.3333334922790527344 4.3333334922790527344 11 4.3333334922790527344 4.3333334922790527344 11 4.3333334922790527344 11 11 6 11 6 6 6 11 11 6 6 6 6 6 11 11 11 7.6666665077209472656 7.6666665077209472656 11 11 11 11 11 7.6666665077209472656 7.6666665077209472656 7.6666665077209472656 2.6666667461395263672 6 11 6 6 11 6 11 11 7.6666665077209472656 11 11 11 11 11 11 11 11 4.3333334922790527344 11 6 6 11 4.3333334922790527344 4.3333334922790527344 11 11 11 11 11 11 11 11 11 11 11 11 11 11 11 11 11 11 11 11 11 11 11 11 11 11 11 11 11 11 11 11 11 11 11 
11 11 11 11 11 11 11 11 6 11 11 11 11 11 6 11 11 2.6666667461395263672 11 2.6666667461395263672 11 2.6666667461395263672 11 11 6 11 11 4.3333334922790527344 4.3333334922790527344 4.3333334922790527344 4.3333334922790527344 2.6666667461395263672 2.6666667461395263672 4.3333334922790527344 4.3333334922790527344 11 4.3333334922790527344 4.3333334922790527344 4.3333334922790527344 4.3333334922790527344 11 4.3333334922790527344 4.3333334922790527344 11 6 6 11 11 6 2.6666667461395263672 6 6 6 6 11 7.6666665077209472656 7.6666665077209472656 7.6666665077209472656 7.6666665077209472656 11 11 11 11 11 7.6666665077209472656 11 7.6666665077209472656 11 6 11 6 6 11 6 11 7.6666665077209472656 11 11 11 11 11 11 11 2.6666667461395263672 11 4.3333334922790527344 6 6 11 11 11 11 11 11 11 11 11 11 11 11 11 11 11 11 11 11 11 11 11 11 11 11 11 11 11 11 11 11 11 11 11 11 11 11 11 11 11 
11 11 11 11 11 11 2.6666667461395263672 2.6666667461395263672 11 11 11 11 6 11 11 2.6666667461395263672 11 6 6 11 11 6 6 11 11 11 4.3333334922790527344 11 2.6666667461395263672 4.3333334922790527344 4.3333334922790527344 4.3333334922790527344 11 4.3333334922790527344 4.3333334922790527344 11 4.3333334922790527344 4.3333334922790527344 4.3333334922790527344 11 11 4.3333334922790527344 4.3333334922790527344 4.3333334922790527344 11 4.3333334922790527344 11 11 11 11 6 2.6666667461395263672 11 11 2.6666667461395263672 11 7.6666665077209472656 7.6666665077209472656 11 11 11 11 11 7.6666665077209472656 7.6666665077209472656 7.6666665077209472656 11 7.6666665077209472656 6 11 6 6 4.3333334922790527344 4.3333334922790527344 6 11 7.6666665077209472656 11 11 11 11 11 6 2.6666667461395263672 6 2.6666667461395263672 6 11 4.3333334922790527344 4.3333334922790527344 11 11 4.3333334922790527344 11 2.6666667461395263672 2.6666667461395263672 11 11 11 11 11 11 11 11 11 11 11 11 11 11 11 11 11 11 11 11 11 11 11 11 11 11 11 11 11 11 11 
11 11 11 11 11 11 2.6666667461395263672 11 6 11 11 11 11 11 11 2.6666667461395263672 11 6 2.6666667461395263672 2.6666667461395263672 11 2.6666667461395263672 6 11 11 11 4.3333334922790527344 11 11 2.6666667461395263672 11 4.3333334922790527344 11 4.3333334922790527344 11 4.3333334922790527344 11 11 11 4.3333334922790527344 11 4.3333334922790527344 4.3333334922790527344 6 4.3333334922790527344 4.3333334922790527344 11 6 6 6 6 11 11 11 2.6666667461395263672 7.6666665077209472656 11 11 7.6666665077209472656 7.6666665077209472656 7.6666665077209472656 11 7.6666665077209472656 7.6666665077209472656 7.6666665077209472656 7.6666665077209472656 11 11 11 11 11 11 11 11 11 7.6666665077209472656 11 11 11 11 11 11 11 11 11 6 4.3333334922790527344 4.3333334922790527344 4.3333334922790527344 11 11 11 11 4.3333334922790527344 4.3333334922790527344 11 11 11 11 11 11 11 11 11 11 11 11 11 11 11 11 11 11 11 11 11 11 11 11 11 11 11 11 11 11 11 11 
11 11 11 11 11 11 11 2.6666667461395263672 2.6666667461395263672 11 11 11 11 11 11 11 2.6666667461395263672 6 11 11 11 6 11 6 11 11 11 6 6 4.3333334922790527344 4.3333334922790527344 11 4.3333334922790527344 11 11 11 4.3333334922790527344 4.3333334922790527344 4.3333334922790527344 4.3333334922790527344 4.3333334922790527344 11 4.3333334922790527344 11 6 4.3333334922790527344 6 6 6 11 11 11 11 11 2.6666667461395263672 11 11 11 11 11 7.6666665077209472656 7.6666665077209472656 11 11 7.6666665077209472656 7.6666665077209472656 7.6666665077209472656 7.6666665077209472656 7.6666665077209472656 11 11 6 11 6 6 11 11 11 11 11 11 11 6 6 11 6 4.3333334922790527344 11 11 11 11 11 4.3333334922790527344 2.6666667461395263672 11 11 11 11 11 11 11 11 11 11 11 11 11 11 11 11 11 11 11 11 11 11 11 11 11 11 11 11 11 11 11 11 11 
11 11 11 11 11 11 11 11 2.6666667461395263672 11 2.6666667461395263672 2.6666667461395263672 11 2.6666667461395263672 11 2.6666667461395263672 2.6666667461395263672 11 2.6666667461395263672 11 2.6666667461395263672 11 11 11 11 11 4.3333334922790527344 4.3333334922790527344 4.3333334922790527344 11 11 4.3333334922790527344 4.3333334922790527344 4.3333334922790527344 11 4.3333334922790527344 11 11 2.6666667461395263672 4.3333334922790527344 11 11 11 11 11 4.3333334922790527344 6 11 2.6666667461395263672 11 11 11 11 2.6666667461395263672 11 7.6666665077209472656 11 11 11 11 7.6666665077209472656 7.6666665077209472656 7.6666665077209472656 7.6666665077209472656 7.6666665077209472656 7.6666665077209472656 7.6666665077209472656 7.6666665077209472656 7.6666665077209472656 11 6 11 11 6 11 7.6666665077209472656 7.6666665077209472656 11 11 11 11 11 11 6 6 11 11 6 4.3333334922790527344 4.3333334922790527344 11 11 11 11 11 2.6666667461395263672 6 2.6666667461395263672 4.3333334922790527344 11 11 11 11 11 11 11 11 11 11 11 11 11 11 11 11 11 11 11 11 11 11 11 11 11 11 11 11 
11 11 11 11 11 2.6666667461395263672 2.6666667461395263672 11 2.6666667461395263672 11 11 2.6666667461395263672 6 11 2.6666667461395263672 2.6666667461395263672 11 2.6666667461395263672 2.6666667461395263672 11 11 11 11 6 11 4.3333334922790527344 4.3333334922790527344 4.3333334922790527344 11 4.3333334922790527344 11 4.3333334922790527344 11 4.3333334922790527344 4.3333334922790527344 4.3333334922790527344 4.3333334922790527344 11 4.3333334922790527344 11 11 11 11 11 11 6 11 11 11 11 11 11 11 11 11 2.6666667461395263672 11 11 7.6666665077209472656 7.6666665077209472656 7.6666665077209472656 7.6666665077209472656 7.6666665077209472656 7.6666665077209472656 7.6666665077209472656 7.6666665077209472656 7.6666665077209472656 9.3333330154418945312 9.3333330154418945312 11 11 11 6 7.6666665077209472656 7.6666665077209472656 11 9.3333330154418945312 11 11 11 11 11 11 11 6 11 6 4.3333334922790527344 4.3333334922790527344 11 11 11 6 11 11 11 11 11 2.6666667461395263672 11 11 11 11 11 11 11 11 11 11 11 11 11 11 11 11 11 11 11 11 11 11 11 11 11 11 11 11 
11 11 11 11 11 11 2.6666667461395263672 11 11 11 11 2.6666667461395263672 6 11 2.6666667461395263672 2.6666667461395263672 11 11 11 6 6 11 6 2.6666667461395263672 11 4.3333334922790527344 11 11 11 4.3333334922790527344 11 4.3333334922790527344 11 11 11 11 4.3333334922790527344 11 6 11 11 11 11 4.3333334922790527344 4.3333334922790527344 11 11 11 11 11 11 11 11 2.6666667461395263672 11 11 7.6666665077209472656 11 11 11 7.6666665077209472656 7.6666665077209472656 7.6666665077209472656 9.3333330154418945312 11 9.3333330154418945312 9.3333330154418945312 9.3333330154418945312 9.3333330154418945312 11 11 11 7.6666665077209472656 7.6666665077209472656 7.6666665077209472656 9.3333330154418945312 11 11 11 11 11 11 11 6 6 4.3333334922790527344 11 11 11 6 6 6 11 6 11 11 4.3333334922790527344 4.3333334922790527344 4.3333334922790527344 7.6666665077209472656 7.6666665077209472656 11 11 11 11 11 11 11 11 11 11 11 11 11 11 11 11 11 11 11 11 11 11 11 11 11 11 
11 11 11 11 11 11 11 11 11 11 11 11 11 6 2.6666667461395263672 2.6666667461395263672 2.6666667461395263672 6 6 6 11 6 6 11 11 11 4.3333334922790527344 11 11 11 11 11 11 4.3333334922790527344 4.3333334922790527344 4.3333334922790527344 11 11 11 11 11 6 11 4.3333334922790527344 11 11 11 11 11 2.6666667461395263672 11 11 11 2.6666667461395263672 11 11 7.6666665077209472656 11 11 11 11 11 9.3333330154418945312 11 9.3333330154418945312 9.3333330154418945312 9.3333330154418945312 9.3333330154418945312 9.3333330154418945312 11 11 11 11 7.6666665077209472656 7.6666665077209472656 9.3333330154418945312 9.3333330154418945312 11 11 11 11 11 11 6 6 11 7.6666665077209472656 11 7.6666665077209472656 7.6666665077209472656 6 6 6 6 11 11 4.3333334922790527344 11 11 7.6666665077209472656 11 11 11 11 11 11 11 11 11 11 11 11 11 11 11 11 11 11 11 11 11 11 11 11 11 11 11 
11 11 11 11 11 11 11 11 11 11 11 11 11 6 6 11 2.6666667461395263672 6 2.6666667461395263672 11 6 6 11 11 4.3333334922790527344 11 11 11 11 6 11 11 11 11 4.3333334922790527344 11 11 11 11 11 11 6 6 4.3333334922790527344 11 11 11 11 11 11 11 11 2.6666667461395263672 2.6666667461395263672 11 2.6666667461395263672 9.3333330154418945312 11 11 11 11 11 9.3333330154418945312 9.3333330154418945312 11 9.3333330154418945312 9.3333330154418945312 9.3333330154418945312 9.3333330154418945312 11 6 11 11 7.6666665077209472656 11 11 11 11 11 11 11 6 11 11 11 11 7.6666665077209472656 11 11 2.6666667461395263672 7.6666665077209472656 6 6 6 6 11 11 11 2.6666667461395263672 7.6666665077209472656 11 11 11 11 11 11 11 11 11 11 11 11 11 11 11 11 11 11 11 11 11 11 11 11 11 11 11 
11 11 11 11 11 11 11 11 11 11 11 11 2.6666667461395263672 2.6666667461395263672 11 11 11 11 6 6 6 11 2.6666667461395263672 11 11 11 11 6 11 11 11 11 4.3333334922790527344 4.3333334922790527344 11 6 6 6 6 6 11 6 11 11 11 11 11 11 11 11 2.6666667461395263672 11 2.6666667461395263672 11 11 2.6666667461395263672 2.6666667461395263672 11 11 11 11 11 9.3333330154418945312 9.3333330154418945312 9.3333330154418945312 11 9.3333330154418945312 9.3333330154418945312 11 11 11 11 11 11 7.6666665077209472656 11 11 7.6666665077209472656 11 11 11 6 11 11 7.6666665077209472656 7.6666665077209472656 11 7.6666665077209472656 7.6666665077209472656 7.6666665077209472656 11 7.6666665077209472656 6 6 11 11 6 11 11 7.6666665077209472656 11 11 11 11 2.6666667461395263672 11 11 11 11 11 11 11 11 11 11 11 11 11 11 11 11 11 11 11 11 11 11 
11 11 11 11 11 11 11 11 11 11 11 11 2.6666667461395263672 6 11 2.6666667461395263672 11 6 11 11 11 11 11 11 11 11 6 11 11 11 11 11 11 11 6 11 11 11 11 6 2.6666667461395263672 11 11 11 11 11 11 11 11 11 11 11 11 11 11 11 2.6666667461395263672 11 11 11 11 11 11 9.3333330154418945312 11 9.3333330154418945312 11 11 11 9.3333330154418945312 11 7.6666665077209472656 11 11 11 11 11 7.6666665077209472656 11 11 11 11 7.6666665077209472656 7.6666665077209472656 7.6666665077209472656 7.6666665077209472656 11 11 7.6666665077209472656 11 11 2.6666667461395263672 11 7.6666665077209472656 6 6 11 6 6 11 11 11 4.3333334922790527344 4.3333334922790527344 4.3333334922790527344 11 11 11 11 11 11 11 11 11 11 11 11 11 11 11 11 11 11 11 11 11 11 
11 11 11 11 11 11 11 11 11 11 11 2.6666667461395263672 6 11 6 11 2.6666667461395263672 11 11 11 11 11 11 11 6 11 11 11 11 11 11 11 11 6 6 6 6 6 11 11 11 11 11 11 11 11 11 11 11 11 11 11 11 11 11 11 11 9.3333330154418945312 11 11 9.3333330154418945312 11 6 11 11 9.3333330154418945312 11 11 9.3333330154418945312 11 11 11 11 11 11 7.6666665077209472656 11 11 7.6666665077209472656 11 11 7.6666665077209472656 7.6666665077209472656 7.6666665077209472656 11 11 11 11 7.6666665077209472656 7.6666665077209472656 7.6666665077209472656 7.6666665077209472656 11 11 11 7.6666665077209472656 7.6666665077209472656 11 6 11 11 4.3333334922790527344 4.3333334922790527344 11 11 11 11 11 11 11 11 11 11 11 11 11 11 11 11 11 11 11 11 11 11 11 11 
11 11 11 11 11 11 11 11 11 11 11 2.6666667461395263672 6 11 6 11 11 11 11 11 11 11 11 11 6 6 6 11 11 11 11 2.6666667461395263672 6 6 2.6666667461395263672 2.6666667461395263672 11 2.6666667461395263672 2.6666667461395263672 11 11 11 11 11 11 11 11 11 11 11 11 11 11 11 11 11 11 9.3333330154418945312 9.3333330154418945312 11 11 11 11 9.3333330154418945312 9.3333330154418945312 11 11 11 9.3333330154418945312 9.3333330154418945312 11 11 11 11 11 11 11 11 11 11 11 11 7.6666665077209472656 11 7.6666665077209472656 11 2.6666667461395263672 9.3333330154418945312 11 7.6666665077209472656 2.6666667461395263672 11 7.6666665077209472656 11 7.6666665077209472656 7.6666665077209472656 11 6 11 6 6 4.3333334922790527344 11 11 11 2.6666667461395263672 11 11 11 11 11 11 11 11 11 11 11 11 11 11 11 11 11 11 11 11 11 
11 11 11 11 11 11 11 11 11 11 11 6 11 2.6666667461395263672 2.6666667461395263672 11 11 11 11 11 11 2.6666667461395263672 6 6 6 11 11 6 6 11 11 6 6 11 11 6 2.6666667461395263672 6 11 11 11 11 11 11 11 11 11 11 11 11 11 11 11 11 11 11 11 11 11 11 11 7.6666665077209472656 9.3333330154418945312 9.3333330154418945312 11 9.3333330154418945312 11 9.3333330154418945312 11 9.3333330154418945312 11 9.3333330154418945312 11 11 9.3333330154418945312 11 11 11 11 11 11 11 11 11 11 7.6666665077209472656 7.6666665077209472656 7.6666665077209472656 9.3333330154418945312 7.6666665077209472656 11 7.6666665077209472656 11 11 7.6666665077209472656 11 11 11 6 4.3333334922790527344 11 4.3333334922790527344 11 11 2.6666667461395263672 11 11 11 11 11 11 2.6666667461395263672 11 11 11 2.6666667461395263672 11 11 11 11 11 11 11 11 11 11 11 
11 11 11 11 11 11 11 11 11 11 11 11 11 2.6666667461395263672 11 11 11 11 11 11 11 6 6 6 11 6 6 6 6 11 11 11 11 11 2.6666667461395263672 2.6666667461395263672 6 6 2.6666667461395263672 2.6666667461395263672 11 11 11 11 11 11 11 11 11 11 11 11 11 11 11 11 11 2.6666667461395263672 7.6666665077209472656 7.6666665077209472656 7.6666665077209472656 7.6666665077209472656 9.3333330154418945312 11 9.3333330154418945312 9.3333330154418945312 9.3333330154418945312 11 11 11 9.3333330154418945312 11 11 11 9.3333330154418945312 11 11 11 11 11 11 11 7.6666665077209472656 7.6666665077209472656 7.6666665077209472656 11 11 7.6666665077209472656 7.6666665077209472656 11 11 7.6666665077209472656 11 11 6 6 6 6 6 11 2.6666667461395263672 4.3333334922790527344 11 11 4.3333334922790527344 11 11 11 11 11 11 2.6666667461395263672 11 11 11 11 11 11 11 11 11 11 11 11 11 11 11 
11 11 11 11 11 11 11 11 11 11 11 11 2.6666667461395263672 11 11 11 11 11 11 11 2.6666667461395263672 6 6 2.6666667461395263672 6 6 6 11 11 6 6 6 6 6 2.6666667461395263672 6 6 2.6666667461395263672 2.6666667461395263672 11 11 11 11 11 11 11 11 11 11 11 11 11 11 11 11 11 11 2.6666667461395263672 7.6666665077209472656 7.6666665077209472656 7.6666665077209472656 7.6666665077209472656 9.3333330154418945312 9.3333330154418945312 9.3333330154418945312 11 9.3333330154418945312 9.3333330154418945312 9.3333330154418945312 9.3333330154418945312 9.3333330154418945312 11 11 11 9.3333330154418945312 11 11 11 11 11 11 11 7.6666665077209472656 7.6666665077209472656 7.6666665077209472656 7.6666665077209472656 11 9.3333330154418945312 9.3333330154418945312 9.3333330154418945312 7.6666665077209472656 9.3333330154418945312 11 6 6 6 6 11 11 11 11 4.3333334922790527344 11 4.3333334922790527344 4.3333334922790527344 11 11 11 11 2.6666667461395263672 11 11 11 11 11 11 11 11 11 11 11 11 11 11 11 11 11 
11 11 11 11 11 11 11 11 11 11 11 11 11 11 11 11 11 11 11 11 11 2.6666667461395263672 2.6666667461395263672 11 11 11 6 11 11 6 6 6 6 11 2.6666667461395263672 11 11 6 11 11 11 11 11 11 11 11 11 11 11 11 11 11 11 11 11 11 2.6666667461395263672 2.6666667461395263672 7.6666665077209472656 7.6666665077209472656 7.6666665077209472656 7.6666665077209472656 9.3333330154418945312 9.3333330154418945312 9.3333330154418945312 9.3333330154418945312 9.3333330154418945312 9.3333330154418945312 11 11 9.3333330154418945312 9.3333330154418945312 9.3333330154418945312 9.3333330154418945312 9.3333330154418945312 11 11 9.3333330154418945312 11 11 11 7.6666665077209472656 11 7.6666665077209472656 11 9.3333330154418945312 11 2.6666667461395263672 9.3333330154418945312 9.3333330154418945312 9.3333330154418945312 2.6666667461395263672 7.6666665077209472656 11 11 11 11 11 11 11 11 4.3333334922790527344 4.3333334922790527344 11 11 4.3333334922790527344 2.6666667461395263672 11 11 11 11 11 11 11 11 11 11 11 11 11 11 11 11 11 11 11 11 
11 11 11 11 11 11 11 11 11 11 11 11 11 11 11 11 11 11 11 11 11 11 11 11 11 11 6 11 11 11 6 11 11 11 6 6 11 6 6 11 11 11 11 11 11 11 11 11 11 11 11 11 11 11 11 2.6666667461395263672 2.6666667461395263672 6 6 6 11 11 11 11 11 9.3333330154418945312 9.3333330154418945312 9.3333330154418945312 9.3333330154418945312 9.3333330154418945312 9.3333330154418945312 9.3333330154418945312 9.3333330154418945312 9.3333330154418945312 9.3333330154418945312 9.3333330154418945312 9.3333330154418945312 11 11 11 11 7.6666665077209472656 7.6666665077209472656 7.6666665077209472656 7.6666665077209472656 11 11 9.3333330154418945312 11 9.3333330154418945312 9.3333330154418945312 11 7.6666665077209472656 11 7.6666665077209472656 11 11 11 11 11 11 11 11 4.3333334922790527344 4.3333334922790527344 11 11 11 11 11 11 11 11 11 11 11 11 11 11 11 11 11 11 11 11 11 11 
11 11 11 11 11 11 11 11 11 11 11 11 11 11 11 11 11 11 11 11 11 11 11 11 11 11 6 11 11 6 4.3333334922790527344 6 4.3333334922790527344 11 4.3333334922790527344 6 11 6 11 11 11 11 11 11 11 11 11 11 11 11 11 11 11 2.6666667461395263672 11 2.6666667461395263672 6 11 11 7.6666665077209472656 11 11 7.6666665077209472656 11 11 11 11 11 9.3333330154418945312 9.3333330154418945312 11 11 9.3333330154418945312 11 9.3333330154418945312 11 9.3333330154418945312 2.6666667461395263672 11 2.6666667461395263672 11 11 9.3333330154418945312 9.3333330154418945312 9.3333330154418945312 9.3333330154418945312 9.3333330154418945312 9.3333330154418945312 9.3333330154418945312 9.3333330154418945312 11 7.6666665077209472656 7.6666665077209472656 11 11 11 11 6 11 11 11 11 11 11 11 11 11 11 11 11 6 11 2.6666667461395263672 11 11 11 11 11 11 11 11 11 11 11 11 11 11 
11 11 11 11 11 11 11 11 11 11 11 11 11 11 11 11 11 11 11 11 11 11 11 11 11 6 11 11 11 11 11 11 11 11 4.3333334922790527344 4.3333334922790527344 11 11 11 11 11 11 11 11 11 11 11 11 2.6666667461395263672 2.6666667461395263672 11 11 11 11 2.6666667461395263672 11 11 11 6 7.6666665077209472656 11 11 11 11 11 9.3333330154418945312 9.3333330154418945312 11 11 9.3333330154418945312 11 11 11 11 9.3333330154418945312 11 11 11 11 11 11 9.3333330154418945312 9.3333330154418945312 9.3333330154418945312 9.3333330154418945312 9.3333330154418945312 11 9.3333330154418945312 9.3333330154418945312 11 11 7.6666665077209472656 7.6666665077209472656 6 11 11 11 11 11 11 11 11 6 6 11 2.6666667461395263672 11 11 11 6 6 2.6666667461395263672 11 11 11 11 11 11 11 11 11 11 11 11 11 11 11 
11 11 11 11 11 11 11 11 11 11 11 11 11 11 11 11 11 11 11 11 11 11 11 11 11 11 11 11 11 11 11 2.6666667461395263672 11 11 11 11 11 11 11 11 11 11 11 11 11 11 11 11 11 11 11 11 11 11 11 11 6 11 11 11 7.6666665077209472656 7.6666665077209472656 11 11 11 9.3333330154418945312 11 11 11 9.3333330154418945312 11 9.3333330154418945312 9.3333330154418945312 9.3333330154418945312 11 11 11 11 11 11 11 9.3333330154418945312 9.3333330154418945312 9.3333330154418945312 9.3333330154418945312 9.3333330154418945312 9.3333330154418945312 9.3333330154418945312 7.6666665077209472656 7.6666665077209472656 11 7.6666665077209472656 9.3333330154418945312 9.3333330154418945312 11 11 11 11 11 11 11 11 11 11 6 2.6666667461395263672 11 11 6 6 6 11 11 11 11 11 11 11 11 11 11 11 11 11 11 11 11 
11 11 11 11 11 11 11 11 11 11 11 11 11 11 11 11 11 11 11 11 11 11 11 11 11 11 11 11 11 11 11 4.3333334922790527344 4.3333334922790527344 11 11 11 11 11 11 11 11 11 11 11 11 11 11 11 11 11 11 11 2.6666667461395263672 2.6666667461395263672 11 11 6 11 11 7.6666665077209472656 7.6666665077209472656 11 11 11 9.3333330154418945312 11 9.3333330154418945312 11 9.3333330154418945312 9.3333330154418945312 11 11 9.3333330154418945312 9.3333330154418945312 11 11 11 11 11 11 11 11 11 2.6666667461395263672 9.3333330154418945312 11 11 9.3333330154418945312 9.3333330154418945312 11 7.6666665077209472656 7.6666665077209472656 9.3333330154418945312 11 11 11 11 11 11 11 11 11 4.3333334922790527344 11 11 11 11 6 6 6 11 6 11 11 11 11 11 11 11 11 11 11 11 11 11 11 11 
11 11 11 11 11 11 11 11 11 11 11 11 11 11 11 11 11 11 11 11 11 11 11 11 11 11 11 11 11 11 11 11 11 11 11 11 11 11 11 11 11 11 11 11 11 11 11 11 11 11 11 11 2.6666667461395263672 11 6 6 11 11 6 7.6666665077209472656 11 7.6666665077209472656 11 2.6666667461395263672 9.3333330154418945312 9.3333330154418945312 11 11 9.3333330154418945312 11 2.6666667461395263672 9.3333330154418945312 11 11 11 11 11 11 11 11 11 11 11 11 9.3333330154418945312 9.3333330154418945312 2.6666667461395263672 9.3333330154418945312 11 9.3333330154418945312 11 11 11 11 11 11 11 11 11 11 6 11 4.3333334922790527344 11 11 2.6666667461395263672 2.6666667461395263672 11 6 11 11 6 11 11 11 11 11 11 11 11 11 11 11 11 11 11 11 
11 11 11 11 11 11 11 11 11 11 11 11 11 11 11 11 11 11 11 11 11 11 11 11 11 11 11 11 11 11 4.3333334922790527344 11 11 11 11 11 11 11 11 11 11 11 11 11 11 11 11 11 11 11 11 2.6666667461395263672 2.6666667461395263672 7.6666665077209472656 7.6666665077209472656 11 7.6666665077209472656 11 11 7.6666665077209472656 7.6666665077209472656 7.6666665077209472656 7.6666665077209472656 11 11 11 11 9.3333330154418945312 11 11 11 11 9.3333330154418945312 9.3333330154418945312 11 11 11 11 11 11 11 9.3333330154418945312 9.3333330154418945312 2.6666667461395263672 9.3333330154418945312 11 9.3333330154418945312 9.3333330154418945312 11 9.3333330154418945312 9.3333330154418945312 9.3333330154418945312 9.3333330154418945312 11 11 11 7.6666665077209472656 7.6666665077209472656 11 6 11 11 11 4.3333334922790527344 2.6666667461395263672 2.6666667461395263672 6 6 6 11 6 6 11 11 11 11 11 11 11 11 11 11 11 11 11 11 11 
11 11 11 11 11 11 11 11 11 11 11 11 11 11 11 11 11 11 11 11 11 11 11 11 11 11 11 11 11 11 11 11 11 11 11 11 11 11 11 11 11 11 11 11 11 11 11 11 11 11 11 11 11 6 6 6 11 7.6666665077209472656 11 11 11 7.6666665077209472656 7.6666665077209472656 11 11 9.3333330154418945312 11 11 11 11 11 11 11 11 11 11 11 11 9.3333330154418945312 11 11 9.3333330154418945312 9.3333330154418945312 9.3333330154418945312 11 9.3333330154418945312 11 9.3333330154418945312 11 9.3333330154418945312 9.3333330154418945312 9.3333330154418945312 11 9.3333330154418945312 9.3333330154418945312 11 11 7.6666665077209472656 11 11 4.3333334922790527344 11 2.6666667461395263672 4.3333334922790527344 2.6666667461395263672 2.6666667461395263672 11 11 11 6 11 6 11 11 11 11 11 11 11 11 11 11 11 11 11 11 11 
11 11 11 11 11 11 11 11 11 11 11 11 11 11 11 11 11 11 11 11 11 11 11 11 11 11 11 11 11 11 11 11 11 11 11 11 11 11 11 11 11 11 11 11 11 11 11 11 11 11 11 2.6666667461395263672 2.6666667461395263672 11 6 11 7.6666665077209472656 7.6666665077209472656 11 7.6666665077209472656 7.6666665077209472656 7.6666665077209472656 11 9.3333330154418945312 11 9.3333330154418945312 11 11 11 11 11 11 11 11 11 11 11 9.3333330154418945312 2.6666667461395263672 11 9.3333330154418945312 9.3333330154418945312 9.3333330154418945312 9.3333330154418945312 9.3333330154418945312 11 9.3333330154418945312 9.3333330154418945312 9.3333330154418945312 9.3333330154418945312 9.3333330154418945312 9.3333330154418945312 11 9.3333330154418945312 11 11 6 11 11 7.6666665077209472656 6 11 11 11 6 6 6 11 4.3333334922790527344 4.3333334922790527344 6 11 11 11 11 11 11 11 11 11 11 11 11 11 11 11 11 
11 11 11 11 11 11 11 11 11 11 11 11 11 11 11 11 11 11 11 11 11 11 11 11 11 11 11 11 11 11 11 11 11 11 11 11 11 11 11 11 11 11 11 11 11 11 11 11 11 11 2.6666667461395263672 11 11 6 6 6 11 7.6666665077209472656 7.6666665077209472656 7.6666665077209472656 7.6666665077209472656 7.6666665077209472656 11 11 11 11 11 11 11 11 11 11 11 11 2.6666667461395263672 11 9.3333330154418945312 9.3333330154418945312 2.6666667461395263672 9.3333330154418945312 11 9.3333330154418945312 9.3333330154418945312 9.3333330154418945312 9.3333330154418945312 9.3333330154418945312 9.3333330154418945312 9.3333330154418945312 9.3333330154418945312 9.3333330154418945312 9.3333330154418945312 11 11 11 11 7.6666665077209472656 7.6666665077209472656 7.6666665077209472656 11 7.6666665077209472656 6 6 11 6 6 11 4.3333334922790527344 6 11 6 11 11 11 11 11 11 11 11 11 11 11 11 11 11 11 11 11 
11 11 11 11 11 11 11 11 11 11 11 11 11 11 11 11 11 11 11 11 11 11 11 11 11 11 11 11 11 11 11 11 11 11 11 11 11 11 11 11 11 11 11 11 11 11 11 11 11 11 11 2.6666667461395263672 2.6666667461395263672 2.6666667461395263672 6 11 7.6666665077209472656 11 11 7.6666665077209472656 7.6666665077209472656 7.6666665077209472656 11 11 11 11 11 11 11 11 11 11 11 2.6666667461395263672 11 11 11 9.3333330154418945312 9.3333330154418945312 2.6666667461395263672 9.3333330154418945312 9.3333330154418945312 9.3333330154418945312 11 11 11 11 9.3333330154418945312 9.3333330154418945312 11 11 9.3333330154418945312 11 9.3333330154418945312 9.3333330154418945312 11 7.6666665077209472656 11 7.6666665077209472656 7.6666665077209472656 7.6666665077209472656 7.6666665077209472656 7.6666665077209472656 7.6666665077209472656 7.6666665077209472656 11 11 6 11 11 11 11 11 11 11 11 11 11 11 11 11 11 11 11 11 11 11 
11 11 11 11 11 11 11 11 11 11 11 11 11 11 11 11 11 11 11 11 11 11 11 11 11 11 11 11 11 11 11 11 11 11 11 11 11 11 11 11 11 11 11 11 2.6666667461395263672 11 11 11 11 11 2.6666667461395263672 11 11 2.6666667461395263672 6 7.6666665077209472656 11 7.6666665077209472656 11 7.6666665077209472656 7.6666665077209472656 7.6666665077209472656 11 11 11 11 11 11 11 11 11 11 11 11 11 11 11 9.3333330154418945312 9.3333330154418945312 9.3333330154418945312 9.3333330154418945312 9.3333330154418945312 11 11 11 11 11 11 11 11 9.3333330154418945312 9.3333330154418945312 9.3333330154418945312 11 9.3333330154418945312 9.3333330154418945312 9.3333330154418945312 9.3333330154418945312 11 11 11 7.6666665077209472656 11 11 7.6666665077209472656 4.3333334922790527344 4.3333334922790527344 6 6 6 11 11 11 11 11 11 11 11 11 11 11 11 11 11 11 11 11 
11 11 11 11 11 11 11 11 11 11 11 11 11 11 11 11 11 11 11 11 11 11 11 11 11 11 11 11 11 11 11 11 11 11 11 11 11 11 11 11 11 11 11 2.6666667461395263672 2.6666667461395263672 11 11 11 11 2.6666667461395263672 11 11 11 6 6 7.6666665077209472656 7.6666665077209472656 11 11 7.6666665077209472656 7.6666665077209472656 7.6666665077209472656 11 11 11 11 11 11 11 11 11 11 11 11 11 11 9.3333330154418945312 9.3333330154418945312 9.3333330154418945312 2.6666667461395263672 9.3333330154418945312 9.3333330154418945312 11 2.6666667461395263672 11 11 11 11 11 11 9.3333330154418945312 9.3333330154418945312 9.3333330154418945312 9.3333330154418945312 9.3333330154418945312 11 9.3333330154418945312 9.3333330154418945312 11 11 7.6666665077209472656 11 7.6666665077209472656 11 7.6666665077209472656 6 4.3333334922790527344 6 7.6666665077209472656 7.6666665077209472656 11 6 11 11 11 11 6 6 11 11 11 11 11 11 11 11 11 
11 11 11 11 11 11 11 11 11 11 11 11 11 11 11 11 11 11 11 11 11 11 11 11 11 11 11 11 11 11 11 11 11 11 11 11 11 11 11 11 11 11 11 11 11 2.6666667461395263672 2.6666667461395263672 2.6666667461395263672 2.6666667461395263672 11 2.6666667461395263672 2.6666667461395263672 11 6 6 6 11 11 2.6666667461395263672 11 9.3333330154418945312 11 11 11 11 11 11 11 11 11 11 11 11 11 11 11 2.6666667461395263672 9.3333330154418945312 9.3333330154418945312 11 9.3333330154418945312 11 11 11 11 11 11 11 11 11 9.3333330154418945312 11 9.3333330154418945312 9.3333330154418945312 9.3333330154418945312 7.6666665077209472656 9.3333330154418945312 11 9.3333330154418945312 7.6666665077209472656 7.6666665077209472656 7.6666665077209472656 7.6666665077209472656 11 11 11 7.6666665077209472656 11 7.6666665077209472656 7.6666665077209472656 11 6 6 6 6 6 6 6 11 11 11 11 11 11 11 11 11 
11 11 11 11 11 11 11 11 11 11 11 11 11 11 11 11 11 11 11 11 11 11 11 11 11 11 11 11 11 11 11 11 11 11 11 11 11 11 11 11 11 11 2.6666667461395263672 11 11 7.6666665077209472656 7.6666665077209472656 7.6666665077209472656 7.6666665077209472656 7.6666665077209472656 2.6666667461395263672 11 11 11 9.3333330154418945312 9.3333330154418945312 11 2.6666667461395263672 11 11 9.3333330154418945312 11 9.3333330154418945312 9.3333330154418945312 11 11 11 11 11 11 11 11 11 11 11 11 11 9.3333330154418945312 9.3333330154418945312 9.3333330154418945312 9.3333330154418945312 9.3333330154418945312 11 11 11 11 11 11 11 11 11 9.3333330154418945312 9.3333330154418945312 11 7.6666665077209472656 11 7.6666665077209472656 7.6666665077209472656 7.6666665077209472656 7.6666665077209472656 11 7.6666665077209472656 7.6666665077209472656 11 7.6666665077209472656 7.6666665077209472656 7.6666665077209472656 7.6666665077209472656 7.6666665077209472656 11 11 6 11 6 6 6 11 11 11 11 11 11 11 11 11 11 11 
11 11 11 11 11 11 11 11 11 11 11 11 11 11 11 11 11 11 11 11 11 11 11 11 11 11 11 11 11 11 11 11 11 11 11 11 11 11 11 11 11 11 2.6666667461395263672 11 11 7.6666665077209472656 11 11 11 11 11 11 11 11 2.6666667461395263672 11 11 11 11 9.3333330154418945312 11 9.3333330154418945312 11 11 2.6666667461395263672 9.3333330154418945312 11 11 11 11 11 11 11 11 11 11 11 11 11 11 9.3333330154418945312 11 11 11 11 11 11 11 11 11 9.3333330154418945312 9.3333330154418945312 9.3333330154418945312 11 11 9.3333330154418945312 7.6666665077209472656 6 7.6666665077209472656 7.6666665077209472656 7.6666665077209472656 7.6666665077209472656 11 7.6666665077209472656 11 7.6666665077209472656 11 11 7.6666665077209472656 11 11 6 11 11 11 6 11 11 11 11 11 11 11 11 11 11 11 
11 11 11 11 11 11 11 11 11 11 11 11 11 11 11 11 11 11 11 11 11 11 11 11 11 11 11 11 11 11 11 11 2.6666667461395263672 11 11 11 11 11 11 11 11 11 11 11 11 11 11 11 11 11 11 11 11 11 11 11 11 9.3333330154418945312 2.6666667461395263672 9.3333330154418945312 9.3333330154418945312 9.3333330154418945312 9.3333330154418945312 11 11 11 11 11 11 11 11 11 11 11 11 11 11 11 11 9.3333330154418945312 9.3333330154418945312 11 11 11 11 11 11 11 11 11 9.3333330154418945312 9.3333330154418945312 11 11 9.3333330154418945312 7.6666665077209472656 7.6666665077209472656 7.6666665077209472656 7.6666665077209472656 7.6666665077209472656 7.6666665077209472656 7.6666665077209472656 11 7.6666665077209472656 7.6666665077209472656 11 11 7.6666665077209472656 11 7.6666665077209472656 11 11 11 11 11 11 11 11 11 11 11 11 11 11 11 11 11 
11 11 11 11 11 11 11 11 11 11 11 11 11 11 11 11 11 11 11 11 11 11 11 11 11 11 11 11 11 11 11 11 11 11 11 11 11 11 11 11 11 11 11 11 11 6 6 11 11 11 11 11 11 11 9.3333330154418945312 9.3333330154418945312 9.3333330154418945312 9.3333330154418945312 11 11 11 9.3333330154418945312 11 11 11 9.3333330154418945312 11 11 11 11 11 11 11 11 11 11 11 11 11 11 11 11 11 11 11 2.6666667461395263672 11 11 11 9.3333330154418945312 9.3333330154418945312 9.3333330154418945312 11 11 7.6666665077209472656 7.6666665077209472656 11 11 7.6666665077209472656 7.6666665077209472656 11 11 11 11 11 7.6666665077209472656 7.6666665077209472656 7.6666665077209472656 11 11 11 4.3333334922790527344 4.3333334922790527344 4.3333334922790527344 2.6666667461395263672 4.3333334922790527344 11 4.3333334922790527344 4.3333334922790527344 11 11 11 11 11 11 11 11 
11 11 11 11 11 11 11 11 11 11 11 11 11 11 11 11 11 11 11 11 11 11 11 11 11 11 11 11 11 11 11 11 2.6666667461395263672 11 11 11 11 11 11 11 11 11 11 11 2.6666667461395263672 2.6666667461395263672 6 6 6 11 11 11 11 9.3333330154418945312 9.3333330154418945312 11 9.3333330154418945312 11 9.3333330154418945312 11 11 11 11 11 11 11 11 11 11 11 11 11 11 11 11 11 11 11 11 11 11 11 11 11 11 11 11 11 11 9.3333330154418945312 11 11 9.3333330154418945312 7.6666665077209472656 11 7.6666665077209472656 11 7.6666665077209472656 7.6666665077209472656 7.6666665077209472656 7.6666665077209472656 7.6666665077209472656 7.6666665077209472656 7.6666665077209472656 6 6 6 11 11 6 4.3333334922790527344 11 11 11 4.3333334922790527344 4.3333334922790527344 4.3333334922790527344 11 4.3333334922790527344 4.3333334922790527344 11 11 11 11 11 11 11 
11 11 11 11 11 11 11 11 11 11 11 11 11 11 11 11 11 11 11 11 11 11 11 11 11 11 11 11 11 11 11 11 11 11 11 2.6666667461395263672 11 11 11 11 11 11 11 11 11 11 6 11 11 11 11 11 11 11 11 11 11 11 11 11 11 11 11 11 11 11 11 11 11 11 11 11 11 11 11 11 11 11 11 11 11 11 11 11 11 11 11 11 11 11 11 9.3333330154418945312 9.3333330154418945312 9.3333330154418945312 9.3333330154418945312 7.6666665077209472656 7.6666665077209472656 11 7.6666665077209472656 7.6666665077209472656 7.6666665077209472656 11 7.6666665077209472656 11 6 11 11 6 6 11 11 11 6 4.3333334922790527344 4.3333334922790527344 11 11 2.6666667461395263672 11 11 11 11 11 11 11 11 11 
11 11 11 11 11 11 11 11 11 11 11 11 11 11 11 11 11 11 11 11 11 11 11 11 11 11 11 11 11 11 11 11 11 11 11 11 2.6666667461395263672 11 11 11 11 11 11 11 11 11 11 6 11 11 11 9.3333330154418945312 9.3333330154418945312 9.3333330154418945312 11 11 11 11 11 11 11 11 11 11 2.6666667461395263672 11 11 11 11 11 11 11 11 11 11 11 11 11 11 11 2.6666667461395263672 11 11 11 11 11 11 11 11 11 11 11 9.3333330154418945312 9.3333330154418945312 9.3333330154418945312 9.3333330154418945312 7.6666665077209472656 7.6666665077209472656 7.6666665077209472656 11 11 7.6666665077209472656 6 11 6 11 6 11 6 7.6666665077209472656 11 11 11 11 11 4.3333334922790527344 11 11 2.6666667461395263672 11 2.6666667461395263672 4.3333334922790527344 4.3333334922790527344 4.3333334922790527344 11 11 11 
11 11 11 11 11 11 11 11 11 11 11 11 11 11 11 11 11 11 11 11 11 11 11 11 11 11 11 11 11 11 11 11 11 11 11 11 11 11 11 11 11 11 11 11 11 11 11 11 11 11 11 11 11 11 11 11 11 11 11 11 11 11 11 11 11 11 11 11 11 11 11 11 11 11 11 11 11 11 11 11 11 11 11 11 11 11 11 11 11 9.3333330154418945312 11 9.3333330154418945312 11 9.3333330154418945312 11 9.3333330154418945312 7.6666665077209472656 11 7.6666665077209472656 7.6666665077209472656 11 11 11 11 11 11 11 6 11 11 11 4.3333334922790527344 4.3333334922790527344 6 11 4.3333334922790527344 11 4.3333334922790527344 11 11 4.3333334922790527344 4.3333334922790527344 11 11 11 11 11 
11 11 11 11 11 11 11 11 11 11 11 11 11 11 11 11 11 11 11 11 11 11 11 11 2.6666667461395263672 11 11 11 11 11 11 11 11 11 11 11 2.6666667461395263672 11 11 11 11 11 11 11 11 11 11 11 11 11 2.6666667461395263672 11 11 11 11 11 11 11 11 11 11 11 11 11 11 11 11 11 11 11 11 11 7.6666665077209472656 7.6666665077209472656 11 11 7.6666665077209472656 7.6666665077209472656 6 6 11 9.3333330154418945312 11 11 11 11 11 11 11 11 11 9.3333330154418945312 11 9.3333330154418945312 9.3333330154418945312 11 9.3333330154418945312 9.3333330154418945312 9.3333330154418945312 7.6666665077209472656 6 11 6 11 6 6 6 11 6 6 6 4.3333334922790527344 11 6 6 4.3333334922790527344 11 2.6666667461395263672 4.3333334922790527344 11 11 11 11 11 11 11 11 
11 11 11 11 11 2.6666667461395263672 11 11 11 11 11 11 11 11 11 11 11 11 11 11 11 11 11 11 2.6666667461395263672 2.6666667461395263672 11 11 2.6666667461395263672 11 11 11 11 11 2.6666667461395263672 11 11 11 11 11 11 11 11 11 11 11 11 11 11 11 11 11 11 11 11 11 11 11 11 11 11 11 11 11 11 11 11 11 7.6666665077209472656 11 11 7.6666665077209472656 7.6666665077209472656 11 7.6666665077209472656 7.6666665077209472656 11 11 6 6 11 9.3333330154418945312 9.3333330154418945312 11 11 11 11 11 11 11 11 9.3333330154418945312 11 11 9.3333330154418945312 9.3333330154418945312 11 11 7.6666665077209472656 7.6666665077209472656 7.6666665077209472656 7.6666665077209472656 6 6 6 4.3333334922790527344 11 4.3333334922790527344 2.6666667461395263672 6 6 6 11 11 4.3333334922790527344 11 11 4.3333334922790527344 4.3333334922790527344 11 11 11 11 11 11 11 11 
11 11 11 11 11 2.6666667461395263672 11 11 11 11 11 11 11 11 11 11 11 11 11 11 11 11 11 11 11 11 2.6666667461395263672 11 11 11 11 11 11 11 11 11 11 11 11 11 11 11 11 2.6666667461395263672 11 11 11 11 11 11 7.6666665077209472656 11 6 11 11 11 11 11 11 11 11 9.3333330154418945312 9.3333330154418945312 11 11 11 7.6666665077209472656 7.6666665077209472656 7.6666665077209472656 7.6666665077209472656 7.6666665077209472656 7.6666665077209472656 11 7.6666665077209472656 7.6666665077209472656 7.6666665077209472656 11 7.6666665077209472656 6 6 11 11 11 11 11 11 11 11 11 11 9.3333330154418945312 11 9.3333330154418945312 9.3333330154418945312 9.3333330154418945312 7.6666665077209472656 11 11 11 11 7.6666665077209472656 7.6666665077209472656 11 11 4.3333334922790527344 4.3333334922790527344 4.3333334922790527344 11 4.3333334922790527344 4.3333334922790527344 4.3333334922790527344 6 6 11 11 11 11 4.3333334922790527344 2.6666667461395263672 11 11 11 11 11 11 11 11 
11 11 11 11 11 11 11 11 11 11 11 11 11 11 11 11 11 11 11 11 11 11 11 11 11 11 11 11 11 11 11 11 11 11 11 11 11 11 11 11 11 11 11 11 11 11 11 7.6666665077209472656 11 11 11 11 6 6 11 11 2.6666667461395263672 9.3333330154418945312 11 11 11 9.3333330154418945312 11 11 7.6666665077209472656 7.6666665077209472656 7.6666665077209472656 7.6666665077209472656 11 11 11 11 11 7.6666665077209472656 7.6666665077209472656 7.6666665077209472656 11 7.6666665077209472656 7.6666665077209472656 11 11 11 11 9.3333330154418945312 9.3333330154418945312 11 11 11 11 11 11 9.3333330154418945312 9.3333330154418945312 9.3333330154418945312 11 11 7.6666665077209472656 11 7.6666665077209472656 11 7.6666665077209472656 7.6666665077209472656 7.6666665077209472656 6 11 11 4.3333334922790527344 11 11 4.3333334922790527344 6 6 11 11 11 6 11 11 11 11 11 11 11 11 11 11 11 
11 11 11 11 11 2.6666667461395263672 11 11 11 11 11 11 11 11 11 11 11 11 11 11 11 11 11 11 11 11 11 2.6666667461395263672 11 11 11 11 11 2.6666667461395263672 11 11 11 11 11 11 11 2.6666667461395263672 11 7.6666665077209472656 11 11 11 11 2.6666667461395263672 11 11 11 6 6 11 11 11 9.3333330154418945312 11 11 11 11 11 7.6666665077209472656 11 7.6666665077209472656 7.6666665077209472656 7.6666665077209472656 11 11 7.6666665077209472656 11 11 11 7.6666665077209472656 11 9.3333330154418945312 7.6666665077209472656 9.3333330154418945312 11 11 11 11 9.3333330154418945312 9.3333330154418945312 9.3333330154418945312 11 11 11 11 11 9.3333330154418945312 11 11 11 11 11 11 11 7.6666665077209472656 7.6666665077209472656 6 6 7.6666665077209472656 11 4.3333334922790527344 11 11 11 4.3333334922790527344 11 6 11 6 6 6 4.3333334922790527344 11 11 11 11 11 11 11 11 11 11 
11 11 11 11 2.6666667461395263672 2.6666667461395263672 2.6666667461395263672 11 11 11 11 11 11 11 11 11 11 11 11 11 11 11 11 11 11 11 11 11 11 11 11 11 11 11 11 11 11 11 11 11 11 11 11 11 11 11 11 7.6666665077209472656 11 11 11 11 6 4.3333334922790527344 11 11 11 11 11 11 11 11 11 7.6666665077209472656 7.6666665077209472656 11 7.6666665077209472656 7.6666665077209472656 11 11 7.6666665077209472656 11 7.6666665077209472656 7.6666665077209472656 9.3333330154418945312 11 9.3333330154418945312 6 7.6666665077209472656 9.3333330154418945312 9.3333330154418945312 9.3333330154418945312 9.3333330154418945312 9.3333330154418945312 11 11 11 11 11 11 11 11 9.3333330154418945312 9.3333330154418945312 11 11 11 11 11 7.6666665077209472656 11 11 11 9.3333330154418945312 6 11 2.6666667461395263672 4.3333334922790527344 11 4.3333334922790527344 11 11 11 6 11 11 11 11 11 2.6666667461395263672 11 11 11 11 11 11 11 
11 11 11 11 11 2.6666667461395263672 11 2.6666667461395263672 2.6666667461395263672 2.6666667461395263672 11 11 2.6666667461395263672 11 11 11 11 11 11 11 11 11 11 11 11 11 11 11 11 11 11 11 11 11 11 11 11 11 11 11 11 11 11 11 7.6666665077209472656 11 11 7.6666665077209472656 11 11 11 11 11 11 11 11 11 11 11 11 11 9.3333330154418945312 11 7.6666665077209472656 7.6666665077209472656 11 7.6666665077209472656 7.6666665077209472656 11 11 11 11 7.6666665077209472656 2.6666667461395263672 2.6666667461395263672 2.6666667461395263672 6 6 7.6666665077209472656 9.3333330154418945312 9.3333330154418945312 9.3333330154418945312 9.3333330154418945312 11 9.3333330154418945312 11 11 11 11 9.3333330154418945312 9.3333330154418945312 9.3333330154418945312 9.3333330154418945312 11 11 11 9.3333330154418945312 11 11 11 7.6666665077209472656 11 6 6 11 11 4.3333334922790527344 11 4.3333334922790527344 4.3333334922790527344 4.3333334922790527344 11 2.6666667461395263672 11 11 11 11 4.3333334922790527344 4.3333334922790527344 11 11 11 11 11 11 11 11 
11 11 11 11 11 2.6666667461395263672 11 2.6666667461395263672 2.6666667461395263672 11 2.6666667461395263672 11 2.6666667461395263672 11 11 11 11 11 11 11 11 11 11 11 11 11 11 11 11 11 11 11 11 11 11 11 11 11 11 11 11 11 11 7.6666665077209472656 7.6666665077209472656 11 11 11 11 11 11 11 11 6 6 11 11 11 11 11 11 11 11 11 11 11 11 11 11 11 7.6666665077209472656 11 11 2.6666667461395263672 2.6666667461395263672 11 11 7.6666665077209472656 11 9.3333330154418945312 11 11 9.3333330154418945312 9.3333330154418945312 9.3333330154418945312 9.3333330154418945312 11 11 11 11 11 11 9.3333330154418945312 9.3333330154418945312 11 11 11 11 11 11 11 11 6 6 6 11 11 6 11 4.3333334922790527344 4.3333334922790527344 6 6 6 11 11 4.3333334922790527344 4.3333334922790527344 11 11 11 11 11 11 11 11 11 
11 11 11 11 11 11 2.6666667461395263672 2.6666667461395263672 11 2.6666667461395263672 2.6666667461395263672 11 2.6666667461395263672 11 11 11 11 11 11 11 11 11 11 11 11 11 11 11 11 11 11 11 11 11 11 11 11 11 11 11 11 11 11 11 11 11 11 11 11 11 11 6 11 11 11 11 11 11 11 11 9.3333330154418945312 9.3333330154418945312 11 11 6 11 11 11 11 11 11 11 11 7.6666665077209472656 11 11 11 11 11 7.6666665077209472656 11 9.3333330154418945312 9.3333330154418945312 9.3333330154418945312 9.3333330154418945312 9.3333330154418945312 9.3333330154418945312 9.3333330154418945312 9.3333330154418945312 9.3333330154418945312 11 11 11 11 11 11 11 11 11 9.3333330154418945312 11 11 11 11 11 6 6 11 11 4.3333334922790527344 11 11 2.6666667461395263672 11 11 11 11 11 11 11 11 11 11 11 11 11 11 
11 11 11 11 11 11 11 11 11 11 2.6666667461395263672 11 11 11 11 11 11 11 11 11 11 11 11 11 11 11 11 11 11 2.6666667461395263672 2.6666667461395263672 11 11 11 11 11 11 11 11 11 11 11 11 11 11 11 6 11 11 6 6 11 11 11 6 11 11 11 11 11 11 11 11 4.3333334922790527344 6 9.3333330154418945312 9.3333330154418945312 7.6666665077209472656 11 11 11 11 11 7.6666665077209472656 11 7.6666665077209472656 7.6666665077209472656 11 11 11 7.6666665077209472656 9.3333330154418945312 9.3333330154418945312 9.3333330154418945312 9.3333330154418945312 2.6666667461395263672 9.3333330154418945312 11 11 2.6666667461395263672 11 11 11 11 11 11 11 11 11 11 9.3333330154418945312 11 11 11 11 11 11 11 11 11 11 11 11 11 11 11 11 11 11 11 11 11 11 11 11 11 11 
11 11 11 11 11 11 11 11 2.6666667461395263672 2.6666667461395263672 2.6666667461395263672 2.6666667461395263672 11 11 11 11 11 11 11 11 11 11 11 11 11 11 11 11 11 11 2.6666667461395263672 2.6666667461395263672 11 11 11 11 11 11 6 11 6 11 11 11 4.3333334922790527344 4.3333334922790527344 6 11 11 6 6 11 4.3333334922790527344 2.6666667461395263672 11 6 11 11 11 9.3333330154418945312 11 11 11 11 11 11 7.6666665077209472656 7.6666665077209472656 11 7.6666665077209472656 7.6666665077209472656 7.6666665077209472656 6 6 11 11 7.6666665077209472656 11 11 7.6666665077209472656 11 11 11 11 11 9.3333330154418945312 9.3333330154418945312 9.3333330154418945312 11 9.3333330154418945312 9.3333330154418945312 11 9.3333330154418945312 11 11 9.3333330154418945312 11 11 11 11 11 11 11 11 11 11 11 11 11 11 11 11 11 11 11 11 11 11 11 11 11 11 11 11 11 11 11 
11 11 11 11 11 11 11 11 11 2.6666667461395263672 11 11 2.6666667461395263672 11 11 11 11 11 11 11 11 11 11 11 11 11 11 11 11 11 2.6666667461395263672 2.6666667461395263672 11 11 11 11 11 11 11 11 11 11 6 4.3333334922790527344 4.3333334922790527344 11 2.6666667461395263672 4.3333334922790527344 11 11 11 6 11 4.3333334922790527344 11 6 11 11 11 11 11 11 11 11 11 7.6666665077209472656 7.6666665077209472656 7.6666665077209472656 7.6666665077209472656 7.6666665077209472656 11 11 11 11 11 11 11 11 11 9.3333330154418945312 9.3333330154418945312 11 9.3333330154418945312 11 9.3333330154418945312 9.3333330154418945312 9.3333330154418945312 11 9.3333330154418945312 11 9.3333330154418945312 11 11 11 11 11 11 11 11 11 11 11 11 11 11 11 11 11 11 11 11 11 11 11 11 11 11 11 11 11 11 11 11 11 11 11 11 
11 11 11 11 11 11 11 11 11 11 11 11 11 11 11 11 11 11 11 11 11 11 11 11 11 11 11 11 11 2.6666667461395263672 2.6666667461395263672 2.6666667461395263672 2.6666667461395263672 2.6666667461395263672 11 11 11 11 11 11 11 11 11 11 4.3333334922790527344 11 6 11 9.3333330154418945312 11 11 2.6666667461395263672 11 11 11 11 11 11 11 11 11 11 11 11 11 11 7.6666665077209472656 11 11 7.6666665077209472656 11 11 7.6666665077209472656 11 7.6666665077209472656 11 11 11 9.3333330154418945312 11 11 9.3333330154418945312 9.3333330154418945312 9.3333330154418945312 7.6666665077209472656 7.6666665077209472656 7.6666665077209472656 7.6666665077209472656 7.6666665077209472656 7.6666665077209472656 7.6666665077209472656 11 7.6666665077209472656 7.6666665077209472656 7.6666665077209472656 11 11 11 11 11 11 7.6666665077209472656 11 11 11 11 11 11 11 11 11 11 11 11 11 11 11 11 11 11 11 11 11 11 11 11 11 
11 11 11 11 11 11 11 11 11 11 11 11 11 11 11 11 11 11 11 11 11 11 11 11 11 11 11 11 11 11 11 11 11 2.6666667461395263672 2.6666667461395263672 11 11 11 11 11 11 11 11 11 11 11 11 11 11 11 11 11 11 11 11 11 7.6666665077209472656 11 11 11 11 11 11 6 11 11 7.6666665077209472656 7.6666665077209472656 7.6666665077209472656 11 11 7.6666665077209472656 7.6666665077209472656 11 11 11 11 11 11 9.3333330154418945312 9.3333330154418945312 9.3333330154418945312 7.6666665077209472656 11 7.6666665077209472656 11 7.6666665077209472656 11 7.6666665077209472656 7.6666665077209472656 7.6666665077209472656 7.6666665077209472656 11 11 11 7.6666665077209472656 11 11 11 11 7.6666665077209472656 11 11 11 11 11 11 11 11 11 11 11 11 11 11 11 11 11 11 11 11 11 11 11 11 11 11 
11 11 11 11 11 11 11 11 11 11 11 11 11 11 11 11 11 11 11 11 11 11 11 11 11 11 11 11 11 11 11 2.6666667461395263672 11 2.6666667461395263672 2.6666667461395263672 11 11 11 11 11 11 11 11 11 11 11 9.3333330154418945312 11 9.3333330154418945312 9.3333330154418945312 11 11 11 11 11 11 11 2.6666667461395263672 11 11 11 11 7.6666665077209472656 6 11 4.3333334922790527344 7.6666665077209472656 11 11 7.6666665077209472656 7.6666665077209472656 11 7.6666665077209472656 11 7.6666665077209472656 7.6666665077209472656 7.6666665077209472656 9.3333330154418945312 9.3333330154418945312 11 9.3333330154418945312 9.3333330154418945312 7.6666665077209472656 7.6666665077209472656 11 7.6666665077209472656 7.6666665077209472656 11 7.6666665077209472656 7.6666665077209472656 7.6666665077209472656 7.6666665077209472656 11 11 11 11 2.6666667461395263672 11 11 11 11 11 11 11 11 11 11 11 11 11 11 11 11 11 11 11 11 11 11 11 11 11 11 11 11 11 11 
11 11 11 11 11 11 11 11 11 11 11 11 11 11 11 11 11 11 11 11 11 11 11 11 11 11 11 11 11 11 11 11 2.6666667461395263672 11 2.6666667461395263672 11 2.6666667461395263672 2.6666667461395263672 11 11 11 11 11 9.3333330154418945312 11 11 11 11 9.3333330154418945312 11 9.3333330154418945312 11 9.3333330154418945312 9.3333330154418945312 11 9.3333330154418945312 11 11 11 11 11 11 7.6666665077209472656 11 11 11 6 7.6666665077209472656 7.6666665077209472656 7.6666665077209472656 7.6666665077209472656 7.6666665077209472656 6 11 6 11 9.3333330154418945312 9.3333330154418945312 9.3333330154418945312 9.3333330154418945312 9.3333330154418945312 11 7.6666665077209472656 7.6666665077209472656 11 7.6666665077209472656 7.6666665077209472656 7.6666665077209472656 11 7.6666665077209472656 7.6666665077209472656 7.6666665077209472656 11 11 11 11 11 11 11 11 11 11 11 11 11 11 11 11 11 11 11 11 11 11 11 11 11 11 11 11 11 11 11 11 11 11 11 
11 11 11 11 11 11 11 11 11 11 11 11 11 11 11 11 11 11 11 11 11 11 11 11 11 11 11 11 11 11 11 11 2.6666667461395263672 11 11 2.6666667461395263672 11 11 11 11 11 11 11 11 11 11 11 11 9.3333330154418945312 11 11 11 11 11 11 11 11 11 11 11 11 11 11 11 4.3333334922790527344 4.3333334922790527344 6 6 11 7.6666665077209472656 6 11 11 11 11 9.3333330154418945312 9.3333330154418945312 9.3333330154418945312 9.3333330154418945312 9.3333330154418945312 9.3333330154418945312 11 11 7.6666665077209472656 11 7.6666665077209472656 11 11 11 11 11 7.6666665077209472656 6 9.3333330154418945312 11 11 11 11 11 9.3333330154418945312 11 9.3333330154418945312 7.6666665077209472656 11 11 11 11 11 11 11 11 11 11 11 11 11 11 11 11 11 11 11 11 11 11 11 11 
11 11 11 11 11 11 11 11 11 11 11 11 11 11 11 11 11 11 11 11 11 11 11 11 11 11 11 11 11 11 11 11 11 11 2.6666667461395263672 2.6666667461395263672 2.6666667461395263672 2.6666667461395263672 11 2.6666667461395263672 11 11 11 11 11 11 11 11 11 9.3333330154418945312 11 2.6666667461395263672 11 11 11 11 11 11 11 11 11 11 11 11 6 4.3333334922790527344 6 6 7.6666665077209472656 11 7.6666665077209472656 6 11 11 11 9.3333330154418945312 11 9.3333330154418945312 9.3333330154418945312 9.3333330154418945312 9.3333330154418945312 11 11 11 7.6666665077209472656 11 11 11 11 7.6666665077209472656 7.6666665077209472656 7.6666665077209472656 11 6 11 11 11 11 11 9.3333330154418945312 11 11 11 2.6666667461395263672 11 11 11 11 11 11 11 11 11 11 11 11 11 11 11 11 11 11 11 11 11 11 11 
11 11 11 11 11 11 11 11 11 11 11 11 11 11 11 11 11 11 11 11 11 11 11 11 11 11 11 11 11 11 11 11 11 11 11 2.6666667461395263672 2.6666667461395263672 2.6666667461395263672 2.6666667461395263672 11 11 11 11 11 11 11 11 11 9.3333330154418945312 11 11 11 11 11 11 11 11 11 11 7.6666665077209472656 11 11 11 11 4.3333334922790527344 11 4.3333334922790527344 11 7.6666665077209472656 7.6666665077209472656 11 7.6666665077209472656 6 11 7.6666665077209472656 11 9.3333330154418945312 11 9.3333330154418945312 9.3333330154418945312 9.3333330154418945312 11 7.6666665077209472656 11 11 11 11 11 7.6666665077209472656 9.3333330154418945312 11 7.6666665077209472656 11 11 11 11 11 11 11 11 11 9.3333330154418945312 11 11 11 11 11 11 11 11 11 11 11 11 11 11 11 11 11 11 11 11 11 11 11 11 11 
11 11 11 11 11 11 11 11 11 11 11 11 11 11 11 11 11 11 11 11 11 11 11 11 11 11 11 11 11 11 11 11 11 11 2.6666667461395263672 11 2.6666667461395263672 2.6666667461395263672 2.6666667461395263672 11 11 11 2.6666667461395263672 11 2.6666667461395263672 11 11 11 11 11 11 11 11 11 11 11 11 11 11 11 11 11 11 11 11 11 11 7.6666665077209472656 7.6666665077209472656 7.6666665077209472656 6 6 11 11 7.6666665077209472656 11 11 7.6666665077209472656 7.6666665077209472656 11 11 11 9.3333330154418945312 11 11 11 7.6666665077209472656 7.6666665077209472656 9.3333330154418945312 9.3333330154418945312 9.3333330154418945312 11 11 6 6 11 6 11 11 11 11 9.3333330154418945312 11 11 11 11 4.3333334922790527344 11 11 11 11 11 11 11 11 11 11 11 11 11 11 11 11 11 11 11 11 
11 11 11 11 11 11 11 11 11 11 11 11 11 11 11 11 11 11 11 11 11 11 11 11 11 11 11 11 11 11 11 11 11 11 11 11 11 2.6666667461395263672 11 11 11 11 2.6666667461395263672 2.6666667461395263672 2.6666667461395263672 2.6666667461395263672 2.6666667461395263672 11 11 11 11 11 11 11 11 7.6666665077209472656 11 11 11 11 11 11 11 11 11 11 11 11 6 6 11 11 2.6666667461395263672 2.6666667461395263672 9.3333330154418945312 9.3333330154418945312 7.6666665077209472656 11 7.6666665077209472656 11 11 9.3333330154418945312 9.3333330154418945312 9.3333330154418945312 7.6666665077209472656 11 11 9.3333330154418945312 9.3333330154418945312 9.3333330154418945312 11 11 11 6 11 11 6 7.6666665077209472656 7.6666665077209472656 11 11 11 9.3333330154418945312 11 11 4.3333334922790527344 4.3333334922790527344 11 11 11 11 11 11 11 11 11 11 11 11 11 11 11 11 11 11 11 11 
11 11 11 11 11 11 11 11 11 11 11 11 11 11 11 11 11 11 11 11 11 11 11 11 11 11 11 11 11 11 11 11 11 11 11 11 2.6666667461395263672 11 2.6666667461395263672 2.6666667461395263672 11 11 11 11 11 11 11 11 11 11 11 11 11 6 11 11 11 6 11 11 11 11 11 11 11 11 11 11 11 6 11 11 2.6666667461395263672 11 11 9.3333330154418945312 7.6666665077209472656 7.6666665077209472656 7.6666665077209472656 11 11 11 11 9.3333330154418945312 11 11 9.3333330154418945312 9.3333330154418945312 9.3333330154418945312 11 11 6 2.6666667461395263672 2.6666667461395263672 6 6 11 2.6666667461395263672 11 7.6666665077209472656 11 11 11 11 11 6 4.3333334922790527344 11 11 11 11 11 11 11 11 11 11 11 11 11 11 11 11 11 11 11 11 
11 11 11 11 11 11 11 11 11 11 11 11 11 11 11 11 11 11 11 11 11 11 11 11 11 11 11 11 11 11 11 11 11 11 11 11 11 11 11 11 11 11 11 11 11 11 11 11 11 11 11 11 11 6 11 11 11 11 11 11 11 11 11 11 11 11 11 11 7.6666665077209472656 11 9.3333330154418945312 9.3333330154418945312 9.3333330154418945312 9.3333330154418945312 11 11 11 11 11 11 11 11 7.6666665077209472656 11 6 9.3333330154418945312 11 6 11 11 11 2.6666667461395263672 2.6666667461395263672 2.6666667461395263672 6 6 7.6666665077209472656 7.6666665077209472656 2.6666667461395263672 7.6666665077209472656 7.6666665077209472656 9.3333330154418945312 11 11 6 2.6666667461395263672 6 11 11 11 11 11 11 11 11 11 11 11 11 11 11 11 11 11 11 11 11 
11 11 11 11 11 11 11 11 11 11 11 11 11 11 11 11 11 11 11 11 11 11 11 11 11 11 11 11 11 11 11 11 11 11 11 11 11 11 11 11 11 11 11 11 11 11 11 11 11 11 11 11 11 6 11 11 11 11 11 11 11 11 11 11 11 11 11 11 11 11 11 9.3333330154418945312 11 11 11 2.6666667461395263672 2.6666667461395263672 2.6666667461395263672 11 11 11 11 11 11 11 11 11 11 11 11 2.6666667461395263672 2.6666667461395263672 2.6666667461395263672 6 6 6 7.6666665077209472656 7.6666665077209472656 11 2.6666667461395263672 11 7.6666665077209472656 11 6 6 11 11 11 11 11 11 11 11 11 11 11 11 11 11 11 11 11 11 11 11 11 11 
11 11 11 11 11 11 11 11 11 11 11 11 11 11 11 11 11 11 11 11 11 11 11 11 11 11 11 11 11 11 11 11 11 11 11 11 11 11 11 11 11 11 11 11 11 11 11 11 11 11 11 11 11 11 11 11 11 11 11 11 11 11 11 7.6666665077209472656 11 11 11 11 11 6 6 6 11 11 11 2.6666667461395263672 11 11 11 11 11 11 11 7.6666665077209472656 11 11 6 6 11 11 6 6 11 6 6 6 2.6666667461395263672 7.6666665077209472656 7.6666665077209472656 7.6666665077209472656 11 7.6666665077209472656 7.6666665077209472656 11 11 11 11 11 11 11 11 11 11 11 11 11 11 11 11 11 11 11 11 11 11 11 11 
11 11 11 11 11 11 11 11 11 11 11 11 11 11 11 11 11 11 11 11 11 11 11 11 11 11 11 11 11 11 11 11 11 11 11 11 11 11 11 11 11 11 11 11 11 11 11 11 11 11 11 11 11 11 11 11 11 11 11 11 11 11 11 11 11 11 11 11 11 6 11 11 11 11 2.6666667461395263672 2.6666667461395263672 2.6666667461395263672 2.6666667461395263672 11 2.6666667461395263672 11 11 11 7.6666665077209472656 7.6666665077209472656 7.6666665077209472656 11 11 6 11 6 6 2.6666667461395263672 6 2.6666667461395263672 6 6 6 11 7.6666665077209472656 7.6666665077209472656 7.6666665077209472656 11 11 11 11 7.6666665077209472656 11 7.6666665077209472656 11 11 11 11 11 11 11 11 11 11 11 11 11 11 11 11 11 11 
11 11 11 11 11 11 11 11 11 11 11 11 11 11 11 11 11 11 11 11 11 11 11 11 11 11 11 11 11 11 11 11 11 11 11 11 11 11 11 11 11 11 11 11 11 11 11 11 11 11 11 11 11 11 11 11 11 11 11 11 11 11 11 11 2.6666667461395263672 11 11 11 11 11 4.3333334922790527344 4.3333334922790527344 11 11 11 2.6666667461395263672 11 11 11 2.6666667461395263672 11 2.6666667461395263672 11 7.6666665077209472656 7.6666665077209472656 11 11 6 6 11 6 11 11 2.6666667461395263672 2.6666667461395263672 11 11 6 6 11 6 6 11 11 11 11 11 7.6666665077209472656 7.6666665077209472656 7.6666665077209472656 11 11 11 11 11 11 11 11 11 11 11 11 11 11 11 11 11 
11 11 11 11 11 11 11 11 11 11 11 11 11 11 11 11 11 11 11 11 11 11 11 11 11 11 11 11 11 11 11 11 11 11 11 11 11 11 11 11 11 11 11 11 11 11 11 11 11 11 11 11 11 11 11 11 11 11 11 11 11 11 11 11 11 11 2.6666667461395263672 2.6666667461395263672 11 11 11 11 11 2.6666667461395263672 11 2.6666667461395263672 11 11 11 11 11 11 7.6666665077209472656 7.6666665077209472656 7.6666665077209472656 7.6666665077209472656 11 6 11 11 2.6666667461395263672 2.6666667461395263672 2.6666667461395263672 2.6666667461395263672 11 11 6 6 6 6 6 6 11 6 6 2.6666667461395263672 7.6666665077209472656 7.6666665077209472656 7.6666665077209472656 11 11 11 11 7.6666665077209472656 11 11 11 11 11 11 11 11 11 11 11 11 11 
11 11 11 11 11 11 11 11 11 11 11 11 11 11 11 11 11 11 11 11 11 11 11 11 11 11 11 11 11 11 11 11 11 11 11 11 11 11 11 11 11 11 11 11 11 11 11 11 11 11 11 11 11 11 11 11 11 11 11 11 11 11 11 11 11 11 2.6666667461395263672 2.6666667461395263672 11 11 11 11 11 2.6666667461395263672 2.6666667461395263672 2.6666667461395263672 2.6666667461395263672 11 11 11 11 11 7.6666665077209472656 7.6666665077209472656 7.6666665077209472656 7.6666665077209472656 11 11 11 2.6666667461395263672 2.6666667461395263672 2.6666667461395263672 6 11 6 6 6 6 6 11 11 11 6 2.6666667461395263672 11 11 11 11 11 11 11 11 11 11 11 11 11 11 11 11 11 11 11 11 11 11 11 
11 11 11 11 11 11 11 11 11 11 11 11 11 11 11 11 11 11 11 11 11 11 11 11 11 11 11 11 11 11 11 11 11 11 11 11 11 11 11 11 11 11 11 11 11 11 11 11 11 11 11 11 11 11 11 11 11 11 11 11 11 11 11 11 11 11 11 11 11 11 11 11 11 11 11 2.6666667461395263672 2.6666667461395263672 11 11 11 11 2.6666667461395263672 7.6666665077209472656 7.6666665077209472656 7.6666665077209472656 11 11 6 11 2.6666667461395263672 2.6666667461395263672 2.6666667461395263672 6 11 6 6 11 4.3333334922790527344 4.3333334922790527344 6 11 11 11 4.3333334922790527344 11 11 7.6666665077209472656 11 11 11 11 7.6666665077209472656 11 11 11 11 11 11 11 11 2.6666667461395263672 11 11 11 11 11 11 
11 11 11 11 11 11 11 11 11 11 11 11 11 11 11 11 11 11 11 11 11 11 11 11 11 11 11 11 11 11 11 11 11 11 11 11 11 11 11 11 11 11 11 11 11 11 11 11 11 11 11 11 11 11 11 11 11 11 11 11 11 11 11 11 11 11 11 11 11 11 11 11 11 11 11 11 11 2.6666667461395263672 2.6666667461395263672 11 11 2.6666667461395263672 11 11 7.6666665077209472656 11 11 11 11 11 2.6666667461395263672 2.6666667461395263672 2.6666667461395263672 6 6 11 11 4.3333334922790527344 4.3333334922790527344 6 6 11 6 4.3333334922790527344 11 11 11 11 11 11 11 2.6666667461395263672 11 11 2.6666667461395263672 11 11 11 11 11 2.6666667461395263672 11 11 11 11 11 11 
11 11 11 11 11 11 11 11 11 11 11 11 11 11 11 11 11 11 11 11 11 11 11 11 11 11 11 11 11 11 11 11 11 11 11 11 11 11 11 11 11 11 11 11 11 11 11 11 11 11 11 11 11 11 11 11 11 11 11 11 11 11 11 11 11 11 11 11 11 11 11 11 11 11 2.6666667461395263672 11 11 11 11 2.6666667461395263672 11 11 11 11 11 11 11 11 2.6666667461395263672 2.6666667461395263672 2.6666667461395263672 2.6666667461395263672 11 6 6 11 6 11 6 7.6666665077209472656 11 11 11 11 11 4.3333334922790527344 11 11 11 11 11 11 11 2.6666667461395263672 11 11 11 11 11 11 11 2.6666667461395263672 11 11 11 11 11 
11 11 11 11 11 11 11 11 11 11 11 11 11 11 11 11 11 11 11 11 11 11 11 11 11 11 11 11 11 11 11 11 11 11 11 11 11 11 11 11 11 11 11 11 11 11 11 11 11 11 11 11 11 11 11 11 11 11 11 11 11 11 11 11 11 11 11 11 11 11 11 11 11 11 2.6666667461395263672 2.6666667461395263672 11 11 11 11 2.6666667461395263672 11 11 2.6666667461395263672 11 11 11 11 11 11 2.6666667461395263672 2.6666667461395263672 11 11 6 11 6 11 11 4.3333334922790527344 11 4.3333334922790527344 11 11 4.3333334922790527344 11 6 6 2.6666667461395263672 11 11 11 11 11 11 2.6666667461395263672 11 11 11 11 2.6666667461395263672 2.6666667461395263672 11 11 11 11 11 
11 11 11 11 11 11 11 11 11 11 11 11 11 11 11 11 11 11 11 11 11 11 11 11 11 11 11 11 11 11 11 11 11 11 11 11 11 11 11 11 11 11 11 11 11 11 11 11 11 11 11 11 11 11 11 11 11 11 11 11 11 11 11 11 11 11 11 11 11 11 11 11 11 11 11 11 2.6666667461395263672 11 2.6666667461395263672 11 11 11 11 11 11 11 11 11 2.6666667461395263672 11 2.6666667461395263672 11 6 11 6 11 6 6 11 4.3333334922790527344 4.3333334922790527344 4.3333334922790527344 4.3333334922790527344 4.3333334922790527344 6 6 6 6 11 11 11 11 11 11 11 11 11 11 11 11 11 11 2.6666667461395263672 2.6666667461395263672 11 11 11 
11 11 11 11 11 11 11 11 11 11 11 11 11 11 11 11 11 11 11 11 11 11 11 11 11 11 11 11 11 11 11 11 11 11 11 11 11 11 11 11 11 11 11 11 11 11 11 11 11 11 11 11 11 11 11 11 11 11 11 11 11 11 11 11 11 11 11 11 11 11 11 11 11 11 11 11 11 11 2.6666667461395263672 2.6666667461395263672 11 11 11 11 11 11 11 11 11 2.6666667461395263672 11 6 11 11 6 11 11 6 4.3333334922790527344 4.3333334922790527344 4.3333334922790527344 4.3333334922790527344 6 11 6 11 11 6 6 11 11 11 11 11 11 11 11 11 11 11 11 11 11 11 11 11 11 
11 11 11 11 11 11 11 11 11 11 11 11 11 11 11 11 11 11 11 11 11 11 11 11 11 11 11 11 11 11 11 11 11 11 11 11 11 11 11 11 11 11 11 11 11 11 11 11 11 11 11 11 11 11 11 11 11 11 11 11 11 11 11 11 11 11 11 11 11 11 11 11 11 11 11 11 11 11 2.6666667461395263672 2.6666667461395263672 11 11 11 11 11 11 11 7.6666665077209472656 7.6666665077209472656 7.6666665077209472656 11 6 11 11 6 6 6 6 4.3333334922790527344 4.3333334922790527344 4.3333334922790527344 4.3333334922790527344 6 11 7.6666665077209472656 7.6666665077209472656 7.6666665077209472656 2.6666667461395263672 11 11 11 11 11 11 11 7.6666665077209472656 11 7.6666665077209472656 11 11 11 11 11 11 11 11 11 
11 11 11 11 11 11 11 11 11 11 11 11 11 11 11 11 11 11 11 11 11 11 11 11 11 11 11 11 11 11 11 11 11 11 11 11 11 11 11 11 11 11 11 11 11 11 11 11 11 11 11 11 11 11 11 11 11 11 11 11 11 11 11 11 11 11 11 11 11 11 11 11 11 11 11 11 11 11 11 2.6666667461395263672 2.6666667461395263672 11 11 11 2.6666667461395263672 11 7.6666665077209472656 7.6666665077209472656 7.6666665077209472656 7.6666665077209472656 6 6 6 6 6 11 6 2.6666667461395263672 2.6666667461395263672 2.6666667461395263672 2.6666667461395263672 2.6666667461395263672 11 11 7.6666665077209472656 7.6666665077209472656 7.6666665077209472656 11 11 11 11 7.6666665077209472656 11 7.6666665077209472656 11 7.6666665077209472656 11 7.6666665077209472656 11 11 11 11 11 11 11 11 11 
11 11 11 11 11 11 11 11 11 11 11 11 11 11 11 11 11 11 11 11 11 11 11 11 11 11 11 11 11 11 11 11 11 11 11 11 11 11 11 11 11 11 11 11 11 11 11 11 11 11 11 11 11 11 11 11 11 11 11 11 11 11 11 11 11 11 11 11 11 11 11 11 11 11 11 11 11 11 11 11 2.6666667461395263672 11 11 11 11 11 11 11 7.6666665077209472656 6 6 11 6 11 6 11 6 2.6666667461395263672 11 7.6666665077209472656 11 11 11 11 11 11 7.6666665077209472656 7.6666665077209472656 11 11 11 11 11 11 11 7.6666665077209472656 11 11 11 11 11 11 11 11 11 11 11 
11 11 11 11 11 11 11 11 11 11 11 11 11 11 11 11 11 11 11 11 11 11 11 11 11 11 11 11 11 11 11 11 11 11 11 11 11 11 11 11 11 11 11 11 11 11 11 11 11 11 11 11 11 11 11 11 11 11 11 11 11 11 11 11 11 11 11 11 11 11 11 11 11 11 11 11 11 11 11 11 2.6666667461395263672 2.6666667461395263672 11 11 11 11 11 11 11 11 11 11 11 11 11 6 11 11 11 7.6666665077209472656 7.6666665077209472656 11 7.6666665077209472656 11 7.6666665077209472656 11 7.6666665077209472656 11 11 11 11 11 11 11 11 11 11 11 11 11 11 11 11 11 11 11 11 
11 11 11 11 11 11 11 11 11 11 11 11 11 11 11 11 11 11 11 11 11 11 11 11 11 11 11 11 11 11 11 11 11 11 11 11 11 11 11 11 11 11 11 11 11 11 11 11 11 11 11 11 11 11 11 11 11 11 11 11 11 11 11 11 11 11 11 11 11 11 11 11 11 11 11 11 11 11 11 11 11 2.6666667461395263672 11 2.6666667461395263672 11 11 11 6 6 11 11 6 6 6 11 11 11 11 11 11 11 11 11 11 11 11 11 11 11 11 11 2.6666667461395263672 11 11 11 11 11 11 11 11 11 11 11 11 11 11 11 
11 11 11 11 11 11 11 11 11 11 11 11 11 11 11 11 11 11 11 11 11 11 11 11 11 11 11 11 11 11 11 11 11 11 11 11 11 11 11 11 11 11 11 11 11 11 11 11 11 11 11 11 11 11 11 11 11 11 11 11 11 11 11 11 11 11 11 11 11 11 11 11 11 11 11 11 11 11 11 11 11 2.6666667461395263672 11 2.6666667461395263672 2.6666667461395263672 2.6666667461395263672 11 11 11 6 6 6 6 6 6 2.6666667461395263672 2.6666667461395263672 2.6666667461395263672 2.6666667461395263672 6 11 6 11 11 11 11 11 11 11 11 11 11 11 11 11 11 11 11 11 11 11 11 11 11 11 11 11 
11 11 11 11 11 11 11 11 11 11 11 11 11 11 11 11 11 11 11 11 11 11 11 11 11 11 11 11 11 11 11 11 11 11 11 11 11 11 11 11 11 11 11 11 11 11 11 11 11 11 11 11 11 11 11 11 11 11 11 11 11 11 11 11 11 11 11 11 11 11 11 11 11 11 11 11 11 11 11 11 11 2.6666667461395263672 2.6666667461395263672 11 2.6666667461395263672 2.6666667461395263672 11 11 11 11 6 11 6 6 6 6 6 6 2.6666667461395263672 6 6 11 11 11 11 11 11 11 11 2.6666667461395263672 2.6666667461395263672 11 11 2.6666667461395263672 2.6666667461395263672 11 11 11 11 11 11 11 11 11 11 11 11 
11 11 11 11 11 11 11 11 11 11 11 11 11 11 11 11 11 11 11 11 11 11 11 11 11 11 11 11 11 11 11 11 11 11 11 11 11 11 11 11 11 11 11 11 11 11 11 11 11 11 11 11 11 11 11 11 11 11 11 11 11 11 11 11 11 11 11 11 11 11 11 11 11 11 11 11 11 11 11 11 2.6666667461395263672 2.6666667461395263672 11 11 2.6666667461395263672 2.6666667461395263672 11 11 11 11 11 11 11 11 11 11 6 11 6 6 6 11 11 11 11 11 11 11 11 11 2.6666667461395263672 11 11 11 11 11 11 11 11 11 11 11 11 11 11 11 11 
11 11 11 11 11 11 11 11 11 11 11 11 11 11 11 11 11 11 11 11 11 11 11 11 11 11 11 11 11 11 11 11 11 11 11 11 11 11 11 11 11 11 11 11 11 11 11 11 11 11 11 11 11 11 11 11 11 11 11 11 11 11 11 11 11 11 11 11 11 11 11 11 11 11 11 11 11 11 11 11 11 11 2.6666667461395263672 2.6666667461395263672 11 2.6666667461395263672 2.6666667461395263672 11 11 11 2.6666667461395263672 11 11 11 2.6666667461395263672 11 6 6 11 2.6666667461395263672 11 11 11 11 11 11 11 11 11 11 11 11 11 11 11 11 11 11 11 11 11 11 11 11 11 11 11 
11 11 11 11 11 11 11 11 11 11 11 11 11 11 11 11 11 11 11 11 11 11 11 11 11 11 11 11 11 11 11 11 11 11 11 11 11 11 11 11 11 11 11 11 11 11 11 11 11 11 11 11 11 11 11 11 11 11 11 11 11 11 11 11 11 11 11 11 11 11 11 11 11 11 11 11 11 11 11 11 11 2.6666667461395263672 2.6666667461395263672 2.6666667461395263672 2.6666667461395263672 11 11 11 11 11 11 2.6666667461395263672 11 2.6666667461395263672 2.6666667461395263672 11 2.6666667461395263672 2.6666667461395263672 2.6666667461395263672 2.6666667461395263672 2.6666667461395263672 2.6666667461395263672 2.6666667461395263672 11 11 11 11 11 11 11 11 11 11 11 11 11 11 11 11 11 11 11 11 11 11 11 11 
11 11 11 11 11 11 11 11 11 11 11 11 11 11 11 11 11 11 11 11 11 11 11 11 11 11 11 11 11 11 11 11 11 11 11 11 11 11 11 11 11 11 11 11 11 11 11 11 11 11 11 11 11 11 11 11 11 11 11 11 11 11 11 11 11 11 11 11 11 11 11 11 11 11 11 11 11 11 11 11 2.6666667461395263672 11 2.6666667461395263672 2.6666667461395263672 2.6666667461395263672 2.6666667461395263672 11 11 11 11 11 2.6666667461395263672 11 2.6666667461395263672 2.6666667461395263672 11 2.6666667461395263672 2.6666667461395263672 2.6666667461395263672 2.6666667461395263672 2.6666667461395263672 2.6666667461395263672 2.6666667461395263672 2.6666667461395263672 11 11 11 11 11 11 11 11 11 11 11 11 11 11 11 11 11 11 11 11 11 11 11 
11 11 11 11 11 11 11 11 11 11 11 11 11 11 11 11 11 11 11 11 11 11 11 11 11 11 11 11 11 11 11 11 11 11 11 11 11 11 11 11 11 11 11 11 11 11 11 11 11 11 11 11 11 11 11 11 11 11 11 11 11 11 11 11 11 11 11 11 11 11 11 11 11 11 11 11 11 11 11 11 11 11 2.6666667461395263672 11 2.6666667461395263672 11 2.6666667461395263672 11 11 11 11 11 11 11 11 2.6666667461395263672 11 2.6666667461395263672 2.6666667461395263672 2.6666667461395263672 2.6666667461395263672 2.6666667461395263672 11 11 2.6666667461395263672 11 11 11 11 11 11 11 11 11 11 11 11 11 11 11 11 11 11 11 11 11 11 
11 11 11 11 11 11 11 11 11 11 11 11 11 11 11 11 11 11 11 11 11 11 11 11 11 11 11 11 11 11 11 11 11 11 11 11 11 11 11 11 11 11 11 11 11 11 11 11 11 11 11 11 11 11 11 11 11 11 11 11 11 11 11 11 11 11 11 11 11 11 11 11 11 11 11 11 11 11 11 11 11 11 11 11 11 11 11 11 11 11 11 11 11 11 2.6666667461395263672 2.6666667461395263672 2.6666667461395263672 2.6666667461395263672 2.6666667461395263672 2.6666667461395263672 2.6666667461395263672 2.6666667461395263672 11 11 2.6666667461395263672 2.6666667461395263672 2.6666667461395263672 2.6666667461395263672 11 11 11 11 11 11 11 11 11 11 11 11 11 11 11 11 11 11 11 
11 11 11 11 11 11 11 11 11 11 11 11 11 11 11 11 11 11 11 11 11 11 11 11 11 11 11 11 11 11 11 11 11 11 11 11 11 11 11 11 11 11 11 11 11 11 11 11 11 11 11 11 11 11 11 11 11 11 11 11 11 11 11 11 11 11 11 11 11 11 11 11 11 11 11 11 11 11 11 11 11 11 11 11 11 11 11 11 11 11 11 11 11 11 2.6666667461395263672 2.6666667461395263672 2.6666667461395263672 2.6666667461395263672 2.6666667461395263672 2.6666667461395263672 2.6666667461395263672 2.6666667461395263672 2.6666667461395263672 2.6666667461395263672 11 2.6666667461395263672 2.6666667461395263672 11 11 11 11 11 11 11 11 11 11 11 11 11 11 11 11 11 11 11 11 
11 11 11 11 11 11 11 11 11 11 11 11 11 11 11 11 11 11 11 11 11 11 11 11 11 11 11 11 11 11 11 11 11 11 11 11 11 11 11 11 11 11 11 11 11 11 11 11 11 11 11 11 11 11 11 11 11 11 11 11 11 11 11 11 11 11 11 11 11 11 11 11 11 11 11 11 11 11 11 11 11 11 11 11 11 11 11 11 11 11 11 11 11 11 11 11 2.6666667461395263672 11 2.6666667461395263672 2.6666667461395263672 2.6666667461395263672 2.6666667461395263672 11 2.6666667461395263672 11 11 11 11 11 11 11 11 11 11 11 11 11 11 11 11 11 11 11 11 11 11 11 
11 11 11 11 11 11 11 11 11 11 11 11 11 11 11 11 11 11 11 11 11 11 11 11 11 11 11 11 11 11 11 11 11 11 11 11 11 11 11 11 11 11 11 11 11 11 11 11 11 11 11 11 11 11 11 11 11 11 11 11 11 11 11 11 11 11 11 11 11 11 11 11 11 11 11 11 11 11 11 11 11 11 11 11 11 11 11 11 11 11 11 11 11 11 11 11 11 11 2.6666667461395263672 2.6666667461395263672 2.6666667461395263672 2.6666667461395263672 2.6666667461395263672 2.6666667461395263672 2.6666667461395263672 11 11 11 11 11 11 11 11 11 11 11 11 11 11 11 11 11 11 11 11 11 11 
11 11 11 11 11 11 11 11 11 11 11 11 11 11 11 11 11 11 11 11 11 11 11 11 11 11 11 11 11 11 11 11 11 11 11 11 11 11 11 11 11 11 11 11 11 11 11 11 11 11 11 11 11 11 11 11 11 11 11 11 11 11 11 11 11 11 11 11 11 11 11 11 11 11 11 11 11 11 11 11 11 11 11 11 11 11 11 11 11 11 11 11 11 11 11 11 11 11 11 11 11 2.6666667461395263672 2.6666667461395263672 2.6666667461395263672 2.6666667461395263672 2.6666667461395263672 2.6666667461395263672 11 11 11 11 11 11 11 11 11 11 11 11 11 11 11 11 11 11 11 11 
11 11 11 11 11 11 11 11 11 11 11 11 11 11 11 11 11 11 11 11 11 11 11 11 11 11 11 11 11 11 11 11 11 11 11 11 11 11 11 11 11 11 11 11 11 11 11 11 11 11 11 11 11 11 11 11 11 11 11 11 11 11 11 11 11 11 11 11 11 11 11 11 11 11 11 11 11 11 11 11 11 11 11 11 11 11 11 11 11 11 11 11 11 11 11 11 11 11 11 11 11 11 11 11 11 11 2.6666667461395263672 11 11 11 11 11 11 11 11 11 11 11 11 11 11 11 11 11 11 11 11 
11 11 11 11 11 11 11 11 11 11 11 11 11 11 11 11 11 11 11 11 11 11 11 11 11 11 11 11 11 11 11 11 11 11 11 11 11 11 11 11 11 11 11 11 11 11 11 11 11 11 11 11 11 11 11 11 11 11 11 11 11 11 11 11 11 11 11 11 11 11 11 11 11 11 11 11 11 11 11 11 11 11 11 11 11 11 11 11 11 11 11 11 11 11 11 11 11 11 11 11 11 11 11 2.6666667461395263672 2.6666667461395263672 2.6666667461395263672 11 11 11 11 11 11 11 11 11 11 11 11 11 11 11 11 11 11 11 11 11 
