ncols        127
nrows        131
xllcorner    -71.681135979344
yllcorner    -16.519694133538
cellsize     0.001836012963
NODATA_value -9999
1.0 1 1 1 1 1 1 1 1 1 1 1 1 1 1 1 1 1 1 1 1 1 1 1 1 1 1 1 1 1 1 1 1 1 1 1 1 1 1 1 1 1 1 1 1 1 1 1 1 1 1 1 1 1 1 1 1 1 1 1 1 1 1 1 1 1 1 1 1 1 1 1 1 1 1 1 1 1 1 1 1 1 1 1 1 1 1 1 1 1 1 1 1 1 1 1 1 1 1 1 1 1 1 1 1 1 1 1 1 1 1 1 1 1 1 1 1 1 1 1 1 1 1 1 1 1 1 
1 1 1 1 1 1 1 1 1 1 1 1 401 1 1 1 1 1 1 1 1 1 1 1 1 401 1 1 1 1 1 1 1 1 1 1 1 1 1 1 1 1 1 1 1 1 1 1 1 1 1 1 1 1 1 1 1 1 1 1 1 1 1 1 1 1 1 1 1 1 1 1 1 1 1 1 1 1 1 1 1 1 1 1 1 1 1 1 1 1 1 1 1 1 1 1 1 1 1 1 1 1 1 1 1 1 1 1 1 1 1 1 1 1 1 1 1 1 1 1 1 1 1 1 1 1 1 
1 1 1 1 1 1 1 1 1 1 1 1 1 1 1 1 1 1 1 1 1 1 1 1 1 1 1 1 1 1 1 1 1 1 1 1 1 1 1 1 1 1 1 1 1 1 1 1 1 1 1 1 1 1 1 1 1 1 1 1 1 1 1 1 1 1 1 1 1 1 1 1 1 1 1 1 1 1 1 1 1 1 1 1 1 1 1 1 1 1 1 1 1 1 1 1 1 1 1 1 1 1 1 1 1 1 1 1 1 1 1 1 1 1 1 1 1 1 1 1 1 1 1 1 1 1 1 
1 1 1 1 1 1 1 1 1 1 1 1 1 1 1 401 1 1 1 1 1 1 1 1 1 1 1 1 1 1 1 1 1 1 1 1 1 1 1 1 1 1 1 1 1 1 1 1 1 1 1 1 1 1 1 1 1 1 1 1 1 1 1 1 1 1 1 1 1 1 401 1 1 1 1 1 1 1 1 1 1 1 1 1 1 1 1 1 1 1 1 1 1 1 1 1 1 1 1 1 1 1 1 1 1 1 1 1 1 1 1 1 1 1 1 1 1 1 1 1 1 1 1 1 1 1 1 
1 1 1 1 1 1 1 1 1 1 1 1 401 401 401 401 1 1 1 1 1 1 1 1 1 1 1 1 1 1 1 1 1 1 1 1 1 1 1 1 1 1 1 1 1 1 1 1 1 1 1 1 1 1 1 1 1 1 1 1 1 1 1 1 1 1 1 1 1 401 1 1 1 1 1 1 1 1 1 1 1 1 1 1 1 1 1 1 1 1 1 1 1 1 1 1 1 1 1 1 1 1 1 1 1 1 1 1 1 1 1 1 1 1 1 1 1 1 1 1 1 1 1 1 1 1 1 
1 1 1 1 1 1 1 1 1 1 1 1 1 1 401 401 1 1 1 1 1 1 401 401 1 201 201 1 201 1 1 1 1 1 1 1 1 1 1 1 1 1 1 1 1 1 1 1 1 1 1 1 1 1 1 1 1 1 1 1 1 1 1 1 1 1 1 1 1 1 401 1 401 1 1 401 1 1 1 1 1 1 1 1 1 1 1 1 1 1 1 1 1 1 1 1 1 1 1 1 1 1 1 1 1 1 1 1 1 1 1 1 1 1 1 1 1 1 1 1 1 1 1 1 1 1 1 
1 1 1 1 1 1 1 1 1 1 1 1 1 401 401 401 1 1 1 1 1 1 401 1 1 201 201 1 201 1 1 1 1 1 1 1 1 1 1 1 1 1 1 1 1 1 1 1 1 1 1 1 1 1 1 1 1 1 1 1 1 1 1 1 1 1 1 1 1 1 1 1 1 1 1 1 1 1 1 1 1 1 1 1 1 1 1 401 1 1 1 1 1 1 1 1 1 1 1 1 1 1 1 1 1 1 1 1 1 1 1 1 1 1 1 1 1 1 1 1 1 1 1 1 1 1 1 
1 1 1 1 1 1 1 1 1 1 1 1 401 401 1 601 1 1 1 1 401 1 1 1 201 1 1 201 1 201 1 1 1 1 1 1 1 1 1 1 1 1 1 1 1 1 1 1 1 1 1 1 1 1 1 1 1 1 1 1 1 1 1 1 1 1 1 1 1 1 1 1 1 401 1 1 1 1 1 1 1 1 1 201 1 1 1 1 201 1 1 1 1 1 1 1 1 1 1 1 1 1 1 1 1 1 1 1 1 1 1 1 1 1 1 1 1 1 1 1 1 1 1 1 1 1 1 
1 1 1 1 1 1 1 1 1 1 1 1 1 1 1 1 1 1 1 1 1 1 1 1 201 1 1 1 1 1 401 401 401 1 1 1 1 1 1 1 1 1 1 1 1 1 1 1 1 1 1 1 1 1 1 1 1 1 1 1 1 1 1 1 1 1 1 1 1 1 1 1 401 401 1 1 1 1 1 1 1 1 201 1 1 1 1 1 1 1 1 1 1 1 1 1 1 1 1 1 1 1 1 1 1 1 1 1 1 1 1 1 1 1 1 1 1 1 1 1 1 1 1 1 1 1 1 
1 1 1 1 1 1 1 1 1 1 1 1 601 1 1 1 1 1 1 1 401 1 1 201 201 1 201 1 401 401 1 1 401 1 1 1 1 1 1 1 1 1 1 1 1 1 1 1 1 1 1 1 1 1 1 1 1 1 1 1 1 1 1 1 1 1 1 1 1 1 1 1 401 401 1 1 1 1 1 1 1 1 1 1 1 401 1 1 201 1 401 1 1 1 1 1 1 1 1 1 1 1 1 1 1 1 1 1 1 1 1 1 1 1 1 1 1 1 1 1 1 1 1 1 1 1 1 
1 1 1 1 1 1 1 1 1 1 1 1 1 1 1 1 1 1 1 1 1 1 1 201 201 201 201 1 1 401 1 401 1 1 1 1 1 1 1 1 1 1 1 1 1 1 1 1 1 1 1 1 1 1 1 1 1 1 1 1 1 1 1 1 1 1 1 1 1 1 1 1 401 1 1 1 1 1 1 1 1 1 1 201 1 201 201 1 201 1 401 1 1 1 1 1 1 1 1 1 1 1 1 1 1 1 1 1 1 1 1 1 1 1 1 1 1 1 1 1 1 1 1 1 1 1 1 
1 1 1 1 1 1 1 1 1 1 1 1 1 1 1 1 1 1 1 1 1 1 1 1 201 1 201 401 1 401 1 401 1 1 1 401 1 1 1 1 1 1 1 1 1 1 1 1 1 1 1 1 1 1 1 1 1 1 1 1 1 1 1 1 1 1 1 1 1 1 1 1 401 1 1 1 1 1 1 1 1 201 1 1 1 201 201 1 1 1 1 1 1 1 1 1 1 1 1 1 1 1 1 1 1 1 1 1 1 1 1 1 1 1 1 1 1 1 1 1 1 1 1 1 1 1 1 
1 1 1 1 1 1 1 1 1 1 1 1 1 1 1 1 1 1 1 1 1 1 401 401 401 1 1 1 401 401 1 1 401 401 401 401 1 1 1 1 1 1 1 1 1 1 1 1 1 1 1 1 1 1 1 1 1 1 1 1 1 1 1 1 1 1 1 1 1 1 1 1 1 1 1 1 1 1 1 1 1 201 1 1 1 1 1 1 1 1 1 1 1 1 1 1 1 1 1 1 1 1 1 1 1 1 1 1 1 1 1 1 1 1 1 1 1 1 1 1 1 1 1 1 1 1 1 
1 1 1 1 1 1 1 1 1 1 1 1 1 1 1 1 1 1 1 1 1 1 401 401 1 1 401 401 401 1 401 401 401 1 401 401 401 1 1 1 1 1 1 1 1 1 1 1 1 1 1 1 1 1 1 1 1 1 1 1 1 1 1 1 1 1 1 1 1 1 1 1 1 1 1 1 1 1 1 1 201 201 201 1 1 201 201 1 1 1 1 1 1 1 1 1 1 1 1 1 1 1 1 1 1 1 1 1 1 1 1 1 1 1 1 1 1 1 1 1 1 1 1 1 1 1 1 
1 1 1 1 1 1 1 601 601 1 1 1 1 1 1 1 1 1 401 1 1 1 1 201 1 401 1 401 401 1 401 1 1 401 1 401 401 201 1 1 1 1 1 1 1 1 1 1 1 1 1 1 1 1 1 1 1 1 1 1 1 1 1 1 1 1 1 1 1 1 1 201 1 201 1 1 1 1 1 201 201 201 201 1 1 201 1 1 1 1 1 1 1 1 1 1 1 1 1 1 1 1 1 1 1 1 1 1 1 1 1 1 1 1 1 1 1 1 1 1 1 1 1 1 1 1 1 
1 1 1 1 1 1 1 1 1 1 1 1 1 1 1 1 401 1 1 1 1 401 401 201 1 201 1 1 1 401 1 1 401 401 401 1 401 401 201 1 201 1 1 1 1 1 1 1 1 1 1 1 1 1 1 201 1 1 1 1 1 1 1 1 1 1 1 1 1 1 201 201 1 1 1 1 1 1 1 1 1 1 1 1 201 1 201 1 1 1 1 1 1 1 1 1 1 1 1 1 1 1 1 1 1 1 1 1 1 1 1 1 1 1 1 1 1 1 1 1 1 1 1 1 1 1 1 
1 1 1 1 1 1 1 1 1 601 1 1 1 1 1 401 401 1 1 1 1 401 1 201 1 201 401 1 1 201 1 201 401 401 1 401 401 1 401 1 201 1 1 1 1 1 1 1 1 1 1 1 1 1 1 1 1 1 1 1 1 1 1 1 1 1 1 401 1 201 401 1 201 201 1 1 1 1 201 201 201 201 201 201 201 201 1 1 1 1 1 1 1 1 1 1 1 1 1 1 1 1 1 1 1 1 1 1 1 1 1 1 1 1 1 1 1 1 1 1 1 1 1 1 1 1 1 
1 1 1 401 1 1 1 1 1 1 1 1 1 1 401 1 1 401 1 1 1 1 201 1 201 1 201 201 201 201 1 1 201 1 401 1 401 401 401 401 401 201 1 1 1 1 1 1 1 1 1 201 201 1 201 1 1 1 1 1 1 1 1 1 1 1 1 1 401 401 401 401 1 201 201 201 1 1 1 201 401 401 1 201 201 201 1 1 1 1 1 1 1 1 1 1 1 1 1 1 1 1 1 1 1 1 1 1 1 1 1 1 1 1 1 1 1 1 1 1 1 1 1 1 1 1 1 
1 1 1 1 1 1 1 1 1 1 1 1 1 401 1 401 1 401 401 1 401 201 1 201 201 1 201 201 201 1 1 1 1 1 1 1 401 1 401 401 401 201 401 1 1 1 1 1 1 1 1 201 201 1 1 1 401 1 1 1 1 1 1 1 1 1 1 1 1 201 401 201 201 201 1 201 201 201 201 1 1 1 1 1 1 201 1 1 1 1 1 1 1 1 1 1 1 1 1 1 1 1 1 1 1 1 1 1 1 1 1 1 1 1 1 1 1 1 1 1 1 1 1 1 1 1 1 
1 1 1 1 1 1 1 1 1 1 1 1 401 1 401 401 401 1 1 401 201 201 1 201 1 1 1 1 1 1 1 1 1 1 1 1 1 1 401 401 401 1 1 201 401 401 1 1 1 1 1 201 1 1 1 1 401 1 1 1 1 1 1 1 1 1 1 1 201 201 201 1 1 1 201 1 1 1 201 1 401 1 1 201 1 1 1 1 1 1 1 1 1 1 1 1 1 1 1 1 1 1 1 1 1 1 1 1 1 1 1 1 1 1 1 1 1 1 1 1 1 1 1 1 1 1 1 
1 1 1 1 1 1 1 1 1 1 1 1 1 401 1 1 1 1 1 1 201 201 401 1 1 1 1 1 201 1 1 201 1 401 401 1 1 1 401 401 401 401 1 201 401 401 401 201 201 1 201 201 1 201 1 201 1 1 1 1 1 1 1 1 1 1 1 1 1 201 1 1 201 1 1 1 1 1 1 201 1 1 1 1 401 1 1 1 1 1 1 1 1 1 1 1 1 1 1 1 1 1 1 1 1 1 1 1 1 1 1 1 1 1 1 1 1 1 1 1 1 1 1 1 1 1 1 
1 1 1 1 1 1 1 1 1 1 1 1 1 1 401 401 401 1 201 201 201 1 1 1 1 1 1 201 1 1 1 401 1 1 1 1 1 1 401 1 401 401 1 201 401 401 401 201 201 401 401 201 1 1 201 201 201 1 1 1 1 201 1 1 1 1 201 201 1 201 1 201 201 1 1 1 1 201 1 201 401 1 1 1 1 1 1 1 1 1 1 1 1 1 1 1 1 1 1 1 1 1 1 1 1 1 1 1 1 1 1 1 1 1 1 1 1 1 1 1 1 1 1 1 1 1 1 
1 1 1 1 1 1 1 1 1 1 1 1 1 1 1 1 1 201 201 201 201 1 1 1 1 1 1 201 201 1 1 401 1 401 1 1 201 201 1 1 401 401 401 1 1 401 401 201 1 401 401 201 1 201 201 201 201 1 1 1 1 201 201 1 201 201 201 201 201 401 401 201 201 1 1 1 1 1 201 1 401 401 1 1 1 1 1 1 1 1 1 1 1 1 1 1 1 1 1 1 1 1 1 1 1 1 1 1 1 1 1 1 1 1 1 1 1 1 1 1 1 1 1 1 1 1 1 
1 1 1 1 1 1 1 1 1 1 1 1 1 1 1 1 1 1 1 1 1 401 1 1 1 1 1 1 1 1 401 401 1 1 1 201 201 201 1 201 1 201 1 1 401 1 401 401 401 401 401 401 1 201 1 201 1 1 201 1 1 201 1 1 201 201 1 201 1 1 1 1 1 201 201 1 401 401 1 1 201 1 1 1 1 1 1 1 1 1 1 1 1 1 1 1 1 1 1 1 1 1 1 1 1 1 1 1 1 1 1 1 1 1 1 1 1 1 1 1 1 1 1 1 1 1 1 
1 1 1 401 1 1 1 1 1 1 1 1 1 1 1 1 1 1 1 1 1 1 1 1 1 1 1 1 1 1 401 401 1 1 1 201 201 201 1 1 201 1 201 1 201 1 401 401 401 401 1 401 1 201 201 201 201 201 1 1 1 201 201 201 401 401 401 401 401 401 201 1 1 201 1 401 401 1 1 201 1 1 1 1 1 1 1 1 1 1 1 1 1 1 1 1 1 1 1 1 1 1 1 1 1 1 1 1 1 1 1 1 1 1 1 1 1 1 1 1 1 1 1 1 1 1 1 
1 1 1 1 1 1 1 1 1 1 1 1 1 1 1 1 1 1 1 401 1 1 1 1 1 1 1 1 1 1 1 1 1 1 201 1 201 1 201 1 1 1 201 201 201 1 401 401 401 401 401 401 1 201 201 1 1 201 1 1 1 1 1 1 1 1 1 1 1 1 201 1 1 601 201 1 401 401 401 201 1 1 1 1 1 1 1 1 1 1 1 1 1 1 1 1 1 1 1 1 1 1 1 1 1 1 1 1 1 1 1 1 1 1 1 1 1 1 1 1 1 1 1 1 1 1 1 
1 1 1 1 1 1 1 1 1 1 1 1 1 1 1 1 1 1 1 1 1 1 1 1 1 1 1 1 1 1 401 401 1 1 1 1 201 201 1 201 1 1 201 201 1 201 401 401 401 401 1 201 1 201 1 201 201 401 401 401 1 401 401 401 401 401 401 401 401 401 1 1 601 201 601 601 1 1 1 401 1 1 1 1 1 1 1 1 1 1 1 1 1 1 1 1 1 1 1 1 1 1 1 1 1 1 1 1 1 1 1 1 1 1 1 1 1 1 1 1 1 1 1 1 1 1 1 
1 1 1 1 1 1 1 1 1 1 1 1 1 1 1 1 1 1 1 1 1 1 1 1 1 1 1 1 1 1 1 1 201 1 201 201 1 201 1 1 201 1 1 1 201 201 1 1 401 1 1 201 1 401 201 1 401 1 401 401 1 1 1 1 401 401 401 401 401 401 601 1 1 601 1 1 401 401 1 1 1 1 1 1 1 1 1 1 1 1 1 1 1 1 1 1 1 1 1 1 1 1 1 1 1 1 1 1 1 1 1 1 1 1 1 1 1 1 1 1 1 1 1 1 1 1 1 
1 1 1 1 1 1 1 1 1 1 1 1 1 1 1 1 1 1 1 1 1 1 1 1 1 1 1 1 1 1 1 1 201 1 1 1 1 1 1 201 1 1 201 1 201 201 201 401 401 401 401 401 1 1 201 1 1 1 401 401 1 401 401 1 401 401 401 401 401 401 401 401 601 1 1 1 601 401 401 1 1 1 1 1 1 1 1 1 1 1 1 1 1 1 1 1 1 1 1 1 1 1 1 1 1 1 1 1 1 1 1 1 1 1 1 1 1 1 1 1 1 1 1 1 1 1 1 
1 1 1 1 1 1 1 1 1 1 1 1 1 1 1 1 1 401 1 1 1 1 1 1 1 1 1 1 1 1 1 1 1 1 1 1 201 1 201 1 201 201 1 1 201 1 201 1 401 1 1 401 1 1 401 401 201 1 1 1 1 1 1 1 1 1 1 401 1 1 401 601 601 601 601 1 601 601 1 1 1 1 1 1 1 1 1 1 1 1 1 1 1 1 1 1 1 1 1 1 1 1 1 1 1 1 1 1 1 1 1 1 1 1 1 1 1 1 1 1 1 1 1 1 1 1 1 
1 1 1 1 1 1 1 1 1 1 1 1 1 1 1 1 1 1 1 1 1 1 1 1 1 1 1 1 1 1 201 201 201 1 1 201 201 201 1 1 1 1 201 201 201 1 201 1 401 401 1 401 401 401 1 201 1 1 1 1 1 1 1 1 1 1 1 1 1 1 601 601 601 1 601 601 1 1 1 1 1 1 1 1 1 1 1 1 1 1 1 1 401 1 1 1 1 1 1 1 1 1 1 1 1 1 1 1 1 1 1 1 1 1 1 1 1 1 1 1 1 1 1 1 1 1 1 
1 1 1 1 1 1 1 1 1 1 1 1 1 1 1 1 1 1 1 1 1 1 1 1 1 1 1 1 1 1 201 201 201 1 201 201 201 201 201 1 1 201 1 201 201 1 201 201 201 401 401 1 401 401 201 1 1 1 1 1 1 1 1 1 1 1 1 1 401 601 1 1 601 1 201 601 601 401 1 1 1 1 1 1 1 1 1 1 1 1 1 1 1 1 1 1 1 1 1 1 1 1 1 1 1 1 1 1 1 1 1 1 1 1 1 1 1 1 1 1 1 1 1 1 1 1 1 
1 1 1 1 1 1 1 1 1 1 1 1 1 1 1 1 1 1 1 1 1 1 1 1 1 1 1 1 1 1 1 1 201 201 201 201 1 201 201 1 1 201 1 1 1 1 1 1 1 401 1 1 1 1 1 1 1 1 1 1 1 1 1 1 1 1 1 1 401 601 601 401 1 201 201 601 601 401 1 1 1 1 1 1 1 1 1 201 1 401 1 1 1 1 1 1 1 1 1 1 1 1 1 1 1 1 1 1 1 1 1 1 1 1 1 1 1 1 1 1 1 1 1 1 1 1 1 
1 1 1 1 1 1 1 1 1 1 1 1 1 1 1 1 401 401 1 1 1 1 1 1 1 1 1 1 1 201 201 1 1 1 201 201 201 201 1 1 201 1 1 1 1 1 1 1 201 201 1 1 1 1 1 1 1 1 1 1 1 1 1 1 1 1 1 1 1 1 401 1 1 1 201 601 601 1 1 1 1 1 1 1 1 1 1 1 1 1 1 1 1 1 1 1 1 1 1 1 1 1 1 1 1 1 1 1 1 1 1 1 1 1 1 1 1 1 1 1 1 1 1 1 1 1 1 
1 1 1 1 1 1 1 1 1 1 1 1 1 401 1 1 1 1 1 1 1 1 1 1 1 1 1 1 201 1 1 1 1 201 201 201 1 1 201 201 201 201 201 201 1 201 1 201 401 1 1 401 1 601 601 601 1 1 1 1 1 1 1 1 1 1 1 1 1 1 401 1 201 401 1 401 1 1 1 1 1 1 1 1 1 1 1 1 1 401 401 1 1 1 1 1 1 1 1 1 1 1 1 1 1 1 1 1 1 1 1 1 1 1 1 1 1 1 1 1 1 1 1 1 1 1 1 
1 1 1 1 1 1 1 1 1 1 1 1 401 1 401 1 1 1 1 1 1 1 1 1 1 1 1 201 201 201 201 1 201 201 201 201 201 1 201 1 1 1 201 1 1 1 201 401 401 401 401 401 401 1 1 1 601 1 1 1 1 1 1 1 1 1 601 1 1 1 401 1 1 1 401 601 601 201 1 1 1 1 1 201 201 201 201 201 1 1 1 401 1 1 1 1 1 1 1 1 1 1 1 1 1 1 1 1 1 1 1 1 1 1 1 1 1 1 1 1 1 1 1 1 1 1 1 
1 1 1 1 1 1 1 1 1 1 1 1 1 401 401 401 1 1 1 1 1 1 1 1 1 1 1 1 201 201 1 201 201 1 1 201 1 1 1 1 201 1 1 401 401 1 401 1 1 401 401 1 1 401 1 601 1 601 1 1 1 1 1 1 1 1 1 601 401 1 1 1 401 1 401 601 601 1 1 1 1 1 1 201 201 1 201 401 1 1 1 401 1 401 1 1 1 1 1 1 1 1 1 1 1 1 1 1 1 1 1 1 1 1 1 1 1 1 1 1 1 1 1 1 1 1 1 
1 1 1 1 1 1 1 1 1 401 1 1 1 1 1 1 1 1 401 401 1 1 1 1 1 1 1 1 201 1 201 201 1 201 201 1 201 201 1 201 1 1 401 1 401 401 401 1 1 401 401 401 401 401 1 1 1 601 601 1 1 1 1 1 601 601 601 1 401 1 401 401 1 401 1 1 601 1 1 1 1 1 1 1 1 201 1 401 401 1 201 201 1 1 1 1 1 1 1 1 1 1 1 1 1 1 1 1 1 1 1 1 1 1 1 1 1 1 1 1 1 1 1 1 1 1 1 
1 1 1 1 1 1 1 1 401 1 1 1 1 1 401 1 1 1 1 1 1 1 1 1 401 1 1 201 201 201 201 1 1 201 201 1 201 201 201 201 1 201 201 1 401 401 1 1 401 1 401 401 401 401 1 601 601 601 601 1 1 1 1 1 601 1 601 1 401 1 401 401 1 401 1 601 1 1 1 1 1 1 1 1 1 201 401 401 1 1 1 1 1 1 1 1 1 1 1 1 1 1 1 1 1 1 1 1 1 1 1 1 1 1 1 1 1 1 1 1 1 1 1 1 1 1 1 
1 1 1 1 1 1 1 1 1 1 1 1 401 1 1 1 1 401 401 1 1 401 401 1 1 1 201 1 1 201 201 201 1 201 201 1 201 201 201 1 1 201 201 201 1 201 1 1 1 1 401 1 1 1 1 1 601 601 1 1 1 1 1 601 601 601 1 601 401 1 401 401 201 201 401 1 601 1 1 1001 1 1 401 1 401 1 401 1 201 201 1 1 201 1 1 1 1 1 1 1 1 1 1 1 1 1 1 1 1 1 1 1 1 1 1 1 1 1 1 1 1 1 1 1 1 1 1 
1 1 1 1 1 1 1 1 401 1 1 1 1 1 1 1 1 401 1 1 1 1 401 1 1 1 201 1 1 1 1 201 1 201 1 201 1 1 1 201 1 201 201 401 201 201 1 401 401 401 401 1 1 1 1 601 1 1 601 601 601 1 601 601 601 601 1 1 1 1 1 1 1 1 1 601 1 1 1 1001 1 1 1 1 1 401 201 201 201 1 1 1 1 201 201 1 1 1 1 1 1 1 1 1 1 1 1 1 1 1 1 1 1 1 1 1 1 1 1 1 1 1 1 1 1 1 1 
1 1 1 1 1 1 1 1 1 1 1 1 1 1 1 1 1 401 1 1 1 401 1 401 1 1 1 401 401 201 201 1 201 1 1 1 201 201 201 201 201 1 201 1 401 201 401 401 401 1 1 1 1 1 1 1 1 1 1 1 601 601 1 1 601 601 601 601 601 1 1 401 1 401 401 1 1 1 1 1001 1 1 401 401 1 401 201 1 1 1 1 1 201 1 1 1 1 1 1 1 1 1 1 1 1 1 1 1 1 1 1 1 1 1 1 1 1 1 1 1 1 1 1 1 1 1 1 
1 1 1 1 1 1 1 1 1 1 1 1 1 1 1 1 1 1 1 1 1 1 1 1 1 1 201 201 201 1 1 201 201 201 1 201 1 1 1 201 1 1 1 1 1 201 401 1 1 1 1 1 1 1 1 601 1 1 1 1 601 601 601 601 601 601 601 601 601 1 401 1 1 401 1 601 601 1 1 1001 1 1 1 401 401 1 1 401 201 201 1 1 1 1 1 1 401 1 201 1 1 1 1 1 1 1 1 1 1 1 1 1 1 1 1 1 1 1 1 1 1 1 1 1 1 1 1 
1 1 1 1 1 1 1 1 1 1 1 1 401 1 1 1 1 1 1 1 1 1 1 401 1 201 201 201 1 201 1 201 1 201 201 201 201 1 201 1 1 1 1 1 1 401 1 1 1 1 1 1 1 1 1 1 1 1 601 601 601 601 601 601 601 601 601 801 801 1 1 1 401 601 601 1 801 1 1 1001 1 1 1 1 401 1 401 201 201 1 1 1 401 1 1 1 1 1 1 1 1 1 1 1 1 1 1 1 1 1 1 1 1 1 1 1 1 1 1 1 1 1 1 1 1 1 1 
1 1 1 1 1 1 1 1 1 1 1 1 401 1 1 1 1 1 1 401 401 1 401 1 1 201 1 1 1 201 1 201 1 1 1 1 201 1 401 1 1 1 1 201 201 1 1 1 1 1 1 1 1 1 1 1 601 1 1 1 601 601 601 801 1 801 801 801 801 1 1 1 601 601 601 801 1 1 1 1001 1 1 1 401 401 201 1 1 1 401 401 401 1 401 1 1 201 201 201 601 601 1 1 1 1 1 1 1 1 1 1 1 1 1 1 1 1 1 1 1 1 1 1 1 1 1 1 
1 1 1 1 1 1 1 1 1 1 1 1 1 401 1 1 1 401 401 401 1 401 401 1 1 1 201 1 1 1 1 1 1 201 201 201 1 1 1 1 1 401 1 201 1 1 1 1 1 1 1 1 1 1 1 1 601 1 1 1 1 1 801 1 801 801 801 801 801 1 1 1 1 601 601 801 801 1 1 1001 1 1 1 401 401 1 601 1 601 601 401 401 401 401 1 1 201 1 1 601 1 1 1 1 1 1 1 1 1 1 1 1 1 1 1 1 1 1 1 1 1 1 1 1 1 1 1 
1 1 1 1 1 1 1 1 1 1 1 1 1 401 401 1 1 401 1 1 401 401 1 1 201 1 1 1 1 401 1 1 1 1 201 1 1 1 1 1 1 401 401 201 1 1 1 1 1 1 1 1 1 1 1 1 801 1 1 1 1 1 801 801 1 801 801 801 801 1 401 1 1 601 1 1 1 1 1 1001 1001 401 1 1 1 1 601 1 1 1 601 401 401 401 401 1 1 1 1 601 1 1 1 1 1 1 1 1 1 1 1 1 1 1 1 1 1 1 1 1 1 1 1 1 1 1 1 
1 1 1 1 1 1 1 1 1 1 1 1 1 1 1 1 1 1 401 401 401 1 1 1 1 1 1 401 1 1 1 1 201 201 1 401 401 401 401 401 1 401 1 1 1 1 1 1 1 1 1 1 1 1 1 1 1 1 1 1 1 1 801 801 801 1 801 801 1 1 1 1 1 1 601 1 1 601 1 1001 1001 401 1 1 601 601 1 601 601 601 1 601 401 401 1 1 401 1 1 601 1 1 1 1 1 1 1 1 1 1 1 1 1 1 1 1 1 1 1 1 1 1 1 1 1 1 1 
1 1 1 1 1 1 1 1 1 1 1 1 1 401 1 1 1 401 1 1 1 1 1 1 1 1 401 1 1 1 1 1 1 1 401 1 1 1 1 401 1 1 1 1 1 1 1 1 1 1 1 1 1 1 1 1 1 1 1 1 1 1 1 801 1 801 1 1 1 801 1 601 1 1 1 1 1 601 1 1001 1001 1 601 601 601 601 1 1 601 1 1 1 1 601 401 401 1 401 401 1 1 1 201 201 201 1 1 1 1 1 1 1 1 1 1 1 1 1 1 1 1 1 1 1 1 1 1 
1 1 1 1 1 1 1 1 1 1 1 1 401 1 401 1 1 1 1 1 1 1 1 1 401 1 1 1 1 1 1 1 1 401 401 401 401 401 1 1 1 1 1 1 1 1 1 1 1 1 1 1 1 1 1 1 1 801 1 1 801 1 401 1 1 801 1 1 801 1 1 1 1 1 1001 601 1 1 601 1 1001 601 601 601 1 1 1 1 601 601 601 601 1 1 1 601 601 1 401 1 1 201 201 1 1 1 1 1 1 1 1 1 1 1 1 1 1 1 1 1 1 1 1 1 1 1 1 
1 1 1 1 1 1 1 1 1 1 1 1 401 1 401 1 1 1 1 1 1 1 1 1 401 401 401 1 1 1 1 1 401 401 1 1 1 1 1 1 1 1 1 1 1 1 1 1 1 1 1 1 1 1 1 1 1 801 801 1 1 1 1 801 801 1 1 1 801 801 1 1 1001 1001 1001 1 1 1 1 1 1 1 601 1 601 1 1 801 1 601 1 1 601 1 601 601 1 401 1 401 401 201 1 1 1 1 1 1 1 1 1 1 1 1 1 1 1 1 1 1 1 1 1 1 1 1 1 
1 1 1 1 1 1 1 1 1 1 1 401 1 1 1 1 1 1 1 1 1 1 401 401 401 1 1 401 401 1 1 401 401 1 1 401 1 401 1 1 1 1 1 1 1 1 1 1 1 1 1 1 1 1 1 1 1 1 1 1 1 601 801 801 1 801 1 801 1 801 1 801 1001 1 801 1 1 1 1 1 1001 1 1 1 1 601 601 601 801 601 1 601 1 1 601 1 1 1 401 201 1 201 1 1 1 1 1 1 1 1 1 1 1 1 1 1 1 1 1 1 1 1 1 1 1 1 1 
1 1 1 1 1 1 1 1 1 1 1 1 1 1 1 1 1 1 1 1 1 401 401 401 1 401 401 401 401 1 1 1 1 1 1 1 401 401 1 1 1 1 1 1 1 1 1 1 1 1 1 1 1 1 1 1 1 1 601 601 601 601 801 1 801 801 801 1 1 1 801 1 1 1 801 1 1 1 1 1 1 1001 601 601 601 1 1 601 601 1 1 601 1 1 401 401 401 401 401 1 1 201 1 1 201 1 1 1 1 1 1 1 1 1 1 1 1 1 1 1 1 1 1 1 1 1 1 
1 1 1 1 1 1 1 1 1 1 1 1 1 1 1 1 1 1 1 1 1 401 401 1 401 401 401 1 1 401 401 401 401 401 1 401 401 1 1 1 1 1 1 1 1 1 1 1 1 1 1 1 1 1 1 1 1 1 601 601 601 601 801 801 801 1 801 801 801 801 801 1 1 1 801 1 1 1 1 1 1 1 601 601 601 601 1 801 801 801 601 801 1 401 401 401 401 1 1 1 1 201 1 201 201 1 1 1 1 1 1 1 1 1 1 1 1 1 1 1 1 1 1 1 1 1 1 
1 1 1 1 1 1 1 1 1 1 1 1 1 1 1 1 1 1 1 1 1 1 1 1 1 1 401 1 1 401 401 401 401 1 1 1 1 401 1 1 1 1 1 1 1 1 1 1 1 1 1 1 1 1 1 1 1 1 601 601 601 601 801 801 801 801 801 801 1 1 801 801 801 801 801 1 1 801 1 1 1001 601 1 601 1 801 1 1 801 801 801 1 601 1 1 1 1 1 1 1 1 201 201 1 1 201 1 1 1 1 1 1 1 1 1 1 1 1 1 1 1 1 1 1 1 1 1 
1 1 1 1 1 1 1 1 1 1 1 1 1 1 1 1 1 1 1 1 1 1 1 1 1 1 401 1 1 1 401 1 1 1 401 401 1 401 401 1 1 1 1 1 1 1 1 1 1 1 1 1 1 1 1 1 1 401 401 401 1 1 1 1 1 801 801 801 801 801 801 801 801 801 801 801 801 1 1 1 1001 601 601 601 601 1 1 801 1 801 801 1 601 1 601 1 1 1 1 1 1 1 1 201 201 1 1 1 1 1 1 1 1 1 1 1 1 1 1 1 1 1 1 1 1 1 1 
1 1 1 1 1 1 1 1 1 1 1 1 1 1 1 1 1 1 1 1 1 1 1 1 1 1 401 1 1 401 201 401 201 1 201 401 1 401 1 1 1 1 1 1 1 1 1 1 1 1 1 1 1 1 1 1 401 1 1 601 1 1 601 1 1 1 1001 1 801 801 1 1 801 1 801 1 801 1 1001 1 1001 1 801 801 801 801 801 801 801 801 1 601 601 1 1 1 1 401 1 1 1 1 1 1 1 1 1 1 1 1 401 1 1 1 1 1 1 1 1 1 1 1 1 1 1 1 1 
1 1 1 1 1 1 1 1 1 1 1 1 1 1 1 1 1 1 1 1 1 1 1 1 1 401 1 1 1 1 1 1 1 1 201 201 1 1 1 1 1 1 1 1 1 1 1 1 1 1 1 1 1 1 1 1 1 1 401 601 1 1 1 1 1 801 801 1 1 801 1001 1001 1001 1 801 1 1001 1001 1 1 1 801 801 801 801 801 1 801 801 1 1 601 601 401 1 1 1 1 1 1 1 1 401 401 1 1 1 1 1 401 401 1 1 1 1 1 1 1 1 1 1 1 1 1 1 1 1 
1 1 1 1 1 1 1 1 1 1 1 1 1 1 1 1 1 1 1 1 1 1 1 1 1 1 1 1 1 1 1 1 1 1 1 1 1 1 1 1 1 1 1 1 1 1 1 1 1 1 1 1 1 1 1 1 401 1 1 1 601 601 1 1 1 801 1 1 1 801 1 801 801 801 1001 1001 1001 1001 1001 1 1 801 801 801 801 801 801 801 601 601 1 601 801 801 1 1 1 1 1 1 1 1 1 1 401 1 1 1 401 401 401 1 1 1 1 1 1 1 1 1 1 1 1 1 1 1 1 
1 1 1 1 1 1 1 1 1 1 1 1 1 1 1 1 1 1 1 1 1 1 1 1 1 1 1 1 1 1 1 201 201 1 1 1 1 1 1 1 1 1 1 1 1 1 1 1 1 1 1 1 1 1 1 1 401 1 1 601 601 1 1 1 801 1 801 1 801 801 1 1 801 801 1001 1001 1001 1001 1001 1001 1 1001 1001 1 801 1 1 801 801 1 601 601 801 1 1 1 1 1 1 1 1 1 201 1 1 1 1 401 401 401 1 401 1 1 1 1 1 1 1 1 1 1 1 1 1 1 1 
1 1 1 1 1 1 1 1 1 1 1 1 1 1 1 1 1 1 1 1 1 1 1 1 1 1 1 1 1 1 1 1 1 1 1 1 1 1 1 1 1 1 1 1 1 1 1 1 1 1 1 1 1 1 401 401 1 1 401 601 1 601 1 1 801 801 1 1 801 1 1 801 1 1 1001 1001 1001 1 1001 1001 1001 1 1001 1 801 801 1 801 1 801 1 1 1 1 1 1 1 1 1 1 401 1 201 1 1 1 1 1 401 1 1 401 1 1 1 1 1 1 1 1 1 1 1 1 1 1 1 
1 1 1 1 1 1 1 1 1 1 1 1 1 1 1 1 1 1 1 1 1 1 1 1 1 1 1 1 1 1 201 1 1 1 1 1 1 1 1 1 1 1 1 1 1 1 1 1 1 1 1 1 1 601 601 1 601 1 1 601 601 601 601 1 1 1 1 801 1 1001 1001 1 801 801 1001 1001 1 1001 1001 1001 1 801 801 1 801 1 801 801 1 801 801 801 801 1 1 1 601 601 1 401 1 1 1 201 1 1 401 401 401 1 401 401 1 1 1 1 1 1 1 1 1 1 1 1 1 1 1 
1 1 1 1 1 1 1 1 1 1 1 1 1 1 1 1 1 1 1 1 1 1 1 1 1 1 1 1 1 1 1 1 1 1 1 1 1 1 1 1 1 1 1 1 1 1 1 1 1 1 1 1 1 401 401 401 1 601 1 1 1 601 601 1 1 801 1 1 1 1001 1 1001 1001 1001 1001 1001 1001 1 801 1001 1001 801 801 801 1 801 1 801 1 801 801 801 1 801 801 1 1 601 1 1 201 1 1 201 1 1 1 1 1 401 1 401 1 1 1 1 1 1 1 1 1 1 1 1 1 1 1 
1 1 1 1 1 1 1 1 1 1 1 1 1 1 1 1 1 1 1 1 1 1 1 1 1 1 1 1 1 1 1 1 1 1 1 1 1 1 1 1 1 1 1 1 1 1 1 1 1 1 1 1 1 1 401 1 601 601 1 601 601 601 1 801 1 801 1 1001 1001 1001 1 1001 1 1001 1001 1 1 801 1 1 801 801 801 801 801 1 801 801 801 801 801 801 1 801 1 1 401 1 1 601 401 1 1 1 401 401 401 1 201 201 401 1 1 1 1 1 1 1 1 1 1 1 1 1 1 1 1 
1 1 1 1 1 1 1 1 1 1 1 1 1 1 1 1 1 1 1 1 1 1 1 1 1 1 1 1 1 1 1 1 1 1 1 1 1 1 1 1 1 1 1 1 1 1 1 1 1 1 1 1 1 401 401 401 1 601 601 601 601 601 1 1 1 1 1 1001 1001 1 1 1001 1001 1 1 1001 801 801 1 801 1 801 801 801 801 801 801 801 801 801 801 1 1 1 1 601 601 601 1 601 401 401 1 401 401 1 201 401 1 401 1 1 1 1 1 1 1 1 1 1 1 1 1 1 1 1 1 
1 1 1 1 1 1 1 1 1 1 1 1 1 1 1 1 1 1 1 1 1 1 1 1 1 1 1 1 1 1 1 1 1 1 1 1 1 1 1 1 1 1 1 1 1 1 1 1 1 1 1 1 1 1 401 1 601 1 1 601 601 601 1 1 1 1 1 1 1 1 1001 1 1001 1 1001 1 1001 801 801 1 801 801 801 1001 1001 1001 1001 801 801 1 1 801 1 801 801 1 601 1 601 601 601 601 601 601 601 1 1 401 1 1 1 1 1 1 1 1 1 1 1 1 1 1 1 1 1 1 1 
1 1 1 1 1 1 1 1 1 1 1 1 1 1 1 1 1 1 1 1 1 1 1 1 1 1 1 1 1 1 1 1 1 1 1 1 1 1 1 1 1 1 1 1 1 1 1 1 1 1 1 1 1 1 401 601 1 601 1 601 601 601 1 1 1 1 1 1001 1001 1001 1001 1001 1001 1001 1001 1001 1001 801 801 801 801 801 1001 1 1001 1001 1 1001 1 1 801 801 801 1 801 801 801 801 1 1 1 601 1 1 601 201 201 401 401 401 1 1 1 1 1 1 1 1 1 1 1 1 1 1 1 1 1 
1 1 1 1 1 1 1 1 1 1 1 1 1 1 1 1 1 1 1 1 1 1 1 1 1 1 1 1 1 1 1 1 1 1 1 1 1 1 1 1 1 1 1 1 1 1 1 1 1 1 1 1 1 401 401 601 601 1 1 601 601 601 1 1 1 1 1 1001 1001 1 1001 1001 1 1001 1 1001 801 801 801 1 801 801 1001 1 1 1 1001 1 1001 1001 801 801 801 801 801 1 801 801 1 1 601 1 601 1 601 401 201 401 601 601 1 401 1 1 1 1 401 401 1 1 1 1 1 1 1 1 1 
1 1 1 1 1 1 1 1 1 1 1 1 1 1 1 1 1 1 1 1 1 1 1 1 1 1 1 1 1 1 1 1 1 1 1 1 1 1 1 1 1 1 1 1 1 1 1 1 1 1 1 1 1 401 401 401 1 1 1 1 801 1 1 1001 1 1 1 1 1001 1001 1001 1 1001 1001 1001 1 1 801 801 1 801 1001 1 1001 1001 1001 1 1 1001 1001 801 1 801 801 801 601 801 1 801 601 601 601 601 1 1 1 601 1 601 601 1 401 401 401 401 401 401 401 1 1 1 1 1 1 1 1 1 
1 1 1 1 1 1 1 1 1 1 1 1 1 1 1 1 1 1 1 1 1 1 1 1 1 1 1 1 1 1 1 1 1 1 1 1 1 1 1 1 1 1 1 1 1 601 601 601 601 601 1 1 1 1 801 801 1 1 1 1 801 1 801 801 1 1001 1 1 1 1001 1 1001 1001 1 1001 1001 1001 801 801 801 801 801 1 1 1001 1001 1001 1001 1001 1001 1 801 801 1 601 1 601 601 601 601 1 601 601 1 601 601 601 601 601 1 1 401 1 401 401 401 1 1 1 1 1 1 1 1 1 1 1 
1 1 1 1 1 1 1 1 1 1 1 1 1 1 1 1 1 1 1 1 1 1 1 1 1 1 1 1 1 1 1 1 1 1 1 1 1 1 1 1 1 1 1 1 1 601 1 1 1 1 1 1 1 1 1 1 1 1 1 801 1 801 1 1 1 801 1001 1 1 1001 1 1001 1 1 1 1001 1001 1 1 1 801 1 1001 1 1001 1 1001 1001 1001 1 801 801 801 1 1 801 601 401 601 601 601 601 1 601 1 601 1 1 601 1 1 401 1 1 1 401 1 1 1 1 1 1 1 1 1 1 1 
1 1 1 1 1 1 1 1 1 1 1 1 1 1 1 1 1 1 1 1 1 1 1 1 1 1 1 1 1 1 1 1 1 1 1 1 1 1 1 1 1 1 1 1 1 1 1 1 1 1 1 1 1 1 1 1 1 801 1 801 801 801 801 1 1 1 1001 1 1001 1001 1001 1001 1 1001 1001 1001 1 1 1 801 801 1001 1001 1001 1 1001 1001 1 1 1001 801 801 1 1 801 601 601 601 601 601 601 601 1 601 601 1 1 601 1 601 1 1 1 1 1 1 1 1 1 1 1 1 1 1 1 1 1 
1 1 1 1 1 1 1 1 1 1 1 1 1 1 1 1 1 1 1 1 1 1 1 1 1 1 1 1 1 1 1 1 1 1 1 1 1 1 1 1 1 1 1 1 1 401 401 1 1 1 1 1 1 1 801 801 801 801 1 1 1 801 1 1 1 801 1 1 1 1 1 1 1 1001 1001 1 1 1001 1 1 1001 1001 1 1001 1001 1 1 1001 1 801 801 801 1 1 601 601 1 1 601 601 1 1 1 1 1 601 601 601 1 1 1 201 201 201 1 201 1 201 201 1 1 1 1 1 1 1 1 
1 1 1 1 1 1 1 1 1 1 1 1 1 1 1 1 1 1 1 1 1 1 1 1 1 1 1 1 1 1 1 1 1 1 1 1 1 1 1 1 1 1 1 1 1 1 401 401 401 1 1 1 1 801 801 1 801 1 801 1 1 1 1 1 1 1001 1 1 1 1001 1 1 1 1 1 1 1001 1001 1001 1001 1001 1001 1001 1 1 1 1 1 1 801 1 1 801 601 1 601 1 601 601 601 601 601 601 601 401 401 401 1 1 401 201 1 1 1 201 201 201 1 201 201 1 1 1 1 1 1 1 
1 1 1 1 1 1 1 1 1 1 1 1 1 1 1 1 1 1 1 1 1 1 1 1 1 1 1 1 1 1 1 1 1 1 1 1 1 1 1 1 1 1 1 1 1 1 401 1 1 1 1 1 1 1 1 1 1 1 1 1 1 1 1 1 1 1 1 1 1 1001 1001 1001 1 1001 1001 1 1 1001 1 1001 1001 1001 1001 1001 1 1 1 1 1001 1001 1 801 801 801 801 601 601 1 601 601 601 1 601 1 401 1 1 401 401 1 1 1 401 201 201 1 1 1 1 1 1 1 1 1 1 1 1 
1 1 1 1 1 1 1 1 1 1 1 1 1 1 1 1 1 1 1 1 1 1 1 1 1 1 1 1 1 1 1 1 1 1 1 1 1 1 1 1 1 1 1 1 1 1 1 401 1 1 1 801 801 801 1 1 1 1 1 1 1 1 1 1 1 1 1 1001 1 1 1 1 1001 1 1 1001 1001 1001 1001 1 1 1 1001 1001 1 1 1 1 1 1 1 1 801 801 801 801 601 601 601 1 1 601 401 1 401 1 401 1 401 601 1 1 1 1 1 201 1 1 1 1 1 201 201 201 1 1 1 
1 1 1 1 1 1 1 1 1 1 1 1 1 1 1 1 1 1 1 1 1 1 1 1 1 1 1 1 1 1 1 1 1 1 1 1 1 1 1 1 1 1 1 1 1 1 1 1 1 1 1 1 1 1 1 1 1 1 1 1 1 1 1 1 1 1 1 1 1 1 1 1 1 1001 1001 1001 1001 1001 1 1 1 1001 1001 1001 1001 1001 1 1001 1 801 1 801 1 801 1 801 601 1 601 601 1 1 1 1 1 1 1 401 1 1 1 201 201 401 1 201 1 201 1 1 201 201 1 1 1 1 1 
1 1 1 1 1 1 1 1 1 1 1 1 1 1 1 1 1 1 1 1 1 1 1 1 1 1 1 1 1 1 1 1 1 1 1 1 1 1 1 1 1 1 1 1 1 1 1 1 1 1 1 1 1 1 1 1 1 1 1 1 1 1 1 1 1 1001 1 1 1 1 1 1 601 601 1001 1001 601 601 401 401 1 801 1001 1001 1001 1 1 1001 1001 1001 1 801 1 801 801 1 801 801 801 601 401 1 401 1 401 401 401 1 401 401 401 201 1 401 401 201 1 1 201 1 1 1 1 1 1 1 1 
1 1 1 1 1 1 1 1 1 1 1 1 1 1 1 1 1 1 1 1 1 1 1 1 1 1 1 1 1 1 1 1 1 1 1 1 1 1 1 1 1 1 1 1 1 1 1 1 1 1 1 1 1 1 1 1 1 1 1 1 1001 1 1 1 1001 1 1 1 601 1 1 601 601 1 601 601 1 1 401 401 1 801 801 1 1001 1001 1 1 1001 1001 1 801 1 1 801 801 1 1 601 601 601 601 401 401 401 201 1 201 1 401 401 401 1 1 201 1 1 201 201 1 1 1 1 1 1 1 1 
1 1 1 1 1 1 1 1 1 1 1 1 1 1 1 1 1 1 1 1 1 1 1 1 1 1 1 1 1 1 1 1 1 1 1 1 1 1 1 1 1 1 1 1 1 1 1 1 1 1 601 1 401 1 1 1 1 1 1 1 1 801 801 1001 1 1 601 601 601 601 601 601 1 601 601 601 1 601 401 401 1 1001 1 1001 1 1 1 1001 1001 1001 801 1 801 801 801 601 1 1 1 1 601 601 1 1 201 201 201 1 201 201 201 401 401 1 1 1 1 201 1 1 1 1 1 1 1 1 1 
1 1 1 1 1 1 1 1 1 1 1 1 1 1 1 1 1 1 1 1 1 1 1 1 1 1 1 1 1 1 1 1 1 1 1 1 1 1 1 1 1 1 1 1 1 1 1 601 1 1 1 1 401 401 1 1 1 801 1 1001 1 801 1001 1001 601 601 601 601 1 1 1 1 1 601 601 601 1 601 601 1 1 1001 1001 801 801 1 1001 1001 1 1001 1001 801 801 801 1 1 601 1 601 1 601 601 601 401 1 1 201 1 1 201 401 401 1 1 1 401 1 1 1 1 1 1 1 1 1 1 1 
1 1 1 1 1 1 1 1 1 1 1 1 1 1 1 1 1 1 1 1 1 1 1 1 1 1 1 1 1 1 1 1 1 1 1 1 1 1 1 1 1 1 1 601 1 1 1 1 1 1 1 1 401 401 1 1 1 801 1 1 1001 1 1001 601 1 601 601 601 1 1 601 1 1 1 601 1 801 601 801 1 1001 1001 1001 801 801 801 1 1 1001 1001 1001 801 1 1 1 1 1 1 1 601 601 401 401 601 1 201 1 1 1 201 1 401 1 401 401 401 201 1 1 1 1 1 1 1 1 1 1 
1 1 1 1 1 1 1 1 1 1 1 1 1 1 1 1 1 1 1 1 1 1 1 1 1 1 1 1 1 1 1 1 1 1 1 1 1 1 1 1 1 1 1 1 1 1 1 601 1 1 1 1 401 201 1 1 1 1 1 1 1001 1001 1001 601 601 1 601 601 1 1 601 1 601 601 801 1 801 401 601 801 801 801 801 801 1 1 1001 1 1001 1001 1001 1 801 801 1 1 1 1 1 601 1 1 1 801 401 1 1 201 1 201 1 1 1 401 1 1 1 1 1 1 1 1 1 1 1 1 1 
1 1 1 1 1 1 1 1 1 1 1 1 1 1 1 1 1 1 1 1 1 1 1 1 1 1 1 1 1 1 1 1 1 1 1 1 1 1 1 1 1 1 1 1 601 1 1 601 1 1 1 1 1 1 1 1 1 1 1 1 1 801 1 601 601 1 601 601 1 1 1 1 601 1 1 1 401 401 601 801 801 801 801 1 801 1 1001 1 1001 801 801 801 801 1 1 1 801 1 1 1 601 1 401 401 1 1 201 1 201 201 201 1 1 1 1 1 1 201 201 1 1 1 1 1 1 1 1 
1 1 1 1 1 1 1 1 1 1 1 1 1 1 1 1 1 1 1 1 1 1 1 1 1 1 1 1 1 1 1 1 1 1 1 1 1 1 1 1 1 1 1 601 601 1 1 1 1 1 1 1 1 401 401 1 1 1 1 1001 1 1 1 1 1 1 1 1 1 1 601 1 1 1 1 1 1 601 1 801 1 1 801 801 801 801 1 1001 1 1 1 1 801 801 1 1 1 1 1 1 1 1 401 401 401 1 1 401 1 201 201 401 401 401 1 1 201 201 1 1 1 1 1 1 1 1 1 
1 1 1 1 1 1 1 1 1 1 1 1 1 1 1 1 1 1 1 1 1 1 1 1 1 1 1 1 1 1 1 1 1 1 1 1 1 1 1 1 1 1 1 1 1 1 1 1 1 1 1 401 1 1 1 1 1 1 1 1001 801 801 1 1 401 1 1 1 1 1 1 1 1 601 1 1 1 1 1 601 1 801 801 801 801 801 801 801 801 801 1 1 1 1 1 1 1 1 1 801 1 1 1 1 1 401 401 1 1 201 1 1 1 1 1 1 1 1 1 1 1 1 1 1 1 1 1 
1 1 1 1 1 1 1 1 1 1 1 1 1 1 1 1 1 1 1 1 1 1 1 1 1 1 1 1 1 1 1 1 1 1 1 1 1 1 1 1 1 1 1 1 1 1 401 1 1 401 401 1 1 1 401 1 1 1001 1 1 1 1 1 201 401 801 801 601 1 1 1 1 1 601 1 601 601 1 1 1 601 801 801 801 801 1 801 1 1 1 1 1 1 1 1 1 1 1 1 1 801 1 1 1 1 1 1 1 1 1 1 1 1 1 1 1 1 1 1 1 1 1 1 1 1 1 1 
1 1 1 1 1 1 1 1 1 1 1 1 1 1 1 1 1 1 1 1 1 1 1 1 1 1 1 1 1 1 1 1 1 1 1 1 1 1 401 1 401 1 1 1 201 201 401 1 1 401 401 1 201 1 1 401 1 1 1 801 1 1 1 1 1 1 601 601 1 601 601 601 401 401 1 1 601 1 1 601 1 1 1 1 1 801 801 801 1 801 801 1 801 1 1 801 1 1 1 1 1 1 1 1 1 1 1 1 1 1 1 1 1 1 1 1 1 1 1 1 1 1 1 1 1 1 1 
1 1 1 1 1 1 1 1 1 1 1 1 1 1 1 1 1 1 1 1 1 1 1 1 1 1 1 1 1 1 1 1 1 1 1 1 1 1 1 1 1 1 401 201 201 1 1 201 1 1 1 401 1 201 1 401 1 1 1 1 1 1 1 1 1 601 601 601 601 601 1 1 1 1 1 1 1 1 1 801 801 1 801 1 801 801 801 1 801 1 801 1 1 1 1 1 1 1 1 1 1 1 1 1 1 1 1 1 1 1 1 1 1 1 1 1 1 1 1 1 1 1 1 1 1 1 1 
1 1 1 1 1 1 1 1 1 1 1 1 1 1 1 1 1 1 1 1 1 1 1 1 1 1 1 1 1 1 1 1 1 1 1 1 1 1 1 1 1 1 1 1 201 1 401 1 801 1 1 1 1 1 1 1 1 1 1 1 1 1 1 1 1 1 601 1 1 601 1 1 601 1 601 1 1 1 801 1 1 801 801 801 601 601 601 601 601 601 601 1 601 601 601 1 1 1 1 1 1 601 1 1 1 1 1 1 1 1 1 1 1 1 1 1 1 1 1 1 1 1 1 1 1 1 1 
1 1 1 1 1 1 1 1 1 1 1 1 1 1 1 1 1 1 1 1 1 1 1 1 1 1 1 1 1 1 1 1 1 1 1 1 1 1 1 1 1 1 1 1 1 1 1 1 1 1 1 1 1 1 1 1 601 1 1 1 1 1 1 401 1 1 601 601 601 1 1 601 601 1 1 1 1 1 1 801 801 801 601 1 601 1 601 1 601 601 601 601 1 1 1 601 1 1 1 1 601 1 1 1 1 1 1 1 1 1 1 1 1 1 1 1 1 1 1 1 1 1 1 1 1 1 1 
1 1 1 1 1 1 1 1 1 1 1 1 1 1 1 1 1 1 1 1 1 1 1 1 1 1 1 1 1 1 1 1 1 1 1 1 1 1 1 1 1 1 1 1 1 1 801 1 801 801 1 1 1 1 1 1 1 1 1 1 1 1 601 401 1 201 601 1 1 601 601 1 601 1 601 601 601 801 801 1 801 801 601 601 1 601 601 1 601 601 601 601 1 1 1 1 1 1 1 1 1 1 1 1 1 1 1 1 1 1 1 1 1 1 1 1 1 1 1 1 1 1 1 1 1 1 1 
1 1 1 1 1 1 1 1 1 1 1 1 1 1 1 1 1 1 1 1 1 1 1 1 1 1 1 1 1 1 1 1 1 1 1 1 1 1 1 1 1 1 1 801 1 1 1 1 801 1 801 1 801 801 1 801 1 1 1 1 1 1 601 1 1 1 401 601 601 601 601 601 401 1 401 1 801 801 801 801 801 1 601 601 1 601 601 601 1 601 601 601 1 1 1 1 1 1 1 1 1 1 1 1 1 1 1 1 1 1 1 1 1 1 1 1 1 1 1 1 1 1 1 1 1 1 1 
1 1 1 1 1 1 1 1 1 1 1 1 1 1 1 1 1 1 1 1 1 1 1 1 1 1 1 1 1 1 1 1 1 1 1 1 1 1 1 1 1 1 1 1 1 1 1 1 801 1 1 1 1 1 1 1 1 1 1 1 1 1 1 1 201 201 401 401 1 601 401 1 1 1 1 801 801 801 801 801 801 1 1 601 1 601 1 1 1 1 1 601 401 801 1 1 1 1 1 801 1 801 601 1 1 1 1 1 1 1 1 1 1 1 1 1 1 1 1 1 1 1 1 1 1 1 1 
1 1 1 1 1 1 1 1 1 1 1 1 1 1 1 1 1 1 1 1 1 1 1 1 1 1 1 1 1 1 1 1 1 1 1 1 1 1 1 1 1 1 1 1 1 1 1 1 1 801 1 1 1 1 1 1 1 1 1 1 1 1 1 1 401 201 401 401 601 1 601 401 1 1 1 801 1 801 801 801 801 1 1 1 601 1 1 1 1 601 601 601 1 401 1 1 1 1 1 801 1 1 1 1 1 1 1 1 1 1 1 1 1 1 1 1 1 1 1 1 1 1 1 1 1 1 1 
1 1 1 1 1 1 1 1 1 1 1 1 1 1 1 1 1 1 1 1 1 1 1 1 1 1 1 1 1 1 1 1 1 1 1 1 1 1 1 1 1 1 1 1 1 1 1 1 801 1 1 1 1 1 1 1 1 1 1 601 1 1 1 1 201 1 201 1 601 601 1 601 401 1 601 1 801 1 801 801 801 1 601 1 1 1 1 1 601 801 1 601 1 1 1 1 1 1 1 1 1 801 1 1 1 1 1 1 1 1 1 1 1 1 1 1 1 1 1 1 1 1 1 1 1 1 1 
1 1 1 1 1 1 1 1 1 1 1 1 1 1 1 1 1 1 1 1 1 1 1 1 1 1 1 1 1 1 1 1 1 1 1 1 1 1 1 1 1 1 1 1 1 1 1 1 1 1 1 1 1 1 1 1 1 1 1 1 1 1 1 1 1 1 1 601 601 601 401 401 1 1 601 1 1 601 601 1 1 1 801 1 1 1 601 601 801 801 801 1 1 401 401 1 401 1 1 1 1 801 1 1 1 1 201 1 1 1 1 1 1 1 1 1 1 1 1 1 1 1 1 1 1 1 1 
1 1 1 1 1 1 1 1 1 1 1 1 1 1 1 1 1 1 1 1 1 1 1 1 1 1 1 1 1 1 1 1 1 1 1 1 1 1 1 1 1 1 1 1 1 1 1 1 1 1 1 1 1 1 1 601 1 1 1 1 1 1 1 1 1 1 1 1 401 401 1 1 1 1 801 801 601 1 601 1 1 801 801 801 601 1 1 801 801 801 1 1 1 401 1 1 401 601 601 1 1 1 801 1 1 201 201 1 1 1 1 1 1 1 1 1 1 1 1 1 1 1 1 1 1 1 1 
1 1 1 1 1 1 1 1 1 1 1 1 1 1 1 1 1 1 1 1 1 1 1 1 1 1 1 1 1 1 1 1 1 1 1 1 1 1 1 1 1 1 1 1 1 1 1 1 1 1 1 1 1 401 1 1 1 401 1 1 1 1 1 1 1 1 1 1 1 401 1 1 1 1 1 801 601 601 601 1 1 1 1 801 1 1 801 801 801 1 1 401 1 1 401 401 1 1 1 601 1 1 1 1 1 401 201 1 1 1 1 1 1 1 1 1 1 1 1 1 1 1 1 1 1 1 1 
1 1 1 1 1 1 1 1 1 1 1 1 1 1 1 1 1 1 1 1 1 1 1 1 1 1 1 1 1 1 1 1 1 1 1 1 1 1 1 1 1 1 1 1 1 1 1 1 1 1 1 1 1 401 1 1 1 1 1 1 1 1 1 1 1 1 1 1 601 1 801 801 801 801 1 1 1 1 1 1 1 1 601 1 401 801 1 401 1 1 1 1 1 1 401 401 601 601 1 601 601 801 1 1 401 1 401 1 1 1 1 1 1 1 1 1 1 1 1 1 1 1 1 1 1 1 1 
1 1 1 1 1 1 1 1 1 1 1 1 1 1 1 1 1 1 1 1 1 1 1 1 1 1 1 1 1 1 1 1 1 1 1 1 1 1 1 1 1 1 1 1 1 1 1 1 1 1 1 1 1 401 1 1 1 1 1 1 1 1 1 1 1 1 1 1 1 1 1 801 1 1 1 1 1 1 1 1 1 1 1 1 1 1 1 1 1 1 1 1 1 401 401 401 601 601 1 1 1 601 1 401 401 1 1 1 1 1 1 1 1 1 1 1 1 1 1 1 1 1 1 1 1 1 1 
1 1 1 1 1 1 1 1 1 1 1 1 1 1 1 1 1 1 1 1 1 1 1 1 1 1 1 1 1 1 1 1 1 1 1 1 1 1 1 1 1 1 1 1 1 1 1 1 1 1 1 1 1 1 1 1 1 1 1 1 1 1 1 601 1 1 1 1 1 401 401 401 1 1 1 1 1 1 1 1 1 1 1 601 1 1 401 401 1 1 401 401 1 401 401 401 1 601 601 601 1 601 601 1 1 1 1 1 1 1 1 1 1 1 1 1 1 1 1 1 1 1 1 1 1 1 1 
1 1 1 1 1 1 1 1 1 1 1 1 1 1 1 1 1 1 1 1 1 1 1 1 1 1 1 1 1 1 1 1 1 1 1 1 1 1 1 1 1 1 1 1 1 1 1 1 1 1 1 1 1 1 1 1 1 1 1 1 1 1 1 1 1 1 1 1 1 401 1 1 1 1 1 1 1 1 1 1 1 1 1 601 601 601 1 1 401 1 401 401 1 401 1 401 401 401 1 601 601 601 1 1 1 1 601 1 601 1 1 1 1 1 1 1 1 1 1 1 1 1 1 1 1 1 1 
1 1 1 1 1 1 1 1 1 1 1 1 1 1 1 1 1 1 1 1 1 1 1 1 1 1 1 1 1 1 1 1 1 1 1 1 1 1 1 1 1 1 1 1 1 1 1 1 1 1 1 1 1 1 1 1 1 1 1 1 1 1 1 1 1 1 1 1 1 1 201 201 1 1 1 1 1 1 1 1 1 1 1 601 601 1 1 401 401 1 401 1 1 1 1 1 1 401 401 1 401 401 1 1 1 1 1 601 601 601 1 1 1 1 1 1 1 1 1 1 1 1 1 1 1 1 1 
1 1 1 1 1 1 1 1 1 1 1 1 1 1 1 1 1 1 1 1 1 1 1 1 1 1 1 1 1 1 1 1 1 1 1 1 1 1 1 1 1 1 1 1 1 1 1 1 1 1 1 1 1 1 1 1 1 1 1 1 1 1 1 1 1 1 1 1 1 1 1 1 1 1 1 1 1 1 1 1 1 1 601 601 601 601 1 401 1 1 1 1 1 1 1 1 401 401 401 401 401 401 1 401 401 1 601 601 601 1 1 1 1 601 1 1 1 1 1 1 1 1 1 1 1 1 1 
1 1 1 1 1 1 1 1 1 1 1 1 1 1 1 1 1 1 1 1 1 1 1 1 1 1 1 1 1 1 1 1 1 1 1 1 1 1 1 1 1 1 1 1 1 1 1 1 1 1 1 1 1 1 1 1 1 1 1 1 1 1 1 1 1 1 1 1 1 1 1 1 1 1 1 1 1 1 1 1 1 1 601 601 601 601 1 1 1 1 1 1 401 1 401 401 401 401 401 1 1 1 401 1 1 1 1 1 1 1 1 1 1 1 1 1 1 1 1 1 1 1 1 1 1 1 1 
1 1 1 1 1 1 1 1 1 1 1 1 1 1 1 1 1 1 1 1 1 1 1 1 1 1 1 1 1 1 1 1 1 1 1 1 1 1 1 1 1 1 1 1 1 1 1 1 1 1 1 1 1 1 1 1 1 1 1 1 1 1 1 1 1 1 1 1 1 1 1 1 1 1 1 1 1 1 1 1 1 1 601 601 601 1 1 401 1 1 1 1 401 1 401 401 1 201 201 401 1 1 1 201 1 1 601 1 1 1 1 601 1 1 1 1 1 1 1 1 1 1 1 1 1 1 1 
1 1 1 1 1 1 1 1 1 1 1 1 1 1 1 1 1 1 1 1 1 1 1 1 1 1 1 1 1 1 1 1 1 1 1 1 1 1 1 1 1 1 1 1 1 1 1 1 1 1 1 1 1 1 1 1 1 1 1 1 1 1 1 1 1 1 1 1 1 1 1 1 1 1 1 1 1 1 1 1 1 1 1 1 601 1 1 1 1 1 1 1 1 401 401 1 1 201 201 401 401 1 401 201 1 1 1 1 1 1 1 1 1 1 1 1 1 1 1 1 1 1 1 1 1 1 1 
1 1 1 1 1 1 1 1 1 1 1 1 1 1 1 1 1 1 1 1 1 1 1 1 1 1 1 1 1 1 1 1 1 1 1 1 1 1 1 1 1 1 1 1 1 1 1 1 1 1 1 1 1 1 1 1 1 1 1 1 1 1 1 1 1 1 1 1 1 1 1 1 1 1 1 1 1 1 1 1 1 1 1 1 1 1 1 1 1 1 1 1 1 401 401 1 401 1 401 601 1 1 1 1 1 201 1 1 1 1 1 1 1 1 1 1 1 1 1 1 1 1 1 1 1 1 1 
1 1 1 1 1 1 1 1 1 1 1 1 1 1 1 1 1 1 1 1 1 1 1 1 1 1 1 1 1 1 1 1 1 1 1 1 1 1 1 1 1 1 1 1 1 1 1 1 1 1 1 1 1 1 1 1 1 1 1 1 1 1 1 1 1 1 1 1 1 1 1 1 1 1 1 1 1 1 1 1 1 1 1 1 1 1 1 1 1 1 1 1 1 1 401 1 401 1 1 201 1 201 1 1 201 1 401 401 1 1 1 1 1 1 1 1 1 1 1 1 1 1 1 1 1 1 1 
1 1 1 1 1 1 1 1 1 1 1 1 1 1 1 1 1 1 1 1 1 1 1 1 1 1 1 1 1 1 1 1 1 1 1 1 1 1 1 1 1 1 1 1 1 1 1 1 1 1 1 1 1 1 1 1 1 1 1 1 1 1 1 1 1 1 1 1 1 1 1 1 1 1 1 1 1 1 1 1 1 1 1 1 1 1 1 1 1 1 1 1 401 1 401 1 401 401 1 201 201 201 201 201 401 401 401 401 1 1 1 1 1 1 1 1 1 1 1 1 1 1 1 1 1 1 1 
1 1 1 1 1 1 1 1 1 1 1 1 1 1 1 1 1 1 1 1 1 1 1 1 1 1 1 1 1 1 1 1 1 1 1 1 1 1 1 1 1 1 1 1 1 1 1 1 1 1 1 1 1 1 1 1 1 1 1 1 1 1 1 1 1 1 1 1 1 1 1 1 1 1 1 1 1 1 1 1 1 1 1 1 1 1 1 1 1 1 1 401 1 1 401 1 1 401 201 201 201 201 401 1 401 1 1 401 401 1 1 1 1 1 1 1 1 1 1 1 1 1 1 1 1 1 1 
1 1 1 1 1 1 1 1 1 1 1 1 1 1 1 1 1 1 1 1 1 1 1 1 1 1 1 1 1 1 1 1 1 1 1 1 1 1 1 1 1 1 1 1 1 1 1 1 1 1 1 1 1 1 1 1 1 1 1 1 1 1 1 1 1 1 1 1 1 1 1 1 1 1 1 1 1 1 1 1 1 1 1 1 1 1 1 601 601 601 1 401 1 1 401 401 401 401 201 201 201 201 401 1 601 601 601 1 1 1 1 1 1 1 1 601 1 601 1 1 1 1 1 1 1 1 1 
1 1 1 1 1 1 1 1 1 1 1 1 1 1 1 1 1 1 1 1 1 1 1 1 1 1 1 1 1 1 1 1 1 1 1 1 1 1 1 1 1 1 1 1 1 1 1 1 1 1 1 1 1 1 1 1 1 1 1 1 1 1 1 1 1 1 1 1 1 1 1 1 1 1 1 1 1 1 1 1 1 1 1 1 1 1 601 601 601 601 401 401 401 401 401 1 401 1 1 1 1 1 1 1 601 601 601 1 1 1 1 601 1 601 1 601 1 601 1 1 1 1 1 1 1 1 1 
1 1 1 1 1 1 1 1 1 1 1 1 1 1 1 1 1 1 1 1 1 1 1 1 1 1 1 1 1 1 1 1 1 1 1 1 1 1 1 1 1 1 1 1 1 1 1 1 1 1 1 1 1 1 1 1 1 1 1 1 1 1 1 1 1 1 1 1 1 1 1 1 1 1 1 1 1 1 1 1 1 1 1 1 1 1 1 1 601 401 401 1 401 1 401 1 401 1 1 601 1 1 1 1 1 1 601 601 1 1 1 1 1 1 1 601 1 1 1 1 1 1 1 1 1 1 1 
1 1 1 1 1 1 1 1 1 1 1 1 1 1 1 1 1 1 1 1 1 1 1 1 1 1 1 1 1 1 1 1 1 1 1 1 1 1 1 1 1 1 1 1 1 1 1 1 1 1 1 1 1 1 1 1 1 1 1 1 1 1 1 1 1 1 1 1 1 1 1 1 1 1 1 1 1 1 1 1 1 1 1 1 1 1 1 1 1 1 1 1 1 1 1 401 1 1 1 601 601 1 601 1 601 1 601 1 1 1 1 1 1 1 1 1 1 1 1 1 1 1 1 1 1 1 1 
1 1 1 1 1 1 1 1 1 1 1 1 1 1 1 1 1 1 1 1 1 1 1 1 1 1 1 1 1 1 1 1 1 1 1 1 1 1 1 1 1 1 1 1 1 1 1 1 1 1 1 1 1 1 1 1 1 1 1 1 1 1 1 1 1 1 1 1 1 1 1 1 1 1 1 1 1 1 1 1 1 1 1 1 1 1 1 401 401 1 1 401 401 401 1 1 1 1 1 1 1 1 1 1 1 1 1 1 1 1 1 1 1 1 1 1 1 1 1 1 1 1 1 1 1 1 1 
1 1 1 1 1 1 1 1 1 1 1 1 1 1 1 1 1 1 1 1 1 1 1 1 1 1 1 1 1 1 1 1 1 1 1 1 1 1 1 1 1 1 1 1 1 1 1 1 1 1 1 1 1 1 1 1 1 1 1 1 1 1 1 1 1 1 1 1 1 1 1 1 1 1 1 1 1 1 1 1 1 1 1 1 1 1 1 1 1 401 401 401 401 401 401 1 1 1 1 401 1 401 1 1 1 1 1 1 1 1 1 1 1 1 1 1 1 1 1 1 1 1 1 1 1 1 1 
1 1 1 1 1 1 1 1 1 1 1 1 1 1 1 1 1 1 1 1 1 1 1 1 1 1 1 1 1 1 1 1 1 1 1 1 1 1 1 1 1 1 1 1 1 1 1 1 1 1 1 1 1 1 1 1 1 1 1 1 1 1 1 1 1 1 1 1 1 1 1 1 1 1 1 1 1 1 1 1 1 1 1 1 1 1 1 1 1 1 401 1 401 401 401 401 401 401 1 401 401 1 1 1 1 1 1 1 1 1 1 1 1 1 1 1 1 1 1 1 1 1 1 1 1 1 1 
1 1 1 1 1 1 1 1 1 1 1 1 1 1 1 1 1 1 1 1 1 1 1 1 1 1 1 1 1 1 1 1 1 1 1 1 1 1 1 1 1 1 1 1 1 1 1 1 1 1 1 1 1 1 1 1 1 1 1 1 1 1 1 1 1 1 1 1 1 1 1 1 1 1 1 1 1 1 1 1 1 1 1 1 1 1 1 1 1 1 1 1 1 1 1 1 401 1 401 401 401 1 1 1 1 1 1 1 1 1 1 1 1 1 1 1 1 1 1 1 1 1 1 1 1 1 1 
1 1 1 1 1 1 1 1 1 1 1 1 1 1 1 1 1 1 1 1 1 1 1 1 1 1 1 1 1 1 1 1 1 1 1 1 1 1 1 1 1 1 1 1 1 1 1 1 1 1 1 1 1 1 1 1 1 1 1 1 1 1 1 1 1 1 1 1 1 1 1 1 1 1 1 1 1 1 1 1 1 1 1 1 1 1 1 1 1 1 1 1 1 1 1 1 401 401 1 1 1 1 1 1 1 1 1 1 1 1 1 1 1 1 1 1 1 1 1 1 1 1 1 1 1 1 1 
1 1 1 1 1 1 1 1 1 1 1 1 1 1 1 1 1 1 1 1 1 1 1 1 1 1 1 1 1 1 1 1 1 1 1 1 1 1 1 1 1 1 1 1 1 1 1 1 1 1 1 1 1 1 1 1 1 1 1 1 1 1 1 1 1 1 1 1 1 1 1 1 1 1 1 1 1 1 1 1 1 1 1 1 1 1 1 1 1 1 1 1 1 1 1 1 1 1 1 1 1 1 1 1 1 1 1 1 1 1 1 1 1 1 1 1 1 1 1 1 1 1 1 1 1 1 1 
1 1 1 1 1 1 1 1 1 1 1 1 1 1 1 1 1 1 1 1 1 1 1 1 1 1 1 1 1 1 1 1 1 1 1 1 1 1 1 1 1 1 1 1 1 1 1 1 1 1 1 1 1 1 1 1 1 1 1 1 1 1 1 1 1 1 1 1 1 1 1 1 1 1 1 1 1 1 1 1 1 1 1 1 1 1 1 1 1 1 1 1 1 1 1 1 1 1 1 1 1 1 1 1 1 1 1 1 1 1 1 1 1 1 1 1 1 1 1 1 1 1 1 1 1 1 1 
1 1 1 1 1 1 1 1 1 1 1 1 1 1 1 1 1 1 1 1 1 1 1 1 1 1 1 1 1 1 1 1 1 1 1 1 1 1 1 1 1 1 1 1 1 1 1 1 1 1 1 1 1 1 1 1 1 1 1 1 1 1 1 1 1 1 1 1 1 1 1 1 1 1 1 1 1 1 1 1 1 1 1 1 1 1 1 1 1 1 1 1 1 1 1 1 1 1 1 1 1 1 1 1 1 1 1 1 1 1 1 1 1 1 1 1 1 1 1 1 1 1 1 1 1 1 1 
1 1 1 1 1 1 1 1 1 1 1 1 1 1 1 1 1 1 1 1 1 1 1 1 1 1 1 1 1 1 1 1 1 1 1 1 1 1 1 1 1 1 1 1 1 1 1 1 1 1 1 1 1 1 1 1 1 1 1 1 1 1 1 1 1 1 1 1 1 1 1 1 1 1 1 1 1 1 1 1 1 1 1 1 1 1 1 1 1 1 1 1 1 1 1 1 1 1 1 1 1 1 1 1 1 1 1 1 1 1 1 1 1 1 1 1 1 1 1 1 1 1 1 1 1 1 1 
1 1 1 1 1 1 1 1 1 1 1 1 1 1 1 1 1 1 1 1 1 1 1 1 1 1 1 1 1 1 1 1 1 1 1 1 1 1 1 1 1 1 1 1 1 1 1 1 1 1 1 1 1 1 1 1 1 1 1 1 1 1 1 1 1 1 1 1 1 1 1 1 1 1 1 1 1 1 1 1 1 1 1 1 1 1 1 1 1 1 1 1 1 1 1 1 1 1 1 1 1 1 1 1 1 1 1 1 1 1 1 1 1 1 1 1 1 1 1 1 1 1 1 1 1 1 1 
1 1 1 1 1 1 1 1 1 1 1 1 1 1 1 1 1 1 1 1 1 1 1 1 1 1 1 1 1 1 1 1 1 1 1 1 1 1 1 1 1 1 1 1 1 1 1 1 1 1 1 1 1 1 1 1 1 1 1 1 1 1 1 1 1 1 1 1 1 1 1 1 1 1 1 1 1 1 1 1 1 1 1 1 1 1 1 1 1 1 1 1 1 1 1 1 1 1 1 1 1 1 1 1 1 1 1 1 1 1 1 1 1 1 1 1 1 1 1 1 1 1 1 1 1 1 1 
1 1 1 1 1 1 1 1 1 1 1 1 1 1 1 1 1 1 1 1 1 1 1 1 1 1 1 1 1 1 1 1 1 1 1 1 1 1 1 1 1 1 1 1 1 1 1 1 1 1 1 1 1 1 1 1 1 1 1 1 1 1 1 1 1 1 1 1 1 1 1 1 1 1 1 1 1 1 1 1 1 1 1 1 1 1 1 1 1 1 1 1 1 1 1 1 1 1 1 1 1 1 1 1 1 1 1 1 1 1 1 1 1 1 1 1 1 1 1 1 1 1 1 1 1 1 1 
1 1 1 1 1 1 1 1 1 1 1 1 1 1 1 1 1 1 1 1 1 1 1 1 1 1 1 1 1 1 1 1 1 1 1 1 1 1 1 1 1 1 1 1 1 1 1 1 1 1 1 1 1 1 1 1 1 1 1 1 1 1 1 1 1 1 1 1 1 1 1 1 1 1 1 1 1 1 1 1 1 1 1 1 1 1 1 1 1 1 1 1 1 1 1 1 1 1 1 1 1 1 1 1 1 1 1 1 1 1 1 1 1 1 1 1 1 1 1 1 1 1 1 1 1 1 1 
1 1 1 1 1 1 1 1 1 1 1 1 1 1 1 1 1 1 1 1 1 1 1 1 1 1 1 1 1 1 1 1 1 1 1 1 1 1 1 1 1 1 1 1 1 1 1 1 1 1 1 1 1 1 1 1 1 1 1 1 1 1 1 1 1 1 1 1 1 1 1 1 1 1 1 1 1 1 1 1 1 1 1 1 1 1 1 1 1 1 1 1 1 1 1 1 1 1 1 1 1 1 1 1 1 1 1 1 1 1 1 1 1 1 1 1 1 1 1 1 1 1 1 1 1 1 1 
1 1 1 1 1 1 1 1 1 1 1 1 1 1 1 1 1 1 1 1 1 1 1 1 1 1 1 1 1 1 1 1 1 1 1 1 1 1 1 1 1 1 1 1 1 1 1 1 1 1 1 1 1 1 1 1 1 1 1 1 1 1 1 1 1 1 1 1 1 1 1 1 1 1 1 1 1 1 1 1 1 1 1 1 1 1 1 1 1 1 1 1 1 1 1 1 1 1 1 1 1 1 1 1 1 1 1 1 1 1 1 1 1 1 1 1 1 1 1 1 1 1 1 1 1 1 1 
