ncols        127
nrows        131
xllcorner    -71.681135979344
yllcorner    -16.519694133538
cellsize     0.001836012963
NODATA_value -9999
-9999.0 -9999 -9999 -9999 -9999 -9999 -9999 -9999 -9999 -9999 -9999 -9999 -9999 -9999 -9999 -9999 -9999 -9999 -9999 -9999 -9999 -9999 -9999 -9999 -9999 -9999 -9999 -9999 -9999 -9999 -9999 -9999 -9999 -9999 -9999 -9999 -9999 -9999 -9999 -9999 -9999 -9999 -9999 -9999 -9999 -9999 -9999 -9999 -9999 -9999 -9999 -9999 -9999 -9999 -9999 -9999 -9999 -9999 -9999 -9999 -9999 -9999 -9999 -9999 -9999 -9999 -9999 -9999 -9999 -9999 -9999 -9999 -9999 -9999 -9999 -9999 -9999 -9999 -9999 -9999 -9999 -9999 -9999 -9999 -9999 -9999 -9999 -9999 -9999 -9999 -9999 -9999 -9999 -9999 -9999 -9999 -9999 -9999 -9999 -9999 -9999 -9999 -9999 -9999 -9999 -9999 -9999 -9999 -9999 -9999 -9999 -9999 -9999 -9999 -9999 -9999 -9999 -9999 -9999 -9999 -9999 -9999 -9999 -9999 -9999 -9999 -9999 
-9999 -9999 -9999 -9999 -9999 -9999 -9999 -9999 -9999 -9999 -9999 -9999 1001 -9999 -9999 -9999 -9999 -9999 -9999 -9999 -9999 -9999 -9999 -9999 -9999 1001 -9999 -9999 -9999 -9999 -9999 -9999 -9999 -9999 -9999 -9999 -9999 -9999 -9999 -9999 -9999 -9999 -9999 -9999 -9999 -9999 -9999 -9999 -9999 -9999 -9999 -9999 -9999 -9999 -9999 -9999 -9999 -9999 -9999 -9999 -9999 -9999 -9999 -9999 -9999 -9999 -9999 -9999 -9999 -9999 -9999 -9999 -9999 -9999 -9999 -9999 -9999 -9999 -9999 -9999 -9999 -9999 -9999 -9999 -9999 -9999 -9999 -9999 -9999 -9999 -9999 -9999 -9999 -9999 -9999 -9999 -9999 -9999 -9999 -9999 -9999 -9999 -9999 -9999 -9999 -9999 -9999 -9999 -9999 -9999 -9999 -9999 -9999 -9999 -9999 -9999 -9999 -9999 -9999 -9999 -9999 -9999 -9999 -9999 -9999 -9999 -9999 
-9999 -9999 -9999 -9999 -9999 -9999 -9999 -9999 -9999 -9999 -9999 -9999 1001 1001 -9999 -9999 -9999 -9999 -9999 -9999 -9999 -9999 -9999 1001 -9999 -9999 -9999 -9999 -9999 -9999 -9999 -9999 -9999 -9999 -9999 -9999 -9999 -9999 -9999 -9999 -9999 -9999 -9999 -9999 -9999 -9999 -9999 -9999 -9999 -9999 -9999 -9999 -9999 -9999 -9999 -9999 -9999 -9999 -9999 -9999 -9999 -9999 -9999 -9999 -9999 -9999 -9999 -9999 -9999 1001 -9999 -9999 -9999 -9999 -9999 -9999 -9999 -9999 -9999 -9999 -9999 -9999 -9999 -9999 -9999 -9999 -9999 -9999 -9999 -9999 -9999 -9999 -9999 -9999 -9999 -9999 -9999 -9999 -9999 -9999 -9999 -9999 -9999 -9999 -9999 -9999 -9999 -9999 -9999 -9999 -9999 -9999 -9999 -9999 -9999 -9999 -9999 -9999 -9999 -9999 -9999 -9999 -9999 -9999 -9999 -9999 -9999 
-9999 -9999 -9999 -9999 -9999 -9999 -9999 -9999 -9999 -9999 -9999 1001 1001 -9999 -9999 1001 -9999 -9999 -9999 -9999 -9999 1001 -9999 -9999 -9999 -9999 -9999 -9999 1001 -9999 1001 -9999 -9999 -9999 -9999 -9999 -9999 -9999 -9999 -9999 -9999 -9999 -9999 -9999 -9999 -9999 -9999 -9999 -9999 -9999 -9999 -9999 -9999 -9999 -9999 -9999 -9999 -9999 -9999 -9999 -9999 -9999 -9999 -9999 -9999 -9999 -9999 -9999 -9999 -9999 1001 -9999 -9999 -9999 -9999 -9999 -9999 -9999 -9999 -9999 -9999 -9999 -9999 -9999 -9999 -9999 -9999 -9999 1001 1001 -9999 -9999 -9999 -9999 -9999 -9999 -9999 -9999 -9999 -9999 -9999 -9999 -9999 -9999 -9999 -9999 -9999 -9999 -9999 -9999 -9999 -9999 -9999 -9999 -9999 -9999 -9999 -9999 -9999 -9999 -9999 -9999 -9999 -9999 -9999 -9999 -9999 
-9999 -9999 -9999 -9999 -9999 -9999 -9999 -9999 -9999 -9999 -9999 1001 1001 1001 1001 1001 -9999 -9999 -9999 -9999 -9999 -9999 -9999 1001 -9999 -9999 -9999 -9999 -9999 -9999 -9999 -9999 -9999 -9999 -9999 -9999 -9999 -9999 -9999 -9999 -9999 -9999 -9999 -9999 -9999 -9999 -9999 -9999 -9999 -9999 -9999 -9999 -9999 -9999 -9999 -9999 -9999 -9999 -9999 -9999 -9999 -9999 -9999 -9999 -9999 -9999 -9999 -9999 -9999 1001 1001 1001 -9999 -9999 -9999 -9999 1001 -9999 -9999 -9999 -9999 -9999 -9999 -9999 -9999 -9999 -9999 -9999 -9999 1001 -9999 -9999 -9999 -9999 -9999 -9999 -9999 -9999 -9999 -9999 -9999 -9999 -9999 -9999 -9999 -9999 -9999 -9999 -9999 -9999 -9999 -9999 -9999 -9999 -9999 -9999 -9999 -9999 -9999 -9999 -9999 -9999 -9999 -9999 -9999 -9999 -9999 
-9999 -9999 -9999 -9999 -9999 -9999 -9999 -9999 -9999 1001 -9999 1001 -9999 1001 1001 1001 -9999 -9999 -9999 -9999 1001 1001 1001 1001 -9999 1001 1001 -9999 1001 -9999 -9999 -9999 -9999 -9999 -9999 -9999 -9999 -9999 -9999 -9999 -9999 -9999 -9999 -9999 -9999 -9999 -9999 -9999 -9999 -9999 -9999 -9999 -9999 -9999 -9999 -9999 -9999 -9999 -9999 -9999 -9999 -9999 -9999 -9999 -9999 -9999 -9999 -9999 1001 -9999 1001 -9999 1001 -9999 -9999 1001 1001 -9999 -9999 -9999 -9999 -9999 -9999 -9999 -9999 -9999 -9999 1001 -9999 -9999 -9999 -9999 1001 -9999 -9999 -9999 -9999 -9999 -9999 -9999 -9999 -9999 -9999 -9999 -9999 -9999 -9999 -9999 -9999 -9999 -9999 -9999 -9999 -9999 -9999 -9999 -9999 -9999 -9999 -9999 -9999 -9999 -9999 -9999 -9999 -9999 -9999 
-9999 -9999 -9999 -9999 -9999 -9999 -9999 -9999 -9999 1001 1001 1001 -9999 1001 1001 1001 1001 -9999 -9999 -9999 1001 1001 1001 -9999 -9999 1001 1001 -9999 1001 -9999 -9999 -9999 -9999 -9999 -9999 -9999 -9999 -9999 -9999 -9999 -9999 -9999 -9999 -9999 -9999 -9999 -9999 -9999 -9999 -9999 -9999 -9999 -9999 -9999 -9999 -9999 -9999 -9999 -9999 -9999 -9999 -9999 -9999 -9999 -9999 -9999 -9999 -9999 -9999 -9999 -9999 -9999 -9999 -9999 -9999 -9999 1001 -9999 -9999 -9999 -9999 -9999 -9999 1001 1001 -9999 -9999 1001 -9999 -9999 1001 -9999 1001 -9999 -9999 -9999 -9999 -9999 -9999 -9999 -9999 -9999 -9999 -9999 -9999 -9999 -9999 -9999 -9999 -9999 -9999 -9999 -9999 -9999 -9999 -9999 -9999 -9999 -9999 -9999 -9999 -9999 -9999 -9999 -9999 -9999 -9999 
-9999 -9999 -9999 -9999 -9999 -9999 -9999 1001 -9999 1001 1001 1001 1001 1001 1001 501 -9999 -9999 -9999 -9999 1001 -9999 -9999 -9999 1001 -9999 -9999 1001 -9999 1001 -9999 -9999 -9999 -9999 -9999 -9999 -9999 -9999 -9999 -9999 -9999 -9999 -9999 -9999 -9999 -9999 -9999 -9999 -9999 -9999 -9999 -9999 -9999 -9999 -9999 -9999 -9999 -9999 -9999 -9999 -9999 -9999 -9999 -9999 -9999 -9999 -9999 -9999 -9999 -9999 -9999 -9999 -9999 1001 -9999 -9999 -9999 -9999 -9999 -9999 -9999 -9999 -9999 1001 -9999 -9999 -9999 -9999 1001 -9999 1001 -9999 -9999 -9999 -9999 -9999 -9999 -9999 -9999 -9999 -9999 -9999 -9999 -9999 -9999 -9999 -9999 -9999 -9999 -9999 -9999 -9999 -9999 -9999 -9999 -9999 -9999 -9999 -9999 -9999 -9999 -9999 -9999 -9999 -9999 -9999 -9999 
-9999 -9999 -9999 -9999 -9999 -9999 -9999 -9999 1001 1001 1001 1001 1001 1001 -9999 -9999 -9999 -9999 -9999 -9999 -9999 -9999 -9999 1001 1001 -9999 -9999 -9999 -9999 -9999 1001 1001 1001 -9999 -9999 -9999 -9999 -9999 -9999 -9999 -9999 -9999 -9999 -9999 -9999 -9999 -9999 -9999 -9999 -9999 -9999 -9999 -9999 -9999 -9999 -9999 -9999 -9999 -9999 -9999 -9999 -9999 -9999 -9999 -9999 -9999 -9999 -9999 -9999 -9999 -9999 -9999 1001 1001 -9999 -9999 -9999 -9999 -9999 -9999 -9999 1001 1001 -9999 -9999 -9999 -9999 -9999 -9999 -9999 -9999 1001 1001 -9999 -9999 -9999 -9999 -9999 -9999 -9999 -9999 -9999 -9999 -9999 -9999 -9999 -9999 -9999 -9999 -9999 -9999 -9999 -9999 -9999 -9999 -9999 -9999 -9999 -9999 -9999 -9999 -9999 -9999 -9999 -9999 -9999 -9999 
-9999 -9999 -9999 -9999 -9999 -9999 -9999 1001 1001 -9999 1001 -9999 501 1001 -9999 -9999 -9999 -9999 -9999 -9999 1001 -9999 -9999 1001 1001 -9999 1001 -9999 1001 1001 -9999 -9999 1001 -9999 -9999 -9999 -9999 -9999 -9999 -9999 -9999 -9999 -9999 -9999 -9999 -9999 -9999 -9999 -9999 -9999 -9999 -9999 -9999 -9999 -9999 -9999 -9999 -9999 -9999 -9999 -9999 -9999 -9999 -9999 -9999 -9999 -9999 -9999 -9999 -9999 -9999 -9999 1001 1001 -9999 -9999 -9999 -9999 -9999 -9999 1001 -9999 -9999 -9999 -9999 1001 -9999 -9999 1001 -9999 1001 1001 1001 -9999 -9999 -9999 -9999 -9999 -9999 -9999 -9999 -9999 -9999 -9999 -9999 -9999 -9999 -9999 -9999 -9999 -9999 -9999 -9999 -9999 -9999 -9999 -9999 -9999 -9999 -9999 -9999 -9999 -9999 -9999 -9999 -9999 -9999 
-9999 -9999 -9999 -9999 -9999 -9999 -9999 1001 1001 1001 -9999 1001 -9999 1001 -9999 -9999 -9999 -9999 -9999 -9999 1001 1001 -9999 1001 1001 1001 1001 -9999 1001 1001 -9999 1001 -9999 -9999 -9999 -9999 -9999 -9999 -9999 -9999 -9999 -9999 -9999 -9999 -9999 -9999 -9999 -9999 -9999 -9999 -9999 -9999 -9999 -9999 -9999 -9999 -9999 -9999 -9999 -9999 -9999 -9999 -9999 -9999 -9999 -9999 -9999 -9999 -9999 -9999 -9999 -9999 1001 -9999 -9999 -9999 -9999 -9999 -9999 -9999 1001 -9999 -9999 1001 -9999 1001 1001 -9999 1001 -9999 1001 -9999 -9999 -9999 -9999 -9999 -9999 -9999 -9999 -9999 -9999 -9999 -9999 -9999 -9999 -9999 -9999 -9999 -9999 -9999 -9999 -9999 -9999 -9999 -9999 -9999 -9999 -9999 -9999 -9999 -9999 -9999 -9999 -9999 -9999 -9999 -9999 
-9999 -9999 -9999 -9999 -9999 -9999 -9999 -9999 -9999 1001 -9999 1001 1001 -9999 -9999 -9999 -9999 -9999 -9999 -9999 -9999 -9999 -9999 -9999 1001 -9999 1001 1001 -9999 1001 -9999 1001 -9999 1001 -9999 1001 -9999 -9999 -9999 -9999 -9999 -9999 -9999 -9999 -9999 -9999 -9999 -9999 -9999 -9999 -9999 -9999 -9999 -9999 -9999 -9999 -9999 -9999 -9999 -9999 -9999 -9999 -9999 -9999 -9999 -9999 -9999 -9999 -9999 -9999 -9999 -9999 1001 -9999 -9999 -9999 -9999 -9999 -9999 -9999 -9999 1001 -9999 -9999 -9999 1001 1001 -9999 -9999 -9999 1001 1001 -9999 -9999 -9999 -9999 -9999 -9999 -9999 -9999 -9999 -9999 -9999 -9999 -9999 -9999 -9999 -9999 -9999 -9999 -9999 -9999 -9999 -9999 -9999 -9999 -9999 -9999 -9999 -9999 -9999 -9999 -9999 -9999 -9999 -9999 -9999 
-9999 -9999 -9999 -9999 -9999 -9999 -9999 -9999 -9999 1001 1001 1001 -9999 -9999 -9999 -9999 -9999 -9999 -9999 -9999 -9999 -9999 1001 1001 1001 -9999 -9999 -9999 1001 1001 -9999 1001 1001 1001 1001 1001 -9999 -9999 -9999 -9999 -9999 -9999 -9999 -9999 -9999 -9999 -9999 -9999 -9999 -9999 -9999 -9999 -9999 -9999 -9999 -9999 -9999 -9999 -9999 -9999 -9999 -9999 -9999 -9999 -9999 -9999 -9999 -9999 -9999 -9999 -9999 -9999 -9999 1001 -9999 -9999 -9999 -9999 -9999 -9999 -9999 1001 -9999 -9999 -9999 -9999 -9999 -9999 1001 -9999 -9999 -9999 -9999 -9999 -9999 -9999 -9999 -9999 -9999 -9999 -9999 -9999 -9999 -9999 -9999 -9999 -9999 -9999 -9999 -9999 -9999 -9999 -9999 -9999 -9999 -9999 -9999 -9999 -9999 -9999 -9999 -9999 -9999 -9999 -9999 -9999 -9999 
-9999 -9999 -9999 -9999 -9999 -9999 -9999 -9999 1001 1001 1001 -9999 -9999 -9999 -9999 -9999 -9999 -9999 -9999 -9999 -9999 -9999 1001 1001 -9999 -9999 1001 1001 1001 -9999 1001 1001 1001 1001 1001 1001 1001 -9999 -9999 -9999 -9999 -9999 -9999 -9999 -9999 -9999 -9999 -9999 -9999 -9999 -9999 -9999 -9999 -9999 -9999 -9999 1001 -9999 -9999 -9999 -9999 -9999 -9999 -9999 -9999 -9999 -9999 -9999 -9999 -9999 -9999 -9999 1001 1001 1001 -9999 -9999 -9999 -9999 1001 1001 1001 1001 -9999 -9999 1001 1001 -9999 1001 1001 -9999 -9999 -9999 -9999 -9999 -9999 -9999 -9999 -9999 -9999 -9999 -9999 -9999 -9999 -9999 -9999 -9999 -9999 -9999 -9999 -9999 -9999 -9999 -9999 -9999 -9999 -9999 -9999 -9999 -9999 -9999 -9999 -9999 -9999 -9999 -9999 -9999 
-9999 -9999 -9999 -9999 -9999 -9999 -9999 501 501 1001 -9999 -9999 -9999 -9999 -9999 -9999 1001 1001 1001 -9999 -9999 -9999 -9999 1001 -9999 1001 1001 1001 1001 -9999 1001 -9999 -9999 1001 -9999 1001 1001 1001 -9999 -9999 -9999 -9999 -9999 -9999 -9999 -9999 -9999 -9999 -9999 -9999 -9999 -9999 -9999 -9999 -9999 -9999 -9999 -9999 -9999 -9999 -9999 -9999 -9999 -9999 -9999 -9999 -9999 -9999 -9999 -9999 -9999 1001 -9999 1001 -9999 -9999 -9999 -9999 -9999 1001 1001 1001 1001 -9999 -9999 1001 -9999 -9999 -9999 1001 -9999 -9999 -9999 -9999 -9999 -9999 -9999 -9999 -9999 -9999 -9999 -9999 -9999 -9999 -9999 -9999 -9999 -9999 -9999 -9999 -9999 -9999 -9999 -9999 -9999 -9999 -9999 -9999 -9999 -9999 -9999 -9999 -9999 -9999 -9999 -9999 -9999 
-9999 -9999 -9999 -9999 1001 -9999 -9999 -9999 -9999 -9999 -9999 -9999 -9999 -9999 -9999 1001 1001 -9999 1001 -9999 -9999 1001 1001 1001 -9999 1001 1001 -9999 -9999 1001 1001 -9999 1001 1001 1001 -9999 1001 1001 1001 -9999 1001 -9999 -9999 -9999 -9999 -9999 -9999 -9999 -9999 -9999 -9999 -9999 -9999 -9999 -9999 1001 -9999 -9999 1001 -9999 -9999 -9999 -9999 -9999 -9999 -9999 -9999 -9999 -9999 -9999 1001 1001 -9999 -9999 -9999 -9999 -9999 -9999 -9999 -9999 -9999 -9999 -9999 -9999 1001 -9999 1001 -9999 -9999 -9999 -9999 1001 -9999 -9999 -9999 -9999 -9999 -9999 -9999 -9999 -9999 -9999 -9999 -9999 -9999 -9999 -9999 -9999 -9999 -9999 -9999 -9999 -9999 -9999 -9999 -9999 -9999 -9999 -9999 -9999 -9999 -9999 -9999 -9999 -9999 -9999 -9999 
-9999 -9999 -9999 -9999 1001 -9999 -9999 -9999 1001 501 -9999 -9999 -9999 -9999 1001 1001 1001 -9999 -9999 -9999 -9999 1001 1001 1001 -9999 1001 1001 -9999 1001 1001 -9999 1001 1001 1001 -9999 1001 1001 1001 1001 -9999 1001 -9999 -9999 -9999 -9999 -9999 -9999 -9999 -9999 -9999 -9999 -9999 -9999 -9999 -9999 -9999 -9999 -9999 1001 -9999 -9999 -9999 -9999 -9999 -9999 -9999 -9999 1001 -9999 1001 1001 -9999 1001 1001 -9999 -9999 -9999 -9999 1001 1001 1001 1001 1001 1001 1001 1001 -9999 -9999 -9999 -9999 -9999 1001 -9999 -9999 -9999 -9999 -9999 -9999 -9999 -9999 -9999 -9999 -9999 -9999 -9999 -9999 -9999 -9999 -9999 -9999 -9999 -9999 -9999 -9999 -9999 -9999 -9999 -9999 -9999 -9999 -9999 -9999 -9999 -9999 -9999 -9999 -9999 
-9999 -9999 -9999 1001 -9999 -9999 -9999 1001 -9999 1001 -9999 -9999 -9999 -9999 1001 -9999 -9999 1001 -9999 -9999 -9999 -9999 1001 -9999 1001 -9999 1001 1001 1001 1001 -9999 -9999 1001 -9999 1001 -9999 1001 1001 1001 1001 1001 1001 -9999 -9999 -9999 -9999 -9999 -9999 -9999 -9999 -9999 1001 1001 -9999 1001 -9999 -9999 -9999 1001 -9999 -9999 -9999 -9999 -9999 -9999 -9999 -9999 -9999 1001 1001 1001 1001 -9999 1001 1001 1001 -9999 -9999 -9999 1001 1001 1001 -9999 1001 1001 1001 -9999 1001 -9999 -9999 -9999 -9999 -9999 -9999 -9999 -9999 -9999 -9999 1001 -9999 -9999 -9999 -9999 -9999 -9999 -9999 -9999 -9999 -9999 -9999 -9999 -9999 -9999 -9999 -9999 -9999 -9999 -9999 -9999 -9999 -9999 -9999 -9999 -9999 -9999 -9999 -9999 
-9999 -9999 -9999 -9999 -9999 -9999 -9999 1001 -9999 -9999 -9999 -9999 -9999 1001 -9999 1001 -9999 1001 1001 1001 1001 1001 -9999 1001 1001 -9999 1001 1001 1001 -9999 1001 1001 -9999 -9999 1001 1001 1001 -9999 1001 1001 1001 1001 1001 -9999 -9999 -9999 -9999 -9999 -9999 -9999 -9999 1001 1001 -9999 -9999 -9999 1001 -9999 -9999 -9999 -9999 -9999 -9999 -9999 -9999 -9999 -9999 -9999 -9999 1001 1001 1001 1001 1001 -9999 1001 1001 1001 1001 -9999 -9999 -9999 -9999 -9999 -9999 1001 -9999 -9999 -9999 -9999 -9999 -9999 -9999 -9999 -9999 -9999 -9999 -9999 -9999 -9999 -9999 -9999 -9999 -9999 -9999 -9999 -9999 -9999 -9999 -9999 -9999 -9999 -9999 -9999 -9999 -9999 -9999 -9999 -9999 -9999 -9999 -9999 -9999 -9999 -9999 -9999 -9999 
-9999 -9999 -9999 -9999 -9999 1001 -9999 -9999 -9999 -9999 -9999 -9999 1001 -9999 1001 1001 1001 1001 1001 1001 1001 1001 -9999 1001 -9999 -9999 -9999 -9999 -9999 -9999 -9999 -9999 -9999 -9999 1001 -9999 -9999 1001 1001 1001 1001 1001 1001 1001 1001 1001 -9999 -9999 -9999 -9999 -9999 1001 -9999 1001 -9999 -9999 1001 -9999 -9999 -9999 -9999 -9999 -9999 -9999 -9999 -9999 -9999 -9999 1001 1001 1001 -9999 -9999 -9999 1001 -9999 -9999 -9999 1001 -9999 1001 -9999 -9999 1001 -9999 -9999 -9999 -9999 -9999 -9999 -9999 -9999 -9999 -9999 -9999 -9999 -9999 -9999 -9999 -9999 -9999 -9999 -9999 -9999 -9999 -9999 -9999 -9999 -9999 -9999 -9999 -9999 -9999 -9999 -9999 -9999 -9999 -9999 -9999 -9999 -9999 -9999 -9999 -9999 -9999 -9999 -9999 
-9999 -9999 -9999 -9999 -9999 1001 1001 -9999 -9999 -9999 -9999 -9999 1001 1001 -9999 -9999 -9999 -9999 -9999 -9999 1001 1001 1001 -9999 -9999 -9999 -9999 -9999 1001 -9999 1001 1001 -9999 1001 1001 -9999 -9999 -9999 1001 1001 1001 1001 -9999 1001 1001 1001 1001 1001 1001 -9999 1001 1001 -9999 1001 -9999 1001 -9999 -9999 -9999 -9999 -9999 1001 -9999 -9999 -9999 -9999 -9999 -9999 1001 1001 -9999 -9999 1001 1001 -9999 -9999 -9999 -9999 -9999 1001 -9999 -9999 -9999 -9999 1001 -9999 -9999 -9999 -9999 -9999 -9999 -9999 -9999 -9999 -9999 -9999 -9999 -9999 -9999 -9999 -9999 -9999 -9999 -9999 -9999 -9999 -9999 -9999 -9999 -9999 -9999 -9999 -9999 -9999 -9999 -9999 -9999 -9999 -9999 -9999 -9999 -9999 -9999 -9999 -9999 -9999 -9999 
-9999 -9999 -9999 -9999 1001 1001 1001 -9999 -9999 -9999 -9999 1001 -9999 1001 1001 1001 1001 -9999 1001 1001 1001 -9999 -9999 -9999 -9999 -9999 -9999 1001 1001 -9999 1001 1001 -9999 -9999 -9999 -9999 -9999 -9999 1001 1001 1001 1001 -9999 1001 1001 1001 1001 1001 1001 1001 1001 1001 -9999 -9999 1001 1001 1001 -9999 -9999 -9999 -9999 1001 -9999 -9999 -9999 -9999 1001 1001 -9999 1001 -9999 1001 1001 1001 -9999 -9999 -9999 1001 -9999 1001 1001 -9999 -9999 -9999 -9999 -9999 -9999 -9999 -9999 -9999 -9999 -9999 -9999 -9999 -9999 -9999 -9999 -9999 -9999 -9999 -9999 -9999 -9999 -9999 -9999 -9999 -9999 -9999 -9999 -9999 -9999 -9999 -9999 -9999 -9999 -9999 -9999 -9999 -9999 -9999 -9999 -9999 -9999 -9999 -9999 -9999 -9999 
-9999 -9999 -9999 1001 1001 1001 -9999 -9999 -9999 -9999 -9999 1001 1001 1001 -9999 -9999 -9999 1001 1001 1001 1001 -9999 -9999 -9999 -9999 -9999 -9999 1001 1001 -9999 -9999 1001 -9999 1001 -9999 -9999 1001 1001 -9999 -9999 1001 1001 1001 -9999 -9999 1001 1001 1001 -9999 1001 1001 1001 -9999 1001 1001 1001 1001 -9999 -9999 -9999 -9999 1001 1001 -9999 1001 1001 1001 1001 1001 1001 1001 1001 1001 -9999 -9999 -9999 1001 1001 1001 -9999 1001 1001 -9999 -9999 -9999 -9999 -9999 -9999 -9999 -9999 -9999 -9999 -9999 -9999 -9999 -9999 -9999 -9999 -9999 -9999 -9999 -9999 -9999 -9999 -9999 -9999 -9999 -9999 -9999 -9999 -9999 -9999 -9999 -9999 -9999 -9999 -9999 -9999 -9999 -9999 -9999 -9999 -9999 -9999 -9999 -9999 -9999 
-9999 -9999 1001 1001 1001 1001 -9999 -9999 -9999 -9999 -9999 -9999 -9999 -9999 -9999 -9999 -9999 -9999 -9999 -9999 -9999 1001 -9999 -9999 -9999 -9999 -9999 1001 -9999 -9999 1001 1001 -9999 -9999 -9999 1001 1001 1001 -9999 1001 -9999 1001 -9999 -9999 1001 -9999 1001 1001 1001 1001 1001 1001 -9999 1001 -9999 1001 -9999 -9999 1001 -9999 -9999 1001 -9999 -9999 1001 1001 -9999 1001 -9999 -9999 -9999 -9999 -9999 1001 1001 -9999 1001 1001 -9999 -9999 1001 -9999 -9999 -9999 -9999 -9999 -9999 -9999 -9999 -9999 -9999 -9999 -9999 -9999 -9999 -9999 -9999 -9999 -9999 -9999 -9999 -9999 -9999 -9999 -9999 -9999 -9999 -9999 -9999 -9999 -9999 -9999 -9999 -9999 -9999 -9999 -9999 -9999 -9999 -9999 -9999 -9999 -9999 -9999 -9999 -9999 -9999 
-9999 -9999 1001 1001 1001 1001 -9999 -9999 -9999 -9999 -9999 -9999 1001 -9999 1001 -9999 -9999 1001 1001 -9999 -9999 -9999 -9999 -9999 -9999 -9999 -9999 -9999 -9999 1001 1001 1001 -9999 -9999 -9999 1001 1001 1001 -9999 -9999 1001 -9999 1001 -9999 1001 -9999 1001 1001 1001 1001 -9999 1001 -9999 1001 1001 1001 1001 1001 -9999 -9999 -9999 1001 1001 1001 1001 1001 1001 1001 1001 1001 1001 -9999 -9999 1001 -9999 1001 1001 -9999 -9999 1001 -9999 -9999 -9999 -9999 -9999 -9999 -9999 -9999 -9999 -9999 -9999 -9999 -9999 -9999 -9999 -9999 -9999 -9999 -9999 -9999 -9999 -9999 -9999 -9999 -9999 -9999 -9999 -9999 -9999 -9999 -9999 -9999 -9999 -9999 -9999 -9999 -9999 -9999 -9999 -9999 -9999 -9999 -9999 -9999 -9999 -9999 -9999 
-9999 -9999 1001 1001 1001 -9999 -9999 -9999 -9999 -9999 -9999 1001 -9999 -9999 1001 -9999 1001 1001 -9999 1001 -9999 -9999 -9999 -9999 -9999 -9999 -9999 1001 -9999 -9999 -9999 -9999 -9999 -9999 1001 -9999 1001 -9999 1001 -9999 -9999 -9999 1001 1001 1001 -9999 1001 1001 1001 1001 1001 1001 1001 1001 1001 -9999 -9999 1001 -9999 -9999 -9999 -9999 -9999 -9999 -9999 -9999 -9999 -9999 -9999 -9999 1001 -9999 -9999 501 1001 -9999 1001 1001 1001 1001 -9999 -9999 -9999 -9999 -9999 -9999 -9999 -9999 -9999 -9999 -9999 -9999 -9999 -9999 -9999 -9999 -9999 -9999 -9999 -9999 -9999 -9999 -9999 -9999 -9999 -9999 -9999 -9999 -9999 -9999 -9999 -9999 -9999 -9999 -9999 -9999 -9999 -9999 -9999 -9999 -9999 -9999 -9999 -9999 -9999 -9999 -9999 
-9999 -9999 1001 1001 -9999 -9999 -9999 -9999 -9999 -9999 -9999 1001 -9999 -9999 1001 1001 1001 -9999 -9999 -9999 -9999 -9999 -9999 -9999 -9999 -9999 -9999 -9999 -9999 -9999 1001 1001 -9999 -9999 -9999 -9999 1001 1001 -9999 1001 -9999 -9999 1001 1001 -9999 1001 1001 1001 1001 1001 -9999 1001 -9999 1001 -9999 1001 1001 1001 1001 1001 -9999 1001 1001 1001 1001 1001 1001 1001 1001 1001 -9999 -9999 501 1001 501 501 -9999 -9999 -9999 1001 -9999 -9999 -9999 -9999 -9999 -9999 -9999 -9999 -9999 -9999 -9999 -9999 -9999 -9999 -9999 -9999 -9999 -9999 -9999 -9999 -9999 -9999 -9999 -9999 -9999 -9999 -9999 -9999 -9999 -9999 -9999 -9999 -9999 -9999 -9999 -9999 -9999 -9999 -9999 -9999 -9999 -9999 -9999 -9999 -9999 -9999 -9999 
-9999 -9999 1001 1001 -9999 -9999 -9999 -9999 -9999 1001 1001 -9999 -9999 1001 -9999 1001 1001 1001 -9999 -9999 -9999 -9999 -9999 -9999 -9999 -9999 -9999 -9999 -9999 -9999 -9999 -9999 1001 -9999 1001 1001 -9999 1001 -9999 -9999 1001 -9999 -9999 -9999 1001 1001 -9999 -9999 1001 -9999 -9999 1001 -9999 1001 1001 -9999 1001 -9999 1001 1001 -9999 -9999 -9999 -9999 1001 1001 1001 1001 1001 1001 501 -9999 -9999 501 -9999 -9999 1001 1001 -9999 -9999 1001 -9999 -9999 -9999 -9999 -9999 -9999 -9999 -9999 -9999 -9999 -9999 -9999 -9999 -9999 -9999 -9999 -9999 -9999 -9999 -9999 -9999 -9999 -9999 -9999 -9999 -9999 -9999 -9999 -9999 -9999 -9999 -9999 -9999 -9999 -9999 -9999 -9999 -9999 -9999 -9999 -9999 -9999 -9999 -9999 -9999 -9999 
-9999 -9999 -9999 -9999 -9999 -9999 -9999 -9999 -9999 1001 -9999 -9999 1001 1001 -9999 -9999 -9999 -9999 -9999 -9999 -9999 -9999 -9999 -9999 -9999 -9999 -9999 -9999 -9999 -9999 -9999 -9999 1001 -9999 -9999 -9999 -9999 -9999 -9999 1001 -9999 -9999 1001 -9999 1001 1001 1001 1001 1001 1001 1001 1001 -9999 -9999 1001 -9999 -9999 -9999 1001 1001 -9999 1001 1001 -9999 1001 1001 1001 1001 1001 1001 1001 1001 501 -9999 -9999 -9999 501 1001 1001 -9999 -9999 -9999 -9999 -9999 -9999 -9999 -9999 -9999 -9999 -9999 -9999 -9999 -9999 -9999 -9999 -9999 -9999 -9999 -9999 -9999 -9999 -9999 -9999 -9999 -9999 -9999 -9999 -9999 -9999 -9999 -9999 -9999 -9999 -9999 -9999 -9999 -9999 -9999 -9999 -9999 -9999 -9999 -9999 -9999 -9999 -9999 -9999 
-9999 -9999 -9999 -9999 -9999 -9999 1001 -9999 -9999 -9999 -9999 -9999 1001 -9999 -9999 -9999 -9999 1001 -9999 -9999 -9999 -9999 -9999 -9999 -9999 -9999 -9999 -9999 -9999 -9999 -9999 -9999 -9999 -9999 -9999 -9999 1001 -9999 1001 -9999 1001 1001 -9999 -9999 1001 -9999 1001 -9999 1001 -9999 -9999 1001 -9999 -9999 1001 1001 1001 -9999 -9999 -9999 -9999 -9999 -9999 -9999 -9999 -9999 -9999 1001 -9999 -9999 1001 501 501 501 501 -9999 501 501 -9999 -9999 -9999 -9999 -9999 -9999 -9999 -9999 -9999 -9999 -9999 -9999 -9999 -9999 -9999 -9999 -9999 -9999 -9999 -9999 -9999 -9999 -9999 -9999 -9999 -9999 -9999 -9999 -9999 -9999 -9999 -9999 -9999 -9999 -9999 -9999 -9999 -9999 -9999 -9999 -9999 -9999 -9999 -9999 -9999 -9999 -9999 -9999 -9999 
-9999 -9999 -9999 -9999 -9999 -9999 -9999 -9999 -9999 1001 -9999 -9999 -9999 -9999 -9999 1001 -9999 -9999 -9999 -9999 -9999 -9999 -9999 -9999 -9999 -9999 -9999 -9999 -9999 -9999 1001 1001 1001 -9999 -9999 1001 1001 1001 -9999 -9999 -9999 -9999 1001 1001 1001 -9999 1001 -9999 1001 1001 -9999 1001 1001 1001 -9999 1001 -9999 -9999 -9999 -9999 -9999 -9999 -9999 -9999 -9999 -9999 -9999 -9999 -9999 -9999 501 501 501 -9999 501 501 -9999 -9999 -9999 -9999 -9999 -9999 -9999 -9999 -9999 -9999 -9999 -9999 -9999 -9999 1001 -9999 1001 -9999 -9999 -9999 -9999 -9999 -9999 -9999 -9999 -9999 -9999 -9999 -9999 -9999 -9999 -9999 -9999 -9999 -9999 -9999 -9999 -9999 -9999 -9999 -9999 -9999 -9999 -9999 -9999 -9999 -9999 -9999 -9999 -9999 -9999 
-9999 -9999 -9999 -9999 -9999 -9999 -9999 -9999 -9999 -9999 -9999 1001 -9999 -9999 -9999 -9999 -9999 -9999 -9999 1001 1001 -9999 -9999 -9999 -9999 -9999 -9999 -9999 -9999 -9999 1001 1001 1001 -9999 1001 1001 1001 1001 1001 -9999 -9999 1001 -9999 1001 1001 -9999 1001 1001 1001 1001 1001 -9999 1001 1001 1001 -9999 -9999 -9999 -9999 -9999 -9999 -9999 -9999 -9999 -9999 -9999 -9999 -9999 1001 501 -9999 -9999 501 -9999 1001 501 501 1001 -9999 -9999 -9999 -9999 -9999 -9999 -9999 -9999 -9999 -9999 -9999 -9999 -9999 -9999 -9999 -9999 -9999 -9999 -9999 -9999 -9999 -9999 -9999 -9999 -9999 -9999 -9999 -9999 -9999 -9999 -9999 -9999 -9999 -9999 -9999 -9999 -9999 -9999 -9999 -9999 -9999 -9999 -9999 -9999 -9999 -9999 -9999 -9999 -9999 
-9999 -9999 -9999 -9999 -9999 -9999 -9999 -9999 1001 -9999 -9999 -9999 1001 -9999 -9999 -9999 -9999 -9999 -9999 1001 -9999 -9999 -9999 -9999 -9999 -9999 -9999 -9999 -9999 -9999 -9999 -9999 1001 1001 1001 1001 -9999 1001 1001 -9999 -9999 1001 -9999 -9999 -9999 -9999 -9999 -9999 -9999 1001 -9999 -9999 -9999 -9999 -9999 -9999 -9999 -9999 -9999 -9999 -9999 -9999 -9999 -9999 -9999 -9999 -9999 -9999 1001 501 501 1001 -9999 1001 1001 501 501 1001 1001 -9999 -9999 -9999 -9999 -9999 -9999 -9999 -9999 1001 -9999 1001 1001 -9999 -9999 -9999 -9999 -9999 -9999 -9999 -9999 -9999 -9999 -9999 -9999 -9999 -9999 -9999 -9999 -9999 -9999 -9999 -9999 -9999 -9999 -9999 -9999 -9999 -9999 -9999 -9999 -9999 -9999 -9999 -9999 -9999 -9999 -9999 -9999 
-9999 -9999 -9999 -9999 -9999 -9999 -9999 -9999 -9999 -9999 -9999 -9999 1001 -9999 -9999 -9999 1001 1001 1001 -9999 -9999 -9999 -9999 -9999 -9999 -9999 -9999 -9999 -9999 1001 1001 -9999 -9999 -9999 1001 1001 1001 1001 -9999 -9999 1001 -9999 -9999 -9999 -9999 -9999 -9999 -9999 1001 1001 -9999 -9999 -9999 -9999 -9999 -9999 -9999 -9999 -9999 -9999 -9999 -9999 -9999 -9999 -9999 -9999 -9999 -9999 1001 -9999 1001 -9999 -9999 -9999 1001 501 501 -9999 -9999 -9999 -9999 -9999 -9999 -9999 -9999 -9999 -9999 -9999 1001 -9999 -9999 1001 -9999 -9999 -9999 -9999 -9999 -9999 -9999 -9999 -9999 -9999 -9999 -9999 -9999 -9999 -9999 -9999 -9999 -9999 -9999 -9999 -9999 -9999 -9999 -9999 -9999 -9999 -9999 -9999 -9999 -9999 -9999 -9999 -9999 -9999 -9999 
-9999 -9999 -9999 -9999 -9999 -9999 -9999 -9999 -9999 -9999 -9999 -9999 -9999 1001 -9999 -9999 -9999 -9999 1001 1001 1001 -9999 -9999 -9999 -9999 -9999 -9999 -9999 1001 -9999 -9999 -9999 -9999 1001 1001 1001 -9999 -9999 1001 1001 1001 1001 1001 1001 -9999 1001 -9999 1001 1001 -9999 -9999 1001 -9999 501 501 501 -9999 -9999 -9999 -9999 -9999 -9999 -9999 -9999 -9999 -9999 -9999 -9999 -9999 -9999 1001 -9999 1001 1001 -9999 1001 -9999 -9999 -9999 -9999 -9999 -9999 -9999 -9999 -9999 1001 -9999 -9999 -9999 1001 1001 -9999 -9999 -9999 -9999 -9999 -9999 -9999 -9999 -9999 -9999 -9999 -9999 -9999 -9999 -9999 -9999 -9999 -9999 -9999 -9999 -9999 -9999 -9999 -9999 -9999 -9999 -9999 -9999 -9999 -9999 -9999 -9999 -9999 -9999 -9999 -9999 
-9999 -9999 -9999 -9999 -9999 -9999 -9999 -9999 -9999 -9999 -9999 -9999 1001 -9999 1001 -9999 -9999 1001 -9999 -9999 -9999 -9999 -9999 -9999 -9999 -9999 -9999 1001 1001 1001 1001 -9999 1001 1001 1001 1001 1001 -9999 1001 -9999 -9999 -9999 1001 -9999 -9999 -9999 1001 1001 1001 1001 1001 1001 1001 -9999 -9999 -9999 501 -9999 -9999 -9999 -9999 -9999 -9999 -9999 -9999 -9999 501 -9999 -9999 -9999 1001 -9999 -9999 -9999 1001 501 501 1001 -9999 -9999 -9999 -9999 -9999 1001 1001 1001 1001 1001 -9999 -9999 -9999 1001 -9999 -9999 1001 -9999 -9999 -9999 -9999 -9999 -9999 -9999 -9999 -9999 -9999 -9999 -9999 -9999 -9999 -9999 -9999 -9999 -9999 -9999 -9999 -9999 -9999 -9999 -9999 -9999 -9999 -9999 -9999 -9999 -9999 -9999 -9999 
-9999 -9999 -9999 -9999 -9999 -9999 -9999 -9999 -9999 -9999 -9999 -9999 -9999 1001 1001 1001 1001 -9999 1001 -9999 1001 -9999 1001 -9999 -9999 -9999 -9999 -9999 1001 1001 -9999 1001 1001 -9999 -9999 1001 -9999 -9999 -9999 -9999 1001 1001 -9999 1001 1001 -9999 1001 -9999 -9999 1001 1001 -9999 -9999 1001 -9999 501 -9999 501 -9999 -9999 -9999 -9999 -9999 -9999 -9999 -9999 -9999 501 1001 -9999 -9999 -9999 1001 -9999 1001 501 501 -9999 -9999 -9999 -9999 -9999 -9999 1001 1001 -9999 1001 1001 -9999 -9999 -9999 1001 -9999 1001 -9999 -9999 -9999 -9999 -9999 -9999 -9999 -9999 -9999 -9999 -9999 -9999 -9999 -9999 -9999 -9999 -9999 -9999 -9999 -9999 -9999 -9999 -9999 -9999 -9999 -9999 -9999 -9999 -9999 -9999 -9999 -9999 -9999 
-9999 -9999 -9999 -9999 -9999 -9999 -9999 -9999 -9999 1001 -9999 -9999 -9999 -9999 -9999 -9999 1001 -9999 1001 1001 -9999 -9999 1001 1001 -9999 -9999 -9999 -9999 1001 -9999 1001 1001 -9999 1001 1001 -9999 1001 1001 -9999 1001 -9999 -9999 1001 -9999 1001 1001 1001 -9999 -9999 1001 1001 1001 1001 1001 -9999 -9999 -9999 501 501 -9999 -9999 -9999 -9999 -9999 501 501 501 1001 1001 -9999 1001 1001 -9999 1001 -9999 -9999 501 -9999 -9999 -9999 -9999 -9999 -9999 -9999 -9999 1001 -9999 1001 1001 -9999 1001 1001 -9999 -9999 -9999 -9999 -9999 -9999 -9999 -9999 -9999 -9999 -9999 -9999 -9999 -9999 -9999 -9999 -9999 -9999 -9999 -9999 -9999 -9999 -9999 -9999 -9999 -9999 -9999 -9999 -9999 -9999 -9999 -9999 -9999 -9999 -9999 
-9999 -9999 -9999 -9999 -9999 -9999 -9999 -9999 1001 -9999 -9999 -9999 -9999 -9999 1001 -9999 -9999 1001 -9999 1001 -9999 1001 -9999 -9999 1001 -9999 -9999 1001 1001 1001 1001 1001 1001 1001 1001 -9999 1001 1001 1001 1001 -9999 1001 1001 -9999 1001 1001 -9999 -9999 1001 1001 1001 1001 1001 1001 -9999 501 501 501 501 -9999 -9999 -9999 -9999 -9999 501 -9999 501 -9999 1001 -9999 1001 1001 -9999 1001 -9999 501 -9999 -9999 -9999 -9999 -9999 -9999 -9999 1001 -9999 1001 1001 1001 -9999 -9999 -9999 -9999 -9999 -9999 -9999 -9999 -9999 -9999 -9999 -9999 -9999 -9999 -9999 -9999 -9999 -9999 -9999 -9999 -9999 -9999 -9999 -9999 -9999 -9999 -9999 -9999 -9999 -9999 -9999 -9999 -9999 -9999 -9999 -9999 -9999 -9999 -9999 
-9999 -9999 -9999 -9999 -9999 -9999 1001 1001 -9999 -9999 -9999 -9999 1001 -9999 -9999 1001 -9999 1001 1001 -9999 -9999 1001 1001 -9999 -9999 -9999 1001 -9999 1001 1001 1001 1001 -9999 1001 1001 -9999 1001 1001 1001 -9999 -9999 1001 1001 1001 -9999 1001 -9999 -9999 -9999 -9999 1001 1001 -9999 -9999 1001 -9999 501 501 -9999 -9999 -9999 -9999 -9999 501 501 501 -9999 501 1001 -9999 1001 1001 1001 1001 1001 -9999 501 -9999 -9999 501 -9999 -9999 1001 1001 1001 1001 1001 -9999 1001 1001 -9999 -9999 1001 -9999 1001 1001 -9999 -9999 -9999 -9999 -9999 -9999 -9999 -9999 -9999 -9999 -9999 -9999 -9999 -9999 -9999 -9999 -9999 -9999 -9999 -9999 -9999 -9999 -9999 -9999 -9999 -9999 -9999 -9999 -9999 -9999 -9999 
-9999 -9999 -9999 -9999 -9999 -9999 1001 -9999 1001 -9999 -9999 -9999 -9999 -9999 -9999 1001 -9999 1001 1001 1001 -9999 1001 1001 -9999 -9999 -9999 1001 -9999 -9999 1001 -9999 1001 -9999 1001 -9999 1001 -9999 -9999 -9999 1001 -9999 1001 1001 1001 1001 1001 -9999 1001 1001 1001 1001 -9999 -9999 -9999 1001 501 -9999 -9999 501 501 501 -9999 501 501 501 501 -9999 -9999 -9999 -9999 -9999 -9999 -9999 -9999 -9999 501 -9999 -9999 -9999 501 -9999 -9999 -9999 -9999 -9999 1001 1001 1001 1001 -9999 -9999 -9999 -9999 1001 1001 -9999 -9999 -9999 -9999 -9999 -9999 -9999 -9999 -9999 -9999 -9999 -9999 -9999 -9999 -9999 -9999 -9999 -9999 -9999 -9999 -9999 -9999 -9999 -9999 -9999 -9999 -9999 -9999 -9999 -9999 -9999 -9999 
-9999 -9999 -9999 -9999 -9999 -9999 -9999 1001 1001 -9999 -9999 -9999 -9999 -9999 -9999 -9999 1001 1001 -9999 -9999 -9999 1001 -9999 1001 -9999 -9999 -9999 1001 1001 1001 1001 -9999 1001 -9999 -9999 -9999 1001 1001 1001 1001 1001 -9999 1001 -9999 1001 1001 1001 1001 1001 -9999 -9999 -9999 -9999 -9999 1001 -9999 -9999 -9999 -9999 -9999 501 501 -9999 -9999 501 501 501 501 501 -9999 -9999 1001 -9999 1001 1001 -9999 -9999 -9999 -9999 501 -9999 -9999 1001 1001 -9999 1001 1001 -9999 -9999 -9999 -9999 -9999 1001 1001 -9999 -9999 -9999 -9999 -9999 -9999 -9999 -9999 -9999 -9999 -9999 -9999 -9999 -9999 -9999 -9999 -9999 -9999 -9999 -9999 -9999 -9999 -9999 -9999 -9999 -9999 -9999 -9999 -9999 -9999 -9999 -9999 -9999 
-9999 -9999 -9999 -9999 -9999 -9999 -9999 -9999 1001 -9999 1001 1001 -9999 1001 -9999 1001 1001 -9999 1001 -9999 1001 -9999 -9999 -9999 -9999 -9999 1001 1001 1001 -9999 -9999 1001 1001 1001 -9999 1001 -9999 -9999 1001 1001 -9999 -9999 -9999 -9999 -9999 1001 1001 -9999 1001 -9999 -9999 -9999 -9999 1001 -9999 501 -9999 -9999 -9999 -9999 501 501 501 501 501 501 501 501 501 -9999 1001 -9999 -9999 1001 -9999 501 501 -9999 -9999 501 -9999 -9999 -9999 1001 1001 -9999 -9999 1001 1001 1001 -9999 -9999 -9999 -9999 -9999 1001 1001 1001 1001 -9999 -9999 -9999 -9999 -9999 -9999 -9999 -9999 -9999 -9999 -9999 -9999 -9999 -9999 -9999 -9999 -9999 -9999 -9999 -9999 -9999 -9999 -9999 -9999 -9999 -9999 -9999 -9999 
-9999 -9999 -9999 -9999 -9999 1001 1001 -9999 1001 -9999 -9999 1001 1001 -9999 1001 1001 -9999 1001 1001 -9999 -9999 -9999 -9999 1001 -9999 1001 1001 1001 -9999 1001 -9999 1001 -9999 1001 1001 1001 1001 -9999 1001 -9999 -9999 -9999 -9999 -9999 -9999 1001 -9999 -9999 -9999 -9999 -9999 -9999 -9999 -9999 -9999 1001 -9999 -9999 501 501 501 501 501 501 501 501 501 501 501 -9999 -9999 -9999 1001 501 501 -9999 501 -9999 -9999 501 -9999 -9999 -9999 -9999 1001 -9999 1001 1001 1001 -9999 -9999 -9999 1001 -9999 -9999 -9999 -9999 -9999 1001 -9999 -9999 -9999 -9999 -9999 -9999 -9999 -9999 -9999 -9999 -9999 -9999 -9999 -9999 -9999 -9999 -9999 -9999 -9999 -9999 -9999 -9999 -9999 -9999 -9999 -9999 -9999 -9999 
-9999 -9999 -9999 -9999 -9999 -9999 1001 -9999 -9999 -9999 -9999 1001 1001 -9999 1001 1001 -9999 -9999 -9999 1001 1001 -9999 1001 1001 -9999 1001 -9999 -9999 -9999 1001 -9999 1001 -9999 -9999 -9999 -9999 1001 -9999 1001 -9999 -9999 -9999 -9999 1001 1001 -9999 -9999 -9999 -9999 -9999 -9999 -9999 -9999 1001 -9999 -9999 501 -9999 -9999 -9999 501 501 501 501 -9999 501 501 501 501 -9999 -9999 -9999 501 501 501 501 -9999 -9999 -9999 501 -9999 -9999 -9999 1001 1001 1001 -9999 -9999 -9999 1001 1001 1001 -9999 1001 -9999 -9999 1001 1001 1001 501 501 -9999 -9999 -9999 -9999 -9999 -9999 -9999 -9999 -9999 -9999 -9999 -9999 -9999 -9999 -9999 -9999 -9999 -9999 -9999 -9999 -9999 -9999 -9999 -9999 -9999 -9999 
-9999 -9999 -9999 -9999 -9999 -9999 -9999 -9999 -9999 -9999 -9999 -9999 -9999 1001 1001 1001 1001 1001 1001 1001 -9999 1001 1001 -9999 -9999 -9999 1001 -9999 -9999 -9999 -9999 -9999 -9999 1001 1001 1001 -9999 -9999 -9999 -9999 -9999 1001 -9999 1001 -9999 -9999 -9999 -9999 -9999 1001 -9999 -9999 -9999 1001 -9999 -9999 501 -9999 -9999 -9999 -9999 -9999 501 -9999 501 501 501 501 501 -9999 -9999 -9999 -9999 501 501 501 501 -9999 -9999 501 -9999 -9999 -9999 1001 1001 -9999 501 -9999 501 501 1001 1001 1001 1001 -9999 -9999 1001 -9999 -9999 501 -9999 -9999 -9999 -9999 -9999 -9999 -9999 -9999 -9999 -9999 -9999 -9999 -9999 -9999 -9999 -9999 -9999 -9999 -9999 -9999 -9999 -9999 -9999 -9999 -9999 -9999 -9999 
-9999 -9999 -9999 -9999 -9999 -9999 -9999 -9999 -9999 -9999 -9999 -9999 -9999 1001 1001 -9999 1001 1001 1001 -9999 1001 1001 -9999 -9999 1001 -9999 -9999 -9999 -9999 1001 -9999 -9999 -9999 -9999 1001 -9999 -9999 -9999 -9999 -9999 -9999 1001 1001 1001 -9999 -9999 -9999 -9999 -9999 -9999 -9999 -9999 1001 1001 -9999 1001 501 -9999 -9999 -9999 -9999 -9999 501 501 -9999 501 501 501 501 -9999 1001 -9999 -9999 501 -9999 -9999 -9999 -9999 -9999 501 501 1001 -9999 -9999 -9999 -9999 501 -9999 -9999 1001 501 1001 1001 1001 1001 -9999 -9999 -9999 1001 501 -9999 -9999 -9999 -9999 -9999 -9999 -9999 -9999 -9999 -9999 -9999 -9999 -9999 -9999 -9999 -9999 -9999 -9999 -9999 -9999 -9999 -9999 -9999 -9999 -9999 -9999 -9999 
-9999 -9999 -9999 -9999 -9999 -9999 -9999 -9999 -9999 -9999 -9999 -9999 1001 1001 -9999 -9999 -9999 -9999 1001 1001 1001 -9999 1001 -9999 -9999 -9999 -9999 1001 -9999 -9999 -9999 -9999 1001 1001 -9999 1001 1001 1001 1001 1001 -9999 1001 -9999 -9999 -9999 -9999 -9999 -9999 -9999 -9999 1001 -9999 1001 -9999 -9999 1001 1001 -9999 -9999 -9999 -9999 -9999 501 501 501 -9999 501 501 -9999 -9999 -9999 -9999 -9999 -9999 501 -9999 -9999 501 -9999 501 501 1001 -9999 -9999 501 501 -9999 501 501 501 -9999 501 1001 1001 -9999 -9999 1001 -9999 -9999 501 -9999 -9999 -9999 -9999 1001 -9999 -9999 -9999 -9999 -9999 -9999 -9999 -9999 -9999 -9999 -9999 -9999 -9999 -9999 -9999 -9999 -9999 -9999 -9999 -9999 -9999 -9999 
-9999 -9999 -9999 -9999 -9999 -9999 -9999 -9999 -9999 -9999 -9999 -9999 1001 1001 -9999 1001 -9999 1001 -9999 -9999 -9999 -9999 -9999 -9999 -9999 -9999 1001 -9999 -9999 -9999 -9999 -9999 -9999 -9999 1001 -9999 -9999 -9999 -9999 1001 1001 -9999 -9999 -9999 -9999 -9999 -9999 -9999 -9999 -9999 -9999 -9999 -9999 -9999 -9999 -9999 1001 -9999 -9999 -9999 -9999 -9999 -9999 501 -9999 501 -9999 -9999 -9999 501 -9999 501 -9999 -9999 -9999 -9999 -9999 501 -9999 501 501 -9999 501 501 501 501 -9999 -9999 501 -9999 -9999 1001 -9999 501 1001 1001 -9999 1001 1001 -9999 -9999 -9999 1001 1001 1001 -9999 -9999 -9999 -9999 -9999 -9999 -9999 -9999 -9999 -9999 -9999 -9999 -9999 -9999 -9999 -9999 -9999 -9999 -9999 -9999 -9999 -9999 
-9999 -9999 -9999 -9999 -9999 -9999 -9999 -9999 -9999 -9999 -9999 1001 1001 -9999 1001 -9999 1001 -9999 -9999 -9999 -9999 -9999 -9999 -9999 1001 -9999 -9999 -9999 -9999 -9999 -9999 -9999 -9999 1001 1001 1001 1001 1001 -9999 -9999 -9999 -9999 -9999 -9999 -9999 -9999 -9999 -9999 -9999 -9999 -9999 -9999 -9999 -9999 -9999 -9999 -9999 501 -9999 -9999 501 -9999 1001 -9999 -9999 501 -9999 -9999 501 -9999 -9999 -9999 -9999 -9999 501 501 -9999 -9999 501 -9999 501 501 501 501 -9999 -9999 -9999 -9999 501 501 501 501 -9999 -9999 -9999 501 501 -9999 1001 -9999 -9999 1001 1001 -9999 -9999 -9999 -9999 -9999 -9999 -9999 -9999 -9999 -9999 -9999 -9999 -9999 -9999 -9999 -9999 -9999 -9999 -9999 -9999 -9999 -9999 -9999 -9999 
-9999 -9999 -9999 -9999 -9999 -9999 -9999 -9999 -9999 -9999 -9999 1001 1001 -9999 1001 -9999 -9999 -9999 -9999 -9999 -9999 -9999 -9999 -9999 1001 1001 1001 -9999 -9999 -9999 -9999 1001 1001 1001 1001 1001 -9999 1001 1001 -9999 -9999 -9999 -9999 -9999 -9999 -9999 -9999 -9999 -9999 -9999 -9999 -9999 -9999 -9999 -9999 -9999 -9999 501 501 -9999 -9999 -9999 -9999 501 501 -9999 -9999 -9999 501 501 -9999 -9999 501 501 501 -9999 -9999 -9999 -9999 -9999 -9999 -9999 501 -9999 501 -9999 1001 501 -9999 501 1001 -9999 501 -9999 501 501 -9999 1001 -9999 1001 1001 1001 -9999 -9999 -9999 1001 -9999 -9999 -9999 -9999 -9999 -9999 -9999 -9999 -9999 -9999 -9999 -9999 -9999 -9999 -9999 -9999 -9999 -9999 -9999 -9999 -9999 
-9999 -9999 -9999 -9999 -9999 -9999 -9999 -9999 -9999 -9999 -9999 1001 -9999 1001 1001 -9999 -9999 -9999 -9999 -9999 -9999 1001 1001 1001 1001 -9999 -9999 1001 1001 -9999 -9999 1001 1001 -9999 -9999 1001 1001 1001 -9999 -9999 -9999 -9999 -9999 -9999 -9999 -9999 -9999 -9999 -9999 -9999 -9999 -9999 -9999 -9999 -9999 -9999 -9999 -9999 -9999 -9999 -9999 501 501 501 -9999 501 -9999 501 -9999 501 -9999 501 501 -9999 501 -9999 -9999 -9999 -9999 -9999 501 -9999 -9999 -9999 -9999 501 501 501 501 501 -9999 501 -9999 -9999 501 -9999 -9999 -9999 1001 1001 -9999 1001 -9999 -9999 1001 -9999 -9999 -9999 -9999 -9999 -9999 1001 -9999 -9999 -9999 1001 -9999 -9999 -9999 -9999 -9999 -9999 -9999 -9999 -9999 -9999 -9999 
-9999 -9999 -9999 -9999 -9999 -9999 -9999 -9999 -9999 -9999 -9999 -9999 -9999 1001 -9999 -9999 -9999 -9999 -9999 -9999 -9999 1001 1001 1001 -9999 1001 1001 1001 1001 -9999 -9999 -9999 -9999 -9999 1001 1001 1001 1001 1001 1001 -9999 -9999 -9999 -9999 -9999 -9999 -9999 -9999 -9999 -9999 -9999 -9999 -9999 -9999 -9999 -9999 -9999 1001 501 501 501 501 501 -9999 501 501 501 -9999 -9999 -9999 501 -9999 -9999 -9999 501 -9999 -9999 -9999 -9999 -9999 -9999 501 501 501 501 -9999 -9999 501 501 -9999 -9999 501 -9999 -9999 1001 1001 1001 1001 1001 -9999 1001 1001 -9999 -9999 1001 -9999 -9999 -9999 -9999 -9999 -9999 1001 -9999 -9999 -9999 -9999 -9999 -9999 -9999 -9999 -9999 -9999 -9999 -9999 -9999 -9999 -9999 
-9999 -9999 -9999 -9999 -9999 -9999 -9999 -9999 -9999 -9999 -9999 -9999 1001 -9999 -9999 -9999 -9999 -9999 -9999 -9999 1001 1001 1001 1001 1001 1001 1001 -9999 -9999 1001 1001 1001 1001 1001 1001 1001 1001 1001 1001 -9999 -9999 -9999 -9999 -9999 -9999 -9999 -9999 -9999 -9999 -9999 -9999 -9999 -9999 -9999 -9999 -9999 -9999 1001 501 501 501 501 501 501 501 -9999 501 501 501 501 501 -9999 -9999 -9999 501 -9999 -9999 -9999 -9999 -9999 -9999 -9999 501 501 501 501 -9999 501 501 501 501 501 -9999 1001 1001 1001 1001 -9999 -9999 -9999 -9999 1001 -9999 1001 1001 -9999 -9999 -9999 -9999 1001 -9999 -9999 -9999 -9999 -9999 -9999 -9999 -9999 -9999 -9999 -9999 -9999 -9999 -9999 -9999 -9999 -9999 
-9999 -9999 -9999 -9999 -9999 -9999 -9999 -9999 -9999 -9999 -9999 -9999 -9999 -9999 -9999 -9999 -9999 -9999 -9999 -9999 -9999 1001 1001 -9999 -9999 -9999 1001 -9999 -9999 1001 1001 1001 1001 -9999 1001 -9999 -9999 1001 -9999 -9999 -9999 -9999 -9999 -9999 -9999 -9999 -9999 -9999 -9999 -9999 -9999 -9999 -9999 -9999 -9999 -9999 1001 1001 501 501 501 501 501 501 501 501 501 501 -9999 -9999 501 501 501 501 501 -9999 -9999 501 -9999 -9999 501 501 -9999 501 -9999 501 -9999 1001 501 501 501 1001 501 -9999 -9999 -9999 -9999 -9999 -9999 -9999 -9999 1001 1001 -9999 -9999 1001 1001 -9999 -9999 -9999 -9999 -9999 -9999 -9999 -9999 -9999 -9999 -9999 -9999 -9999 -9999 -9999 -9999 -9999 -9999 -9999 -9999 
-9999 -9999 -9999 -9999 -9999 -9999 -9999 -9999 -9999 -9999 -9999 -9999 -9999 -9999 -9999 -9999 -9999 -9999 -9999 -9999 -9999 -9999 -9999 -9999 -9999 -9999 1001 -9999 -9999 -9999 1001 -9999 -9999 -9999 1001 1001 -9999 1001 1001 -9999 -9999 -9999 -9999 -9999 -9999 -9999 -9999 -9999 -9999 -9999 -9999 -9999 -9999 -9999 -9999 1001 1001 1001 1001 1001 -9999 -9999 -9999 -9999 -9999 501 501 501 501 501 501 501 501 501 501 501 501 -9999 -9999 -9999 501 501 501 501 501 -9999 -9999 501 -9999 501 501 -9999 501 -9999 501 -9999 -9999 -9999 -9999 -9999 -9999 -9999 -9999 1001 1001 -9999 -9999 -9999 -9999 -9999 -9999 -9999 -9999 -9999 -9999 -9999 -9999 -9999 -9999 -9999 -9999 -9999 -9999 -9999 -9999 -9999 -9999 
-9999 -9999 -9999 -9999 -9999 -9999 -9999 -9999 -9999 -9999 -9999 -9999 -9999 -9999 -9999 -9999 -9999 -9999 -9999 -9999 -9999 -9999 -9999 -9999 -9999 -9999 1001 -9999 -9999 1001 1001 1001 1001 -9999 1001 1001 -9999 1001 -9999 -9999 -9999 -9999 -9999 -9999 -9999 -9999 -9999 -9999 -9999 -9999 -9999 -9999 -9999 1001 -9999 1001 1001 -9999 -9999 501 -9999 -9999 501 -9999 -9999 -9999 501 -9999 501 501 -9999 -9999 501 -9999 501 -9999 501 1001 501 1001 501 -9999 501 501 501 501 501 501 501 501 -9999 501 501 -9999 -9999 -9999 -9999 1001 -9999 -9999 -9999 -9999 -9999 -9999 -9999 -9999 -9999 -9999 -9999 -9999 1001 -9999 1001 -9999 -9999 -9999 -9999 -9999 -9999 -9999 -9999 -9999 -9999 -9999 -9999 -9999 -9999 
-9999 -9999 -9999 -9999 -9999 -9999 -9999 -9999 -9999 -9999 -9999 -9999 -9999 -9999 -9999 -9999 -9999 -9999 -9999 -9999 -9999 -9999 -9999 -9999 -9999 1001 -9999 -9999 -9999 -9999 -9999 -9999 -9999 -9999 1001 1001 -9999 -9999 -9999 -9999 -9999 -9999 -9999 -9999 -9999 -9999 -9999 -9999 1001 1001 -9999 -9999 -9999 -9999 1001 -9999 -9999 -9999 1001 501 -9999 -9999 -9999 -9999 -9999 501 501 -9999 -9999 501 501 501 501 -9999 501 -9999 501 501 -9999 -9999 -9999 501 501 501 501 501 -9999 501 501 -9999 -9999 501 501 1001 -9999 -9999 -9999 -9999 -9999 -9999 -9999 -9999 1001 1001 -9999 1001 -9999 -9999 -9999 1001 1001 1001 -9999 -9999 -9999 -9999 -9999 -9999 -9999 -9999 -9999 -9999 -9999 -9999 -9999 -9999 -9999 
-9999 -9999 -9999 -9999 -9999 -9999 -9999 -9999 -9999 -9999 -9999 -9999 -9999 -9999 -9999 -9999 -9999 -9999 -9999 -9999 -9999 -9999 -9999 -9999 -9999 -9999 -9999 -9999 -9999 -9999 -9999 1001 -9999 -9999 -9999 -9999 -9999 -9999 -9999 -9999 -9999 -9999 -9999 -9999 -9999 -9999 -9999 -9999 -9999 -9999 -9999 -9999 -9999 -9999 -9999 -9999 1001 -9999 -9999 -9999 501 501 -9999 -9999 -9999 501 -9999 -9999 -9999 501 -9999 501 501 501 501 501 501 501 501 -9999 -9999 501 501 501 501 501 501 501 501 501 -9999 501 501 501 -9999 -9999 -9999 -9999 -9999 -9999 -9999 -9999 -9999 -9999 1001 1001 -9999 -9999 1001 1001 1001 -9999 -9999 -9999 -9999 -9999 -9999 -9999 -9999 -9999 -9999 -9999 -9999 -9999 -9999 -9999 -9999 
-9999 -9999 -9999 -9999 -9999 -9999 -9999 -9999 -9999 -9999 -9999 -9999 -9999 -9999 -9999 -9999 -9999 -9999 -9999 -9999 -9999 -9999 -9999 -9999 -9999 -9999 -9999 -9999 -9999 -9999 -9999 1001 1001 -9999 -9999 -9999 -9999 -9999 -9999 -9999 -9999 -9999 -9999 -9999 -9999 -9999 -9999 -9999 -9999 -9999 -9999 -9999 1001 1001 -9999 -9999 1001 -9999 -9999 501 501 -9999 -9999 -9999 501 -9999 501 -9999 501 501 -9999 -9999 501 501 501 501 501 501 501 501 -9999 501 501 1001 501 -9999 -9999 501 501 -9999 501 501 501 -9999 -9999 -9999 -9999 -9999 -9999 -9999 -9999 -9999 1001 -9999 -9999 -9999 -9999 1001 1001 1001 -9999 1001 -9999 -9999 -9999 -9999 -9999 -9999 -9999 -9999 -9999 -9999 -9999 -9999 -9999 -9999 -9999 
-9999 -9999 -9999 -9999 -9999 -9999 -9999 -9999 -9999 -9999 -9999 -9999 -9999 -9999 -9999 -9999 -9999 -9999 -9999 -9999 -9999 -9999 -9999 -9999 -9999 -9999 -9999 -9999 -9999 -9999 -9999 -9999 -9999 -9999 -9999 -9999 -9999 -9999 -9999 -9999 -9999 -9999 -9999 -9999 -9999 -9999 -9999 -9999 -9999 -9999 -9999 -9999 1001 -9999 1001 1001 -9999 -9999 1001 501 -9999 501 -9999 1001 501 501 -9999 -9999 501 -9999 1001 501 -9999 -9999 501 501 501 -9999 501 501 501 -9999 501 -9999 501 501 1001 501 -9999 501 -9999 -9999 -9999 -9999 -9999 -9999 -9999 -9999 -9999 -9999 1001 -9999 1001 -9999 -9999 1001 1001 -9999 1001 -9999 -9999 1001 -9999 -9999 -9999 -9999 -9999 -9999 -9999 -9999 -9999 -9999 -9999 -9999 -9999 -9999 -9999 
-9999 -9999 -9999 -9999 -9999 -9999 -9999 -9999 -9999 -9999 -9999 -9999 -9999 -9999 -9999 -9999 -9999 -9999 -9999 -9999 -9999 -9999 -9999 -9999 -9999 -9999 -9999 -9999 -9999 -9999 1001 -9999 -9999 -9999 -9999 -9999 -9999 -9999 -9999 -9999 -9999 -9999 -9999 -9999 -9999 -9999 -9999 -9999 -9999 -9999 -9999 1001 1001 501 501 -9999 501 -9999 -9999 501 501 501 501 -9999 -9999 -9999 -9999 501 -9999 501 501 -9999 501 501 501 501 -9999 501 501 501 -9999 501 501 1001 501 -9999 501 501 -9999 501 501 501 501 -9999 -9999 -9999 501 501 -9999 1001 -9999 -9999 -9999 1001 1001 1001 1001 1001 1001 -9999 1001 1001 -9999 -9999 -9999 -9999 -9999 -9999 -9999 -9999 -9999 -9999 -9999 -9999 -9999 -9999 -9999 
-9999 -9999 -9999 -9999 -9999 -9999 -9999 -9999 -9999 -9999 -9999 -9999 -9999 -9999 -9999 -9999 -9999 -9999 -9999 -9999 -9999 -9999 -9999 -9999 -9999 -9999 -9999 -9999 -9999 -9999 -9999 -9999 -9999 -9999 -9999 -9999 -9999 -9999 -9999 -9999 -9999 -9999 -9999 -9999 -9999 -9999 -9999 -9999 -9999 -9999 -9999 -9999 -9999 1001 1001 1001 -9999 501 -9999 -9999 -9999 501 501 -9999 -9999 501 -9999 -9999 -9999 501 -9999 501 501 501 501 501 501 -9999 501 501 501 501 501 501 -9999 501 -9999 501 -9999 501 501 501 -9999 501 501 -9999 -9999 501 -9999 -9999 1001 -9999 1001 1001 1001 1001 -9999 -9999 -9999 1001 -9999 1001 -9999 -9999 -9999 -9999 -9999 -9999 -9999 -9999 -9999 -9999 -9999 -9999 -9999 -9999 -9999 
-9999 -9999 -9999 -9999 -9999 -9999 -9999 -9999 -9999 -9999 -9999 -9999 -9999 -9999 -9999 -9999 -9999 -9999 -9999 -9999 -9999 -9999 -9999 -9999 -9999 -9999 -9999 -9999 -9999 -9999 -9999 -9999 -9999 -9999 -9999 -9999 -9999 -9999 -9999 -9999 -9999 -9999 -9999 -9999 -9999 -9999 -9999 -9999 -9999 -9999 -9999 1001 1001 -9999 1001 -9999 501 501 -9999 501 501 501 -9999 501 -9999 501 -9999 501 501 501 -9999 501 -9999 501 501 -9999 -9999 501 1001 -9999 501 501 501 501 501 -9999 501 501 501 501 501 501 -9999 501 -9999 -9999 1001 -9999 -9999 501 1001 -9999 -9999 -9999 1001 1001 1001 -9999 1001 1001 1001 -9999 -9999 -9999 -9999 -9999 -9999 -9999 -9999 -9999 -9999 -9999 -9999 -9999 -9999 -9999 -9999 
-9999 -9999 -9999 -9999 -9999 -9999 -9999 -9999 -9999 -9999 -9999 -9999 -9999 -9999 -9999 -9999 -9999 -9999 -9999 -9999 -9999 -9999 -9999 -9999 -9999 -9999 -9999 -9999 -9999 -9999 -9999 -9999 -9999 -9999 -9999 -9999 -9999 -9999 -9999 -9999 -9999 -9999 -9999 -9999 -9999 -9999 -9999 -9999 -9999 -9999 1001 -9999 -9999 1001 1001 1001 -9999 501 501 501 501 501 -9999 -9999 -9999 -9999 -9999 501 501 -9999 -9999 501 501 -9999 1001 501 501 501 1001 501 -9999 501 501 501 501 501 501 501 501 501 501 -9999 -9999 -9999 -9999 501 501 501 -9999 501 1001 1001 -9999 1001 1001 -9999 1001 1001 -9999 1001 -9999 -9999 -9999 -9999 -9999 -9999 -9999 -9999 -9999 -9999 -9999 -9999 -9999 -9999 -9999 -9999 -9999 
-9999 -9999 -9999 -9999 -9999 -9999 -9999 -9999 -9999 -9999 -9999 -9999 -9999 -9999 -9999 -9999 -9999 -9999 -9999 -9999 -9999 -9999 -9999 -9999 -9999 -9999 -9999 -9999 -9999 -9999 -9999 -9999 -9999 -9999 -9999 -9999 -9999 -9999 -9999 -9999 -9999 -9999 -9999 -9999 -9999 -9999 -9999 -9999 -9999 -9999 -9999 1001 1001 1001 1001 -9999 501 -9999 -9999 501 501 501 -9999 -9999 -9999 -9999 -9999 -9999 -9999 -9999 501 -9999 501 1001 501 -9999 501 501 501 1001 501 501 501 501 501 501 501 501 501 -9999 -9999 501 -9999 501 501 -9999 501 -9999 501 501 501 501 501 501 501 -9999 -9999 1001 -9999 -9999 -9999 -9999 -9999 -9999 -9999 -9999 -9999 -9999 -9999 -9999 -9999 -9999 -9999 -9999 -9999 -9999 -9999 
-9999 -9999 -9999 -9999 -9999 -9999 -9999 -9999 -9999 -9999 -9999 -9999 -9999 -9999 -9999 -9999 -9999 -9999 -9999 -9999 -9999 -9999 -9999 -9999 -9999 -9999 -9999 -9999 -9999 -9999 -9999 -9999 -9999 -9999 -9999 -9999 -9999 -9999 -9999 -9999 -9999 -9999 -9999 -9999 1001 -9999 -9999 -9999 -9999 -9999 1001 -9999 -9999 1001 1001 501 -9999 501 -9999 501 501 501 -9999 -9999 -9999 -9999 -9999 501 501 501 501 501 501 501 501 501 501 501 501 501 501 501 501 -9999 501 501 -9999 501 -9999 -9999 501 501 501 -9999 501 501 501 501 -9999 -9999 -9999 501 -9999 -9999 501 1001 1001 1001 1001 1001 -9999 -9999 -9999 -9999 -9999 -9999 -9999 -9999 -9999 -9999 -9999 -9999 -9999 -9999 -9999 -9999 -9999 
-9999 -9999 -9999 -9999 -9999 -9999 -9999 -9999 -9999 -9999 -9999 -9999 -9999 -9999 -9999 -9999 -9999 -9999 -9999 -9999 -9999 -9999 -9999 -9999 -9999 -9999 -9999 -9999 -9999 -9999 -9999 -9999 -9999 -9999 -9999 -9999 -9999 -9999 -9999 -9999 -9999 -9999 -9999 1001 1001 -9999 -9999 -9999 -9999 1001 -9999 -9999 -9999 1001 1001 501 501 -9999 -9999 501 501 501 -9999 -9999 -9999 -9999 -9999 501 501 -9999 501 501 -9999 501 -9999 501 501 501 501 1001 501 501 501 1001 -9999 -9999 501 -9999 501 501 501 501 501 501 501 -9999 501 501 -9999 -9999 501 -9999 501 -9999 501 1001 1001 1001 501 501 -9999 1001 -9999 -9999 -9999 -9999 1001 1001 -9999 -9999 -9999 -9999 -9999 -9999 -9999 -9999 -9999 
-9999 -9999 -9999 -9999 -9999 -9999 -9999 -9999 -9999 -9999 -9999 -9999 -9999 -9999 -9999 -9999 -9999 -9999 -9999 -9999 -9999 -9999 -9999 -9999 -9999 -9999 -9999 -9999 -9999 -9999 -9999 -9999 -9999 -9999 -9999 -9999 -9999 -9999 -9999 -9999 -9999 -9999 -9999 -9999 -9999 1001 1001 1001 1001 -9999 1001 1001 -9999 1001 1001 1001 -9999 -9999 1001 -9999 501 -9999 -9999 501 -9999 -9999 -9999 -9999 501 501 501 -9999 501 501 501 -9999 1001 501 501 -9999 501 501 -9999 501 501 501 -9999 -9999 501 501 501 -9999 501 501 501 501 501 -9999 501 501 501 501 501 -9999 -9999 -9999 501 -9999 501 501 -9999 1001 1001 1001 1001 1001 1001 1001 -9999 -9999 -9999 -9999 -9999 -9999 -9999 -9999 -9999 
-9999 -9999 -9999 -9999 -9999 -9999 -9999 -9999 -9999 -9999 -9999 -9999 -9999 -9999 -9999 -9999 -9999 -9999 -9999 -9999 -9999 -9999 -9999 -9999 -9999 -9999 -9999 -9999 -9999 -9999 -9999 -9999 -9999 -9999 -9999 -9999 -9999 -9999 -9999 -9999 -9999 -9999 1001 -9999 -9999 501 501 501 501 501 1001 -9999 -9999 -9999 501 501 -9999 1001 -9999 -9999 501 -9999 501 501 -9999 501 -9999 -9999 -9999 501 -9999 501 501 -9999 501 501 501 501 501 501 501 501 -9999 -9999 501 501 501 501 501 501 -9999 501 501 -9999 501 -9999 501 501 501 501 -9999 501 501 -9999 501 501 501 501 501 -9999 -9999 1001 -9999 1001 1001 1001 -9999 -9999 -9999 -9999 -9999 -9999 -9999 -9999 -9999 -9999 -9999 
-9999 -9999 -9999 -9999 -9999 -9999 -9999 -9999 -9999 -9999 -9999 -9999 -9999 -9999 -9999 -9999 -9999 -9999 -9999 -9999 -9999 -9999 -9999 -9999 -9999 -9999 -9999 -9999 -9999 -9999 -9999 -9999 -9999 -9999 -9999 -9999 -9999 -9999 -9999 -9999 -9999 -9999 1001 -9999 -9999 501 -9999 -9999 -9999 -9999 -9999 -9999 -9999 -9999 1001 -9999 -9999 -9999 -9999 501 -9999 501 -9999 -9999 1001 501 501 -9999 -9999 501 -9999 501 -9999 -9999 -9999 501 501 -9999 -9999 -9999 501 -9999 501 -9999 501 -9999 501 501 501 -9999 501 501 501 -9999 -9999 501 501 1001 501 501 501 501 -9999 501 -9999 501 -9999 -9999 501 -9999 -9999 1001 -9999 -9999 -9999 1001 -9999 -9999 -9999 -9999 -9999 -9999 -9999 -9999 -9999 -9999 -9999 
-9999 -9999 -9999 -9999 -9999 -9999 -9999 -9999 -9999 -9999 -9999 -9999 -9999 -9999 -9999 -9999 -9999 -9999 -9999 -9999 -9999 -9999 -9999 -9999 -9999 -9999 -9999 -9999 -9999 -9999 -9999 -9999 1001 -9999 -9999 -9999 -9999 -9999 -9999 -9999 -9999 -9999 -9999 -9999 -9999 -9999 -9999 -9999 -9999 -9999 -9999 -9999 -9999 -9999 -9999 -9999 -9999 501 1001 501 501 501 501 -9999 -9999 -9999 501 -9999 501 501 501 501 -9999 501 501 501 -9999 -9999 -9999 501 501 501 501 501 -9999 501 501 -9999 -9999 501 501 501 -9999 -9999 501 501 501 501 501 501 501 501 -9999 501 501 -9999 -9999 501 -9999 501 -9999 -9999 -9999 -9999 -9999 -9999 -9999 -9999 -9999 -9999 -9999 -9999 -9999 -9999 -9999 -9999 -9999 
-9999 -9999 -9999 -9999 -9999 -9999 -9999 -9999 -9999 -9999 -9999 -9999 -9999 -9999 -9999 -9999 -9999 -9999 -9999 -9999 -9999 -9999 -9999 -9999 -9999 -9999 -9999 -9999 -9999 -9999 -9999 -9999 -9999 -9999 -9999 -9999 -9999 -9999 -9999 -9999 -9999 -9999 -9999 -9999 -9999 1001 1001 -9999 -9999 -9999 -9999 -9999 -9999 -9999 501 501 501 501 -9999 -9999 -9999 501 -9999 -9999 -9999 501 -9999 -9999 -9999 -9999 -9999 -9999 -9999 501 501 -9999 -9999 501 -9999 -9999 501 501 -9999 501 501 1001 -9999 501 -9999 501 501 501 -9999 -9999 501 501 -9999 -9999 501 501 -9999 -9999 -9999 -9999 -9999 501 501 501 -9999 -9999 -9999 1001 1001 1001 1001 1001 -9999 1001 1001 -9999 -9999 -9999 -9999 -9999 -9999 -9999 -9999 
-9999 -9999 -9999 -9999 -9999 -9999 -9999 -9999 -9999 -9999 -9999 -9999 -9999 -9999 -9999 -9999 -9999 -9999 -9999 -9999 -9999 -9999 -9999 -9999 -9999 -9999 -9999 -9999 -9999 -9999 -9999 -9999 1001 -9999 -9999 -9999 -9999 -9999 -9999 -9999 -9999 -9999 -9999 -9999 1001 1001 1001 1001 1001 -9999 -9999 -9999 -9999 501 501 -9999 501 -9999 501 -9999 -9999 -9999 -9999 -9999 -9999 501 -9999 -9999 -9999 501 -9999 -9999 -9999 -9999 -9999 -9999 501 501 501 501 501 501 501 -9999 -9999 -9999 -9999 -9999 -9999 501 -9999 -9999 501 501 -9999 501 -9999 501 501 501 501 501 501 501 1001 1001 1001 -9999 -9999 1001 1001 -9999 -9999 -9999 1001 1001 1001 -9999 1001 1001 -9999 -9999 -9999 -9999 -9999 -9999 -9999 
-9999 -9999 -9999 -9999 -9999 -9999 -9999 -9999 -9999 -9999 -9999 -9999 -9999 -9999 -9999 -9999 -9999 -9999 -9999 -9999 -9999 -9999 -9999 -9999 -9999 -9999 -9999 -9999 -9999 -9999 -9999 -9999 -9999 -9999 -9999 1001 -9999 -9999 -9999 -9999 -9999 -9999 -9999 -9999 -9999 -9999 1001 -9999 -9999 -9999 -9999 -9999 -9999 -9999 -9999 -9999 -9999 -9999 -9999 -9999 -9999 -9999 -9999 -9999 -9999 -9999 -9999 -9999 -9999 501 501 501 -9999 501 501 -9999 -9999 501 -9999 501 501 501 501 501 -9999 -9999 -9999 -9999 501 501 -9999 501 501 501 501 501 501 -9999 501 501 501 -9999 501 -9999 1001 -9999 -9999 1001 1001 -9999 -9999 -9999 1001 1001 1001 -9999 -9999 1001 -9999 -9999 -9999 -9999 -9999 -9999 -9999 -9999 -9999 
-9999 -9999 -9999 -9999 -9999 -9999 -9999 -9999 -9999 -9999 -9999 -9999 -9999 -9999 -9999 -9999 -9999 -9999 -9999 -9999 -9999 -9999 -9999 -9999 -9999 -9999 -9999 -9999 -9999 -9999 -9999 -9999 -9999 -9999 -9999 -9999 1001 -9999 -9999 -9999 -9999 -9999 -9999 -9999 -9999 -9999 -9999 1001 -9999 -9999 -9999 501 501 501 -9999 -9999 -9999 -9999 -9999 -9999 -9999 -9999 -9999 -9999 1001 -9999 -9999 501 -9999 -9999 -9999 -9999 501 -9999 -9999 501 501 501 501 -9999 1001 -9999 501 501 -9999 -9999 -9999 -9999 -9999 -9999 -9999 -9999 501 501 501 501 501 501 501 -9999 -9999 501 1001 -9999 1001 -9999 1001 -9999 1001 501 -9999 -9999 -9999 -9999 -9999 1001 -9999 -9999 1001 -9999 1001 1001 1001 1001 -9999 -9999 -9999 
-9999 -9999 -9999 -9999 -9999 -9999 -9999 -9999 -9999 -9999 -9999 -9999 -9999 -9999 -9999 -9999 -9999 -9999 -9999 -9999 -9999 -9999 -9999 -9999 -9999 -9999 -9999 -9999 -9999 -9999 -9999 -9999 -9999 -9999 -9999 -9999 -9999 -9999 -9999 -9999 -9999 -9999 -9999 -9999 -9999 -9999 -9999 -9999 -9999 -9999 -9999 -9999 -9999 -9999 -9999 -9999 -9999 -9999 -9999 -9999 -9999 -9999 -9999 -9999 -9999 -9999 -9999 -9999 -9999 -9999 -9999 -9999 -9999 501 501 501 501 501 -9999 -9999 -9999 501 501 501 501 501 -9999 501 -9999 501 -9999 501 -9999 501 -9999 501 501 -9999 501 501 -9999 -9999 -9999 -9999 -9999 -9999 -9999 1001 -9999 -9999 -9999 1001 1001 1001 -9999 1001 -9999 1001 -9999 -9999 1001 1001 -9999 -9999 -9999 -9999 -9999 
-9999 -9999 -9999 -9999 -9999 -9999 -9999 -9999 -9999 -9999 -9999 -9999 -9999 -9999 -9999 -9999 -9999 -9999 -9999 -9999 -9999 -9999 -9999 -9999 1001 -9999 -9999 -9999 -9999 -9999 -9999 -9999 -9999 -9999 -9999 -9999 1001 -9999 -9999 -9999 -9999 -9999 -9999 -9999 -9999 -9999 -9999 -9999 -9999 -9999 1001 -9999 -9999 -9999 -9999 -9999 -9999 -9999 -9999 -9999 -9999 -9999 -9999 -9999 -9999 501 -9999 -9999 -9999 -9999 -9999 -9999 501 501 501 501 501 501 1001 1001 -9999 501 501 501 501 -9999 -9999 501 501 501 -9999 501 -9999 501 501 -9999 501 501 501 501 1001 -9999 1001 -9999 1001 1001 1001 -9999 1001 1001 1001 1001 -9999 1001 1001 1001 -9999 1001 1001 -9999 -9999 -9999 -9999 -9999 -9999 -9999 -9999 
-9999 -9999 -9999 -9999 -9999 1001 -9999 -9999 -9999 -9999 -9999 -9999 -9999 -9999 -9999 -9999 -9999 -9999 -9999 -9999 -9999 -9999 -9999 -9999 1001 1001 -9999 -9999 1001 -9999 -9999 -9999 -9999 -9999 1001 -9999 -9999 -9999 -9999 -9999 -9999 -9999 -9999 -9999 -9999 -9999 -9999 -9999 -9999 -9999 -9999 -9999 -9999 -9999 -9999 -9999 -9999 -9999 -9999 -9999 501 -9999 -9999 -9999 501 -9999 -9999 -9999 501 -9999 -9999 501 501 -9999 501 501 -9999 -9999 1001 1001 -9999 501 501 -9999 501 501 -9999 -9999 501 501 -9999 501 -9999 -9999 501 501 -9999 -9999 501 501 501 501 1001 1001 1001 1001 -9999 1001 1001 1001 1001 1001 -9999 -9999 1001 -9999 -9999 1001 1001 -9999 -9999 -9999 -9999 -9999 -9999 -9999 -9999 
-9999 -9999 -9999 -9999 -9999 1001 -9999 -9999 -9999 -9999 -9999 -9999 -9999 -9999 -9999 -9999 -9999 -9999 -9999 -9999 -9999 -9999 -9999 -9999 -9999 -9999 1001 -9999 -9999 -9999 -9999 -9999 -9999 -9999 -9999 -9999 -9999 -9999 -9999 -9999 -9999 -9999 -9999 1001 -9999 -9999 -9999 -9999 -9999 -9999 501 -9999 1001 -9999 -9999 -9999 -9999 -9999 -9999 -9999 -9999 501 501 501 -9999 -9999 501 501 501 501 501 501 -9999 501 501 501 -9999 501 1001 1001 -9999 501 -9999 501 -9999 -9999 -9999 501 501 501 501 -9999 501 501 501 501 -9999 -9999 -9999 -9999 501 501 -9999 -9999 1001 1001 1001 -9999 1001 1001 1001 1001 1001 -9999 -9999 -9999 -9999 1001 1001 -9999 -9999 -9999 -9999 -9999 -9999 -9999 -9999 
-9999 -9999 -9999 -9999 -9999 -9999 -9999 -9999 -9999 -9999 -9999 -9999 -9999 -9999 -9999 -9999 -9999 -9999 -9999 -9999 -9999 -9999 -9999 -9999 -9999 -9999 -9999 -9999 -9999 -9999 -9999 -9999 -9999 -9999 -9999 -9999 -9999 -9999 -9999 -9999 -9999 -9999 -9999 -9999 -9999 -9999 -9999 501 -9999 -9999 -9999 -9999 1001 1001 -9999 -9999 1001 501 -9999 501 -9999 501 501 501 501 501 501 501 -9999 -9999 -9999 -9999 -9999 501 501 501 -9999 501 501 -9999 -9999 501 501 501 501 -9999 501 501 -9999 501 501 501 501 501 -9999 -9999 501 -9999 501 -9999 501 501 501 1001 -9999 -9999 1001 -9999 -9999 1001 1001 1001 -9999 -9999 -9999 1001 -9999 -9999 -9999 -9999 -9999 -9999 -9999 -9999 -9999 -9999 -9999 
-9999 -9999 -9999 -9999 -9999 1001 -9999 -9999 -9999 -9999 -9999 -9999 -9999 -9999 -9999 -9999 -9999 -9999 -9999 -9999 -9999 -9999 -9999 -9999 -9999 -9999 -9999 1001 -9999 -9999 -9999 -9999 -9999 1001 -9999 -9999 -9999 -9999 -9999 -9999 -9999 1001 -9999 501 -9999 -9999 -9999 -9999 1001 -9999 -9999 -9999 1001 1001 -9999 -9999 -9999 501 -9999 -9999 501 -9999 501 501 -9999 501 501 501 -9999 -9999 501 -9999 -9999 -9999 501 -9999 501 501 501 -9999 501 501 501 501 501 501 -9999 -9999 501 501 501 501 -9999 -9999 -9999 -9999 -9999 -9999 -9999 501 501 1001 1001 501 -9999 1001 -9999 -9999 -9999 1001 -9999 1001 -9999 1001 1001 1001 1001 -9999 -9999 -9999 -9999 -9999 -9999 -9999 -9999 -9999 -9999 
-9999 -9999 -9999 -9999 1001 1001 1001 -9999 -9999 -9999 -9999 -9999 -9999 -9999 -9999 -9999 -9999 -9999 -9999 -9999 -9999 -9999 -9999 -9999 -9999 -9999 -9999 -9999 -9999 -9999 -9999 -9999 -9999 -9999 -9999 -9999 -9999 -9999 -9999 -9999 -9999 -9999 -9999 -9999 -9999 -9999 -9999 501 -9999 -9999 -9999 -9999 1001 1001 -9999 -9999 -9999 -9999 -9999 -9999 501 501 501 501 501 -9999 501 501 -9999 -9999 501 -9999 501 501 501 -9999 501 1001 501 501 501 501 501 501 -9999 -9999 501 -9999 501 501 501 -9999 501 501 -9999 -9999 -9999 -9999 -9999 501 -9999 -9999 -9999 501 1001 -9999 1001 1001 -9999 1001 -9999 -9999 -9999 1001 -9999 -9999 -9999 -9999 -9999 1001 -9999 -9999 -9999 -9999 -9999 -9999 -9999 
-9999 -9999 -9999 -9999 -9999 1001 -9999 1001 1001 1001 -9999 -9999 1001 -9999 -9999 -9999 -9999 -9999 -9999 -9999 -9999 -9999 -9999 -9999 -9999 -9999 -9999 -9999 -9999 -9999 -9999 -9999 -9999 -9999 -9999 -9999 -9999 -9999 -9999 -9999 -9999 -9999 -9999 -9999 501 -9999 -9999 501 -9999 -9999 -9999 -9999 -9999 -9999 -9999 -9999 -9999 -9999 -9999 -9999 -9999 501 -9999 501 501 -9999 501 501 -9999 -9999 -9999 -9999 501 1001 1001 1001 1001 1001 501 501 501 501 501 -9999 501 -9999 501 -9999 501 501 501 501 501 -9999 -9999 -9999 501 -9999 -9999 -9999 501 -9999 1001 1001 -9999 -9999 1001 -9999 1001 1001 1001 -9999 1001 -9999 -9999 -9999 -9999 1001 1001 -9999 -9999 -9999 -9999 -9999 -9999 -9999 -9999 
-9999 -9999 -9999 -9999 -9999 1001 -9999 1001 1001 -9999 1001 -9999 1001 -9999 -9999 -9999 -9999 -9999 -9999 -9999 -9999 -9999 -9999 -9999 -9999 -9999 -9999 -9999 -9999 -9999 -9999 -9999 -9999 -9999 -9999 -9999 -9999 -9999 -9999 -9999 -9999 -9999 -9999 501 501 -9999 -9999 -9999 -9999 -9999 -9999 -9999 -9999 1001 1001 -9999 -9999 -9999 -9999 501 -9999 -9999 -9999 -9999 -9999 -9999 -9999 -9999 -9999 -9999 501 -9999 -9999 1001 1001 -9999 -9999 501 -9999 501 -9999 -9999 501 501 501 501 -9999 501 -9999 -9999 -9999 -9999 501 501 -9999 -9999 -9999 -9999 -9999 -9999 -9999 -9999 1001 1001 1001 -9999 -9999 1001 -9999 1001 1001 1001 1001 1001 -9999 -9999 1001 1001 -9999 -9999 -9999 -9999 -9999 -9999 -9999 -9999 -9999 
-9999 -9999 -9999 -9999 -9999 -9999 1001 1001 -9999 1001 1001 -9999 1001 -9999 -9999 -9999 -9999 -9999 -9999 -9999 -9999 -9999 -9999 -9999 -9999 -9999 -9999 -9999 -9999 -9999 -9999 -9999 -9999 -9999 -9999 -9999 -9999 -9999 -9999 -9999 -9999 -9999 -9999 -9999 -9999 -9999 -9999 -9999 -9999 -9999 -9999 1001 -9999 -9999 -9999 -9999 -9999 -9999 -9999 501 501 501 -9999 -9999 1001 -9999 -9999 -9999 -9999 -9999 -9999 -9999 -9999 501 -9999 -9999 -9999 -9999 -9999 501 -9999 501 501 501 501 501 501 501 501 501 -9999 -9999 -9999 -9999 -9999 -9999 -9999 -9999 -9999 501 -9999 -9999 -9999 -9999 -9999 1001 1001 -9999 -9999 1001 -9999 -9999 1001 -9999 -9999 -9999 -9999 -9999 -9999 -9999 -9999 -9999 -9999 -9999 -9999 -9999 -9999 
-9999 -9999 -9999 -9999 -9999 -9999 -9999 -9999 -9999 -9999 1001 -9999 -9999 -9999 -9999 -9999 -9999 -9999 -9999 -9999 -9999 -9999 -9999 -9999 -9999 -9999 -9999 -9999 -9999 1001 1001 -9999 -9999 -9999 -9999 -9999 -9999 -9999 -9999 -9999 -9999 -9999 -9999 -9999 -9999 -9999 1001 -9999 -9999 1001 1001 -9999 -9999 -9999 1001 -9999 -9999 501 -9999 -9999 -9999 -9999 -9999 1001 1001 501 501 501 -9999 -9999 -9999 -9999 -9999 501 -9999 501 501 -9999 -9999 -9999 501 501 501 501 501 1001 501 -9999 -9999 1001 -9999 -9999 -9999 -9999 -9999 -9999 -9999 -9999 -9999 -9999 501 -9999 -9999 -9999 -9999 -9999 -9999 -9999 -9999 -9999 -9999 -9999 -9999 -9999 -9999 -9999 -9999 -9999 -9999 -9999 -9999 -9999 -9999 -9999 -9999 -9999 -9999 
-9999 -9999 -9999 -9999 -9999 -9999 -9999 -9999 1001 1001 1001 1001 -9999 -9999 -9999 -9999 -9999 -9999 -9999 -9999 -9999 -9999 -9999 -9999 -9999 -9999 -9999 -9999 -9999 -9999 1001 1001 -9999 -9999 -9999 -9999 -9999 -9999 1001 -9999 1001 -9999 -9999 -9999 1001 1001 1001 -9999 -9999 1001 1001 -9999 1001 1001 -9999 1001 -9999 -9999 -9999 501 -9999 -9999 -9999 -9999 -9999 -9999 501 501 -9999 501 501 501 1001 1001 -9999 -9999 501 -9999 -9999 501 -9999 -9999 -9999 -9999 -9999 501 501 501 -9999 501 501 -9999 501 -9999 -9999 501 -9999 -9999 -9999 -9999 -9999 -9999 -9999 -9999 -9999 -9999 -9999 -9999 -9999 -9999 -9999 -9999 -9999 -9999 -9999 -9999 -9999 -9999 -9999 -9999 -9999 -9999 -9999 -9999 -9999 -9999 -9999 
-9999 -9999 -9999 -9999 -9999 -9999 -9999 -9999 -9999 1001 -9999 -9999 1001 -9999 -9999 -9999 -9999 -9999 -9999 -9999 -9999 -9999 -9999 -9999 -9999 -9999 -9999 -9999 -9999 -9999 1001 1001 -9999 -9999 -9999 -9999 -9999 -9999 -9999 -9999 -9999 -9999 1001 1001 1001 -9999 1001 1001 -9999 -9999 -9999 1001 -9999 1001 -9999 1001 -9999 -9999 -9999 -9999 -9999 -9999 -9999 -9999 -9999 501 501 501 501 501 -9999 -9999 -9999 -9999 -9999 -9999 -9999 -9999 -9999 501 501 -9999 501 -9999 501 501 501 -9999 501 -9999 501 -9999 -9999 -9999 -9999 -9999 -9999 -9999 -9999 -9999 -9999 -9999 -9999 -9999 -9999 -9999 -9999 -9999 -9999 -9999 -9999 -9999 -9999 -9999 -9999 -9999 -9999 -9999 -9999 -9999 -9999 -9999 -9999 -9999 -9999 -9999 -9999 
-9999 -9999 -9999 -9999 -9999 -9999 -9999 -9999 -9999 -9999 -9999 -9999 -9999 -9999 -9999 -9999 -9999 -9999 -9999 -9999 -9999 -9999 -9999 -9999 -9999 -9999 -9999 -9999 -9999 1001 1001 1001 1001 1001 -9999 -9999 -9999 -9999 -9999 -9999 -9999 -9999 -9999 -9999 1001 -9999 1001 -9999 501 -9999 -9999 1001 -9999 -9999 -9999 -9999 -9999 -9999 -9999 -9999 -9999 -9999 -9999 -9999 -9999 -9999 501 -9999 -9999 501 -9999 -9999 501 -9999 501 -9999 -9999 -9999 501 -9999 -9999 501 501 501 501 501 501 501 501 501 501 -9999 501 501 501 -9999 -9999 -9999 -9999 -9999 -9999 501 -9999 -9999 -9999 -9999 -9999 -9999 -9999 -9999 -9999 -9999 -9999 -9999 -9999 -9999 -9999 -9999 -9999 -9999 -9999 -9999 -9999 -9999 -9999 -9999 -9999 
-9999 -9999 -9999 -9999 -9999 -9999 -9999 -9999 -9999 -9999 -9999 -9999 -9999 -9999 -9999 -9999 -9999 -9999 -9999 -9999 -9999 -9999 -9999 -9999 -9999 -9999 -9999 -9999 -9999 -9999 -9999 -9999 -9999 1001 1001 -9999 -9999 -9999 -9999 -9999 -9999 -9999 -9999 -9999 -9999 -9999 -9999 -9999 -9999 -9999 -9999 -9999 -9999 -9999 -9999 -9999 501 -9999 -9999 -9999 -9999 -9999 -9999 1001 -9999 -9999 501 501 501 -9999 -9999 501 501 -9999 -9999 -9999 -9999 -9999 -9999 501 501 501 501 -9999 501 -9999 501 -9999 501 501 501 501 -9999 -9999 -9999 501 -9999 -9999 -9999 -9999 501 -9999 -9999 -9999 -9999 -9999 -9999 -9999 -9999 -9999 -9999 -9999 -9999 -9999 -9999 -9999 -9999 -9999 -9999 -9999 -9999 -9999 -9999 -9999 -9999 -9999 -9999 
-9999 -9999 -9999 -9999 -9999 -9999 -9999 -9999 -9999 -9999 -9999 -9999 -9999 -9999 -9999 -9999 -9999 -9999 -9999 -9999 -9999 -9999 -9999 -9999 -9999 -9999 -9999 -9999 -9999 -9999 -9999 1001 -9999 1001 1001 -9999 -9999 -9999 -9999 -9999 -9999 -9999 -9999 -9999 -9999 -9999 501 -9999 501 501 -9999 -9999 -9999 -9999 -9999 -9999 -9999 1001 -9999 -9999 -9999 -9999 501 1001 -9999 1001 501 -9999 -9999 501 501 -9999 501 -9999 501 501 501 501 501 -9999 501 501 501 501 -9999 501 501 -9999 501 501 501 501 -9999 -9999 -9999 -9999 1001 -9999 -9999 -9999 -9999 -9999 -9999 -9999 -9999 -9999 -9999 -9999 -9999 -9999 -9999 -9999 -9999 -9999 -9999 -9999 -9999 -9999 -9999 -9999 -9999 -9999 -9999 -9999 -9999 -9999 -9999 
-9999 -9999 -9999 -9999 -9999 -9999 -9999 -9999 -9999 -9999 -9999 -9999 -9999 -9999 -9999 -9999 -9999 -9999 -9999 -9999 -9999 -9999 -9999 -9999 -9999 -9999 -9999 -9999 -9999 -9999 -9999 -9999 1001 -9999 1001 -9999 1001 1001 -9999 -9999 -9999 -9999 -9999 501 -9999 -9999 -9999 -9999 501 -9999 501 -9999 501 501 -9999 501 -9999 -9999 -9999 -9999 -9999 -9999 501 -9999 -9999 -9999 1001 501 501 501 501 501 1001 -9999 1001 -9999 501 501 501 501 501 -9999 501 501 -9999 501 501 501 -9999 501 501 501 -9999 -9999 -9999 -9999 -9999 -9999 -9999 -9999 -9999 -9999 -9999 -9999 -9999 -9999 -9999 -9999 -9999 -9999 -9999 -9999 -9999 -9999 -9999 -9999 -9999 -9999 -9999 -9999 -9999 -9999 -9999 -9999 -9999 -9999 -9999 
-9999 -9999 -9999 -9999 -9999 -9999 -9999 -9999 -9999 -9999 -9999 -9999 -9999 -9999 -9999 -9999 -9999 -9999 -9999 -9999 -9999 -9999 -9999 -9999 -9999 -9999 -9999 -9999 -9999 -9999 -9999 -9999 1001 -9999 -9999 1001 -9999 -9999 -9999 -9999 -9999 -9999 -9999 -9999 -9999 -9999 -9999 -9999 501 -9999 -9999 -9999 -9999 -9999 -9999 -9999 -9999 -9999 -9999 -9999 -9999 -9999 -9999 -9999 1001 1001 1001 1001 -9999 501 1001 -9999 -9999 -9999 -9999 501 501 501 501 501 501 -9999 -9999 501 -9999 501 -9999 -9999 -9999 -9999 -9999 501 1001 501 -9999 -9999 -9999 -9999 -9999 501 -9999 501 501 -9999 -9999 -9999 -9999 -9999 -9999 -9999 -9999 -9999 -9999 -9999 -9999 -9999 -9999 -9999 -9999 -9999 -9999 -9999 -9999 -9999 -9999 -9999 -9999 
-9999 -9999 -9999 -9999 -9999 -9999 -9999 -9999 -9999 -9999 -9999 -9999 -9999 -9999 -9999 -9999 -9999 -9999 -9999 -9999 -9999 -9999 -9999 -9999 -9999 -9999 -9999 -9999 -9999 -9999 -9999 -9999 -9999 -9999 1001 1001 1001 1001 -9999 1001 -9999 -9999 -9999 -9999 -9999 -9999 -9999 -9999 -9999 501 -9999 1001 -9999 -9999 -9999 -9999 -9999 -9999 -9999 -9999 -9999 -9999 -9999 -9999 1001 1001 1001 1001 501 -9999 501 1001 -9999 -9999 -9999 501 -9999 501 501 501 501 -9999 -9999 -9999 501 -9999 -9999 -9999 -9999 501 501 501 -9999 1001 -9999 -9999 -9999 -9999 -9999 501 -9999 -9999 -9999 1001 -9999 -9999 -9999 -9999 -9999 -9999 -9999 -9999 -9999 -9999 -9999 -9999 -9999 -9999 -9999 -9999 -9999 -9999 -9999 -9999 -9999 -9999 -9999 
-9999 -9999 -9999 -9999 -9999 -9999 -9999 -9999 -9999 -9999 -9999 -9999 -9999 -9999 -9999 -9999 -9999 -9999 -9999 -9999 -9999 -9999 -9999 -9999 -9999 -9999 -9999 -9999 -9999 -9999 -9999 -9999 -9999 -9999 -9999 1001 1001 1001 1001 -9999 -9999 -9999 -9999 -9999 -9999 -9999 -9999 -9999 501 -9999 -9999 -9999 -9999 -9999 -9999 -9999 -9999 -9999 -9999 501 -9999 -9999 -9999 -9999 1001 -9999 1001 -9999 501 501 -9999 501 1001 -9999 501 -9999 501 -9999 501 501 501 -9999 501 -9999 -9999 -9999 -9999 -9999 501 501 -9999 501 -9999 -9999 -9999 -9999 -9999 -9999 -9999 -9999 -9999 501 -9999 -9999 -9999 -9999 -9999 -9999 -9999 -9999 -9999 -9999 -9999 -9999 -9999 -9999 -9999 -9999 -9999 -9999 -9999 -9999 -9999 -9999 -9999 -9999 -9999 
-9999 -9999 -9999 -9999 -9999 -9999 -9999 -9999 -9999 -9999 -9999 -9999 -9999 -9999 -9999 -9999 -9999 -9999 -9999 -9999 -9999 -9999 -9999 -9999 -9999 -9999 -9999 -9999 -9999 -9999 -9999 -9999 -9999 -9999 1001 -9999 1001 1001 1001 -9999 -9999 -9999 1001 -9999 1001 -9999 -9999 -9999 -9999 -9999 -9999 -9999 -9999 -9999 -9999 -9999 -9999 -9999 -9999 -9999 -9999 -9999 -9999 -9999 -9999 -9999 -9999 501 501 501 1001 1001 -9999 -9999 501 -9999 -9999 501 501 -9999 -9999 -9999 501 -9999 -9999 -9999 501 501 501 501 501 -9999 -9999 1001 1001 -9999 1001 -9999 -9999 -9999 -9999 501 -9999 -9999 -9999 -9999 1001 -9999 -9999 -9999 -9999 -9999 -9999 -9999 -9999 -9999 -9999 -9999 -9999 -9999 -9999 -9999 -9999 -9999 -9999 -9999 -9999 
-9999 -9999 -9999 -9999 -9999 -9999 -9999 -9999 -9999 -9999 -9999 -9999 -9999 -9999 -9999 -9999 -9999 -9999 -9999 -9999 -9999 -9999 -9999 -9999 -9999 -9999 -9999 -9999 -9999 -9999 -9999 -9999 -9999 -9999 -9999 -9999 -9999 1001 -9999 -9999 -9999 -9999 1001 1001 1001 1001 1001 -9999 -9999 -9999 -9999 -9999 -9999 -9999 -9999 501 -9999 -9999 -9999 -9999 -9999 -9999 -9999 -9999 -9999 -9999 -9999 -9999 1001 1001 -9999 -9999 1001 1001 501 501 501 -9999 501 -9999 -9999 501 501 501 501 -9999 -9999 501 501 501 -9999 -9999 -9999 1001 -9999 -9999 1001 501 501 -9999 -9999 -9999 501 -9999 -9999 1001 1001 -9999 -9999 -9999 -9999 -9999 -9999 -9999 -9999 -9999 -9999 -9999 -9999 -9999 -9999 -9999 -9999 -9999 -9999 -9999 -9999 
-9999 -9999 -9999 -9999 -9999 -9999 -9999 -9999 -9999 -9999 -9999 -9999 -9999 -9999 -9999 -9999 -9999 -9999 -9999 -9999 -9999 -9999 -9999 -9999 -9999 -9999 -9999 -9999 -9999 -9999 -9999 -9999 -9999 -9999 -9999 -9999 1001 -9999 1001 1001 -9999 -9999 -9999 -9999 -9999 -9999 -9999 -9999 -9999 -9999 -9999 -9999 -9999 1001 -9999 -9999 -9999 1001 -9999 -9999 -9999 -9999 -9999 -9999 -9999 -9999 -9999 -9999 -9999 1001 -9999 -9999 1001 -9999 -9999 501 501 501 501 -9999 -9999 -9999 -9999 501 -9999 -9999 501 501 501 -9999 -9999 1001 1001 1001 1001 1001 -9999 1001 -9999 501 -9999 -9999 -9999 -9999 -9999 1001 1001 -9999 -9999 -9999 -9999 -9999 -9999 -9999 -9999 -9999 -9999 -9999 -9999 -9999 -9999 -9999 -9999 -9999 -9999 -9999 -9999 
-9999 -9999 -9999 -9999 -9999 -9999 -9999 -9999 -9999 -9999 -9999 -9999 -9999 -9999 -9999 -9999 -9999 -9999 -9999 -9999 -9999 -9999 -9999 -9999 -9999 -9999 -9999 -9999 -9999 -9999 -9999 -9999 -9999 -9999 -9999 -9999 -9999 -9999 -9999 -9999 -9999 -9999 -9999 -9999 -9999 -9999 -9999 -9999 -9999 -9999 -9999 -9999 -9999 1001 -9999 -9999 -9999 -9999 -9999 -9999 -9999 -9999 -9999 -9999 -9999 -9999 -9999 -9999 501 -9999 501 501 501 501 -9999 -9999 -9999 -9999 -9999 -9999 -9999 -9999 501 -9999 1001 501 -9999 1001 -9999 -9999 -9999 1001 1001 1001 1001 1001 501 501 1001 501 501 501 -9999 -9999 1001 1001 1001 -9999 -9999 -9999 -9999 -9999 -9999 -9999 -9999 -9999 -9999 -9999 -9999 -9999 -9999 -9999 -9999 -9999 -9999 -9999 -9999 
-9999 -9999 -9999 -9999 -9999 -9999 -9999 -9999 -9999 -9999 -9999 -9999 -9999 -9999 -9999 -9999 -9999 -9999 -9999 -9999 -9999 -9999 -9999 -9999 -9999 -9999 -9999 -9999 -9999 -9999 -9999 -9999 -9999 -9999 -9999 -9999 -9999 -9999 -9999 -9999 -9999 -9999 -9999 -9999 -9999 -9999 -9999 -9999 -9999 -9999 -9999 -9999 -9999 1001 -9999 -9999 -9999 -9999 -9999 -9999 -9999 -9999 -9999 -9999 -9999 -9999 -9999 -9999 -9999 -9999 -9999 501 -9999 -9999 -9999 1001 1001 1001 -9999 -9999 -9999 -9999 -9999 -9999 -9999 -9999 -9999 -9999 -9999 -9999 1001 1001 1001 1001 1001 1001 501 501 -9999 1001 -9999 501 -9999 1001 1001 -9999 -9999 -9999 -9999 -9999 -9999 -9999 -9999 -9999 -9999 -9999 -9999 -9999 -9999 -9999 -9999 -9999 -9999 -9999 -9999 -9999 -9999 
-9999 -9999 -9999 -9999 -9999 -9999 -9999 -9999 -9999 -9999 -9999 -9999 -9999 -9999 -9999 -9999 -9999 -9999 -9999 -9999 -9999 -9999 -9999 -9999 -9999 -9999 -9999 -9999 -9999 -9999 -9999 -9999 -9999 -9999 -9999 -9999 -9999 -9999 -9999 -9999 -9999 -9999 -9999 -9999 -9999 -9999 -9999 -9999 -9999 -9999 -9999 -9999 -9999 -9999 -9999 -9999 -9999 -9999 -9999 -9999 -9999 -9999 -9999 501 -9999 -9999 -9999 -9999 -9999 1001 1001 1001 -9999 -9999 -9999 1001 -9999 -9999 -9999 -9999 -9999 -9999 -9999 501 -9999 -9999 1001 1001 -9999 -9999 1001 1001 -9999 1001 1001 1001 1001 501 501 501 -9999 501 501 -9999 -9999 -9999 -9999 -9999 -9999 -9999 -9999 -9999 -9999 -9999 -9999 -9999 -9999 -9999 -9999 -9999 -9999 -9999 -9999 -9999 -9999 -9999 -9999 
-9999 -9999 -9999 -9999 -9999 -9999 -9999 -9999 -9999 -9999 -9999 -9999 -9999 -9999 -9999 -9999 -9999 -9999 -9999 -9999 -9999 -9999 -9999 -9999 -9999 -9999 -9999 -9999 -9999 -9999 -9999 -9999 -9999 -9999 -9999 -9999 -9999 -9999 -9999 -9999 -9999 -9999 -9999 -9999 -9999 -9999 -9999 -9999 -9999 -9999 -9999 -9999 -9999 -9999 -9999 -9999 -9999 -9999 -9999 -9999 -9999 -9999 -9999 -9999 -9999 -9999 -9999 -9999 -9999 1001 -9999 -9999 -9999 -9999 1001 1001 1001 1001 -9999 1001 -9999 -9999 -9999 501 501 501 -9999 -9999 1001 -9999 1001 1001 1001 1001 1001 1001 1001 1001 -9999 501 501 501 -9999 -9999 -9999 -9999 501 -9999 501 -9999 -9999 -9999 -9999 -9999 -9999 -9999 -9999 -9999 -9999 -9999 -9999 -9999 -9999 -9999 -9999 -9999 -9999 
-9999 -9999 -9999 -9999 -9999 -9999 -9999 -9999 -9999 -9999 -9999 -9999 -9999 -9999 -9999 -9999 -9999 -9999 -9999 -9999 -9999 -9999 -9999 -9999 -9999 -9999 -9999 -9999 -9999 -9999 -9999 -9999 -9999 -9999 -9999 -9999 -9999 -9999 -9999 -9999 -9999 -9999 -9999 -9999 -9999 -9999 -9999 -9999 -9999 -9999 -9999 -9999 -9999 -9999 -9999 -9999 -9999 -9999 -9999 -9999 -9999 -9999 -9999 -9999 1001 -9999 -9999 -9999 -9999 -9999 1001 1001 -9999 -9999 -9999 1001 -9999 -9999 -9999 1001 -9999 1001 -9999 501 501 -9999 -9999 1001 1001 -9999 1001 -9999 -9999 1001 1001 -9999 -9999 1001 1001 -9999 1001 1001 -9999 -9999 -9999 -9999 -9999 501 501 501 -9999 -9999 -9999 -9999 -9999 -9999 -9999 -9999 -9999 -9999 -9999 -9999 -9999 -9999 -9999 -9999 -9999 
-9999 -9999 -9999 -9999 -9999 -9999 -9999 -9999 -9999 -9999 -9999 -9999 -9999 -9999 -9999 -9999 -9999 -9999 -9999 -9999 -9999 -9999 -9999 -9999 -9999 -9999 -9999 -9999 -9999 -9999 -9999 -9999 -9999 -9999 -9999 -9999 -9999 -9999 -9999 -9999 -9999 -9999 -9999 -9999 -9999 -9999 -9999 -9999 -9999 -9999 -9999 -9999 -9999 -9999 -9999 -9999 -9999 -9999 -9999 -9999 -9999 -9999 -9999 -9999 -9999 -9999 1001 1001 -9999 -9999 -9999 -9999 -9999 1001 -9999 1001 -9999 -9999 -9999 -9999 -9999 -9999 501 501 501 501 -9999 1001 -9999 -9999 1001 1001 1001 1001 -9999 -9999 1001 1001 1001 1001 1001 1001 -9999 1001 1001 1001 501 501 501 -9999 -9999 -9999 -9999 501 -9999 -9999 -9999 -9999 -9999 -9999 -9999 -9999 -9999 -9999 -9999 -9999 -9999 
-9999 -9999 -9999 -9999 -9999 -9999 -9999 -9999 -9999 -9999 -9999 -9999 -9999 -9999 -9999 -9999 -9999 -9999 -9999 -9999 -9999 -9999 -9999 -9999 -9999 -9999 -9999 -9999 -9999 -9999 -9999 -9999 -9999 -9999 -9999 -9999 -9999 -9999 -9999 -9999 -9999 -9999 -9999 -9999 -9999 -9999 -9999 -9999 -9999 -9999 -9999 -9999 -9999 -9999 -9999 -9999 -9999 -9999 -9999 -9999 -9999 -9999 -9999 -9999 -9999 -9999 1001 1001 -9999 -9999 -9999 -9999 -9999 1001 1001 1001 1001 -9999 -9999 -9999 -9999 -9999 501 501 501 501 -9999 -9999 -9999 1001 1001 1001 1001 -9999 1001 1001 1001 1001 1001 -9999 -9999 -9999 1001 1001 -9999 -9999 -9999 -9999 -9999 -9999 -9999 -9999 -9999 -9999 -9999 -9999 -9999 -9999 -9999 -9999 -9999 -9999 -9999 -9999 -9999 -9999 -9999 
-9999 -9999 -9999 -9999 -9999 -9999 -9999 -9999 -9999 -9999 -9999 -9999 -9999 -9999 -9999 -9999 -9999 -9999 -9999 -9999 -9999 -9999 -9999 -9999 -9999 -9999 -9999 -9999 -9999 -9999 -9999 -9999 -9999 -9999 -9999 -9999 -9999 -9999 -9999 -9999 -9999 -9999 -9999 -9999 -9999 -9999 -9999 -9999 -9999 -9999 -9999 -9999 -9999 -9999 -9999 -9999 -9999 -9999 -9999 -9999 -9999 -9999 -9999 -9999 -9999 -9999 -9999 -9999 -9999 -9999 -9999 -9999 -9999 -9999 -9999 1001 1001 -9999 -9999 -9999 -9999 1001 501 501 501 -9999 -9999 1001 -9999 1001 1001 1001 1001 -9999 1001 1001 -9999 1001 1001 1001 -9999 -9999 -9999 1001 -9999 -9999 501 -9999 -9999 -9999 -9999 501 -9999 -9999 -9999 -9999 -9999 -9999 -9999 -9999 1001 -9999 -9999 -9999 -9999 -9999 -9999 
-9999 -9999 -9999 -9999 -9999 -9999 -9999 -9999 -9999 -9999 -9999 -9999 -9999 -9999 -9999 -9999 -9999 -9999 -9999 -9999 -9999 -9999 -9999 -9999 -9999 -9999 -9999 -9999 -9999 -9999 -9999 -9999 -9999 -9999 -9999 -9999 -9999 -9999 -9999 -9999 -9999 -9999 -9999 -9999 -9999 -9999 -9999 -9999 -9999 -9999 -9999 -9999 -9999 -9999 -9999 -9999 -9999 -9999 -9999 -9999 -9999 -9999 -9999 -9999 -9999 -9999 -9999 -9999 -9999 -9999 -9999 -9999 -9999 -9999 -9999 -9999 -9999 1001 1001 -9999 -9999 1001 -9999 -9999 501 -9999 -9999 -9999 -9999 -9999 1001 1001 1001 1001 1001 -9999 -9999 1001 1001 1001 1001 -9999 1001 1001 -9999 -9999 -9999 -9999 -9999 -9999 -9999 1001 -9999 -9999 1001 -9999 -9999 -9999 -9999 -9999 1001 -9999 -9999 -9999 -9999 -9999 -9999 
-9999 -9999 -9999 -9999 -9999 -9999 -9999 -9999 -9999 -9999 -9999 -9999 -9999 -9999 -9999 -9999 -9999 -9999 -9999 -9999 -9999 -9999 -9999 -9999 -9999 -9999 -9999 -9999 -9999 -9999 -9999 -9999 -9999 -9999 -9999 -9999 -9999 -9999 -9999 -9999 -9999 -9999 -9999 -9999 -9999 -9999 -9999 -9999 -9999 -9999 -9999 -9999 -9999 -9999 -9999 -9999 -9999 -9999 -9999 -9999 -9999 -9999 -9999 -9999 -9999 -9999 -9999 -9999 -9999 -9999 -9999 -9999 -9999 -9999 1001 -9999 -9999 -9999 -9999 1001 -9999 -9999 -9999 -9999 -9999 -9999 -9999 -9999 1001 1001 1001 1001 -9999 1001 1001 -9999 1001 -9999 1001 501 -9999 -9999 -9999 -9999 -9999 1001 -9999 -9999 -9999 -9999 -9999 -9999 -9999 1001 -9999 -9999 -9999 -9999 -9999 -9999 -9999 1001 -9999 -9999 -9999 -9999 -9999 
-9999 -9999 -9999 -9999 -9999 -9999 -9999 -9999 -9999 -9999 -9999 -9999 -9999 -9999 -9999 -9999 -9999 -9999 -9999 -9999 -9999 -9999 -9999 -9999 -9999 -9999 -9999 -9999 -9999 -9999 -9999 -9999 -9999 -9999 -9999 -9999 -9999 -9999 -9999 -9999 -9999 -9999 -9999 -9999 -9999 -9999 -9999 -9999 -9999 -9999 -9999 -9999 -9999 -9999 -9999 -9999 -9999 -9999 -9999 -9999 -9999 -9999 -9999 -9999 -9999 -9999 -9999 -9999 -9999 -9999 -9999 -9999 -9999 -9999 1001 1001 -9999 -9999 -9999 -9999 1001 -9999 -9999 1001 -9999 -9999 -9999 -9999 -9999 -9999 1001 1001 -9999 -9999 1001 -9999 1001 -9999 -9999 1001 -9999 1001 -9999 -9999 1001 -9999 1001 1001 1001 -9999 -9999 -9999 -9999 -9999 -9999 1001 -9999 -9999 -9999 -9999 1001 1001 -9999 -9999 -9999 -9999 -9999 
-9999 -9999 -9999 -9999 -9999 -9999 -9999 -9999 -9999 -9999 -9999 -9999 -9999 -9999 -9999 -9999 -9999 -9999 -9999 -9999 -9999 -9999 -9999 -9999 -9999 -9999 -9999 -9999 -9999 -9999 -9999 -9999 -9999 -9999 -9999 -9999 -9999 -9999 -9999 -9999 -9999 -9999 -9999 -9999 -9999 -9999 -9999 -9999 -9999 -9999 -9999 -9999 -9999 -9999 -9999 -9999 -9999 -9999 -9999 -9999 -9999 -9999 -9999 -9999 -9999 -9999 -9999 -9999 -9999 -9999 -9999 -9999 -9999 -9999 -9999 -9999 1001 -9999 1001 -9999 -9999 -9999 -9999 -9999 -9999 -9999 -9999 -9999 1001 -9999 1001 -9999 1001 -9999 1001 -9999 1001 1001 -9999 1001 1001 1001 1001 1001 1001 1001 1001 1001 -9999 -9999 -9999 -9999 -9999 -9999 -9999 -9999 -9999 -9999 -9999 -9999 -9999 -9999 1001 1001 -9999 -9999 -9999 
-9999 -9999 -9999 -9999 -9999 -9999 -9999 -9999 -9999 -9999 -9999 -9999 -9999 -9999 -9999 -9999 -9999 -9999 -9999 -9999 -9999 -9999 -9999 -9999 -9999 -9999 -9999 -9999 -9999 -9999 -9999 -9999 -9999 -9999 -9999 -9999 -9999 -9999 -9999 -9999 -9999 -9999 -9999 -9999 -9999 -9999 -9999 -9999 -9999 -9999 -9999 -9999 -9999 -9999 -9999 -9999 -9999 -9999 -9999 -9999 -9999 -9999 -9999 -9999 -9999 -9999 -9999 -9999 -9999 -9999 -9999 -9999 -9999 -9999 -9999 -9999 -9999 -9999 1001 1001 -9999 -9999 -9999 -9999 -9999 -9999 -9999 -9999 -9999 1001 -9999 1001 -9999 -9999 1001 -9999 -9999 1001 1001 1001 1001 1001 1001 -9999 1001 -9999 -9999 1001 1001 -9999 -9999 -9999 -9999 -9999 -9999 -9999 -9999 -9999 -9999 -9999 -9999 -9999 -9999 -9999 -9999 -9999 -9999 
-9999 -9999 -9999 -9999 -9999 -9999 -9999 -9999 -9999 -9999 -9999 -9999 -9999 -9999 -9999 -9999 -9999 -9999 -9999 -9999 -9999 -9999 -9999 -9999 -9999 -9999 -9999 -9999 -9999 -9999 -9999 -9999 -9999 -9999 -9999 -9999 -9999 -9999 -9999 -9999 -9999 -9999 -9999 -9999 -9999 -9999 -9999 -9999 -9999 -9999 -9999 -9999 -9999 -9999 -9999 -9999 -9999 -9999 -9999 -9999 -9999 -9999 -9999 -9999 -9999 -9999 -9999 -9999 -9999 -9999 -9999 -9999 -9999 -9999 -9999 -9999 -9999 -9999 1001 1001 -9999 -9999 -9999 -9999 -9999 -9999 -9999 501 501 501 -9999 1001 -9999 -9999 1001 1001 1001 1001 1001 1001 1001 1001 1001 -9999 501 501 501 1001 -9999 -9999 -9999 -9999 -9999 -9999 -9999 501 -9999 501 -9999 -9999 -9999 -9999 -9999 -9999 -9999 -9999 -9999 
-9999 -9999 -9999 -9999 -9999 -9999 -9999 -9999 -9999 -9999 -9999 -9999 -9999 -9999 -9999 -9999 -9999 -9999 -9999 -9999 -9999 -9999 -9999 -9999 -9999 -9999 -9999 -9999 -9999 -9999 -9999 -9999 -9999 -9999 -9999 -9999 -9999 -9999 -9999 -9999 -9999 -9999 -9999 -9999 -9999 -9999 -9999 -9999 -9999 -9999 -9999 -9999 -9999 -9999 -9999 -9999 -9999 -9999 -9999 -9999 -9999 -9999 -9999 -9999 -9999 -9999 -9999 -9999 -9999 -9999 -9999 -9999 -9999 -9999 -9999 -9999 -9999 -9999 -9999 1001 1001 -9999 -9999 -9999 1001 -9999 501 501 501 501 1001 1001 1001 1001 1001 -9999 1001 1001 1001 1001 1001 1001 -9999 -9999 501 501 501 -9999 -9999 -9999 -9999 501 -9999 501 -9999 501 -9999 501 -9999 -9999 -9999 -9999 -9999 -9999 -9999 -9999 -9999 
-9999 -9999 -9999 -9999 -9999 -9999 -9999 -9999 -9999 -9999 -9999 -9999 -9999 -9999 -9999 -9999 -9999 -9999 -9999 -9999 -9999 -9999 -9999 -9999 -9999 -9999 -9999 -9999 -9999 -9999 -9999 -9999 -9999 -9999 -9999 -9999 -9999 -9999 -9999 -9999 -9999 -9999 -9999 -9999 -9999 -9999 -9999 -9999 -9999 -9999 -9999 -9999 -9999 -9999 -9999 -9999 -9999 -9999 -9999 -9999 -9999 -9999 -9999 -9999 -9999 -9999 -9999 -9999 -9999 -9999 -9999 -9999 -9999 -9999 -9999 -9999 -9999 -9999 -9999 -9999 1001 -9999 -9999 -9999 -9999 -9999 -9999 -9999 501 1001 1001 -9999 1001 -9999 1001 -9999 1001 1001 -9999 501 -9999 -9999 -9999 -9999 -9999 -9999 501 501 -9999 -9999 -9999 -9999 -9999 -9999 -9999 501 -9999 -9999 -9999 -9999 -9999 -9999 -9999 -9999 -9999 -9999 -9999 
-9999 -9999 -9999 -9999 -9999 -9999 -9999 -9999 -9999 -9999 -9999 -9999 -9999 -9999 -9999 -9999 -9999 -9999 -9999 -9999 -9999 -9999 -9999 -9999 -9999 -9999 -9999 -9999 -9999 -9999 -9999 -9999 -9999 -9999 -9999 -9999 -9999 -9999 -9999 -9999 -9999 -9999 -9999 -9999 -9999 -9999 -9999 -9999 -9999 -9999 -9999 -9999 -9999 -9999 -9999 -9999 -9999 -9999 -9999 -9999 -9999 -9999 -9999 -9999 -9999 -9999 -9999 -9999 -9999 -9999 -9999 -9999 -9999 -9999 -9999 -9999 -9999 -9999 -9999 -9999 1001 1001 -9999 -9999 -9999 -9999 -9999 -9999 -9999 -9999 -9999 -9999 -9999 -9999 -9999 1001 -9999 -9999 -9999 501 501 -9999 501 -9999 501 -9999 501 -9999 -9999 -9999 -9999 -9999 -9999 -9999 -9999 -9999 -9999 -9999 -9999 -9999 -9999 -9999 -9999 -9999 -9999 -9999 -9999 
-9999 -9999 -9999 -9999 -9999 -9999 -9999 -9999 -9999 -9999 -9999 -9999 -9999 -9999 -9999 -9999 -9999 -9999 -9999 -9999 -9999 -9999 -9999 -9999 -9999 -9999 -9999 -9999 -9999 -9999 -9999 -9999 -9999 -9999 -9999 -9999 -9999 -9999 -9999 -9999 -9999 -9999 -9999 -9999 -9999 -9999 -9999 -9999 -9999 -9999 -9999 -9999 -9999 -9999 -9999 -9999 -9999 -9999 -9999 -9999 -9999 -9999 -9999 -9999 -9999 -9999 -9999 -9999 -9999 -9999 -9999 -9999 -9999 -9999 -9999 -9999 -9999 -9999 -9999 -9999 -9999 1001 -9999 1001 -9999 -9999 -9999 1001 1001 -9999 -9999 1001 1001 1001 -9999 -9999 -9999 -9999 -9999 -9999 -9999 -9999 -9999 -9999 -9999 -9999 -9999 -9999 -9999 -9999 -9999 1001 -9999 -9999 -9999 -9999 -9999 -9999 -9999 -9999 -9999 -9999 -9999 -9999 -9999 -9999 -9999 
-9999 -9999 -9999 -9999 -9999 -9999 -9999 -9999 -9999 -9999 -9999 -9999 -9999 -9999 -9999 -9999 -9999 -9999 -9999 -9999 -9999 -9999 -9999 -9999 -9999 -9999 -9999 -9999 -9999 -9999 -9999 -9999 -9999 -9999 -9999 -9999 -9999 -9999 -9999 -9999 -9999 -9999 -9999 -9999 -9999 -9999 -9999 -9999 -9999 -9999 -9999 -9999 -9999 -9999 -9999 -9999 -9999 -9999 -9999 -9999 -9999 -9999 -9999 -9999 -9999 -9999 -9999 -9999 -9999 -9999 -9999 -9999 -9999 -9999 -9999 -9999 -9999 -9999 -9999 -9999 -9999 1001 -9999 1001 1001 1001 -9999 -9999 -9999 1001 1001 1001 1001 1001 1001 1001 1001 1001 1001 1001 -9999 1001 -9999 -9999 -9999 -9999 -9999 -9999 -9999 -9999 -9999 -9999 -9999 -9999 -9999 -9999 -9999 -9999 -9999 -9999 -9999 -9999 -9999 -9999 -9999 -9999 -9999 
-9999 -9999 -9999 -9999 -9999 -9999 -9999 -9999 -9999 -9999 -9999 -9999 -9999 -9999 -9999 -9999 -9999 -9999 -9999 -9999 -9999 -9999 -9999 -9999 -9999 -9999 -9999 -9999 -9999 -9999 -9999 -9999 -9999 -9999 -9999 -9999 -9999 -9999 -9999 -9999 -9999 -9999 -9999 -9999 -9999 -9999 -9999 -9999 -9999 -9999 -9999 -9999 -9999 -9999 -9999 -9999 -9999 -9999 -9999 -9999 -9999 -9999 -9999 -9999 -9999 -9999 -9999 -9999 -9999 -9999 -9999 -9999 -9999 -9999 -9999 -9999 -9999 -9999 -9999 -9999 -9999 1001 1001 -9999 1001 1001 -9999 -9999 -9999 -9999 1001 -9999 1001 1001 1001 1001 1001 1001 1001 1001 1001 -9999 -9999 -9999 -9999 -9999 -9999 -9999 -9999 1001 1001 -9999 -9999 1001 1001 -9999 -9999 -9999 -9999 -9999 -9999 -9999 -9999 -9999 -9999 -9999 -9999 
-9999 -9999 -9999 -9999 -9999 -9999 -9999 -9999 -9999 -9999 -9999 -9999 -9999 -9999 -9999 -9999 -9999 -9999 -9999 -9999 -9999 -9999 -9999 -9999 -9999 -9999 -9999 -9999 -9999 -9999 -9999 -9999 -9999 -9999 -9999 -9999 -9999 -9999 -9999 -9999 -9999 -9999 -9999 -9999 -9999 -9999 -9999 -9999 -9999 -9999 -9999 -9999 -9999 -9999 -9999 -9999 -9999 -9999 -9999 -9999 -9999 -9999 -9999 -9999 -9999 -9999 -9999 -9999 -9999 -9999 -9999 -9999 -9999 -9999 -9999 -9999 -9999 -9999 -9999 -9999 1001 1001 -9999 -9999 1001 1001 -9999 -9999 -9999 -9999 -9999 -9999 -9999 -9999 -9999 -9999 1001 -9999 1001 1001 1001 -9999 -9999 -9999 -9999 -9999 -9999 -9999 -9999 -9999 1001 -9999 -9999 -9999 -9999 -9999 -9999 -9999 -9999 -9999 -9999 -9999 -9999 -9999 -9999 -9999 -9999 
-9999 -9999 -9999 -9999 -9999 -9999 -9999 -9999 -9999 -9999 -9999 -9999 -9999 -9999 -9999 -9999 -9999 -9999 -9999 -9999 -9999 -9999 -9999 -9999 -9999 -9999 -9999 -9999 -9999 -9999 -9999 -9999 -9999 -9999 -9999 -9999 -9999 -9999 -9999 -9999 -9999 -9999 -9999 -9999 -9999 -9999 -9999 -9999 -9999 -9999 -9999 -9999 -9999 -9999 -9999 -9999 -9999 -9999 -9999 -9999 -9999 -9999 -9999 -9999 -9999 -9999 -9999 -9999 -9999 -9999 -9999 -9999 -9999 -9999 -9999 -9999 -9999 -9999 -9999 -9999 -9999 -9999 1001 1001 -9999 1001 1001 -9999 -9999 -9999 1001 -9999 -9999 -9999 1001 -9999 1001 1001 -9999 1001 -9999 -9999 -9999 -9999 -9999 -9999 -9999 -9999 -9999 -9999 -9999 -9999 -9999 -9999 -9999 -9999 -9999 -9999 -9999 -9999 -9999 -9999 -9999 -9999 -9999 -9999 -9999 
-9999 -9999 -9999 -9999 -9999 -9999 -9999 -9999 -9999 -9999 -9999 -9999 -9999 -9999 -9999 -9999 -9999 -9999 -9999 -9999 -9999 -9999 -9999 -9999 -9999 -9999 -9999 -9999 -9999 -9999 -9999 -9999 -9999 -9999 -9999 -9999 -9999 -9999 -9999 -9999 -9999 -9999 -9999 -9999 -9999 -9999 -9999 -9999 -9999 -9999 -9999 -9999 -9999 -9999 -9999 -9999 -9999 -9999 -9999 -9999 -9999 -9999 -9999 -9999 -9999 -9999 -9999 -9999 -9999 -9999 -9999 -9999 -9999 -9999 -9999 -9999 -9999 -9999 -9999 -9999 -9999 1001 1001 1001 1001 -9999 -9999 -9999 -9999 -9999 -9999 1001 -9999 1001 1001 -9999 1001 1001 1001 1001 1001 1001 1001 -9999 -9999 -9999 -9999 -9999 -9999 -9999 -9999 -9999 -9999 -9999 -9999 -9999 -9999 -9999 -9999 -9999 -9999 -9999 -9999 -9999 -9999 -9999 -9999 
-9999 -9999 -9999 -9999 -9999 -9999 -9999 -9999 -9999 -9999 -9999 -9999 -9999 -9999 -9999 -9999 -9999 -9999 -9999 -9999 -9999 -9999 -9999 -9999 -9999 -9999 -9999 -9999 -9999 -9999 -9999 -9999 -9999 -9999 -9999 -9999 -9999 -9999 -9999 -9999 -9999 -9999 -9999 -9999 -9999 -9999 -9999 -9999 -9999 -9999 -9999 -9999 -9999 -9999 -9999 -9999 -9999 -9999 -9999 -9999 -9999 -9999 -9999 -9999 -9999 -9999 -9999 -9999 -9999 -9999 -9999 -9999 -9999 -9999 -9999 -9999 -9999 -9999 -9999 -9999 1001 -9999 1001 1001 1001 1001 -9999 -9999 -9999 -9999 -9999 1001 -9999 1001 1001 -9999 1001 1001 1001 1001 1001 1001 1001 1001 -9999 -9999 -9999 -9999 -9999 -9999 -9999 -9999 -9999 -9999 -9999 -9999 -9999 -9999 -9999 -9999 -9999 -9999 -9999 -9999 -9999 -9999 -9999 
-9999 -9999 -9999 -9999 -9999 -9999 -9999 -9999 -9999 -9999 -9999 -9999 -9999 -9999 -9999 -9999 -9999 -9999 -9999 -9999 -9999 -9999 -9999 -9999 -9999 -9999 -9999 -9999 -9999 -9999 -9999 -9999 -9999 -9999 -9999 -9999 -9999 -9999 -9999 -9999 -9999 -9999 -9999 -9999 -9999 -9999 -9999 -9999 -9999 -9999 -9999 -9999 -9999 -9999 -9999 -9999 -9999 -9999 -9999 -9999 -9999 -9999 -9999 -9999 -9999 -9999 -9999 -9999 -9999 -9999 -9999 -9999 -9999 -9999 -9999 -9999 -9999 -9999 -9999 -9999 -9999 -9999 1001 -9999 1001 -9999 1001 -9999 -9999 -9999 -9999 -9999 -9999 -9999 -9999 1001 -9999 1001 1001 1001 1001 1001 -9999 -9999 1001 -9999 -9999 -9999 -9999 -9999 -9999 -9999 -9999 -9999 -9999 -9999 -9999 -9999 -9999 -9999 -9999 -9999 -9999 -9999 -9999 -9999 -9999 
-9999 -9999 -9999 -9999 -9999 -9999 -9999 -9999 -9999 -9999 -9999 -9999 -9999 -9999 -9999 -9999 -9999 -9999 -9999 -9999 -9999 -9999 -9999 -9999 -9999 -9999 -9999 -9999 -9999 -9999 -9999 -9999 -9999 -9999 -9999 -9999 -9999 -9999 -9999 -9999 -9999 -9999 -9999 -9999 -9999 -9999 -9999 -9999 -9999 -9999 -9999 -9999 -9999 -9999 -9999 -9999 -9999 -9999 -9999 -9999 -9999 -9999 -9999 -9999 -9999 -9999 -9999 -9999 -9999 -9999 -9999 -9999 -9999 -9999 -9999 -9999 -9999 -9999 -9999 -9999 -9999 -9999 -9999 -9999 -9999 -9999 -9999 -9999 -9999 -9999 -9999 -9999 -9999 -9999 1001 1001 1001 1001 1001 1001 1001 1001 -9999 -9999 1001 1001 1001 1001 -9999 -9999 -9999 -9999 -9999 -9999 -9999 -9999 -9999 -9999 -9999 -9999 -9999 -9999 -9999 -9999 -9999 -9999 -9999 
-9999 -9999 -9999 -9999 -9999 -9999 -9999 -9999 -9999 -9999 -9999 -9999 -9999 -9999 -9999 -9999 -9999 -9999 -9999 -9999 -9999 -9999 -9999 -9999 -9999 -9999 -9999 -9999 -9999 -9999 -9999 -9999 -9999 -9999 -9999 -9999 -9999 -9999 -9999 -9999 -9999 -9999 -9999 -9999 -9999 -9999 -9999 -9999 -9999 -9999 -9999 -9999 -9999 -9999 -9999 -9999 -9999 -9999 -9999 -9999 -9999 -9999 -9999 -9999 -9999 -9999 -9999 -9999 -9999 -9999 -9999 -9999 -9999 -9999 -9999 -9999 -9999 -9999 -9999 -9999 -9999 -9999 -9999 -9999 -9999 -9999 -9999 -9999 -9999 -9999 -9999 -9999 -9999 -9999 1001 1001 1001 1001 1001 1001 1001 1001 1001 1001 -9999 1001 1001 -9999 -9999 -9999 -9999 -9999 -9999 -9999 -9999 -9999 -9999 -9999 -9999 -9999 -9999 -9999 -9999 -9999 -9999 -9999 -9999 
-9999 -9999 -9999 -9999 -9999 -9999 -9999 -9999 -9999 -9999 -9999 -9999 -9999 -9999 -9999 -9999 -9999 -9999 -9999 -9999 -9999 -9999 -9999 -9999 -9999 -9999 -9999 -9999 -9999 -9999 -9999 -9999 -9999 -9999 -9999 -9999 -9999 -9999 -9999 -9999 -9999 -9999 -9999 -9999 -9999 -9999 -9999 -9999 -9999 -9999 -9999 -9999 -9999 -9999 -9999 -9999 -9999 -9999 -9999 -9999 -9999 -9999 -9999 -9999 -9999 -9999 -9999 -9999 -9999 -9999 -9999 -9999 -9999 -9999 -9999 -9999 -9999 -9999 -9999 -9999 -9999 -9999 -9999 -9999 -9999 -9999 -9999 -9999 -9999 -9999 -9999 -9999 -9999 -9999 -9999 -9999 1001 -9999 1001 1001 1001 1001 -9999 1001 -9999 -9999 -9999 -9999 -9999 -9999 -9999 -9999 -9999 -9999 -9999 -9999 -9999 -9999 -9999 -9999 -9999 -9999 -9999 -9999 -9999 -9999 -9999 
-9999 -9999 -9999 -9999 -9999 -9999 -9999 -9999 -9999 -9999 -9999 -9999 -9999 -9999 -9999 -9999 -9999 -9999 -9999 -9999 -9999 -9999 -9999 -9999 -9999 -9999 -9999 -9999 -9999 -9999 -9999 -9999 -9999 -9999 -9999 -9999 -9999 -9999 -9999 -9999 -9999 -9999 -9999 -9999 -9999 -9999 -9999 -9999 -9999 -9999 -9999 -9999 -9999 -9999 -9999 -9999 -9999 -9999 -9999 -9999 -9999 -9999 -9999 -9999 -9999 -9999 -9999 -9999 -9999 -9999 -9999 -9999 -9999 -9999 -9999 -9999 -9999 -9999 -9999 -9999 -9999 -9999 -9999 -9999 -9999 -9999 -9999 -9999 -9999 -9999 -9999 -9999 -9999 -9999 -9999 -9999 -9999 -9999 1001 1001 1001 1001 1001 1001 1001 -9999 -9999 -9999 -9999 -9999 -9999 -9999 -9999 -9999 -9999 -9999 -9999 -9999 -9999 -9999 -9999 -9999 -9999 -9999 -9999 -9999 -9999 
-9999 -9999 -9999 -9999 -9999 -9999 -9999 -9999 -9999 -9999 -9999 -9999 -9999 -9999 -9999 -9999 -9999 -9999 -9999 -9999 -9999 -9999 -9999 -9999 -9999 -9999 -9999 -9999 -9999 -9999 -9999 -9999 -9999 -9999 -9999 -9999 -9999 -9999 -9999 -9999 -9999 -9999 -9999 -9999 -9999 -9999 -9999 -9999 -9999 -9999 -9999 -9999 -9999 -9999 -9999 -9999 -9999 -9999 -9999 -9999 -9999 -9999 -9999 -9999 -9999 -9999 -9999 -9999 -9999 -9999 -9999 -9999 -9999 -9999 -9999 -9999 -9999 -9999 -9999 -9999 -9999 -9999 -9999 -9999 -9999 -9999 -9999 -9999 -9999 -9999 -9999 -9999 -9999 -9999 -9999 -9999 -9999 -9999 -9999 -9999 -9999 1001 1001 1001 1001 1001 1001 -9999 -9999 -9999 -9999 -9999 -9999 -9999 -9999 -9999 -9999 -9999 -9999 -9999 -9999 -9999 -9999 -9999 -9999 -9999 -9999 
-9999 -9999 -9999 -9999 -9999 -9999 -9999 -9999 -9999 -9999 -9999 -9999 -9999 -9999 -9999 -9999 -9999 -9999 -9999 -9999 -9999 -9999 -9999 -9999 -9999 -9999 -9999 -9999 -9999 -9999 -9999 -9999 -9999 -9999 -9999 -9999 -9999 -9999 -9999 -9999 -9999 -9999 -9999 -9999 -9999 -9999 -9999 -9999 -9999 -9999 -9999 -9999 -9999 -9999 -9999 -9999 -9999 -9999 -9999 -9999 -9999 -9999 -9999 -9999 -9999 -9999 -9999 -9999 -9999 -9999 -9999 -9999 -9999 -9999 -9999 -9999 -9999 -9999 -9999 -9999 -9999 -9999 -9999 -9999 -9999 -9999 -9999 -9999 -9999 -9999 -9999 -9999 -9999 -9999 -9999 -9999 -9999 -9999 -9999 -9999 -9999 -9999 -9999 -9999 -9999 -9999 1001 -9999 -9999 -9999 -9999 -9999 -9999 -9999 -9999 -9999 -9999 -9999 -9999 -9999 -9999 -9999 -9999 -9999 -9999 -9999 -9999 
-9999 -9999 -9999 -9999 -9999 -9999 -9999 -9999 -9999 -9999 -9999 -9999 -9999 -9999 -9999 -9999 -9999 -9999 -9999 -9999 -9999 -9999 -9999 -9999 -9999 -9999 -9999 -9999 -9999 -9999 -9999 -9999 -9999 -9999 -9999 -9999 -9999 -9999 -9999 -9999 -9999 -9999 -9999 -9999 -9999 -9999 -9999 -9999 -9999 -9999 -9999 -9999 -9999 -9999 -9999 -9999 -9999 -9999 -9999 -9999 -9999 -9999 -9999 -9999 -9999 -9999 -9999 -9999 -9999 -9999 -9999 -9999 -9999 -9999 -9999 -9999 -9999 -9999 -9999 -9999 -9999 -9999 -9999 -9999 -9999 -9999 -9999 -9999 -9999 -9999 -9999 -9999 -9999 -9999 -9999 -9999 -9999 -9999 -9999 -9999 -9999 -9999 -9999 1001 1001 1001 -9999 -9999 -9999 -9999 -9999 -9999 -9999 -9999 -9999 -9999 -9999 -9999 -9999 -9999 -9999 -9999 -9999 -9999 -9999 -9999 -9999 
