ncols        127
nrows        131
xllcorner    -71.681135979344
yllcorner    -16.519694133538
cellsize     0.001836012963
NODATA_value -9999
-9999.0 -9999 -9999 -9999 -9999 -9999 -9999 -9999 -9999 -9999 -9999 -9999 -9999 -9999 -9999 -9999 -9999 -9999 -9999 -9999 -9999 -9999 -9999 -9999 -9999 -9999 -9999 -9999 -9999 -9999 -9999 -9999 -9999 -9999 -9999 -9999 -9999 -9999 -9999 -9999 -9999 -9999 -9999 -9999 -9999 -9999 -9999 -9999 -9999 -9999 -9999 -9999 -9999 -9999 -9999 -9999 -9999 -9999 -9999 -9999 -9999 -9999 -9999 -9999 -9999 -9999 -9999 -9999 -9999 -9999 -9999 -9999 -9999 -9999 -9999 -9999 -9999 -9999 -9999 -9999 -9999 -9999 -9999 -9999 -9999 -9999 -9999 -9999 -9999 -9999 -9999 -9999 -9999 -9999 -9999 -9999 -9999 -9999 -9999 -9999 -9999 -9999 -9999 -9999 -9999 -9999 -9999 -9999 -9999 -9999 -9999 -9999 -9999 -9999 -9999 -9999 -9999 -9999 -9999 -9999 -9999 -9999 -9999 -9999 -9999 -9999 -9999 
-9999 -9999 -9999 -9999 -9999 -9999 -9999 -9999 -9999 -9999 -9999 -9999 67.66666412353515625 -9999 -9999 -9999 -9999 -9999 -9999 -9999 -9999 -9999 -9999 -9999 -9999 67.66666412353515625 -9999 -9999 -9999 -9999 -9999 -9999 -9999 -9999 -9999 -9999 -9999 -9999 -9999 -9999 -9999 -9999 -9999 -9999 -9999 -9999 -9999 -9999 -9999 -9999 -9999 -9999 -9999 -9999 -9999 -9999 -9999 -9999 -9999 -9999 -9999 -9999 -9999 -9999 -9999 -9999 -9999 -9999 -9999 -9999 -9999 -9999 -9999 -9999 -9999 -9999 -9999 -9999 -9999 -9999 -9999 -9999 -9999 -9999 -9999 -9999 -9999 -9999 -9999 -9999 -9999 -9999 -9999 -9999 -9999 -9999 -9999 -9999 -9999 -9999 -9999 -9999 -9999 -9999 -9999 -9999 -9999 -9999 -9999 -9999 -9999 -9999 -9999 -9999 -9999 -9999 -9999 -9999 -9999 -9999 -9999 -9999 -9999 -9999 -9999 -9999 -9999 
-9999 -9999 -9999 -9999 -9999 -9999 -9999 -9999 -9999 -9999 -9999 -9999 101 101 -9999 -9999 -9999 -9999 -9999 -9999 -9999 -9999 -9999 101 -9999 -9999 -9999 -9999 -9999 -9999 -9999 -9999 -9999 -9999 -9999 -9999 -9999 -9999 -9999 -9999 -9999 -9999 -9999 -9999 -9999 -9999 -9999 -9999 -9999 -9999 -9999 -9999 -9999 -9999 -9999 -9999 -9999 -9999 -9999 -9999 -9999 -9999 -9999 -9999 -9999 -9999 -9999 -9999 -9999 101 -9999 -9999 -9999 -9999 -9999 -9999 -9999 -9999 -9999 -9999 -9999 -9999 -9999 -9999 -9999 -9999 -9999 -9999 -9999 -9999 -9999 -9999 -9999 -9999 -9999 -9999 -9999 -9999 -9999 -9999 -9999 -9999 -9999 -9999 -9999 -9999 -9999 -9999 -9999 -9999 -9999 -9999 -9999 -9999 -9999 -9999 -9999 -9999 -9999 -9999 -9999 -9999 -9999 -9999 -9999 -9999 -9999 
-9999 -9999 -9999 -9999 -9999 -9999 -9999 -9999 -9999 -9999 -9999 101 101 -9999 -9999 67.66666412353515625 -9999 -9999 -9999 -9999 -9999 101 -9999 -9999 -9999 -9999 -9999 -9999 101 -9999 101 -9999 -9999 -9999 -9999 -9999 -9999 -9999 -9999 -9999 -9999 -9999 -9999 -9999 -9999 -9999 -9999 -9999 -9999 -9999 -9999 -9999 -9999 -9999 -9999 -9999 -9999 -9999 -9999 -9999 -9999 -9999 -9999 -9999 -9999 -9999 -9999 -9999 -9999 -9999 67.66666412353515625 -9999 -9999 -9999 -9999 -9999 -9999 -9999 -9999 -9999 -9999 -9999 -9999 -9999 -9999 -9999 -9999 -9999 101 101 -9999 -9999 -9999 -9999 -9999 -9999 -9999 -9999 -9999 -9999 -9999 -9999 -9999 -9999 -9999 -9999 -9999 -9999 -9999 -9999 -9999 -9999 -9999 -9999 -9999 -9999 -9999 -9999 -9999 -9999 -9999 -9999 -9999 -9999 -9999 -9999 -9999 
-9999 -9999 -9999 -9999 -9999 -9999 -9999 -9999 -9999 -9999 -9999 101 67.66666412353515625 67.66666412353515625 67.66666412353515625 67.66666412353515625 -9999 -9999 -9999 -9999 -9999 -9999 -9999 101 -9999 -9999 -9999 -9999 -9999 -9999 -9999 -9999 -9999 -9999 -9999 -9999 -9999 -9999 -9999 -9999 -9999 -9999 -9999 -9999 -9999 -9999 -9999 -9999 -9999 -9999 -9999 -9999 -9999 -9999 -9999 -9999 -9999 -9999 -9999 -9999 -9999 -9999 -9999 -9999 -9999 -9999 -9999 -9999 -9999 67.66666412353515625 101 101 -9999 -9999 -9999 -9999 101 -9999 -9999 -9999 -9999 -9999 -9999 -9999 -9999 -9999 -9999 -9999 -9999 101 -9999 -9999 -9999 -9999 -9999 -9999 -9999 -9999 -9999 -9999 -9999 -9999 -9999 -9999 -9999 -9999 -9999 -9999 -9999 -9999 -9999 -9999 -9999 -9999 -9999 -9999 -9999 -9999 -9999 -9999 -9999 -9999 -9999 -9999 -9999 -9999 -9999 
-9999 -9999 -9999 -9999 -9999 -9999 -9999 -9999 -9999 101 -9999 101 -9999 101 67.66666412353515625 67.66666412353515625 -9999 -9999 -9999 -9999 101 101 67.66666412353515625 67.66666412353515625 -9999 84.33333587646484375 84.33333587646484375 -9999 84.33333587646484375 -9999 -9999 -9999 -9999 -9999 -9999 -9999 -9999 -9999 -9999 -9999 -9999 -9999 -9999 -9999 -9999 -9999 -9999 -9999 -9999 -9999 -9999 -9999 -9999 -9999 -9999 -9999 -9999 -9999 -9999 -9999 -9999 -9999 -9999 -9999 -9999 -9999 -9999 -9999 101 -9999 67.66666412353515625 -9999 67.66666412353515625 -9999 -9999 67.66666412353515625 101 -9999 -9999 -9999 -9999 -9999 -9999 -9999 -9999 -9999 -9999 101 -9999 -9999 -9999 -9999 101 -9999 -9999 -9999 -9999 -9999 -9999 -9999 -9999 -9999 -9999 -9999 -9999 -9999 -9999 -9999 -9999 -9999 -9999 -9999 -9999 -9999 -9999 -9999 -9999 -9999 -9999 -9999 -9999 -9999 -9999 -9999 -9999 -9999 -9999 
-9999 -9999 -9999 -9999 -9999 -9999 -9999 -9999 -9999 101 101 101 -9999 67.66666412353515625 67.66666412353515625 67.66666412353515625 101 -9999 -9999 -9999 101 101 67.66666412353515625 -9999 -9999 84.33333587646484375 84.33333587646484375 -9999 84.33333587646484375 -9999 -9999 -9999 -9999 -9999 -9999 -9999 -9999 -9999 -9999 -9999 -9999 -9999 -9999 -9999 -9999 -9999 -9999 -9999 -9999 -9999 -9999 -9999 -9999 -9999 -9999 -9999 -9999 -9999 -9999 -9999 -9999 -9999 -9999 -9999 -9999 -9999 -9999 -9999 -9999 -9999 -9999 -9999 -9999 -9999 -9999 -9999 101 -9999 -9999 -9999 -9999 -9999 -9999 101 101 -9999 -9999 67.66666412353515625 -9999 -9999 101 -9999 101 -9999 -9999 -9999 -9999 -9999 -9999 -9999 -9999 -9999 -9999 -9999 -9999 -9999 -9999 -9999 -9999 -9999 -9999 -9999 -9999 -9999 -9999 -9999 -9999 -9999 -9999 -9999 -9999 -9999 -9999 -9999 -9999 -9999 -9999 
-9999 -9999 -9999 -9999 -9999 -9999 -9999 101 -9999 101 101 101 67.66666412353515625 67.66666412353515625 101 51 -9999 -9999 -9999 -9999 67.66666412353515625 -9999 -9999 -9999 84.33333587646484375 -9999 -9999 84.33333587646484375 -9999 84.33333587646484375 -9999 -9999 -9999 -9999 -9999 -9999 -9999 -9999 -9999 -9999 -9999 -9999 -9999 -9999 -9999 -9999 -9999 -9999 -9999 -9999 -9999 -9999 -9999 -9999 -9999 -9999 -9999 -9999 -9999 -9999 -9999 -9999 -9999 -9999 -9999 -9999 -9999 -9999 -9999 -9999 -9999 -9999 -9999 67.66666412353515625 -9999 -9999 -9999 -9999 -9999 -9999 -9999 -9999 -9999 84.33333587646484375 -9999 -9999 -9999 -9999 84.33333587646484375 -9999 101 -9999 -9999 -9999 -9999 -9999 -9999 -9999 -9999 -9999 -9999 -9999 -9999 -9999 -9999 -9999 -9999 -9999 -9999 -9999 -9999 -9999 -9999 -9999 -9999 -9999 -9999 -9999 -9999 -9999 -9999 -9999 -9999 -9999 -9999 -9999 -9999 
-9999 -9999 -9999 -9999 -9999 -9999 -9999 -9999 101 101 101 101 101 101 -9999 -9999 -9999 -9999 -9999 -9999 -9999 -9999 -9999 101 84.33333587646484375 -9999 -9999 -9999 -9999 -9999 67.66666412353515625 67.66666412353515625 67.66666412353515625 -9999 -9999 -9999 -9999 -9999 -9999 -9999 -9999 -9999 -9999 -9999 -9999 -9999 -9999 -9999 -9999 -9999 -9999 -9999 -9999 -9999 -9999 -9999 -9999 -9999 -9999 -9999 -9999 -9999 -9999 -9999 -9999 -9999 -9999 -9999 -9999 -9999 -9999 -9999 67.66666412353515625 67.66666412353515625 -9999 -9999 -9999 -9999 -9999 -9999 -9999 101 84.33333587646484375 -9999 -9999 -9999 -9999 -9999 -9999 -9999 -9999 101 101 -9999 -9999 -9999 -9999 -9999 -9999 -9999 -9999 -9999 -9999 -9999 -9999 -9999 -9999 -9999 -9999 -9999 -9999 -9999 -9999 -9999 -9999 -9999 -9999 -9999 -9999 -9999 -9999 -9999 -9999 -9999 -9999 -9999 -9999 
-9999 -9999 -9999 -9999 -9999 -9999 -9999 101 101 -9999 101 -9999 51 101 -9999 -9999 -9999 -9999 -9999 -9999 67.66666412353515625 -9999 -9999 84.33333587646484375 84.33333587646484375 -9999 84.33333587646484375 -9999 67.66666412353515625 67.66666412353515625 -9999 -9999 67.66666412353515625 -9999 -9999 -9999 -9999 -9999 -9999 -9999 -9999 -9999 -9999 -9999 -9999 -9999 -9999 -9999 -9999 -9999 -9999 -9999 -9999 -9999 -9999 -9999 -9999 -9999 -9999 -9999 -9999 -9999 -9999 -9999 -9999 -9999 -9999 -9999 -9999 -9999 -9999 -9999 67.66666412353515625 67.66666412353515625 -9999 -9999 -9999 -9999 -9999 -9999 101 -9999 -9999 -9999 -9999 67.66666412353515625 -9999 -9999 84.33333587646484375 -9999 67.66666412353515625 101 101 -9999 -9999 -9999 -9999 -9999 -9999 -9999 -9999 -9999 -9999 -9999 -9999 -9999 -9999 -9999 -9999 -9999 -9999 -9999 -9999 -9999 -9999 -9999 -9999 -9999 -9999 -9999 -9999 -9999 -9999 -9999 -9999 -9999 -9999 
-9999 -9999 -9999 -9999 -9999 -9999 -9999 101 101 101 -9999 101 -9999 101 -9999 -9999 -9999 -9999 -9999 -9999 101 101 -9999 84.33333587646484375 84.33333587646484375 84.33333587646484375 84.33333587646484375 -9999 101 67.66666412353515625 -9999 67.66666412353515625 -9999 -9999 -9999 -9999 -9999 -9999 -9999 -9999 -9999 -9999 -9999 -9999 -9999 -9999 -9999 -9999 -9999 -9999 -9999 -9999 -9999 -9999 -9999 -9999 -9999 -9999 -9999 -9999 -9999 -9999 -9999 -9999 -9999 -9999 -9999 -9999 -9999 -9999 -9999 -9999 67.66666412353515625 -9999 -9999 -9999 -9999 -9999 -9999 -9999 101 -9999 -9999 84.33333587646484375 -9999 84.33333587646484375 84.33333587646484375 -9999 84.33333587646484375 -9999 67.66666412353515625 -9999 -9999 -9999 -9999 -9999 -9999 -9999 -9999 -9999 -9999 -9999 -9999 -9999 -9999 -9999 -9999 -9999 -9999 -9999 -9999 -9999 -9999 -9999 -9999 -9999 -9999 -9999 -9999 -9999 -9999 -9999 -9999 -9999 -9999 -9999 -9999 
-9999 -9999 -9999 -9999 -9999 -9999 -9999 -9999 -9999 101 -9999 101 101 -9999 -9999 -9999 -9999 -9999 -9999 -9999 -9999 -9999 -9999 -9999 84.33333587646484375 -9999 84.33333587646484375 67.66666412353515625 -9999 67.66666412353515625 -9999 67.66666412353515625 -9999 101 -9999 67.66666412353515625 -9999 -9999 -9999 -9999 -9999 -9999 -9999 -9999 -9999 -9999 -9999 -9999 -9999 -9999 -9999 -9999 -9999 -9999 -9999 -9999 -9999 -9999 -9999 -9999 -9999 -9999 -9999 -9999 -9999 -9999 -9999 -9999 -9999 -9999 -9999 -9999 67.66666412353515625 -9999 -9999 -9999 -9999 -9999 -9999 -9999 -9999 84.33333587646484375 -9999 -9999 -9999 84.33333587646484375 84.33333587646484375 -9999 -9999 -9999 101 101 -9999 -9999 -9999 -9999 -9999 -9999 -9999 -9999 -9999 -9999 -9999 -9999 -9999 -9999 -9999 -9999 -9999 -9999 -9999 -9999 -9999 -9999 -9999 -9999 -9999 -9999 -9999 -9999 -9999 -9999 -9999 -9999 -9999 -9999 -9999 
-9999 -9999 -9999 -9999 -9999 -9999 -9999 -9999 -9999 101 101 101 -9999 -9999 -9999 -9999 -9999 -9999 -9999 -9999 -9999 -9999 67.66666412353515625 67.66666412353515625 67.66666412353515625 -9999 -9999 -9999 67.66666412353515625 67.66666412353515625 -9999 101 67.66666412353515625 67.66666412353515625 67.66666412353515625 67.66666412353515625 -9999 -9999 -9999 -9999 -9999 -9999 -9999 -9999 -9999 -9999 -9999 -9999 -9999 -9999 -9999 -9999 -9999 -9999 -9999 -9999 -9999 -9999 -9999 -9999 -9999 -9999 -9999 -9999 -9999 -9999 -9999 -9999 -9999 -9999 -9999 -9999 -9999 101 -9999 -9999 -9999 -9999 -9999 -9999 -9999 84.33333587646484375 -9999 -9999 -9999 -9999 -9999 -9999 101 -9999 -9999 -9999 -9999 -9999 -9999 -9999 -9999 -9999 -9999 -9999 -9999 -9999 -9999 -9999 -9999 -9999 -9999 -9999 -9999 -9999 -9999 -9999 -9999 -9999 -9999 -9999 -9999 -9999 -9999 -9999 -9999 -9999 -9999 -9999 -9999 -9999 -9999 
-9999 -9999 -9999 -9999 -9999 -9999 -9999 -9999 101 101 101 -9999 -9999 -9999 -9999 -9999 -9999 -9999 -9999 -9999 -9999 -9999 67.66666412353515625 67.66666412353515625 -9999 -9999 67.66666412353515625 67.66666412353515625 67.66666412353515625 -9999 67.66666412353515625 67.66666412353515625 67.66666412353515625 101 67.66666412353515625 67.66666412353515625 67.66666412353515625 -9999 -9999 -9999 -9999 -9999 -9999 -9999 -9999 -9999 -9999 -9999 -9999 -9999 -9999 -9999 -9999 -9999 -9999 -9999 101 -9999 -9999 -9999 -9999 -9999 -9999 -9999 -9999 -9999 -9999 -9999 -9999 -9999 -9999 -9999 101 101 101 -9999 -9999 -9999 -9999 101 84.33333587646484375 84.33333587646484375 84.33333587646484375 -9999 -9999 84.33333587646484375 84.33333587646484375 -9999 101 101 -9999 -9999 -9999 -9999 -9999 -9999 -9999 -9999 -9999 -9999 -9999 -9999 -9999 -9999 -9999 -9999 -9999 -9999 -9999 -9999 -9999 -9999 -9999 -9999 -9999 -9999 -9999 -9999 -9999 -9999 -9999 -9999 -9999 -9999 -9999 -9999 -9999 
-9999 -9999 -9999 -9999 -9999 -9999 -9999 51 51 101 -9999 -9999 -9999 -9999 -9999 -9999 101 101 67.66666412353515625 -9999 -9999 -9999 -9999 84.33333587646484375 -9999 67.66666412353515625 101 67.66666412353515625 67.66666412353515625 -9999 67.66666412353515625 -9999 -9999 67.66666412353515625 -9999 67.66666412353515625 67.66666412353515625 84.33333587646484375 -9999 -9999 -9999 -9999 -9999 -9999 -9999 -9999 -9999 -9999 -9999 -9999 -9999 -9999 -9999 -9999 -9999 -9999 -9999 -9999 -9999 -9999 -9999 -9999 -9999 -9999 -9999 -9999 -9999 -9999 -9999 -9999 -9999 84.33333587646484375 -9999 84.33333587646484375 -9999 -9999 -9999 -9999 -9999 84.33333587646484375 84.33333587646484375 84.33333587646484375 84.33333587646484375 -9999 -9999 84.33333587646484375 -9999 -9999 -9999 101 -9999 -9999 -9999 -9999 -9999 -9999 -9999 -9999 -9999 -9999 -9999 -9999 -9999 -9999 -9999 -9999 -9999 -9999 -9999 -9999 -9999 -9999 -9999 -9999 -9999 -9999 -9999 -9999 -9999 -9999 -9999 -9999 -9999 -9999 -9999 -9999 -9999 
-9999 -9999 -9999 -9999 101 -9999 -9999 -9999 -9999 -9999 -9999 -9999 -9999 -9999 -9999 101 67.66666412353515625 -9999 101 -9999 -9999 67.66666412353515625 67.66666412353515625 84.33333587646484375 -9999 84.33333587646484375 101 -9999 -9999 67.66666412353515625 101 -9999 67.66666412353515625 67.66666412353515625 67.66666412353515625 -9999 67.66666412353515625 67.66666412353515625 84.33333587646484375 -9999 84.33333587646484375 -9999 -9999 -9999 -9999 -9999 -9999 -9999 -9999 -9999 -9999 -9999 -9999 -9999 -9999 84.33333587646484375 -9999 -9999 101 -9999 -9999 -9999 -9999 -9999 -9999 -9999 -9999 -9999 -9999 -9999 84.33333587646484375 84.33333587646484375 -9999 -9999 -9999 -9999 -9999 -9999 -9999 -9999 -9999 -9999 -9999 -9999 84.33333587646484375 -9999 84.33333587646484375 -9999 -9999 -9999 -9999 101 -9999 -9999 -9999 -9999 -9999 -9999 -9999 -9999 -9999 -9999 -9999 -9999 -9999 -9999 -9999 -9999 -9999 -9999 -9999 -9999 -9999 -9999 -9999 -9999 -9999 -9999 -9999 -9999 -9999 -9999 -9999 -9999 -9999 -9999 -9999 
-9999 -9999 -9999 -9999 101 -9999 -9999 -9999 101 51 -9999 -9999 -9999 -9999 101 67.66666412353515625 67.66666412353515625 -9999 -9999 -9999 -9999 67.66666412353515625 101 84.33333587646484375 -9999 84.33333587646484375 67.66666412353515625 -9999 101 84.33333587646484375 -9999 84.33333587646484375 67.66666412353515625 67.66666412353515625 -9999 67.66666412353515625 67.66666412353515625 101 67.66666412353515625 -9999 84.33333587646484375 -9999 -9999 -9999 -9999 -9999 -9999 -9999 -9999 -9999 -9999 -9999 -9999 -9999 -9999 -9999 -9999 -9999 101 -9999 -9999 -9999 -9999 -9999 -9999 -9999 -9999 67.66666412353515625 -9999 84.33333587646484375 67.66666412353515625 -9999 84.33333587646484375 84.33333587646484375 -9999 -9999 -9999 -9999 84.33333587646484375 84.33333587646484375 84.33333587646484375 84.33333587646484375 84.33333587646484375 84.33333587646484375 84.33333587646484375 84.33333587646484375 -9999 -9999 -9999 -9999 -9999 101 -9999 -9999 -9999 -9999 -9999 -9999 -9999 -9999 -9999 -9999 -9999 -9999 -9999 -9999 -9999 -9999 -9999 -9999 -9999 -9999 -9999 -9999 -9999 -9999 -9999 -9999 -9999 -9999 -9999 -9999 -9999 -9999 -9999 -9999 -9999 
-9999 -9999 -9999 67.66666412353515625 -9999 -9999 -9999 101 -9999 101 -9999 -9999 -9999 -9999 67.66666412353515625 -9999 -9999 67.66666412353515625 -9999 -9999 -9999 -9999 84.33333587646484375 -9999 84.33333587646484375 -9999 84.33333587646484375 84.33333587646484375 84.33333587646484375 84.33333587646484375 -9999 -9999 84.33333587646484375 -9999 67.66666412353515625 -9999 67.66666412353515625 67.66666412353515625 67.66666412353515625 67.66666412353515625 67.66666412353515625 84.33333587646484375 -9999 -9999 -9999 -9999 -9999 -9999 -9999 -9999 -9999 84.33333587646484375 84.33333587646484375 -9999 84.33333587646484375 -9999 -9999 -9999 101 -9999 -9999 -9999 -9999 -9999 -9999 -9999 -9999 -9999 67.66666412353515625 67.66666412353515625 67.66666412353515625 67.66666412353515625 -9999 84.33333587646484375 84.33333587646484375 84.33333587646484375 -9999 -9999 -9999 84.33333587646484375 67.66666412353515625 67.66666412353515625 -9999 84.33333587646484375 84.33333587646484375 84.33333587646484375 -9999 101 -9999 -9999 -9999 -9999 -9999 -9999 -9999 -9999 -9999 -9999 101 -9999 -9999 -9999 -9999 -9999 -9999 -9999 -9999 -9999 -9999 -9999 -9999 -9999 -9999 -9999 -9999 -9999 -9999 -9999 -9999 -9999 -9999 -9999 -9999 -9999 -9999 -9999 -9999 
-9999 -9999 -9999 -9999 -9999 -9999 -9999 101 -9999 -9999 -9999 -9999 -9999 67.66666412353515625 -9999 67.66666412353515625 -9999 67.66666412353515625 67.66666412353515625 101 67.66666412353515625 84.33333587646484375 -9999 84.33333587646484375 84.33333587646484375 -9999 84.33333587646484375 84.33333587646484375 84.33333587646484375 -9999 101 101 -9999 -9999 101 101 67.66666412353515625 -9999 67.66666412353515625 67.66666412353515625 67.66666412353515625 84.33333587646484375 67.66666412353515625 -9999 -9999 -9999 -9999 -9999 -9999 -9999 -9999 84.33333587646484375 84.33333587646484375 -9999 -9999 -9999 67.66666412353515625 -9999 -9999 -9999 -9999 -9999 -9999 -9999 -9999 -9999 -9999 -9999 -9999 84.33333587646484375 67.66666412353515625 84.33333587646484375 84.33333587646484375 84.33333587646484375 -9999 84.33333587646484375 84.33333587646484375 84.33333587646484375 84.33333587646484375 -9999 -9999 -9999 -9999 -9999 -9999 84.33333587646484375 -9999 -9999 -9999 -9999 -9999 -9999 -9999 -9999 -9999 -9999 -9999 -9999 -9999 -9999 -9999 -9999 -9999 -9999 -9999 -9999 -9999 -9999 -9999 -9999 -9999 -9999 -9999 -9999 -9999 -9999 -9999 -9999 -9999 -9999 -9999 -9999 -9999 -9999 -9999 -9999 -9999 
-9999 -9999 -9999 -9999 -9999 101 -9999 -9999 -9999 -9999 -9999 -9999 67.66666412353515625 -9999 67.66666412353515625 67.66666412353515625 67.66666412353515625 101 101 67.66666412353515625 84.33333587646484375 84.33333587646484375 -9999 84.33333587646484375 -9999 -9999 -9999 -9999 -9999 -9999 -9999 -9999 -9999 -9999 101 -9999 -9999 101 67.66666412353515625 67.66666412353515625 67.66666412353515625 101 101 84.33333587646484375 67.66666412353515625 67.66666412353515625 -9999 -9999 -9999 -9999 -9999 84.33333587646484375 -9999 101 -9999 -9999 67.66666412353515625 -9999 -9999 -9999 -9999 -9999 -9999 -9999 -9999 -9999 -9999 -9999 84.33333587646484375 84.33333587646484375 84.33333587646484375 -9999 -9999 -9999 84.33333587646484375 -9999 -9999 -9999 84.33333587646484375 -9999 67.66666412353515625 -9999 -9999 84.33333587646484375 -9999 -9999 -9999 -9999 -9999 -9999 -9999 -9999 -9999 -9999 -9999 -9999 -9999 -9999 -9999 -9999 -9999 -9999 -9999 -9999 -9999 -9999 -9999 -9999 -9999 -9999 -9999 -9999 -9999 -9999 -9999 -9999 -9999 -9999 -9999 -9999 -9999 -9999 -9999 -9999 -9999 -9999 -9999 
-9999 -9999 -9999 -9999 -9999 101 101 -9999 -9999 -9999 -9999 -9999 101 67.66666412353515625 -9999 -9999 -9999 -9999 -9999 -9999 84.33333587646484375 84.33333587646484375 67.66666412353515625 -9999 -9999 -9999 -9999 -9999 84.33333587646484375 -9999 101 84.33333587646484375 -9999 67.66666412353515625 67.66666412353515625 -9999 -9999 -9999 67.66666412353515625 67.66666412353515625 67.66666412353515625 67.66666412353515625 -9999 84.33333587646484375 67.66666412353515625 67.66666412353515625 67.66666412353515625 84.33333587646484375 84.33333587646484375 -9999 84.33333587646484375 84.33333587646484375 -9999 84.33333587646484375 -9999 84.33333587646484375 -9999 -9999 -9999 -9999 -9999 101 -9999 -9999 -9999 -9999 -9999 -9999 101 84.33333587646484375 -9999 -9999 84.33333587646484375 101 -9999 -9999 -9999 -9999 -9999 84.33333587646484375 -9999 -9999 -9999 -9999 67.66666412353515625 -9999 -9999 -9999 -9999 -9999 -9999 -9999 -9999 -9999 -9999 -9999 -9999 -9999 -9999 -9999 -9999 -9999 -9999 -9999 -9999 -9999 -9999 -9999 -9999 -9999 -9999 -9999 -9999 -9999 -9999 -9999 -9999 -9999 -9999 -9999 -9999 -9999 -9999 -9999 -9999 -9999 -9999 
-9999 -9999 -9999 -9999 101 101 101 -9999 -9999 -9999 -9999 101 -9999 101 67.66666412353515625 67.66666412353515625 67.66666412353515625 -9999 84.33333587646484375 84.33333587646484375 84.33333587646484375 -9999 -9999 -9999 -9999 -9999 -9999 84.33333587646484375 101 -9999 101 67.66666412353515625 -9999 -9999 -9999 -9999 -9999 -9999 67.66666412353515625 101 67.66666412353515625 67.66666412353515625 -9999 84.33333587646484375 67.66666412353515625 67.66666412353515625 67.66666412353515625 84.33333587646484375 84.33333587646484375 67.66666412353515625 67.66666412353515625 84.33333587646484375 -9999 -9999 84.33333587646484375 84.33333587646484375 84.33333587646484375 -9999 -9999 -9999 -9999 84.33333587646484375 -9999 -9999 -9999 -9999 84.33333587646484375 84.33333587646484375 -9999 84.33333587646484375 -9999 84.33333587646484375 84.33333587646484375 101 -9999 -9999 -9999 84.33333587646484375 -9999 84.33333587646484375 67.66666412353515625 -9999 -9999 -9999 -9999 -9999 -9999 -9999 -9999 -9999 -9999 -9999 -9999 -9999 -9999 -9999 -9999 -9999 -9999 -9999 -9999 -9999 -9999 -9999 -9999 -9999 -9999 -9999 -9999 -9999 -9999 -9999 -9999 -9999 -9999 -9999 -9999 -9999 -9999 -9999 -9999 -9999 -9999 -9999 -9999 -9999 -9999 
-9999 -9999 -9999 101 101 101 -9999 -9999 -9999 -9999 -9999 101 101 101 -9999 -9999 -9999 84.33333587646484375 84.33333587646484375 84.33333587646484375 84.33333587646484375 -9999 -9999 -9999 -9999 -9999 -9999 84.33333587646484375 84.33333587646484375 -9999 -9999 67.66666412353515625 -9999 67.66666412353515625 -9999 -9999 84.33333587646484375 84.33333587646484375 -9999 -9999 67.66666412353515625 67.66666412353515625 67.66666412353515625 -9999 -9999 67.66666412353515625 67.66666412353515625 84.33333587646484375 -9999 67.66666412353515625 67.66666412353515625 84.33333587646484375 -9999 84.33333587646484375 84.33333587646484375 84.33333587646484375 84.33333587646484375 -9999 -9999 -9999 -9999 84.33333587646484375 84.33333587646484375 -9999 84.33333587646484375 84.33333587646484375 84.33333587646484375 84.33333587646484375 84.33333587646484375 67.66666412353515625 67.66666412353515625 84.33333587646484375 84.33333587646484375 -9999 -9999 -9999 101 101 84.33333587646484375 -9999 67.66666412353515625 67.66666412353515625 -9999 -9999 -9999 -9999 -9999 -9999 -9999 -9999 -9999 -9999 -9999 -9999 -9999 -9999 -9999 -9999 -9999 -9999 -9999 -9999 -9999 -9999 -9999 -9999 -9999 -9999 -9999 -9999 -9999 -9999 -9999 -9999 -9999 -9999 -9999 -9999 -9999 -9999 -9999 -9999 -9999 -9999 -9999 -9999 -9999 
-9999 -9999 101 101 101 101 -9999 -9999 -9999 -9999 -9999 -9999 -9999 -9999 -9999 -9999 -9999 -9999 -9999 -9999 -9999 67.66666412353515625 -9999 -9999 -9999 -9999 -9999 101 -9999 -9999 67.66666412353515625 67.66666412353515625 -9999 -9999 -9999 84.33333587646484375 84.33333587646484375 84.33333587646484375 -9999 84.33333587646484375 -9999 84.33333587646484375 -9999 -9999 67.66666412353515625 -9999 67.66666412353515625 67.66666412353515625 67.66666412353515625 67.66666412353515625 67.66666412353515625 67.66666412353515625 -9999 84.33333587646484375 -9999 84.33333587646484375 -9999 -9999 84.33333587646484375 -9999 -9999 84.33333587646484375 -9999 -9999 84.33333587646484375 84.33333587646484375 -9999 84.33333587646484375 -9999 -9999 -9999 -9999 -9999 84.33333587646484375 84.33333587646484375 -9999 67.66666412353515625 67.66666412353515625 -9999 -9999 84.33333587646484375 -9999 -9999 -9999 -9999 -9999 -9999 -9999 -9999 -9999 -9999 -9999 -9999 -9999 -9999 -9999 -9999 -9999 -9999 -9999 -9999 -9999 -9999 -9999 -9999 -9999 -9999 -9999 -9999 -9999 -9999 -9999 -9999 -9999 -9999 -9999 -9999 -9999 -9999 -9999 -9999 -9999 -9999 -9999 -9999 -9999 -9999 
-9999 -9999 101 67.66666412353515625 101 101 -9999 -9999 -9999 -9999 -9999 -9999 101 -9999 101 -9999 -9999 101 101 -9999 -9999 -9999 -9999 -9999 -9999 -9999 -9999 -9999 -9999 101 67.66666412353515625 67.66666412353515625 -9999 -9999 -9999 84.33333587646484375 84.33333587646484375 84.33333587646484375 -9999 -9999 84.33333587646484375 -9999 84.33333587646484375 -9999 84.33333587646484375 -9999 67.66666412353515625 67.66666412353515625 67.66666412353515625 67.66666412353515625 -9999 67.66666412353515625 -9999 84.33333587646484375 84.33333587646484375 84.33333587646484375 84.33333587646484375 84.33333587646484375 -9999 -9999 -9999 84.33333587646484375 84.33333587646484375 84.33333587646484375 67.66666412353515625 67.66666412353515625 67.66666412353515625 67.66666412353515625 67.66666412353515625 67.66666412353515625 84.33333587646484375 -9999 -9999 84.33333587646484375 -9999 67.66666412353515625 67.66666412353515625 -9999 -9999 84.33333587646484375 -9999 -9999 -9999 -9999 -9999 -9999 -9999 -9999 -9999 -9999 -9999 -9999 -9999 -9999 -9999 -9999 -9999 -9999 -9999 -9999 -9999 -9999 -9999 -9999 -9999 -9999 -9999 -9999 -9999 -9999 -9999 -9999 -9999 -9999 -9999 -9999 -9999 -9999 -9999 -9999 -9999 -9999 -9999 -9999 -9999 -9999 -9999 
-9999 -9999 101 101 101 -9999 -9999 -9999 -9999 -9999 -9999 101 -9999 -9999 101 -9999 101 101 -9999 67.66666412353515625 -9999 -9999 -9999 -9999 -9999 -9999 -9999 101 -9999 -9999 -9999 -9999 -9999 -9999 84.33333587646484375 -9999 84.33333587646484375 -9999 84.33333587646484375 -9999 -9999 -9999 84.33333587646484375 84.33333587646484375 84.33333587646484375 -9999 67.66666412353515625 67.66666412353515625 67.66666412353515625 67.66666412353515625 67.66666412353515625 67.66666412353515625 101 84.33333587646484375 84.33333587646484375 -9999 -9999 84.33333587646484375 -9999 -9999 -9999 -9999 -9999 -9999 -9999 -9999 -9999 -9999 -9999 -9999 84.33333587646484375 -9999 -9999 51 84.33333587646484375 -9999 67.66666412353515625 67.66666412353515625 67.66666412353515625 84.33333587646484375 -9999 -9999 -9999 -9999 -9999 -9999 -9999 -9999 -9999 -9999 -9999 -9999 -9999 -9999 -9999 -9999 -9999 -9999 -9999 -9999 -9999 -9999 -9999 -9999 -9999 -9999 -9999 -9999 -9999 -9999 -9999 -9999 -9999 -9999 -9999 -9999 -9999 -9999 -9999 -9999 -9999 -9999 -9999 -9999 -9999 -9999 -9999 
-9999 -9999 101 101 -9999 -9999 -9999 -9999 -9999 -9999 -9999 101 -9999 -9999 101 101 101 -9999 -9999 -9999 -9999 -9999 -9999 -9999 -9999 -9999 -9999 -9999 -9999 -9999 67.66666412353515625 67.66666412353515625 -9999 -9999 -9999 -9999 84.33333587646484375 84.33333587646484375 -9999 84.33333587646484375 -9999 -9999 84.33333587646484375 84.33333587646484375 -9999 84.33333587646484375 67.66666412353515625 67.66666412353515625 67.66666412353515625 67.66666412353515625 -9999 84.33333587646484375 -9999 84.33333587646484375 -9999 84.33333587646484375 84.33333587646484375 67.66666412353515625 67.66666412353515625 67.66666412353515625 -9999 67.66666412353515625 67.66666412353515625 67.66666412353515625 67.66666412353515625 67.66666412353515625 67.66666412353515625 67.66666412353515625 67.66666412353515625 67.66666412353515625 -9999 -9999 51 84.33333587646484375 51 51 -9999 -9999 -9999 67.66666412353515625 -9999 -9999 -9999 -9999 -9999 -9999 -9999 -9999 -9999 -9999 -9999 -9999 -9999 -9999 -9999 -9999 -9999 -9999 -9999 -9999 -9999 -9999 -9999 -9999 -9999 -9999 -9999 -9999 -9999 -9999 -9999 -9999 -9999 -9999 -9999 -9999 -9999 -9999 -9999 -9999 -9999 -9999 -9999 -9999 -9999 -9999 -9999 
-9999 -9999 101 101 -9999 -9999 -9999 -9999 -9999 101 101 -9999 -9999 101 -9999 101 101 101 -9999 -9999 -9999 -9999 -9999 -9999 -9999 -9999 -9999 -9999 -9999 -9999 -9999 -9999 84.33333587646484375 -9999 84.33333587646484375 84.33333587646484375 -9999 84.33333587646484375 -9999 -9999 84.33333587646484375 -9999 -9999 -9999 84.33333587646484375 84.33333587646484375 -9999 -9999 67.66666412353515625 -9999 -9999 84.33333587646484375 -9999 67.66666412353515625 84.33333587646484375 -9999 67.66666412353515625 -9999 67.66666412353515625 67.66666412353515625 -9999 -9999 -9999 -9999 67.66666412353515625 67.66666412353515625 67.66666412353515625 67.66666412353515625 67.66666412353515625 67.66666412353515625 51 -9999 -9999 51 -9999 -9999 67.66666412353515625 67.66666412353515625 -9999 -9999 101 -9999 -9999 -9999 -9999 -9999 -9999 -9999 -9999 -9999 -9999 -9999 -9999 -9999 -9999 -9999 -9999 -9999 -9999 -9999 -9999 -9999 -9999 -9999 -9999 -9999 -9999 -9999 -9999 -9999 -9999 -9999 -9999 -9999 -9999 -9999 -9999 -9999 -9999 -9999 -9999 -9999 -9999 -9999 -9999 -9999 -9999 
-9999 -9999 -9999 -9999 -9999 -9999 -9999 -9999 -9999 101 -9999 -9999 101 101 -9999 -9999 -9999 -9999 -9999 -9999 -9999 -9999 -9999 -9999 -9999 -9999 -9999 -9999 -9999 -9999 -9999 -9999 84.33333587646484375 -9999 -9999 -9999 -9999 -9999 -9999 84.33333587646484375 -9999 -9999 84.33333587646484375 -9999 84.33333587646484375 84.33333587646484375 84.33333587646484375 67.66666412353515625 67.66666412353515625 67.66666412353515625 67.66666412353515625 67.66666412353515625 -9999 -9999 84.33333587646484375 -9999 -9999 -9999 67.66666412353515625 67.66666412353515625 -9999 67.66666412353515625 67.66666412353515625 -9999 67.66666412353515625 67.66666412353515625 67.66666412353515625 67.66666412353515625 67.66666412353515625 67.66666412353515625 67.66666412353515625 67.66666412353515625 51 -9999 -9999 -9999 51 67.66666412353515625 67.66666412353515625 -9999 -9999 -9999 -9999 -9999 -9999 -9999 -9999 -9999 -9999 -9999 -9999 -9999 -9999 -9999 -9999 -9999 -9999 -9999 -9999 -9999 -9999 -9999 -9999 -9999 -9999 -9999 -9999 -9999 -9999 -9999 -9999 -9999 -9999 -9999 -9999 -9999 -9999 -9999 -9999 -9999 -9999 -9999 -9999 -9999 -9999 -9999 -9999 
-9999 -9999 -9999 -9999 -9999 -9999 101 -9999 -9999 -9999 -9999 -9999 101 -9999 -9999 -9999 -9999 67.66666412353515625 -9999 -9999 -9999 -9999 -9999 -9999 -9999 -9999 -9999 -9999 -9999 -9999 -9999 -9999 -9999 -9999 -9999 -9999 84.33333587646484375 -9999 84.33333587646484375 -9999 84.33333587646484375 84.33333587646484375 -9999 -9999 84.33333587646484375 -9999 84.33333587646484375 -9999 67.66666412353515625 -9999 -9999 67.66666412353515625 -9999 -9999 67.66666412353515625 67.66666412353515625 84.33333587646484375 -9999 -9999 -9999 -9999 -9999 -9999 -9999 -9999 -9999 -9999 67.66666412353515625 -9999 -9999 67.66666412353515625 51 51 51 51 -9999 51 51 -9999 -9999 -9999 -9999 -9999 -9999 -9999 -9999 -9999 -9999 -9999 -9999 -9999 -9999 -9999 -9999 -9999 -9999 -9999 -9999 -9999 -9999 -9999 -9999 -9999 -9999 -9999 -9999 -9999 -9999 -9999 -9999 -9999 -9999 -9999 -9999 -9999 -9999 -9999 -9999 -9999 -9999 -9999 -9999 -9999 -9999 -9999 -9999 -9999 
-9999 -9999 -9999 -9999 -9999 -9999 -9999 -9999 -9999 101 -9999 -9999 -9999 -9999 -9999 101 -9999 -9999 -9999 -9999 -9999 -9999 -9999 -9999 -9999 -9999 -9999 -9999 -9999 -9999 84.33333587646484375 84.33333587646484375 84.33333587646484375 -9999 -9999 84.33333587646484375 84.33333587646484375 84.33333587646484375 -9999 -9999 -9999 -9999 84.33333587646484375 84.33333587646484375 84.33333587646484375 -9999 84.33333587646484375 -9999 67.66666412353515625 67.66666412353515625 -9999 67.66666412353515625 67.66666412353515625 67.66666412353515625 -9999 84.33333587646484375 -9999 -9999 -9999 -9999 -9999 -9999 -9999 -9999 -9999 -9999 -9999 -9999 -9999 -9999 51 51 51 -9999 51 51 -9999 -9999 -9999 -9999 -9999 -9999 -9999 -9999 -9999 -9999 -9999 -9999 -9999 -9999 101 -9999 67.66666412353515625 -9999 -9999 -9999 -9999 -9999 -9999 -9999 -9999 -9999 -9999 -9999 -9999 -9999 -9999 -9999 -9999 -9999 -9999 -9999 -9999 -9999 -9999 -9999 -9999 -9999 -9999 -9999 -9999 -9999 -9999 -9999 -9999 -9999 -9999 
-9999 -9999 -9999 -9999 -9999 -9999 -9999 -9999 -9999 -9999 -9999 101 -9999 -9999 -9999 -9999 -9999 -9999 -9999 101 101 -9999 -9999 -9999 -9999 -9999 -9999 -9999 -9999 -9999 84.33333587646484375 84.33333587646484375 84.33333587646484375 -9999 84.33333587646484375 84.33333587646484375 84.33333587646484375 84.33333587646484375 84.33333587646484375 -9999 -9999 84.33333587646484375 -9999 84.33333587646484375 84.33333587646484375 -9999 84.33333587646484375 84.33333587646484375 84.33333587646484375 67.66666412353515625 67.66666412353515625 -9999 67.66666412353515625 67.66666412353515625 84.33333587646484375 -9999 -9999 -9999 -9999 -9999 -9999 -9999 -9999 -9999 -9999 -9999 -9999 -9999 67.66666412353515625 51 -9999 -9999 51 -9999 84.33333587646484375 51 51 67.66666412353515625 -9999 -9999 -9999 -9999 -9999 -9999 -9999 -9999 -9999 -9999 -9999 -9999 -9999 -9999 -9999 -9999 -9999 -9999 -9999 -9999 -9999 -9999 -9999 -9999 -9999 -9999 -9999 -9999 -9999 -9999 -9999 -9999 -9999 -9999 -9999 -9999 -9999 -9999 -9999 -9999 -9999 -9999 -9999 -9999 -9999 -9999 -9999 -9999 -9999 
-9999 -9999 -9999 -9999 -9999 -9999 -9999 -9999 101 -9999 -9999 -9999 101 -9999 -9999 -9999 -9999 -9999 -9999 101 -9999 -9999 -9999 -9999 -9999 -9999 -9999 -9999 -9999 -9999 -9999 -9999 84.33333587646484375 84.33333587646484375 84.33333587646484375 84.33333587646484375 -9999 84.33333587646484375 84.33333587646484375 -9999 -9999 84.33333587646484375 -9999 -9999 -9999 -9999 -9999 -9999 -9999 67.66666412353515625 -9999 -9999 -9999 -9999 -9999 -9999 -9999 -9999 -9999 -9999 -9999 -9999 -9999 -9999 -9999 -9999 -9999 -9999 67.66666412353515625 51 51 67.66666412353515625 -9999 84.33333587646484375 84.33333587646484375 51 51 67.66666412353515625 101 -9999 -9999 -9999 -9999 -9999 -9999 -9999 -9999 84.33333587646484375 -9999 67.66666412353515625 101 -9999 -9999 -9999 -9999 -9999 -9999 -9999 -9999 -9999 -9999 -9999 -9999 -9999 -9999 -9999 -9999 -9999 -9999 -9999 -9999 -9999 -9999 -9999 -9999 -9999 -9999 -9999 -9999 -9999 -9999 -9999 -9999 -9999 -9999 -9999 -9999 
-9999 -9999 -9999 -9999 -9999 -9999 -9999 -9999 -9999 -9999 -9999 -9999 101 -9999 -9999 -9999 67.66666412353515625 67.66666412353515625 101 -9999 -9999 -9999 -9999 -9999 -9999 -9999 -9999 -9999 -9999 84.33333587646484375 84.33333587646484375 -9999 -9999 -9999 84.33333587646484375 84.33333587646484375 84.33333587646484375 84.33333587646484375 -9999 -9999 84.33333587646484375 -9999 -9999 -9999 -9999 -9999 -9999 -9999 84.33333587646484375 84.33333587646484375 -9999 -9999 -9999 -9999 -9999 -9999 -9999 -9999 -9999 -9999 -9999 -9999 -9999 -9999 -9999 -9999 -9999 -9999 101 -9999 67.66666412353515625 -9999 -9999 -9999 84.33333587646484375 51 51 -9999 -9999 -9999 -9999 -9999 -9999 -9999 -9999 -9999 -9999 -9999 101 -9999 -9999 101 -9999 -9999 -9999 -9999 -9999 -9999 -9999 -9999 -9999 -9999 -9999 -9999 -9999 -9999 -9999 -9999 -9999 -9999 -9999 -9999 -9999 -9999 -9999 -9999 -9999 -9999 -9999 -9999 -9999 -9999 -9999 -9999 -9999 -9999 -9999 
-9999 -9999 -9999 -9999 -9999 -9999 -9999 -9999 -9999 -9999 -9999 -9999 -9999 67.66666412353515625 -9999 -9999 -9999 -9999 101 101 101 -9999 -9999 -9999 -9999 -9999 -9999 -9999 84.33333587646484375 -9999 -9999 -9999 -9999 84.33333587646484375 84.33333587646484375 84.33333587646484375 -9999 -9999 84.33333587646484375 84.33333587646484375 84.33333587646484375 84.33333587646484375 84.33333587646484375 84.33333587646484375 -9999 84.33333587646484375 -9999 84.33333587646484375 67.66666412353515625 -9999 -9999 67.66666412353515625 -9999 51 51 51 -9999 -9999 -9999 -9999 -9999 -9999 -9999 -9999 -9999 -9999 -9999 -9999 -9999 -9999 67.66666412353515625 -9999 84.33333587646484375 67.66666412353515625 -9999 67.66666412353515625 -9999 -9999 -9999 -9999 -9999 -9999 -9999 -9999 -9999 101 -9999 -9999 -9999 67.66666412353515625 67.66666412353515625 -9999 -9999 -9999 -9999 -9999 -9999 -9999 -9999 -9999 -9999 -9999 -9999 -9999 -9999 -9999 -9999 -9999 -9999 -9999 -9999 -9999 -9999 -9999 -9999 -9999 -9999 -9999 -9999 -9999 -9999 -9999 -9999 -9999 -9999 -9999 -9999 
-9999 -9999 -9999 -9999 -9999 -9999 -9999 -9999 -9999 -9999 -9999 -9999 67.66666412353515625 -9999 67.66666412353515625 -9999 -9999 101 -9999 -9999 -9999 -9999 -9999 -9999 -9999 -9999 -9999 84.33333587646484375 84.33333587646484375 84.33333587646484375 84.33333587646484375 -9999 84.33333587646484375 84.33333587646484375 84.33333587646484375 84.33333587646484375 84.33333587646484375 -9999 84.33333587646484375 -9999 -9999 -9999 84.33333587646484375 -9999 -9999 -9999 84.33333587646484375 67.66666412353515625 67.66666412353515625 67.66666412353515625 67.66666412353515625 67.66666412353515625 67.66666412353515625 -9999 -9999 -9999 51 -9999 -9999 -9999 -9999 -9999 -9999 -9999 -9999 -9999 51 -9999 -9999 -9999 67.66666412353515625 -9999 -9999 -9999 67.66666412353515625 51 51 84.33333587646484375 -9999 -9999 -9999 -9999 -9999 84.33333587646484375 84.33333587646484375 84.33333587646484375 84.33333587646484375 84.33333587646484375 -9999 -9999 -9999 67.66666412353515625 -9999 -9999 101 -9999 -9999 -9999 -9999 -9999 -9999 -9999 -9999 -9999 -9999 -9999 -9999 -9999 -9999 -9999 -9999 -9999 -9999 -9999 -9999 -9999 -9999 -9999 -9999 -9999 -9999 -9999 -9999 -9999 -9999 -9999 -9999 
-9999 -9999 -9999 -9999 -9999 -9999 -9999 -9999 -9999 -9999 -9999 -9999 -9999 67.66666412353515625 67.66666412353515625 67.66666412353515625 101 -9999 101 -9999 101 -9999 101 -9999 -9999 -9999 -9999 -9999 84.33333587646484375 84.33333587646484375 -9999 84.33333587646484375 84.33333587646484375 -9999 -9999 84.33333587646484375 -9999 -9999 -9999 -9999 84.33333587646484375 101 -9999 67.66666412353515625 67.66666412353515625 -9999 67.66666412353515625 -9999 -9999 67.66666412353515625 67.66666412353515625 -9999 -9999 67.66666412353515625 -9999 51 -9999 51 -9999 -9999 -9999 -9999 -9999 -9999 -9999 -9999 -9999 51 67.66666412353515625 -9999 -9999 -9999 67.66666412353515625 -9999 67.66666412353515625 51 51 -9999 -9999 -9999 -9999 -9999 -9999 84.33333587646484375 84.33333587646484375 -9999 84.33333587646484375 67.66666412353515625 -9999 -9999 -9999 67.66666412353515625 -9999 67.66666412353515625 -9999 -9999 -9999 -9999 -9999 -9999 -9999 -9999 -9999 -9999 -9999 -9999 -9999 -9999 -9999 -9999 -9999 -9999 -9999 -9999 -9999 -9999 -9999 -9999 -9999 -9999 -9999 -9999 -9999 -9999 -9999 -9999 -9999 
-9999 -9999 -9999 -9999 -9999 -9999 -9999 -9999 -9999 67.66666412353515625 -9999 -9999 -9999 -9999 -9999 -9999 101 -9999 67.66666412353515625 67.66666412353515625 -9999 -9999 101 101 -9999 -9999 -9999 -9999 84.33333587646484375 -9999 84.33333587646484375 84.33333587646484375 -9999 84.33333587646484375 84.33333587646484375 -9999 84.33333587646484375 84.33333587646484375 -9999 84.33333587646484375 -9999 -9999 67.66666412353515625 -9999 67.66666412353515625 67.66666412353515625 67.66666412353515625 -9999 -9999 67.66666412353515625 67.66666412353515625 67.66666412353515625 67.66666412353515625 67.66666412353515625 -9999 -9999 -9999 51 51 -9999 -9999 -9999 -9999 -9999 51 51 51 101 67.66666412353515625 -9999 67.66666412353515625 67.66666412353515625 -9999 67.66666412353515625 -9999 -9999 51 -9999 -9999 -9999 -9999 -9999 -9999 -9999 -9999 84.33333587646484375 -9999 67.66666412353515625 67.66666412353515625 -9999 84.33333587646484375 84.33333587646484375 -9999 -9999 -9999 -9999 -9999 -9999 -9999 -9999 -9999 -9999 -9999 -9999 -9999 -9999 -9999 -9999 -9999 -9999 -9999 -9999 -9999 -9999 -9999 -9999 -9999 -9999 -9999 -9999 -9999 -9999 -9999 -9999 -9999 -9999 -9999 
-9999 -9999 -9999 -9999 -9999 -9999 -9999 -9999 67.66666412353515625 -9999 -9999 -9999 -9999 -9999 67.66666412353515625 -9999 -9999 101 -9999 101 -9999 101 -9999 -9999 67.66666412353515625 -9999 -9999 84.33333587646484375 84.33333587646484375 84.33333587646484375 84.33333587646484375 101 101 84.33333587646484375 84.33333587646484375 -9999 84.33333587646484375 84.33333587646484375 84.33333587646484375 84.33333587646484375 -9999 84.33333587646484375 84.33333587646484375 -9999 67.66666412353515625 67.66666412353515625 -9999 -9999 67.66666412353515625 101 67.66666412353515625 67.66666412353515625 67.66666412353515625 67.66666412353515625 -9999 51 51 51 51 -9999 -9999 -9999 -9999 -9999 51 -9999 51 -9999 67.66666412353515625 -9999 67.66666412353515625 67.66666412353515625 -9999 67.66666412353515625 -9999 51 -9999 -9999 -9999 -9999 -9999 -9999 -9999 101 -9999 84.33333587646484375 67.66666412353515625 67.66666412353515625 -9999 -9999 -9999 -9999 -9999 -9999 -9999 -9999 -9999 -9999 -9999 -9999 -9999 -9999 -9999 -9999 -9999 -9999 -9999 -9999 -9999 -9999 -9999 -9999 -9999 -9999 -9999 -9999 -9999 -9999 -9999 -9999 -9999 -9999 -9999 -9999 -9999 -9999 -9999 
-9999 -9999 -9999 -9999 -9999 -9999 101 101 -9999 -9999 -9999 -9999 67.66666412353515625 -9999 -9999 101 -9999 67.66666412353515625 67.66666412353515625 -9999 -9999 67.66666412353515625 67.66666412353515625 -9999 -9999 -9999 84.33333587646484375 -9999 101 84.33333587646484375 84.33333587646484375 84.33333587646484375 -9999 84.33333587646484375 84.33333587646484375 -9999 84.33333587646484375 84.33333587646484375 84.33333587646484375 -9999 -9999 84.33333587646484375 84.33333587646484375 84.33333587646484375 -9999 84.33333587646484375 -9999 -9999 -9999 -9999 67.66666412353515625 101 -9999 -9999 101 -9999 51 51 -9999 -9999 -9999 -9999 -9999 51 51 51 -9999 51 67.66666412353515625 -9999 67.66666412353515625 67.66666412353515625 84.33333587646484375 84.33333587646484375 67.66666412353515625 -9999 51 -9999 -9999 17.666666030883789062 -9999 -9999 67.66666412353515625 101 67.66666412353515625 101 67.66666412353515625 -9999 84.33333587646484375 84.33333587646484375 -9999 -9999 84.33333587646484375 -9999 101 101 -9999 -9999 -9999 -9999 -9999 -9999 -9999 -9999 -9999 -9999 -9999 -9999 -9999 -9999 -9999 -9999 -9999 -9999 -9999 -9999 -9999 -9999 -9999 -9999 -9999 -9999 -9999 -9999 -9999 -9999 -9999 
-9999 -9999 -9999 -9999 -9999 -9999 101 -9999 67.66666412353515625 -9999 -9999 -9999 -9999 -9999 -9999 101 -9999 67.66666412353515625 101 101 -9999 101 67.66666412353515625 -9999 -9999 -9999 84.33333587646484375 -9999 -9999 101 -9999 84.33333587646484375 -9999 84.33333587646484375 -9999 84.33333587646484375 -9999 -9999 -9999 84.33333587646484375 -9999 84.33333587646484375 84.33333587646484375 67.66666412353515625 84.33333587646484375 84.33333587646484375 -9999 67.66666412353515625 67.66666412353515625 67.66666412353515625 67.66666412353515625 -9999 -9999 -9999 101 51 -9999 -9999 51 51 51 -9999 51 51 51 51 -9999 -9999 -9999 -9999 -9999 -9999 -9999 -9999 -9999 51 -9999 -9999 -9999 17.666666030883789062 -9999 -9999 -9999 -9999 -9999 67.66666412353515625 84.33333587646484375 84.33333587646484375 84.33333587646484375 -9999 -9999 -9999 -9999 84.33333587646484375 84.33333587646484375 -9999 -9999 -9999 -9999 -9999 -9999 -9999 -9999 -9999 -9999 -9999 -9999 -9999 -9999 -9999 -9999 -9999 -9999 -9999 -9999 -9999 -9999 -9999 -9999 -9999 -9999 -9999 -9999 -9999 -9999 -9999 -9999 
-9999 -9999 -9999 -9999 -9999 -9999 -9999 101 101 -9999 -9999 -9999 -9999 -9999 -9999 -9999 101 67.66666412353515625 -9999 -9999 -9999 67.66666412353515625 -9999 67.66666412353515625 -9999 -9999 -9999 67.66666412353515625 67.66666412353515625 84.33333587646484375 84.33333587646484375 -9999 84.33333587646484375 -9999 -9999 -9999 84.33333587646484375 84.33333587646484375 84.33333587646484375 84.33333587646484375 84.33333587646484375 -9999 84.33333587646484375 -9999 67.66666412353515625 84.33333587646484375 67.66666412353515625 67.66666412353515625 67.66666412353515625 -9999 -9999 -9999 -9999 -9999 101 -9999 -9999 -9999 -9999 -9999 51 51 -9999 -9999 51 51 51 51 51 -9999 -9999 67.66666412353515625 -9999 67.66666412353515625 67.66666412353515625 -9999 -9999 -9999 -9999 17.666666030883789062 -9999 -9999 67.66666412353515625 67.66666412353515625 -9999 67.66666412353515625 84.33333587646484375 -9999 -9999 -9999 -9999 -9999 84.33333587646484375 101 -9999 -9999 -9999 -9999 -9999 -9999 -9999 -9999 -9999 -9999 -9999 -9999 -9999 -9999 -9999 -9999 -9999 -9999 -9999 -9999 -9999 -9999 -9999 -9999 -9999 -9999 -9999 -9999 -9999 -9999 -9999 -9999 -9999 
-9999 -9999 -9999 -9999 -9999 -9999 -9999 -9999 101 -9999 101 101 -9999 101 -9999 101 101 -9999 101 -9999 101 -9999 -9999 -9999 -9999 -9999 84.33333587646484375 84.33333587646484375 84.33333587646484375 -9999 -9999 84.33333587646484375 84.33333587646484375 84.33333587646484375 -9999 84.33333587646484375 -9999 -9999 101 84.33333587646484375 -9999 -9999 -9999 -9999 -9999 84.33333587646484375 67.66666412353515625 -9999 101 -9999 -9999 -9999 -9999 101 -9999 51 -9999 -9999 -9999 -9999 51 51 51 51 51 51 51 51 51 -9999 67.66666412353515625 -9999 -9999 67.66666412353515625 -9999 51 51 -9999 -9999 17.666666030883789062 -9999 -9999 -9999 67.66666412353515625 67.66666412353515625 -9999 -9999 67.66666412353515625 84.33333587646484375 84.33333587646484375 -9999 -9999 -9999 -9999 -9999 101 67.66666412353515625 101 84.33333587646484375 -9999 -9999 -9999 -9999 -9999 -9999 -9999 -9999 -9999 -9999 -9999 -9999 -9999 -9999 -9999 -9999 -9999 -9999 -9999 -9999 -9999 -9999 -9999 -9999 -9999 -9999 -9999 -9999 
-9999 -9999 -9999 -9999 -9999 101 101 -9999 101 -9999 -9999 101 67.66666412353515625 -9999 101 101 -9999 101 101 -9999 -9999 -9999 -9999 67.66666412353515625 -9999 84.33333587646484375 84.33333587646484375 84.33333587646484375 -9999 84.33333587646484375 -9999 84.33333587646484375 -9999 84.33333587646484375 84.33333587646484375 84.33333587646484375 84.33333587646484375 -9999 84.33333587646484375 -9999 -9999 -9999 -9999 -9999 -9999 67.66666412353515625 -9999 -9999 -9999 -9999 -9999 -9999 -9999 -9999 -9999 101 -9999 -9999 51 51 51 51 51 51 51 51 51 34.333332061767578125 34.333332061767578125 -9999 -9999 -9999 67.66666412353515625 51 51 -9999 34.333332061767578125 -9999 -9999 17.666666030883789062 -9999 -9999 -9999 -9999 67.66666412353515625 -9999 67.66666412353515625 84.33333587646484375 84.33333587646484375 -9999 -9999 -9999 67.66666412353515625 -9999 -9999 -9999 -9999 -9999 101 -9999 -9999 -9999 -9999 -9999 -9999 -9999 -9999 -9999 -9999 -9999 -9999 -9999 -9999 -9999 -9999 -9999 -9999 -9999 -9999 -9999 -9999 -9999 -9999 -9999 -9999 -9999 -9999 
-9999 -9999 -9999 -9999 -9999 -9999 101 -9999 -9999 -9999 -9999 101 67.66666412353515625 -9999 101 101 -9999 -9999 -9999 67.66666412353515625 67.66666412353515625 -9999 67.66666412353515625 101 -9999 84.33333587646484375 -9999 -9999 -9999 84.33333587646484375 -9999 84.33333587646484375 -9999 -9999 -9999 -9999 84.33333587646484375 -9999 67.66666412353515625 -9999 -9999 -9999 -9999 84.33333587646484375 84.33333587646484375 -9999 -9999 -9999 -9999 -9999 -9999 -9999 -9999 101 -9999 -9999 51 -9999 -9999 -9999 51 51 51 34.333332061767578125 -9999 34.333332061767578125 34.333332061767578125 34.333332061767578125 34.333332061767578125 -9999 -9999 -9999 51 51 51 34.333332061767578125 -9999 -9999 -9999 17.666666030883789062 -9999 -9999 -9999 67.66666412353515625 67.66666412353515625 84.33333587646484375 -9999 -9999 -9999 67.66666412353515625 67.66666412353515625 67.66666412353515625 -9999 67.66666412353515625 -9999 -9999 84.33333587646484375 84.33333587646484375 84.33333587646484375 51 51 -9999 -9999 -9999 -9999 -9999 -9999 -9999 -9999 -9999 -9999 -9999 -9999 -9999 -9999 -9999 -9999 -9999 -9999 -9999 -9999 -9999 -9999 -9999 -9999 -9999 -9999 
-9999 -9999 -9999 -9999 -9999 -9999 -9999 -9999 -9999 -9999 -9999 -9999 -9999 67.66666412353515625 101 101 101 67.66666412353515625 67.66666412353515625 67.66666412353515625 -9999 67.66666412353515625 67.66666412353515625 -9999 -9999 -9999 84.33333587646484375 -9999 -9999 -9999 -9999 -9999 -9999 84.33333587646484375 84.33333587646484375 84.33333587646484375 -9999 -9999 -9999 -9999 -9999 67.66666412353515625 -9999 84.33333587646484375 -9999 -9999 -9999 -9999 -9999 101 -9999 -9999 -9999 101 -9999 -9999 51 -9999 -9999 -9999 -9999 -9999 34.333332061767578125 -9999 34.333332061767578125 34.333332061767578125 34.333332061767578125 34.333332061767578125 34.333332061767578125 -9999 -9999 -9999 -9999 51 51 34.333332061767578125 34.333332061767578125 -9999 -9999 17.666666030883789062 -9999 -9999 -9999 67.66666412353515625 67.66666412353515625 -9999 51 -9999 51 51 67.66666412353515625 67.66666412353515625 67.66666412353515625 67.66666412353515625 -9999 -9999 84.33333587646484375 -9999 -9999 51 -9999 -9999 -9999 -9999 -9999 -9999 -9999 -9999 -9999 -9999 -9999 -9999 -9999 -9999 -9999 -9999 -9999 -9999 -9999 -9999 -9999 -9999 -9999 -9999 -9999 -9999 -9999 
-9999 -9999 -9999 -9999 -9999 -9999 -9999 -9999 -9999 -9999 -9999 -9999 -9999 67.66666412353515625 67.66666412353515625 -9999 101 67.66666412353515625 101 -9999 67.66666412353515625 67.66666412353515625 -9999 -9999 84.33333587646484375 -9999 -9999 -9999 -9999 67.66666412353515625 -9999 -9999 -9999 -9999 84.33333587646484375 -9999 -9999 -9999 -9999 -9999 -9999 67.66666412353515625 67.66666412353515625 84.33333587646484375 -9999 -9999 -9999 -9999 -9999 -9999 -9999 -9999 101 101 -9999 101 34.333332061767578125 -9999 -9999 -9999 -9999 -9999 34.333332061767578125 34.333332061767578125 -9999 34.333332061767578125 34.333332061767578125 34.333332061767578125 34.333332061767578125 -9999 67.66666412353515625 -9999 -9999 51 -9999 -9999 -9999 -9999 -9999 17.666666030883789062 17.666666030883789062 67.66666412353515625 -9999 -9999 -9999 -9999 51 -9999 -9999 101 51 67.66666412353515625 67.66666412353515625 67.66666412353515625 67.66666412353515625 -9999 -9999 -9999 101 51 -9999 -9999 -9999 -9999 -9999 -9999 -9999 -9999 -9999 -9999 -9999 -9999 -9999 -9999 -9999 -9999 -9999 -9999 -9999 -9999 -9999 -9999 -9999 -9999 -9999 -9999 -9999 
-9999 -9999 -9999 -9999 -9999 -9999 -9999 -9999 -9999 -9999 -9999 -9999 101 101 -9999 -9999 -9999 -9999 67.66666412353515625 67.66666412353515625 67.66666412353515625 -9999 101 -9999 -9999 -9999 -9999 67.66666412353515625 -9999 -9999 -9999 -9999 84.33333587646484375 84.33333587646484375 -9999 67.66666412353515625 67.66666412353515625 67.66666412353515625 67.66666412353515625 67.66666412353515625 -9999 67.66666412353515625 -9999 -9999 -9999 -9999 -9999 -9999 -9999 -9999 101 -9999 101 -9999 -9999 101 101 -9999 -9999 -9999 -9999 -9999 34.333332061767578125 34.333332061767578125 34.333332061767578125 -9999 34.333332061767578125 34.333332061767578125 -9999 -9999 -9999 -9999 -9999 -9999 51 -9999 -9999 51 -9999 17.666666030883789062 17.666666030883789062 67.66666412353515625 -9999 -9999 51 51 -9999 51 51 51 -9999 51 67.66666412353515625 67.66666412353515625 -9999 -9999 67.66666412353515625 -9999 -9999 51 -9999 -9999 -9999 -9999 101 -9999 -9999 -9999 -9999 -9999 -9999 -9999 -9999 -9999 -9999 -9999 -9999 -9999 -9999 -9999 -9999 -9999 -9999 -9999 -9999 -9999 -9999 
-9999 -9999 -9999 -9999 -9999 -9999 -9999 -9999 -9999 -9999 -9999 -9999 101 67.66666412353515625 -9999 101 -9999 67.66666412353515625 -9999 -9999 -9999 -9999 -9999 -9999 -9999 -9999 67.66666412353515625 -9999 -9999 -9999 -9999 -9999 -9999 -9999 67.66666412353515625 -9999 -9999 -9999 -9999 67.66666412353515625 101 -9999 -9999 -9999 -9999 -9999 -9999 -9999 -9999 -9999 -9999 -9999 -9999 -9999 -9999 -9999 101 -9999 -9999 -9999 -9999 -9999 -9999 34.333332061767578125 -9999 34.333332061767578125 -9999 -9999 -9999 34.333332061767578125 -9999 51 -9999 -9999 -9999 -9999 -9999 51 -9999 17.666666030883789062 17.666666030883789062 -9999 51 51 51 51 -9999 -9999 51 -9999 -9999 101 -9999 51 67.66666412353515625 67.66666412353515625 -9999 67.66666412353515625 67.66666412353515625 -9999 -9999 -9999 84.33333587646484375 84.33333587646484375 84.33333587646484375 -9999 -9999 -9999 -9999 -9999 -9999 -9999 -9999 -9999 -9999 -9999 -9999 -9999 -9999 -9999 -9999 -9999 -9999 -9999 -9999 -9999 -9999 
-9999 -9999 -9999 -9999 -9999 -9999 -9999 -9999 -9999 -9999 -9999 101 67.66666412353515625 -9999 67.66666412353515625 -9999 101 -9999 -9999 -9999 -9999 -9999 -9999 -9999 67.66666412353515625 -9999 -9999 -9999 -9999 -9999 -9999 -9999 -9999 67.66666412353515625 67.66666412353515625 67.66666412353515625 67.66666412353515625 67.66666412353515625 -9999 -9999 -9999 -9999 -9999 -9999 -9999 -9999 -9999 -9999 -9999 -9999 -9999 -9999 -9999 -9999 -9999 -9999 -9999 34.333332061767578125 -9999 -9999 34.333332061767578125 -9999 67.66666412353515625 -9999 -9999 34.333332061767578125 -9999 -9999 34.333332061767578125 -9999 -9999 -9999 -9999 -9999 17.666666030883789062 51 -9999 -9999 51 -9999 17.666666030883789062 51 51 51 -9999 -9999 -9999 -9999 51 51 51 51 -9999 -9999 -9999 51 51 -9999 67.66666412353515625 -9999 -9999 84.33333587646484375 84.33333587646484375 -9999 -9999 -9999 -9999 -9999 -9999 -9999 -9999 -9999 -9999 -9999 -9999 -9999 -9999 -9999 -9999 -9999 -9999 -9999 -9999 -9999 -9999 -9999 -9999 
-9999 -9999 -9999 -9999 -9999 -9999 -9999 -9999 -9999 -9999 -9999 101 67.66666412353515625 -9999 67.66666412353515625 -9999 -9999 -9999 -9999 -9999 -9999 -9999 -9999 -9999 67.66666412353515625 67.66666412353515625 67.66666412353515625 -9999 -9999 -9999 -9999 101 67.66666412353515625 67.66666412353515625 101 101 -9999 101 101 -9999 -9999 -9999 -9999 -9999 -9999 -9999 -9999 -9999 -9999 -9999 -9999 -9999 -9999 -9999 -9999 -9999 -9999 34.333332061767578125 34.333332061767578125 -9999 -9999 -9999 -9999 34.333332061767578125 34.333332061767578125 -9999 -9999 -9999 34.333332061767578125 34.333332061767578125 -9999 -9999 17.666666030883789062 17.666666030883789062 17.666666030883789062 -9999 -9999 -9999 -9999 -9999 -9999 -9999 51 -9999 51 -9999 101 34.333332061767578125 -9999 51 101 -9999 51 -9999 51 51 -9999 67.66666412353515625 -9999 67.66666412353515625 67.66666412353515625 84.33333587646484375 -9999 -9999 -9999 101 -9999 -9999 -9999 -9999 -9999 -9999 -9999 -9999 -9999 -9999 -9999 -9999 -9999 -9999 -9999 -9999 -9999 -9999 -9999 -9999 -9999 
-9999 -9999 -9999 -9999 -9999 -9999 -9999 -9999 -9999 -9999 -9999 67.66666412353515625 -9999 101 101 -9999 -9999 -9999 -9999 -9999 -9999 101 67.66666412353515625 67.66666412353515625 67.66666412353515625 -9999 -9999 67.66666412353515625 67.66666412353515625 -9999 -9999 67.66666412353515625 67.66666412353515625 -9999 -9999 67.66666412353515625 101 67.66666412353515625 -9999 -9999 -9999 -9999 -9999 -9999 -9999 -9999 -9999 -9999 -9999 -9999 -9999 -9999 -9999 -9999 -9999 -9999 -9999 -9999 -9999 -9999 -9999 51 34.333332061767578125 34.333332061767578125 -9999 34.333332061767578125 -9999 34.333332061767578125 -9999 34.333332061767578125 -9999 34.333332061767578125 17.666666030883789062 -9999 34.333332061767578125 -9999 -9999 -9999 -9999 -9999 17.666666030883789062 -9999 -9999 -9999 -9999 51 51 51 34.333332061767578125 51 -9999 51 -9999 -9999 51 -9999 -9999 -9999 67.66666412353515625 84.33333587646484375 -9999 84.33333587646484375 -9999 -9999 101 -9999 -9999 -9999 -9999 -9999 -9999 101 -9999 -9999 -9999 101 -9999 -9999 -9999 -9999 -9999 -9999 -9999 -9999 -9999 -9999 -9999 
-9999 -9999 -9999 -9999 -9999 -9999 -9999 -9999 -9999 -9999 -9999 -9999 -9999 101 -9999 -9999 -9999 -9999 -9999 -9999 -9999 67.66666412353515625 67.66666412353515625 67.66666412353515625 -9999 67.66666412353515625 67.66666412353515625 67.66666412353515625 67.66666412353515625 -9999 -9999 -9999 -9999 -9999 101 101 67.66666412353515625 67.66666412353515625 101 101 -9999 -9999 -9999 -9999 -9999 -9999 -9999 -9999 -9999 -9999 -9999 -9999 -9999 -9999 -9999 -9999 -9999 101 51 51 51 51 34.333332061767578125 -9999 34.333332061767578125 34.333332061767578125 34.333332061767578125 -9999 -9999 -9999 34.333332061767578125 -9999 -9999 -9999 34.333332061767578125 -9999 -9999 -9999 -9999 -9999 -9999 17.666666030883789062 51 51 51 -9999 -9999 51 51 -9999 -9999 51 -9999 -9999 67.66666412353515625 67.66666412353515625 67.66666412353515625 67.66666412353515625 67.66666412353515625 -9999 101 84.33333587646484375 -9999 -9999 84.33333587646484375 -9999 -9999 -9999 -9999 -9999 -9999 101 -9999 -9999 -9999 -9999 -9999 -9999 -9999 -9999 -9999 -9999 -9999 -9999 -9999 -9999 -9999 
-9999 -9999 -9999 -9999 -9999 -9999 -9999 -9999 -9999 -9999 -9999 -9999 101 -9999 -9999 -9999 -9999 -9999 -9999 -9999 101 67.66666412353515625 67.66666412353515625 101 67.66666412353515625 67.66666412353515625 67.66666412353515625 -9999 -9999 67.66666412353515625 67.66666412353515625 67.66666412353515625 67.66666412353515625 67.66666412353515625 101 67.66666412353515625 67.66666412353515625 101 101 -9999 -9999 -9999 -9999 -9999 -9999 -9999 -9999 -9999 -9999 -9999 -9999 -9999 -9999 -9999 -9999 -9999 -9999 101 51 51 51 51 34.333332061767578125 34.333332061767578125 34.333332061767578125 -9999 34.333332061767578125 34.333332061767578125 34.333332061767578125 34.333332061767578125 34.333332061767578125 -9999 -9999 -9999 34.333332061767578125 -9999 -9999 -9999 -9999 -9999 -9999 -9999 51 51 51 51 -9999 34.333332061767578125 34.333332061767578125 34.333332061767578125 51 34.333332061767578125 -9999 67.66666412353515625 67.66666412353515625 67.66666412353515625 67.66666412353515625 -9999 -9999 -9999 -9999 84.33333587646484375 -9999 84.33333587646484375 84.33333587646484375 -9999 -9999 -9999 -9999 101 -9999 -9999 -9999 -9999 -9999 -9999 -9999 -9999 -9999 -9999 -9999 -9999 -9999 -9999 -9999 -9999 -9999 
-9999 -9999 -9999 -9999 -9999 -9999 -9999 -9999 -9999 -9999 -9999 -9999 -9999 -9999 -9999 -9999 -9999 -9999 -9999 -9999 -9999 101 101 -9999 -9999 -9999 67.66666412353515625 -9999 -9999 67.66666412353515625 67.66666412353515625 67.66666412353515625 67.66666412353515625 -9999 101 -9999 -9999 67.66666412353515625 -9999 -9999 -9999 -9999 -9999 -9999 -9999 -9999 -9999 -9999 -9999 -9999 -9999 -9999 -9999 -9999 -9999 -9999 101 101 51 51 51 51 34.333332061767578125 34.333332061767578125 34.333332061767578125 34.333332061767578125 34.333332061767578125 34.333332061767578125 -9999 -9999 34.333332061767578125 34.333332061767578125 34.333332061767578125 34.333332061767578125 34.333332061767578125 -9999 -9999 34.333332061767578125 -9999 -9999 17.666666030883789062 51 -9999 51 -9999 34.333332061767578125 -9999 101 34.333332061767578125 34.333332061767578125 34.333332061767578125 101 51 -9999 -9999 -9999 -9999 -9999 -9999 -9999 -9999 84.33333587646484375 84.33333587646484375 -9999 -9999 84.33333587646484375 101 -9999 -9999 -9999 -9999 -9999 -9999 -9999 -9999 -9999 -9999 -9999 -9999 -9999 -9999 -9999 -9999 -9999 -9999 -9999 -9999 
-9999 -9999 -9999 -9999 -9999 -9999 -9999 -9999 -9999 -9999 -9999 -9999 -9999 -9999 -9999 -9999 -9999 -9999 -9999 -9999 -9999 -9999 -9999 -9999 -9999 -9999 67.66666412353515625 -9999 -9999 -9999 67.66666412353515625 -9999 -9999 -9999 67.66666412353515625 67.66666412353515625 -9999 67.66666412353515625 67.66666412353515625 -9999 -9999 -9999 -9999 -9999 -9999 -9999 -9999 -9999 -9999 -9999 -9999 -9999 -9999 -9999 -9999 101 101 67.66666412353515625 67.66666412353515625 67.66666412353515625 -9999 -9999 -9999 -9999 -9999 34.333332061767578125 34.333332061767578125 34.333332061767578125 34.333332061767578125 34.333332061767578125 34.333332061767578125 34.333332061767578125 34.333332061767578125 34.333332061767578125 34.333332061767578125 34.333332061767578125 34.333332061767578125 -9999 -9999 -9999 17.666666030883789062 51 51 51 51 -9999 -9999 34.333332061767578125 -9999 34.333332061767578125 34.333332061767578125 -9999 51 -9999 51 -9999 -9999 -9999 -9999 -9999 -9999 -9999 -9999 84.33333587646484375 84.33333587646484375 -9999 -9999 -9999 -9999 -9999 -9999 -9999 -9999 -9999 -9999 -9999 -9999 -9999 -9999 -9999 -9999 -9999 -9999 -9999 -9999 -9999 -9999 
-9999 -9999 -9999 -9999 -9999 -9999 -9999 -9999 -9999 -9999 -9999 -9999 -9999 -9999 -9999 -9999 -9999 -9999 -9999 -9999 -9999 -9999 -9999 -9999 -9999 -9999 67.66666412353515625 -9999 -9999 67.66666412353515625 84.33333587646484375 67.66666412353515625 84.33333587646484375 -9999 84.33333587646484375 67.66666412353515625 -9999 67.66666412353515625 -9999 -9999 -9999 -9999 -9999 -9999 -9999 -9999 -9999 -9999 -9999 -9999 -9999 -9999 -9999 101 -9999 101 67.66666412353515625 -9999 -9999 51 -9999 -9999 51 -9999 -9999 -9999 17.666666030883789062 -9999 34.333332061767578125 34.333332061767578125 -9999 -9999 34.333332061767578125 -9999 34.333332061767578125 -9999 34.333332061767578125 101 17.666666030883789062 101 17.666666030883789062 -9999 34.333332061767578125 34.333332061767578125 34.333332061767578125 34.333332061767578125 34.333332061767578125 34.333332061767578125 34.333332061767578125 34.333332061767578125 -9999 51 51 -9999 -9999 -9999 -9999 67.66666412353515625 -9999 -9999 -9999 -9999 -9999 -9999 -9999 -9999 -9999 -9999 -9999 -9999 67.66666412353515625 -9999 101 -9999 -9999 -9999 -9999 -9999 -9999 -9999 -9999 -9999 -9999 -9999 -9999 -9999 -9999 
-9999 -9999 -9999 -9999 -9999 -9999 -9999 -9999 -9999 -9999 -9999 -9999 -9999 -9999 -9999 -9999 -9999 -9999 -9999 -9999 -9999 -9999 -9999 -9999 -9999 67.66666412353515625 -9999 -9999 -9999 -9999 -9999 -9999 -9999 -9999 84.33333587646484375 84.33333587646484375 -9999 -9999 -9999 -9999 -9999 -9999 -9999 -9999 -9999 -9999 -9999 -9999 101 101 -9999 -9999 -9999 -9999 101 -9999 -9999 -9999 67.66666412353515625 51 -9999 -9999 -9999 -9999 -9999 34.333332061767578125 34.333332061767578125 -9999 -9999 34.333332061767578125 17.666666030883789062 17.666666030883789062 17.666666030883789062 -9999 34.333332061767578125 -9999 17.666666030883789062 17.666666030883789062 -9999 -9999 -9999 34.333332061767578125 34.333332061767578125 34.333332061767578125 34.333332061767578125 34.333332061767578125 -9999 34.333332061767578125 34.333332061767578125 -9999 -9999 51 51 67.66666412353515625 -9999 -9999 -9999 -9999 -9999 -9999 -9999 -9999 67.66666412353515625 67.66666412353515625 -9999 101 -9999 -9999 -9999 67.66666412353515625 67.66666412353515625 101 -9999 -9999 -9999 -9999 -9999 -9999 -9999 -9999 -9999 -9999 -9999 -9999 -9999 -9999 -9999 
-9999 -9999 -9999 -9999 -9999 -9999 -9999 -9999 -9999 -9999 -9999 -9999 -9999 -9999 -9999 -9999 -9999 -9999 -9999 -9999 -9999 -9999 -9999 -9999 -9999 -9999 -9999 -9999 -9999 -9999 -9999 101 -9999 -9999 -9999 -9999 -9999 -9999 -9999 -9999 -9999 -9999 -9999 -9999 -9999 -9999 -9999 -9999 -9999 -9999 -9999 -9999 -9999 -9999 -9999 -9999 67.66666412353515625 -9999 -9999 -9999 51 51 -9999 -9999 -9999 34.333332061767578125 -9999 -9999 -9999 34.333332061767578125 -9999 34.333332061767578125 34.333332061767578125 34.333332061767578125 17.666666030883789062 17.666666030883789062 17.666666030883789062 17.666666030883789062 17.666666030883789062 -9999 -9999 34.333332061767578125 34.333332061767578125 34.333332061767578125 34.333332061767578125 34.333332061767578125 34.333332061767578125 34.333332061767578125 51 51 -9999 51 34.333332061767578125 34.333332061767578125 -9999 -9999 -9999 -9999 -9999 -9999 -9999 -9999 -9999 -9999 67.66666412353515625 101 -9999 -9999 67.66666412353515625 67.66666412353515625 67.66666412353515625 -9999 -9999 -9999 -9999 -9999 -9999 -9999 -9999 -9999 -9999 -9999 -9999 -9999 -9999 -9999 -9999 
-9999 -9999 -9999 -9999 -9999 -9999 -9999 -9999 -9999 -9999 -9999 -9999 -9999 -9999 -9999 -9999 -9999 -9999 -9999 -9999 -9999 -9999 -9999 -9999 -9999 -9999 -9999 -9999 -9999 -9999 -9999 84.33333587646484375 84.33333587646484375 -9999 -9999 -9999 -9999 -9999 -9999 -9999 -9999 -9999 -9999 -9999 -9999 -9999 -9999 -9999 -9999 -9999 -9999 -9999 101 101 -9999 -9999 67.66666412353515625 -9999 -9999 51 51 -9999 -9999 -9999 34.333332061767578125 -9999 34.333332061767578125 -9999 34.333332061767578125 34.333332061767578125 -9999 -9999 34.333332061767578125 34.333332061767578125 17.666666030883789062 17.666666030883789062 17.666666030883789062 17.666666030883789062 17.666666030883789062 17.666666030883789062 -9999 17.666666030883789062 17.666666030883789062 101 34.333332061767578125 -9999 -9999 34.333332061767578125 34.333332061767578125 -9999 51 51 34.333332061767578125 -9999 -9999 -9999 -9999 -9999 -9999 -9999 -9999 -9999 84.33333587646484375 -9999 -9999 -9999 -9999 67.66666412353515625 67.66666412353515625 67.66666412353515625 -9999 67.66666412353515625 -9999 -9999 -9999 -9999 -9999 -9999 -9999 -9999 -9999 -9999 -9999 -9999 -9999 -9999 -9999 
-9999 -9999 -9999 -9999 -9999 -9999 -9999 -9999 -9999 -9999 -9999 -9999 -9999 -9999 -9999 -9999 -9999 -9999 -9999 -9999 -9999 -9999 -9999 -9999 -9999 -9999 -9999 -9999 -9999 -9999 -9999 -9999 -9999 -9999 -9999 -9999 -9999 -9999 -9999 -9999 -9999 -9999 -9999 -9999 -9999 -9999 -9999 -9999 -9999 -9999 -9999 -9999 101 -9999 67.66666412353515625 67.66666412353515625 -9999 -9999 67.66666412353515625 51 -9999 51 -9999 101 34.333332061767578125 34.333332061767578125 -9999 -9999 34.333332061767578125 -9999 101 34.333332061767578125 -9999 -9999 17.666666030883789062 17.666666030883789062 17.666666030883789062 -9999 17.666666030883789062 17.666666030883789062 17.666666030883789062 -9999 17.666666030883789062 -9999 34.333332061767578125 34.333332061767578125 101 34.333332061767578125 -9999 34.333332061767578125 -9999 -9999 -9999 -9999 -9999 -9999 -9999 -9999 -9999 -9999 67.66666412353515625 -9999 84.33333587646484375 -9999 -9999 101 101 -9999 67.66666412353515625 -9999 -9999 67.66666412353515625 -9999 -9999 -9999 -9999 -9999 -9999 -9999 -9999 -9999 -9999 -9999 -9999 -9999 -9999 -9999 
-9999 -9999 -9999 -9999 -9999 -9999 -9999 -9999 -9999 -9999 -9999 -9999 -9999 -9999 -9999 -9999 -9999 -9999 -9999 -9999 -9999 -9999 -9999 -9999 -9999 -9999 -9999 -9999 -9999 -9999 84.33333587646484375 -9999 -9999 -9999 -9999 -9999 -9999 -9999 -9999 -9999 -9999 -9999 -9999 -9999 -9999 -9999 -9999 -9999 -9999 -9999 -9999 101 101 51 51 -9999 51 -9999 -9999 51 51 51 51 -9999 -9999 -9999 -9999 34.333332061767578125 -9999 17.666666030883789062 17.666666030883789062 -9999 34.333332061767578125 34.333332061767578125 17.666666030883789062 17.666666030883789062 -9999 17.666666030883789062 17.666666030883789062 17.666666030883789062 -9999 34.333332061767578125 34.333332061767578125 101 34.333332061767578125 -9999 34.333332061767578125 34.333332061767578125 -9999 34.333332061767578125 34.333332061767578125 34.333332061767578125 34.333332061767578125 -9999 -9999 -9999 51 51 -9999 67.66666412353515625 -9999 -9999 -9999 84.33333587646484375 101 101 67.66666412353515625 67.66666412353515625 67.66666412353515625 -9999 67.66666412353515625 67.66666412353515625 -9999 -9999 -9999 -9999 -9999 -9999 -9999 -9999 -9999 -9999 -9999 -9999 -9999 -9999 -9999 
-9999 -9999 -9999 -9999 -9999 -9999 -9999 -9999 -9999 -9999 -9999 -9999 -9999 -9999 -9999 -9999 -9999 -9999 -9999 -9999 -9999 -9999 -9999 -9999 -9999 -9999 -9999 -9999 -9999 -9999 -9999 -9999 -9999 -9999 -9999 -9999 -9999 -9999 -9999 -9999 -9999 -9999 -9999 -9999 -9999 -9999 -9999 -9999 -9999 -9999 -9999 -9999 -9999 67.66666412353515625 67.66666412353515625 67.66666412353515625 -9999 51 -9999 -9999 -9999 51 51 -9999 -9999 34.333332061767578125 -9999 -9999 -9999 17.666666030883789062 -9999 17.666666030883789062 17.666666030883789062 17.666666030883789062 17.666666030883789062 17.666666030883789062 17.666666030883789062 -9999 34.333332061767578125 17.666666030883789062 17.666666030883789062 34.333332061767578125 34.333332061767578125 34.333332061767578125 -9999 34.333332061767578125 -9999 34.333332061767578125 -9999 34.333332061767578125 34.333332061767578125 34.333332061767578125 -9999 34.333332061767578125 34.333332061767578125 -9999 -9999 51 -9999 -9999 84.33333587646484375 -9999 101 84.33333587646484375 101 101 -9999 -9999 -9999 67.66666412353515625 -9999 67.66666412353515625 -9999 -9999 -9999 -9999 -9999 -9999 -9999 -9999 -9999 -9999 -9999 -9999 -9999 -9999 -9999 
-9999 -9999 -9999 -9999 -9999 -9999 -9999 -9999 -9999 -9999 -9999 -9999 -9999 -9999 -9999 -9999 -9999 -9999 -9999 -9999 -9999 -9999 -9999 -9999 -9999 -9999 -9999 -9999 -9999 -9999 -9999 -9999 -9999 -9999 -9999 -9999 -9999 -9999 -9999 -9999 -9999 -9999 -9999 -9999 -9999 -9999 -9999 -9999 -9999 -9999 -9999 101 101 -9999 67.66666412353515625 -9999 51 51 -9999 51 51 51 -9999 34.333332061767578125 -9999 34.333332061767578125 -9999 17.666666030883789062 17.666666030883789062 17.666666030883789062 -9999 17.666666030883789062 -9999 17.666666030883789062 17.666666030883789062 -9999 -9999 34.333332061767578125 101 -9999 34.333332061767578125 34.333332061767578125 34.333332061767578125 34.333332061767578125 34.333332061767578125 -9999 34.333332061767578125 34.333332061767578125 34.333332061767578125 34.333332061767578125 34.333332061767578125 34.333332061767578125 -9999 34.333332061767578125 -9999 -9999 67.66666412353515625 -9999 -9999 51 67.66666412353515625 -9999 -9999 -9999 67.66666412353515625 67.66666412353515625 67.66666412353515625 -9999 84.33333587646484375 84.33333587646484375 67.66666412353515625 -9999 -9999 -9999 -9999 -9999 -9999 -9999 -9999 -9999 -9999 -9999 -9999 -9999 -9999 -9999 -9999 
-9999 -9999 -9999 -9999 -9999 -9999 -9999 -9999 -9999 -9999 -9999 -9999 -9999 -9999 -9999 -9999 -9999 -9999 -9999 -9999 -9999 -9999 -9999 -9999 -9999 -9999 -9999 -9999 -9999 -9999 -9999 -9999 -9999 -9999 -9999 -9999 -9999 -9999 -9999 -9999 -9999 -9999 -9999 -9999 -9999 -9999 -9999 -9999 -9999 -9999 101 -9999 -9999 67.66666412353515625 67.66666412353515625 67.66666412353515625 -9999 51 51 51 51 51 -9999 -9999 -9999 -9999 -9999 17.666666030883789062 17.666666030883789062 -9999 -9999 17.666666030883789062 17.666666030883789062 -9999 101 17.666666030883789062 34.333332061767578125 34.333332061767578125 101 34.333332061767578125 -9999 34.333332061767578125 34.333332061767578125 34.333332061767578125 34.333332061767578125 34.333332061767578125 34.333332061767578125 34.333332061767578125 34.333332061767578125 34.333332061767578125 34.333332061767578125 -9999 -9999 -9999 -9999 51 51 51 -9999 51 67.66666412353515625 67.66666412353515625 -9999 67.66666412353515625 67.66666412353515625 -9999 84.33333587646484375 67.66666412353515625 -9999 67.66666412353515625 -9999 -9999 -9999 -9999 -9999 -9999 -9999 -9999 -9999 -9999 -9999 -9999 -9999 -9999 -9999 -9999 -9999 
-9999 -9999 -9999 -9999 -9999 -9999 -9999 -9999 -9999 -9999 -9999 -9999 -9999 -9999 -9999 -9999 -9999 -9999 -9999 -9999 -9999 -9999 -9999 -9999 -9999 -9999 -9999 -9999 -9999 -9999 -9999 -9999 -9999 -9999 -9999 -9999 -9999 -9999 -9999 -9999 -9999 -9999 -9999 -9999 -9999 -9999 -9999 -9999 -9999 -9999 -9999 101 101 101 67.66666412353515625 -9999 51 -9999 -9999 51 51 51 -9999 -9999 -9999 -9999 -9999 -9999 -9999 -9999 17.666666030883789062 -9999 17.666666030883789062 101 17.666666030883789062 -9999 17.666666030883789062 34.333332061767578125 34.333332061767578125 101 34.333332061767578125 34.333332061767578125 34.333332061767578125 17.666666030883789062 17.666666030883789062 17.666666030883789062 17.666666030883789062 34.333332061767578125 34.333332061767578125 -9999 -9999 34.333332061767578125 -9999 34.333332061767578125 34.333332061767578125 -9999 51 -9999 51 51 51 51 51 51 51 -9999 -9999 67.66666412353515625 -9999 -9999 -9999 -9999 -9999 -9999 -9999 -9999 -9999 -9999 -9999 -9999 -9999 -9999 -9999 -9999 -9999 -9999 -9999 
-9999 -9999 -9999 -9999 -9999 -9999 -9999 -9999 -9999 -9999 -9999 -9999 -9999 -9999 -9999 -9999 -9999 -9999 -9999 -9999 -9999 -9999 -9999 -9999 -9999 -9999 -9999 -9999 -9999 -9999 -9999 -9999 -9999 -9999 -9999 -9999 -9999 -9999 -9999 -9999 -9999 -9999 -9999 -9999 101 -9999 -9999 -9999 -9999 -9999 101 -9999 -9999 101 67.66666412353515625 51 -9999 51 -9999 51 51 51 -9999 -9999 -9999 -9999 -9999 17.666666030883789062 17.666666030883789062 17.666666030883789062 17.666666030883789062 17.666666030883789062 17.666666030883789062 17.666666030883789062 17.666666030883789062 17.666666030883789062 17.666666030883789062 34.333332061767578125 34.333332061767578125 34.333332061767578125 34.333332061767578125 34.333332061767578125 17.666666030883789062 -9999 17.666666030883789062 17.666666030883789062 -9999 17.666666030883789062 -9999 -9999 34.333332061767578125 34.333332061767578125 34.333332061767578125 -9999 34.333332061767578125 34.333332061767578125 34.333332061767578125 34.333332061767578125 -9999 -9999 -9999 51 -9999 -9999 51 84.33333587646484375 84.33333587646484375 67.66666412353515625 67.66666412353515625 67.66666412353515625 -9999 -9999 -9999 -9999 -9999 -9999 -9999 -9999 -9999 -9999 -9999 -9999 -9999 -9999 -9999 -9999 -9999 
-9999 -9999 -9999 -9999 -9999 -9999 -9999 -9999 -9999 -9999 -9999 -9999 -9999 -9999 -9999 -9999 -9999 -9999 -9999 -9999 -9999 -9999 -9999 -9999 -9999 -9999 -9999 -9999 -9999 -9999 -9999 -9999 -9999 -9999 -9999 -9999 -9999 -9999 -9999 -9999 -9999 -9999 -9999 101 101 -9999 -9999 -9999 -9999 101 -9999 -9999 -9999 67.66666412353515625 67.66666412353515625 51 51 -9999 -9999 51 51 51 -9999 -9999 -9999 -9999 -9999 17.666666030883789062 17.666666030883789062 -9999 17.666666030883789062 17.666666030883789062 -9999 17.666666030883789062 -9999 17.666666030883789062 34.333332061767578125 34.333332061767578125 34.333332061767578125 101 34.333332061767578125 34.333332061767578125 17.666666030883789062 101 -9999 -9999 17.666666030883789062 -9999 17.666666030883789062 17.666666030883789062 34.333332061767578125 34.333332061767578125 34.333332061767578125 34.333332061767578125 34.333332061767578125 -9999 34.333332061767578125 34.333332061767578125 -9999 -9999 51 -9999 51 -9999 51 67.66666412353515625 84.33333587646484375 67.66666412353515625 51 51 -9999 67.66666412353515625 -9999 -9999 -9999 -9999 67.66666412353515625 67.66666412353515625 -9999 -9999 -9999 -9999 -9999 -9999 -9999 -9999 -9999 
-9999 -9999 -9999 -9999 -9999 -9999 -9999 -9999 -9999 -9999 -9999 -9999 -9999 -9999 -9999 -9999 -9999 -9999 -9999 -9999 -9999 -9999 -9999 -9999 -9999 -9999 -9999 -9999 -9999 -9999 -9999 -9999 -9999 -9999 -9999 -9999 -9999 -9999 -9999 -9999 -9999 -9999 -9999 -9999 -9999 101 101 101 101 -9999 101 101 -9999 67.66666412353515625 67.66666412353515625 67.66666412353515625 -9999 -9999 101 -9999 34.333332061767578125 -9999 -9999 17.666666030883789062 -9999 -9999 -9999 -9999 17.666666030883789062 17.666666030883789062 17.666666030883789062 -9999 17.666666030883789062 17.666666030883789062 17.666666030883789062 -9999 101 34.333332061767578125 34.333332061767578125 -9999 34.333332061767578125 17.666666030883789062 -9999 17.666666030883789062 17.666666030883789062 17.666666030883789062 -9999 -9999 17.666666030883789062 17.666666030883789062 34.333332061767578125 -9999 34.333332061767578125 34.333332061767578125 34.333332061767578125 51 34.333332061767578125 -9999 34.333332061767578125 51 51 51 51 -9999 -9999 -9999 51 -9999 51 51 -9999 67.66666412353515625 67.66666412353515625 67.66666412353515625 67.66666412353515625 67.66666412353515625 67.66666412353515625 67.66666412353515625 -9999 -9999 -9999 -9999 -9999 -9999 -9999 -9999 -9999 
-9999 -9999 -9999 -9999 -9999 -9999 -9999 -9999 -9999 -9999 -9999 -9999 -9999 -9999 -9999 -9999 -9999 -9999 -9999 -9999 -9999 -9999 -9999 -9999 -9999 -9999 -9999 -9999 -9999 -9999 -9999 -9999 -9999 -9999 -9999 -9999 -9999 -9999 -9999 -9999 -9999 -9999 101 -9999 -9999 51 51 51 51 51 101 -9999 -9999 -9999 34.333332061767578125 34.333332061767578125 -9999 101 -9999 -9999 34.333332061767578125 -9999 34.333332061767578125 34.333332061767578125 -9999 17.666666030883789062 -9999 -9999 -9999 17.666666030883789062 -9999 17.666666030883789062 17.666666030883789062 -9999 17.666666030883789062 17.666666030883789062 17.666666030883789062 34.333332061767578125 34.333332061767578125 34.333332061767578125 34.333332061767578125 34.333332061767578125 -9999 -9999 17.666666030883789062 17.666666030883789062 17.666666030883789062 17.666666030883789062 17.666666030883789062 17.666666030883789062 -9999 34.333332061767578125 34.333332061767578125 -9999 51 -9999 51 51 51 51 -9999 51 51 -9999 51 51 51 51 51 -9999 -9999 67.66666412353515625 -9999 67.66666412353515625 67.66666412353515625 67.66666412353515625 -9999 -9999 -9999 -9999 -9999 -9999 -9999 -9999 -9999 -9999 -9999 
-9999 -9999 -9999 -9999 -9999 -9999 -9999 -9999 -9999 -9999 -9999 -9999 -9999 -9999 -9999 -9999 -9999 -9999 -9999 -9999 -9999 -9999 -9999 -9999 -9999 -9999 -9999 -9999 -9999 -9999 -9999 -9999 -9999 -9999 -9999 -9999 -9999 -9999 -9999 -9999 -9999 -9999 101 -9999 -9999 51 -9999 -9999 -9999 -9999 -9999 -9999 -9999 -9999 101 -9999 -9999 -9999 -9999 34.333332061767578125 -9999 34.333332061767578125 -9999 -9999 101 34.333332061767578125 17.666666030883789062 -9999 -9999 17.666666030883789062 -9999 17.666666030883789062 -9999 -9999 -9999 17.666666030883789062 17.666666030883789062 -9999 -9999 -9999 34.333332061767578125 -9999 17.666666030883789062 -9999 17.666666030883789062 -9999 17.666666030883789062 17.666666030883789062 17.666666030883789062 -9999 34.333332061767578125 34.333332061767578125 34.333332061767578125 -9999 -9999 34.333332061767578125 51 67.66666412353515625 51 51 51 51 -9999 51 -9999 51 -9999 -9999 51 -9999 -9999 67.66666412353515625 -9999 -9999 -9999 67.66666412353515625 -9999 -9999 -9999 -9999 -9999 -9999 -9999 -9999 -9999 -9999 -9999 
-9999 -9999 -9999 -9999 -9999 -9999 -9999 -9999 -9999 -9999 -9999 -9999 -9999 -9999 -9999 -9999 -9999 -9999 -9999 -9999 -9999 -9999 -9999 -9999 -9999 -9999 -9999 -9999 -9999 -9999 -9999 -9999 101 -9999 -9999 -9999 -9999 -9999 -9999 -9999 -9999 -9999 -9999 -9999 -9999 -9999 -9999 -9999 -9999 -9999 -9999 -9999 -9999 -9999 -9999 -9999 -9999 34.333332061767578125 101 34.333332061767578125 34.333332061767578125 34.333332061767578125 34.333332061767578125 -9999 -9999 -9999 17.666666030883789062 -9999 17.666666030883789062 17.666666030883789062 17.666666030883789062 17.666666030883789062 -9999 17.666666030883789062 17.666666030883789062 17.666666030883789062 -9999 -9999 -9999 34.333332061767578125 34.333332061767578125 17.666666030883789062 17.666666030883789062 17.666666030883789062 -9999 17.666666030883789062 17.666666030883789062 -9999 -9999 17.666666030883789062 34.333332061767578125 34.333332061767578125 -9999 -9999 34.333332061767578125 51 51 51 51 51 51 51 -9999 51 51 -9999 -9999 51 -9999 51 -9999 -9999 -9999 -9999 -9999 -9999 -9999 -9999 -9999 -9999 -9999 -9999 -9999 -9999 -9999 -9999 -9999 
-9999 -9999 -9999 -9999 -9999 -9999 -9999 -9999 -9999 -9999 -9999 -9999 -9999 -9999 -9999 -9999 -9999 -9999 -9999 -9999 -9999 -9999 -9999 -9999 -9999 -9999 -9999 -9999 -9999 -9999 -9999 -9999 -9999 -9999 -9999 -9999 -9999 -9999 -9999 -9999 -9999 -9999 -9999 -9999 -9999 67.66666412353515625 67.66666412353515625 -9999 -9999 -9999 -9999 -9999 -9999 -9999 34.333332061767578125 34.333332061767578125 34.333332061767578125 34.333332061767578125 -9999 -9999 -9999 34.333332061767578125 -9999 -9999 -9999 34.333332061767578125 -9999 -9999 -9999 -9999 -9999 -9999 -9999 17.666666030883789062 17.666666030883789062 -9999 -9999 17.666666030883789062 -9999 -9999 17.666666030883789062 17.666666030883789062 -9999 17.666666030883789062 17.666666030883789062 101 -9999 17.666666030883789062 -9999 34.333332061767578125 34.333332061767578125 34.333332061767578125 -9999 -9999 51 51 -9999 -9999 51 51 -9999 -9999 -9999 -9999 -9999 51 51 51 -9999 -9999 -9999 84.33333587646484375 84.33333587646484375 84.33333587646484375 101 84.33333587646484375 -9999 84.33333587646484375 84.33333587646484375 -9999 -9999 -9999 -9999 -9999 -9999 -9999 -9999 
-9999 -9999 -9999 -9999 -9999 -9999 -9999 -9999 -9999 -9999 -9999 -9999 -9999 -9999 -9999 -9999 -9999 -9999 -9999 -9999 -9999 -9999 -9999 -9999 -9999 -9999 -9999 -9999 -9999 -9999 -9999 -9999 101 -9999 -9999 -9999 -9999 -9999 -9999 -9999 -9999 -9999 -9999 -9999 101 101 67.66666412353515625 67.66666412353515625 67.66666412353515625 -9999 -9999 -9999 -9999 34.333332061767578125 34.333332061767578125 -9999 34.333332061767578125 -9999 34.333332061767578125 -9999 -9999 -9999 -9999 -9999 -9999 17.666666030883789062 -9999 -9999 -9999 17.666666030883789062 -9999 -9999 -9999 -9999 -9999 -9999 17.666666030883789062 17.666666030883789062 17.666666030883789062 17.666666030883789062 17.666666030883789062 17.666666030883789062 17.666666030883789062 -9999 -9999 -9999 -9999 -9999 -9999 34.333332061767578125 -9999 -9999 34.333332061767578125 51 -9999 51 -9999 51 51 51 51 51 51 51 67.66666412353515625 67.66666412353515625 67.66666412353515625 -9999 -9999 67.66666412353515625 84.33333587646484375 -9999 -9999 -9999 84.33333587646484375 84.33333587646484375 84.33333587646484375 -9999 84.33333587646484375 84.33333587646484375 -9999 -9999 -9999 -9999 -9999 -9999 -9999 
-9999 -9999 -9999 -9999 -9999 -9999 -9999 -9999 -9999 -9999 -9999 -9999 -9999 -9999 -9999 -9999 -9999 -9999 -9999 -9999 -9999 -9999 -9999 -9999 -9999 -9999 -9999 -9999 -9999 -9999 -9999 -9999 -9999 -9999 -9999 101 -9999 -9999 -9999 -9999 -9999 -9999 -9999 -9999 -9999 -9999 67.66666412353515625 -9999 -9999 -9999 -9999 -9999 -9999 -9999 -9999 -9999 -9999 -9999 -9999 -9999 -9999 -9999 -9999 -9999 -9999 -9999 -9999 -9999 -9999 17.666666030883789062 17.666666030883789062 17.666666030883789062 -9999 17.666666030883789062 17.666666030883789062 -9999 -9999 17.666666030883789062 -9999 17.666666030883789062 17.666666030883789062 17.666666030883789062 17.666666030883789062 17.666666030883789062 -9999 -9999 -9999 -9999 17.666666030883789062 17.666666030883789062 -9999 34.333332061767578125 34.333332061767578125 34.333332061767578125 34.333332061767578125 51 51 -9999 51 51 51 -9999 51 -9999 67.66666412353515625 -9999 -9999 67.66666412353515625 67.66666412353515625 -9999 -9999 -9999 67.66666412353515625 84.33333587646484375 84.33333587646484375 -9999 -9999 101 -9999 -9999 -9999 -9999 -9999 -9999 -9999 -9999 -9999 
-9999 -9999 -9999 -9999 -9999 -9999 -9999 -9999 -9999 -9999 -9999 -9999 -9999 -9999 -9999 -9999 -9999 -9999 -9999 -9999 -9999 -9999 -9999 -9999 -9999 -9999 -9999 -9999 -9999 -9999 -9999 -9999 -9999 -9999 -9999 -9999 101 -9999 -9999 -9999 -9999 -9999 -9999 -9999 -9999 -9999 -9999 67.66666412353515625 -9999 -9999 -9999 34.333332061767578125 34.333332061767578125 34.333332061767578125 -9999 -9999 -9999 -9999 -9999 -9999 -9999 -9999 -9999 -9999 101 -9999 -9999 17.666666030883789062 -9999 -9999 -9999 -9999 17.666666030883789062 -9999 -9999 17.666666030883789062 17.666666030883789062 17.666666030883789062 17.666666030883789062 -9999 101 -9999 17.666666030883789062 17.666666030883789062 -9999 -9999 -9999 -9999 -9999 -9999 -9999 -9999 34.333332061767578125 34.333332061767578125 34.333332061767578125 34.333332061767578125 51 51 51 -9999 -9999 51 67.66666412353515625 -9999 67.66666412353515625 -9999 67.66666412353515625 -9999 67.66666412353515625 51 -9999 -9999 -9999 -9999 -9999 84.33333587646484375 -9999 -9999 101 -9999 101 84.33333587646484375 84.33333587646484375 84.33333587646484375 -9999 -9999 -9999 
-9999 -9999 -9999 -9999 -9999 -9999 -9999 -9999 -9999 -9999 -9999 -9999 -9999 -9999 -9999 -9999 -9999 -9999 -9999 -9999 -9999 -9999 -9999 -9999 -9999 -9999 -9999 -9999 -9999 -9999 -9999 -9999 -9999 -9999 -9999 -9999 -9999 -9999 -9999 -9999 -9999 -9999 -9999 -9999 -9999 -9999 -9999 -9999 -9999 -9999 -9999 -9999 -9999 -9999 -9999 -9999 -9999 -9999 -9999 -9999 -9999 -9999 -9999 -9999 -9999 -9999 -9999 -9999 -9999 -9999 -9999 -9999 -9999 17.666666030883789062 17.666666030883789062 17.666666030883789062 17.666666030883789062 17.666666030883789062 -9999 -9999 -9999 17.666666030883789062 17.666666030883789062 17.666666030883789062 17.666666030883789062 17.666666030883789062 -9999 17.666666030883789062 -9999 34.333332061767578125 -9999 34.333332061767578125 -9999 34.333332061767578125 -9999 34.333332061767578125 51 -9999 51 51 -9999 -9999 -9999 -9999 -9999 -9999 -9999 67.66666412353515625 -9999 -9999 -9999 84.33333587646484375 84.33333587646484375 67.66666412353515625 -9999 84.33333587646484375 -9999 84.33333587646484375 -9999 -9999 84.33333587646484375 84.33333587646484375 -9999 -9999 -9999 -9999 -9999 
-9999 -9999 -9999 -9999 -9999 -9999 -9999 -9999 -9999 -9999 -9999 -9999 -9999 -9999 -9999 -9999 -9999 -9999 -9999 -9999 -9999 -9999 -9999 -9999 101 -9999 -9999 -9999 -9999 -9999 -9999 -9999 -9999 -9999 -9999 -9999 101 -9999 -9999 -9999 -9999 -9999 -9999 -9999 -9999 -9999 -9999 -9999 -9999 -9999 101 -9999 -9999 -9999 -9999 -9999 -9999 -9999 -9999 -9999 -9999 -9999 -9999 -9999 -9999 17.666666030883789062 -9999 -9999 -9999 -9999 -9999 -9999 51 51 17.666666030883789062 17.666666030883789062 51 51 67.66666412353515625 67.66666412353515625 -9999 34.333332061767578125 17.666666030883789062 17.666666030883789062 17.666666030883789062 -9999 -9999 17.666666030883789062 17.666666030883789062 17.666666030883789062 -9999 34.333332061767578125 -9999 34.333332061767578125 34.333332061767578125 -9999 34.333332061767578125 34.333332061767578125 34.333332061767578125 51 67.66666412353515625 -9999 67.66666412353515625 -9999 67.66666412353515625 67.66666412353515625 67.66666412353515625 -9999 67.66666412353515625 67.66666412353515625 67.66666412353515625 84.33333587646484375 -9999 67.66666412353515625 67.66666412353515625 84.33333587646484375 -9999 101 84.33333587646484375 -9999 -9999 -9999 -9999 -9999 -9999 -9999 -9999 
-9999 -9999 -9999 -9999 -9999 101 -9999 -9999 -9999 -9999 -9999 -9999 -9999 -9999 -9999 -9999 -9999 -9999 -9999 -9999 -9999 -9999 -9999 -9999 101 101 -9999 -9999 101 -9999 -9999 -9999 -9999 -9999 101 -9999 -9999 -9999 -9999 -9999 -9999 -9999 -9999 -9999 -9999 -9999 -9999 -9999 -9999 -9999 -9999 -9999 -9999 -9999 -9999 -9999 -9999 -9999 -9999 -9999 17.666666030883789062 -9999 -9999 -9999 17.666666030883789062 -9999 -9999 -9999 51 -9999 -9999 51 51 -9999 51 51 -9999 -9999 67.66666412353515625 67.66666412353515625 -9999 34.333332061767578125 34.333332061767578125 -9999 17.666666030883789062 17.666666030883789062 -9999 -9999 17.666666030883789062 17.666666030883789062 -9999 34.333332061767578125 -9999 -9999 34.333332061767578125 34.333332061767578125 -9999 -9999 51 51 51 51 67.66666412353515625 67.66666412353515625 67.66666412353515625 84.33333587646484375 -9999 84.33333587646484375 101 67.66666412353515625 67.66666412353515625 67.66666412353515625 -9999 -9999 84.33333587646484375 -9999 -9999 84.33333587646484375 84.33333587646484375 -9999 -9999 -9999 -9999 -9999 -9999 -9999 -9999 
-9999 -9999 -9999 -9999 -9999 101 -9999 -9999 -9999 -9999 -9999 -9999 -9999 -9999 -9999 -9999 -9999 -9999 -9999 -9999 -9999 -9999 -9999 -9999 -9999 -9999 101 -9999 -9999 -9999 -9999 -9999 -9999 -9999 -9999 -9999 -9999 -9999 -9999 -9999 -9999 -9999 -9999 101 -9999 -9999 -9999 -9999 -9999 -9999 51 -9999 67.66666412353515625 -9999 -9999 -9999 -9999 -9999 -9999 -9999 -9999 34.333332061767578125 34.333332061767578125 17.666666030883789062 -9999 -9999 51 51 51 51 51 51 -9999 51 51 51 -9999 51 67.66666412353515625 67.66666412353515625 -9999 17.666666030883789062 -9999 17.666666030883789062 -9999 -9999 -9999 17.666666030883789062 17.666666030883789062 17.666666030883789062 34.333332061767578125 -9999 34.333332061767578125 34.333332061767578125 34.333332061767578125 51 -9999 -9999 -9999 -9999 51 51 -9999 -9999 84.33333587646484375 84.33333587646484375 84.33333587646484375 -9999 84.33333587646484375 84.33333587646484375 84.33333587646484375 67.66666412353515625 67.66666412353515625 -9999 -9999 -9999 -9999 84.33333587646484375 101 -9999 -9999 -9999 -9999 -9999 -9999 -9999 -9999 
-9999 -9999 -9999 -9999 -9999 -9999 -9999 -9999 -9999 -9999 -9999 -9999 -9999 -9999 -9999 -9999 -9999 -9999 -9999 -9999 -9999 -9999 -9999 -9999 -9999 -9999 -9999 -9999 -9999 -9999 -9999 -9999 -9999 -9999 -9999 -9999 -9999 -9999 -9999 -9999 -9999 -9999 -9999 -9999 -9999 -9999 -9999 51 -9999 -9999 -9999 -9999 67.66666412353515625 67.66666412353515625 -9999 -9999 101 34.333332061767578125 -9999 17.666666030883789062 -9999 34.333332061767578125 17.666666030883789062 17.666666030883789062 51 51 51 51 -9999 -9999 -9999 -9999 -9999 51 51 51 -9999 51 51 -9999 -9999 17.666666030883789062 17.666666030883789062 34.333332061767578125 34.333332061767578125 -9999 17.666666030883789062 17.666666030883789062 -9999 17.666666030883789062 17.666666030883789062 34.333332061767578125 34.333332061767578125 34.333332061767578125 -9999 -9999 51 -9999 51 -9999 51 51 51 67.66666412353515625 -9999 -9999 84.33333587646484375 -9999 -9999 84.33333587646484375 67.66666412353515625 67.66666412353515625 -9999 -9999 -9999 67.66666412353515625 -9999 -9999 -9999 -9999 -9999 -9999 -9999 -9999 -9999 -9999 -9999 
-9999 -9999 -9999 -9999 -9999 101 -9999 -9999 -9999 -9999 -9999 -9999 -9999 -9999 -9999 -9999 -9999 -9999 -9999 -9999 -9999 -9999 -9999 -9999 -9999 -9999 -9999 101 -9999 -9999 -9999 -9999 -9999 101 -9999 -9999 -9999 -9999 -9999 -9999 -9999 101 -9999 51 -9999 -9999 -9999 -9999 101 -9999 -9999 -9999 67.66666412353515625 67.66666412353515625 -9999 -9999 -9999 34.333332061767578125 -9999 -9999 17.666666030883789062 -9999 17.666666030883789062 51 -9999 51 51 51 -9999 -9999 51 -9999 -9999 -9999 51 -9999 34.333332061767578125 51 34.333332061767578125 -9999 17.666666030883789062 17.666666030883789062 17.666666030883789062 34.333332061767578125 34.333332061767578125 34.333332061767578125 -9999 -9999 17.666666030883789062 17.666666030883789062 17.666666030883789062 34.333332061767578125 -9999 -9999 -9999 -9999 -9999 -9999 -9999 51 51 67.66666412353515625 67.66666412353515625 51 -9999 84.33333587646484375 -9999 -9999 -9999 84.33333587646484375 -9999 67.66666412353515625 -9999 67.66666412353515625 67.66666412353515625 67.66666412353515625 84.33333587646484375 -9999 -9999 -9999 -9999 -9999 -9999 -9999 -9999 -9999 -9999 
-9999 -9999 -9999 -9999 101 101 101 -9999 -9999 -9999 -9999 -9999 -9999 -9999 -9999 -9999 -9999 -9999 -9999 -9999 -9999 -9999 -9999 -9999 -9999 -9999 -9999 -9999 -9999 -9999 -9999 -9999 -9999 -9999 -9999 -9999 -9999 -9999 -9999 -9999 -9999 -9999 -9999 -9999 -9999 -9999 -9999 51 -9999 -9999 -9999 -9999 67.66666412353515625 84.33333587646484375 -9999 -9999 -9999 -9999 -9999 -9999 17.666666030883789062 17.666666030883789062 17.666666030883789062 51 51 -9999 51 51 -9999 -9999 51 -9999 51 51 34.333332061767578125 -9999 34.333332061767578125 67.66666412353515625 51 34.333332061767578125 34.333332061767578125 34.333332061767578125 34.333332061767578125 34.333332061767578125 -9999 -9999 17.666666030883789062 -9999 17.666666030883789062 17.666666030883789062 17.666666030883789062 -9999 34.333332061767578125 34.333332061767578125 -9999 -9999 -9999 -9999 -9999 51 -9999 -9999 -9999 34.333332061767578125 67.66666412353515625 -9999 101 84.33333587646484375 -9999 84.33333587646484375 -9999 -9999 -9999 67.66666412353515625 -9999 -9999 -9999 -9999 -9999 101 -9999 -9999 -9999 -9999 -9999 -9999 -9999 
-9999 -9999 -9999 -9999 -9999 101 -9999 101 101 101 -9999 -9999 101 -9999 -9999 -9999 -9999 -9999 -9999 -9999 -9999 -9999 -9999 -9999 -9999 -9999 -9999 -9999 -9999 -9999 -9999 -9999 -9999 -9999 -9999 -9999 -9999 -9999 -9999 -9999 -9999 -9999 -9999 -9999 51 -9999 -9999 51 -9999 -9999 -9999 -9999 -9999 -9999 -9999 -9999 -9999 -9999 -9999 -9999 -9999 34.333332061767578125 -9999 51 51 -9999 51 51 -9999 -9999 -9999 -9999 51 101 101 101 67.66666412353515625 67.66666412353515625 51 34.333332061767578125 34.333332061767578125 34.333332061767578125 34.333332061767578125 -9999 34.333332061767578125 -9999 17.666666030883789062 -9999 17.666666030883789062 34.333332061767578125 34.333332061767578125 34.333332061767578125 34.333332061767578125 -9999 -9999 -9999 34.333332061767578125 -9999 -9999 -9999 51 -9999 67.66666412353515625 67.66666412353515625 -9999 -9999 84.33333587646484375 -9999 84.33333587646484375 84.33333587646484375 84.33333587646484375 -9999 101 -9999 -9999 -9999 -9999 84.33333587646484375 84.33333587646484375 -9999 -9999 -9999 -9999 -9999 -9999 -9999 -9999 
-9999 -9999 -9999 -9999 -9999 101 -9999 101 101 -9999 101 -9999 101 -9999 -9999 -9999 -9999 -9999 -9999 -9999 -9999 -9999 -9999 -9999 -9999 -9999 -9999 -9999 -9999 -9999 -9999 -9999 -9999 -9999 -9999 -9999 -9999 -9999 -9999 -9999 -9999 -9999 -9999 51 51 -9999 -9999 -9999 -9999 -9999 -9999 -9999 -9999 67.66666412353515625 67.66666412353515625 -9999 -9999 -9999 -9999 17.666666030883789062 -9999 -9999 -9999 -9999 -9999 -9999 -9999 -9999 -9999 -9999 51 -9999 -9999 101 101 -9999 -9999 51 -9999 34.333332061767578125 -9999 -9999 34.333332061767578125 34.333332061767578125 34.333332061767578125 34.333332061767578125 -9999 17.666666030883789062 -9999 -9999 -9999 -9999 34.333332061767578125 34.333332061767578125 -9999 -9999 -9999 -9999 -9999 -9999 -9999 -9999 67.66666412353515625 67.66666412353515625 67.66666412353515625 -9999 -9999 67.66666412353515625 -9999 84.33333587646484375 84.33333587646484375 67.66666412353515625 67.66666412353515625 67.66666412353515625 -9999 -9999 84.33333587646484375 84.33333587646484375 -9999 -9999 -9999 -9999 -9999 -9999 -9999 -9999 -9999 
-9999 -9999 -9999 -9999 -9999 -9999 101 101 -9999 101 101 -9999 101 -9999 -9999 -9999 -9999 -9999 -9999 -9999 -9999 -9999 -9999 -9999 -9999 -9999 -9999 -9999 -9999 -9999 -9999 -9999 -9999 -9999 -9999 -9999 -9999 -9999 -9999 -9999 -9999 -9999 -9999 -9999 -9999 -9999 -9999 -9999 -9999 -9999 -9999 67.66666412353515625 -9999 -9999 -9999 -9999 -9999 -9999 -9999 17.666666030883789062 34.333332061767578125 34.333332061767578125 -9999 -9999 67.66666412353515625 -9999 -9999 -9999 -9999 -9999 -9999 -9999 -9999 51 -9999 -9999 -9999 -9999 -9999 51 -9999 34.333332061767578125 34.333332061767578125 34.333332061767578125 34.333332061767578125 34.333332061767578125 34.333332061767578125 34.333332061767578125 34.333332061767578125 34.333332061767578125 -9999 -9999 -9999 -9999 -9999 -9999 -9999 -9999 -9999 34.333332061767578125 -9999 -9999 -9999 -9999 -9999 67.66666412353515625 67.66666412353515625 -9999 -9999 84.33333587646484375 -9999 -9999 101 -9999 -9999 -9999 -9999 -9999 -9999 -9999 -9999 -9999 -9999 -9999 -9999 -9999 -9999 
-9999 -9999 -9999 -9999 -9999 -9999 -9999 -9999 -9999 -9999 101 -9999 -9999 -9999 -9999 -9999 -9999 -9999 -9999 -9999 -9999 -9999 -9999 -9999 -9999 -9999 -9999 -9999 -9999 101 101 -9999 -9999 -9999 -9999 -9999 -9999 -9999 -9999 -9999 -9999 -9999 -9999 -9999 -9999 -9999 67.66666412353515625 -9999 -9999 67.66666412353515625 67.66666412353515625 -9999 -9999 -9999 67.66666412353515625 -9999 -9999 17.666666030883789062 -9999 -9999 -9999 -9999 -9999 84.33333587646484375 67.66666412353515625 34.333332061767578125 34.333332061767578125 51 -9999 -9999 -9999 -9999 -9999 51 -9999 51 51 -9999 -9999 -9999 51 34.333332061767578125 34.333332061767578125 34.333332061767578125 34.333332061767578125 101 34.333332061767578125 -9999 -9999 101 -9999 -9999 -9999 -9999 -9999 -9999 -9999 -9999 -9999 -9999 34.333332061767578125 -9999 -9999 -9999 -9999 -9999 -9999 -9999 -9999 -9999 -9999 -9999 -9999 -9999 -9999 -9999 -9999 -9999 -9999 -9999 -9999 -9999 -9999 -9999 -9999 -9999 -9999 
-9999 -9999 -9999 -9999 -9999 -9999 -9999 -9999 101 101 101 101 -9999 -9999 -9999 -9999 -9999 -9999 -9999 -9999 -9999 -9999 -9999 -9999 -9999 -9999 -9999 -9999 -9999 -9999 101 101 -9999 -9999 -9999 -9999 -9999 -9999 67.66666412353515625 -9999 67.66666412353515625 -9999 -9999 -9999 84.33333587646484375 84.33333587646484375 67.66666412353515625 -9999 -9999 67.66666412353515625 67.66666412353515625 -9999 84.33333587646484375 101 -9999 67.66666412353515625 -9999 -9999 -9999 34.333332061767578125 -9999 -9999 -9999 -9999 -9999 -9999 51 51 -9999 51 51 51 67.66666412353515625 67.66666412353515625 -9999 -9999 51 -9999 -9999 51 -9999 -9999 -9999 -9999 -9999 34.333332061767578125 34.333332061767578125 34.333332061767578125 -9999 34.333332061767578125 34.333332061767578125 -9999 34.333332061767578125 -9999 -9999 34.333332061767578125 -9999 -9999 -9999 -9999 -9999 -9999 -9999 -9999 -9999 -9999 -9999 -9999 -9999 -9999 -9999 -9999 -9999 -9999 -9999 -9999 -9999 -9999 -9999 -9999 -9999 -9999 -9999 -9999 -9999 -9999 -9999 
-9999 -9999 -9999 -9999 -9999 -9999 -9999 -9999 -9999 101 -9999 -9999 101 -9999 -9999 -9999 -9999 -9999 -9999 -9999 -9999 -9999 -9999 -9999 -9999 -9999 -9999 -9999 -9999 -9999 101 101 -9999 -9999 -9999 -9999 -9999 -9999 -9999 -9999 -9999 -9999 67.66666412353515625 84.33333587646484375 84.33333587646484375 -9999 101 84.33333587646484375 -9999 -9999 -9999 67.66666412353515625 -9999 84.33333587646484375 -9999 67.66666412353515625 -9999 -9999 -9999 -9999 -9999 -9999 -9999 -9999 -9999 51 51 51 51 51 -9999 -9999 -9999 -9999 -9999 -9999 -9999 -9999 -9999 34.333332061767578125 34.333332061767578125 -9999 34.333332061767578125 -9999 34.333332061767578125 34.333332061767578125 34.333332061767578125 -9999 34.333332061767578125 -9999 34.333332061767578125 -9999 -9999 -9999 -9999 -9999 -9999 -9999 -9999 -9999 -9999 -9999 -9999 -9999 -9999 -9999 -9999 -9999 -9999 -9999 -9999 -9999 -9999 -9999 -9999 -9999 -9999 -9999 -9999 -9999 -9999 -9999 -9999 -9999 -9999 -9999 -9999 
-9999 -9999 -9999 -9999 -9999 -9999 -9999 -9999 -9999 -9999 -9999 -9999 -9999 -9999 -9999 -9999 -9999 -9999 -9999 -9999 -9999 -9999 -9999 -9999 -9999 -9999 -9999 -9999 -9999 101 101 101 101 101 -9999 -9999 -9999 -9999 -9999 -9999 -9999 -9999 -9999 -9999 84.33333587646484375 -9999 67.66666412353515625 -9999 34.333332061767578125 -9999 -9999 101 -9999 -9999 -9999 -9999 -9999 -9999 -9999 -9999 -9999 -9999 -9999 -9999 -9999 -9999 51 -9999 -9999 51 -9999 -9999 51 -9999 51 -9999 -9999 -9999 34.333332061767578125 -9999 -9999 34.333332061767578125 34.333332061767578125 34.333332061767578125 51 51 51 51 51 51 51 -9999 51 51 51 -9999 -9999 -9999 -9999 -9999 -9999 51 -9999 -9999 -9999 -9999 -9999 -9999 -9999 -9999 -9999 -9999 -9999 -9999 -9999 -9999 -9999 -9999 -9999 -9999 -9999 -9999 -9999 -9999 -9999 -9999 -9999 
-9999 -9999 -9999 -9999 -9999 -9999 -9999 -9999 -9999 -9999 -9999 -9999 -9999 -9999 -9999 -9999 -9999 -9999 -9999 -9999 -9999 -9999 -9999 -9999 -9999 -9999 -9999 -9999 -9999 -9999 -9999 -9999 -9999 101 101 -9999 -9999 -9999 -9999 -9999 -9999 -9999 -9999 -9999 -9999 -9999 -9999 -9999 -9999 -9999 -9999 -9999 -9999 -9999 -9999 -9999 51 -9999 -9999 -9999 -9999 -9999 -9999 67.66666412353515625 -9999 -9999 51 51 51 -9999 -9999 51 51 -9999 -9999 -9999 -9999 -9999 -9999 34.333332061767578125 34.333332061767578125 34.333332061767578125 51 -9999 51 -9999 51 -9999 51 51 51 51 -9999 -9999 -9999 51 -9999 -9999 -9999 -9999 51 -9999 -9999 -9999 -9999 -9999 -9999 -9999 -9999 -9999 -9999 -9999 -9999 -9999 -9999 -9999 -9999 -9999 -9999 -9999 -9999 -9999 -9999 -9999 -9999 -9999 -9999 
-9999 -9999 -9999 -9999 -9999 -9999 -9999 -9999 -9999 -9999 -9999 -9999 -9999 -9999 -9999 -9999 -9999 -9999 -9999 -9999 -9999 -9999 -9999 -9999 -9999 -9999 -9999 -9999 -9999 -9999 -9999 101 -9999 101 101 -9999 -9999 -9999 -9999 -9999 -9999 -9999 -9999 -9999 -9999 -9999 34.333332061767578125 -9999 34.333332061767578125 34.333332061767578125 -9999 -9999 -9999 -9999 -9999 -9999 -9999 101 -9999 -9999 -9999 -9999 51 67.66666412353515625 -9999 84.33333587646484375 51 -9999 -9999 51 51 -9999 51 -9999 51 51 51 34.333332061767578125 34.333332061767578125 -9999 34.333332061767578125 34.333332061767578125 51 51 -9999 51 51 -9999 51 51 51 51 -9999 -9999 -9999 -9999 101 -9999 -9999 -9999 -9999 -9999 -9999 -9999 -9999 -9999 -9999 -9999 -9999 -9999 -9999 -9999 -9999 -9999 -9999 -9999 -9999 -9999 -9999 -9999 -9999 -9999 -9999 -9999 -9999 -9999 -9999 
-9999 -9999 -9999 -9999 -9999 -9999 -9999 -9999 -9999 -9999 -9999 -9999 -9999 -9999 -9999 -9999 -9999 -9999 -9999 -9999 -9999 -9999 -9999 -9999 -9999 -9999 -9999 -9999 -9999 -9999 -9999 -9999 101 -9999 101 -9999 101 101 -9999 -9999 -9999 -9999 -9999 34.333332061767578125 -9999 -9999 -9999 -9999 34.333332061767578125 -9999 34.333332061767578125 -9999 34.333332061767578125 34.333332061767578125 -9999 34.333332061767578125 -9999 -9999 -9999 -9999 -9999 -9999 51 -9999 -9999 -9999 67.66666412353515625 51 51 51 51 51 67.66666412353515625 -9999 67.66666412353515625 -9999 34.333332061767578125 34.333332061767578125 34.333332061767578125 34.333332061767578125 34.333332061767578125 -9999 51 51 -9999 51 51 51 -9999 51 51 51 -9999 -9999 -9999 -9999 -9999 -9999 -9999 -9999 -9999 -9999 -9999 -9999 -9999 -9999 -9999 -9999 -9999 -9999 -9999 -9999 -9999 -9999 -9999 -9999 -9999 -9999 -9999 -9999 -9999 -9999 -9999 -9999 -9999 -9999 -9999 
-9999 -9999 -9999 -9999 -9999 -9999 -9999 -9999 -9999 -9999 -9999 -9999 -9999 -9999 -9999 -9999 -9999 -9999 -9999 -9999 -9999 -9999 -9999 -9999 -9999 -9999 -9999 -9999 -9999 -9999 -9999 -9999 101 -9999 -9999 101 -9999 -9999 -9999 -9999 -9999 -9999 -9999 -9999 -9999 -9999 -9999 -9999 34.333332061767578125 -9999 -9999 -9999 -9999 -9999 -9999 -9999 -9999 -9999 -9999 -9999 -9999 -9999 -9999 -9999 84.33333587646484375 84.33333587646484375 67.66666412353515625 67.66666412353515625 -9999 51 67.66666412353515625 -9999 -9999 -9999 -9999 34.333332061767578125 34.333332061767578125 34.333332061767578125 34.333332061767578125 34.333332061767578125 34.333332061767578125 -9999 -9999 51 -9999 51 -9999 -9999 -9999 -9999 -9999 51 67.66666412353515625 34.333332061767578125 -9999 -9999 -9999 -9999 -9999 34.333332061767578125 -9999 34.333332061767578125 51 -9999 -9999 -9999 -9999 -9999 -9999 -9999 -9999 -9999 -9999 -9999 -9999 -9999 -9999 -9999 -9999 -9999 -9999 -9999 -9999 -9999 -9999 -9999 -9999 
-9999 -9999 -9999 -9999 -9999 -9999 -9999 -9999 -9999 -9999 -9999 -9999 -9999 -9999 -9999 -9999 -9999 -9999 -9999 -9999 -9999 -9999 -9999 -9999 -9999 -9999 -9999 -9999 -9999 -9999 -9999 -9999 -9999 -9999 101 101 101 101 -9999 101 -9999 -9999 -9999 -9999 -9999 -9999 -9999 -9999 -9999 34.333332061767578125 -9999 101 -9999 -9999 -9999 -9999 -9999 -9999 -9999 -9999 -9999 -9999 -9999 -9999 67.66666412353515625 84.33333587646484375 67.66666412353515625 67.66666412353515625 51 -9999 51 67.66666412353515625 -9999 -9999 -9999 34.333332061767578125 -9999 34.333332061767578125 34.333332061767578125 34.333332061767578125 34.333332061767578125 -9999 -9999 -9999 51 -9999 -9999 -9999 -9999 51 51 51 -9999 67.66666412353515625 -9999 -9999 -9999 -9999 -9999 34.333332061767578125 -9999 -9999 -9999 101 -9999 -9999 -9999 -9999 -9999 -9999 -9999 -9999 -9999 -9999 -9999 -9999 -9999 -9999 -9999 -9999 -9999 -9999 -9999 -9999 -9999 -9999 -9999 
-9999 -9999 -9999 -9999 -9999 -9999 -9999 -9999 -9999 -9999 -9999 -9999 -9999 -9999 -9999 -9999 -9999 -9999 -9999 -9999 -9999 -9999 -9999 -9999 -9999 -9999 -9999 -9999 -9999 -9999 -9999 -9999 -9999 -9999 -9999 101 101 101 101 -9999 -9999 -9999 -9999 -9999 -9999 -9999 -9999 -9999 34.333332061767578125 -9999 -9999 -9999 -9999 -9999 -9999 -9999 -9999 -9999 -9999 51 -9999 -9999 -9999 -9999 84.33333587646484375 -9999 84.33333587646484375 -9999 51 51 -9999 51 67.66666412353515625 -9999 51 -9999 34.333332061767578125 -9999 34.333332061767578125 34.333332061767578125 34.333332061767578125 -9999 51 -9999 -9999 -9999 -9999 -9999 51 34.333332061767578125 -9999 51 -9999 -9999 -9999 -9999 -9999 -9999 -9999 -9999 -9999 34.333332061767578125 -9999 -9999 -9999 -9999 -9999 -9999 -9999 -9999 -9999 -9999 -9999 -9999 -9999 -9999 -9999 -9999 -9999 -9999 -9999 -9999 -9999 -9999 -9999 -9999 -9999 
-9999 -9999 -9999 -9999 -9999 -9999 -9999 -9999 -9999 -9999 -9999 -9999 -9999 -9999 -9999 -9999 -9999 -9999 -9999 -9999 -9999 -9999 -9999 -9999 -9999 -9999 -9999 -9999 -9999 -9999 -9999 -9999 -9999 -9999 101 -9999 101 101 101 -9999 -9999 -9999 101 -9999 101 -9999 -9999 -9999 -9999 -9999 -9999 -9999 -9999 -9999 -9999 -9999 -9999 -9999 -9999 -9999 -9999 -9999 -9999 -9999 -9999 -9999 -9999 51 51 51 67.66666412353515625 67.66666412353515625 -9999 -9999 51 -9999 -9999 51 51 -9999 -9999 -9999 34.333332061767578125 -9999 -9999 -9999 51 51 34.333332061767578125 34.333332061767578125 34.333332061767578125 -9999 -9999 67.66666412353515625 67.66666412353515625 -9999 67.66666412353515625 -9999 -9999 -9999 -9999 34.333332061767578125 -9999 -9999 -9999 -9999 84.33333587646484375 -9999 -9999 -9999 -9999 -9999 -9999 -9999 -9999 -9999 -9999 -9999 -9999 -9999 -9999 -9999 -9999 -9999 -9999 -9999 -9999 
-9999 -9999 -9999 -9999 -9999 -9999 -9999 -9999 -9999 -9999 -9999 -9999 -9999 -9999 -9999 -9999 -9999 -9999 -9999 -9999 -9999 -9999 -9999 -9999 -9999 -9999 -9999 -9999 -9999 -9999 -9999 -9999 -9999 -9999 -9999 -9999 -9999 101 -9999 -9999 -9999 -9999 101 101 101 101 101 -9999 -9999 -9999 -9999 -9999 -9999 -9999 -9999 51 -9999 -9999 -9999 -9999 -9999 -9999 -9999 -9999 -9999 -9999 -9999 -9999 67.66666412353515625 67.66666412353515625 -9999 -9999 101 101 34.333332061767578125 34.333332061767578125 51 -9999 51 -9999 -9999 34.333332061767578125 34.333332061767578125 34.333332061767578125 51 -9999 -9999 34.333332061767578125 34.333332061767578125 34.333332061767578125 -9999 -9999 -9999 67.66666412353515625 -9999 -9999 67.66666412353515625 51 51 -9999 -9999 -9999 34.333332061767578125 -9999 -9999 84.33333587646484375 84.33333587646484375 -9999 -9999 -9999 -9999 -9999 -9999 -9999 -9999 -9999 -9999 -9999 -9999 -9999 -9999 -9999 -9999 -9999 -9999 -9999 -9999 
-9999 -9999 -9999 -9999 -9999 -9999 -9999 -9999 -9999 -9999 -9999 -9999 -9999 -9999 -9999 -9999 -9999 -9999 -9999 -9999 -9999 -9999 -9999 -9999 -9999 -9999 -9999 -9999 -9999 -9999 -9999 -9999 -9999 -9999 -9999 -9999 101 -9999 101 101 -9999 -9999 -9999 -9999 -9999 -9999 -9999 -9999 -9999 -9999 -9999 -9999 -9999 67.66666412353515625 -9999 -9999 -9999 67.66666412353515625 -9999 -9999 -9999 -9999 -9999 -9999 -9999 -9999 -9999 -9999 -9999 67.66666412353515625 -9999 -9999 101 -9999 -9999 34.333332061767578125 51 51 51 -9999 -9999 -9999 -9999 34.333332061767578125 -9999 -9999 34.333332061767578125 34.333332061767578125 34.333332061767578125 -9999 -9999 67.66666412353515625 101 101 67.66666412353515625 67.66666412353515625 -9999 101 -9999 51 -9999 -9999 -9999 -9999 -9999 67.66666412353515625 84.33333587646484375 -9999 -9999 -9999 -9999 -9999 -9999 -9999 -9999 -9999 -9999 -9999 -9999 -9999 -9999 -9999 -9999 -9999 -9999 -9999 -9999 
-9999 -9999 -9999 -9999 -9999 -9999 -9999 -9999 -9999 -9999 -9999 -9999 -9999 -9999 -9999 -9999 -9999 -9999 -9999 -9999 -9999 -9999 -9999 -9999 -9999 -9999 -9999 -9999 -9999 -9999 -9999 -9999 -9999 -9999 -9999 -9999 -9999 -9999 -9999 -9999 -9999 -9999 -9999 -9999 -9999 -9999 -9999 -9999 -9999 -9999 -9999 -9999 -9999 67.66666412353515625 -9999 -9999 -9999 -9999 -9999 -9999 -9999 -9999 -9999 -9999 -9999 -9999 -9999 -9999 51 -9999 34.333332061767578125 34.333332061767578125 34.333332061767578125 34.333332061767578125 -9999 -9999 -9999 -9999 -9999 -9999 -9999 -9999 51 -9999 67.66666412353515625 34.333332061767578125 -9999 67.66666412353515625 -9999 -9999 -9999 101 101 101 67.66666412353515625 67.66666412353515625 51 51 101 51 51 34.333332061767578125 -9999 -9999 67.66666412353515625 101 67.66666412353515625 -9999 -9999 -9999 -9999 -9999 -9999 -9999 -9999 -9999 -9999 -9999 -9999 -9999 -9999 -9999 -9999 -9999 -9999 -9999 -9999 
-9999 -9999 -9999 -9999 -9999 -9999 -9999 -9999 -9999 -9999 -9999 -9999 -9999 -9999 -9999 -9999 -9999 -9999 -9999 -9999 -9999 -9999 -9999 -9999 -9999 -9999 -9999 -9999 -9999 -9999 -9999 -9999 -9999 -9999 -9999 -9999 -9999 -9999 -9999 -9999 -9999 -9999 -9999 -9999 -9999 -9999 -9999 -9999 -9999 -9999 -9999 -9999 -9999 67.66666412353515625 -9999 -9999 -9999 -9999 -9999 -9999 -9999 -9999 -9999 -9999 -9999 -9999 -9999 -9999 -9999 -9999 -9999 34.333332061767578125 -9999 -9999 -9999 101 101 101 -9999 -9999 -9999 -9999 -9999 -9999 -9999 -9999 -9999 -9999 -9999 -9999 101 101 101 67.66666412353515625 67.66666412353515625 67.66666412353515625 51 51 -9999 101 -9999 51 -9999 67.66666412353515625 67.66666412353515625 -9999 -9999 -9999 -9999 -9999 -9999 -9999 -9999 -9999 -9999 -9999 -9999 -9999 -9999 -9999 -9999 -9999 -9999 -9999 -9999 -9999 -9999 
-9999 -9999 -9999 -9999 -9999 -9999 -9999 -9999 -9999 -9999 -9999 -9999 -9999 -9999 -9999 -9999 -9999 -9999 -9999 -9999 -9999 -9999 -9999 -9999 -9999 -9999 -9999 -9999 -9999 -9999 -9999 -9999 -9999 -9999 -9999 -9999 -9999 -9999 -9999 -9999 -9999 -9999 -9999 -9999 -9999 -9999 -9999 -9999 -9999 -9999 -9999 -9999 -9999 -9999 -9999 -9999 -9999 -9999 -9999 -9999 -9999 -9999 -9999 51 -9999 -9999 -9999 -9999 -9999 67.66666412353515625 67.66666412353515625 67.66666412353515625 -9999 -9999 -9999 101 -9999 -9999 -9999 -9999 -9999 -9999 -9999 51 -9999 -9999 67.66666412353515625 67.66666412353515625 -9999 -9999 67.66666412353515625 67.66666412353515625 -9999 67.66666412353515625 67.66666412353515625 67.66666412353515625 101 51 51 51 -9999 51 51 -9999 -9999 -9999 -9999 -9999 -9999 -9999 -9999 -9999 -9999 -9999 -9999 -9999 -9999 -9999 -9999 -9999 -9999 -9999 -9999 -9999 -9999 -9999 -9999 
-9999 -9999 -9999 -9999 -9999 -9999 -9999 -9999 -9999 -9999 -9999 -9999 -9999 -9999 -9999 -9999 -9999 -9999 -9999 -9999 -9999 -9999 -9999 -9999 -9999 -9999 -9999 -9999 -9999 -9999 -9999 -9999 -9999 -9999 -9999 -9999 -9999 -9999 -9999 -9999 -9999 -9999 -9999 -9999 -9999 -9999 -9999 -9999 -9999 -9999 -9999 -9999 -9999 -9999 -9999 -9999 -9999 -9999 -9999 -9999 -9999 -9999 -9999 -9999 -9999 -9999 -9999 -9999 -9999 67.66666412353515625 -9999 -9999 -9999 -9999 101 101 101 101 -9999 101 -9999 -9999 -9999 51 51 51 -9999 -9999 67.66666412353515625 -9999 67.66666412353515625 67.66666412353515625 101 67.66666412353515625 101 67.66666412353515625 67.66666412353515625 67.66666412353515625 -9999 51 51 51 -9999 -9999 -9999 -9999 51 -9999 51 -9999 -9999 -9999 -9999 -9999 -9999 -9999 -9999 -9999 -9999 -9999 -9999 -9999 -9999 -9999 -9999 -9999 -9999 
-9999 -9999 -9999 -9999 -9999 -9999 -9999 -9999 -9999 -9999 -9999 -9999 -9999 -9999 -9999 -9999 -9999 -9999 -9999 -9999 -9999 -9999 -9999 -9999 -9999 -9999 -9999 -9999 -9999 -9999 -9999 -9999 -9999 -9999 -9999 -9999 -9999 -9999 -9999 -9999 -9999 -9999 -9999 -9999 -9999 -9999 -9999 -9999 -9999 -9999 -9999 -9999 -9999 -9999 -9999 -9999 -9999 -9999 -9999 -9999 -9999 -9999 -9999 -9999 101 -9999 -9999 -9999 -9999 -9999 84.33333587646484375 84.33333587646484375 -9999 -9999 -9999 101 -9999 -9999 -9999 101 -9999 101 -9999 51 51 -9999 -9999 67.66666412353515625 67.66666412353515625 -9999 67.66666412353515625 -9999 -9999 101 101 -9999 -9999 67.66666412353515625 67.66666412353515625 -9999 67.66666412353515625 67.66666412353515625 -9999 -9999 -9999 -9999 -9999 51 51 51 -9999 -9999 -9999 -9999 -9999 -9999 -9999 -9999 -9999 -9999 -9999 -9999 -9999 -9999 -9999 -9999 -9999 
-9999 -9999 -9999 -9999 -9999 -9999 -9999 -9999 -9999 -9999 -9999 -9999 -9999 -9999 -9999 -9999 -9999 -9999 -9999 -9999 -9999 -9999 -9999 -9999 -9999 -9999 -9999 -9999 -9999 -9999 -9999 -9999 -9999 -9999 -9999 -9999 -9999 -9999 -9999 -9999 -9999 -9999 -9999 -9999 -9999 -9999 -9999 -9999 -9999 -9999 -9999 -9999 -9999 -9999 -9999 -9999 -9999 -9999 -9999 -9999 -9999 -9999 -9999 -9999 -9999 -9999 101 101 -9999 -9999 -9999 -9999 -9999 101 -9999 101 -9999 -9999 -9999 -9999 -9999 -9999 51 51 51 51 -9999 67.66666412353515625 -9999 -9999 101 101 101 101 -9999 -9999 67.66666412353515625 67.66666412353515625 67.66666412353515625 67.66666412353515625 67.66666412353515625 67.66666412353515625 -9999 67.66666412353515625 67.66666412353515625 101 51 51 51 -9999 -9999 -9999 -9999 51 -9999 -9999 -9999 -9999 -9999 -9999 -9999 -9999 -9999 -9999 -9999 -9999 -9999 
-9999 -9999 -9999 -9999 -9999 -9999 -9999 -9999 -9999 -9999 -9999 -9999 -9999 -9999 -9999 -9999 -9999 -9999 -9999 -9999 -9999 -9999 -9999 -9999 -9999 -9999 -9999 -9999 -9999 -9999 -9999 -9999 -9999 -9999 -9999 -9999 -9999 -9999 -9999 -9999 -9999 -9999 -9999 -9999 -9999 -9999 -9999 -9999 -9999 -9999 -9999 -9999 -9999 -9999 -9999 -9999 -9999 -9999 -9999 -9999 -9999 -9999 -9999 -9999 -9999 -9999 101 101 -9999 -9999 -9999 -9999 -9999 101 101 101 101 -9999 -9999 -9999 -9999 -9999 51 51 51 51 -9999 -9999 -9999 101 101 101 67.66666412353515625 -9999 67.66666412353515625 67.66666412353515625 67.66666412353515625 67.66666412353515625 67.66666412353515625 -9999 -9999 -9999 67.66666412353515625 101 -9999 -9999 -9999 -9999 -9999 -9999 -9999 -9999 -9999 -9999 -9999 -9999 -9999 -9999 -9999 -9999 -9999 -9999 -9999 -9999 -9999 -9999 -9999 
-9999 -9999 -9999 -9999 -9999 -9999 -9999 -9999 -9999 -9999 -9999 -9999 -9999 -9999 -9999 -9999 -9999 -9999 -9999 -9999 -9999 -9999 -9999 -9999 -9999 -9999 -9999 -9999 -9999 -9999 -9999 -9999 -9999 -9999 -9999 -9999 -9999 -9999 -9999 -9999 -9999 -9999 -9999 -9999 -9999 -9999 -9999 -9999 -9999 -9999 -9999 -9999 -9999 -9999 -9999 -9999 -9999 -9999 -9999 -9999 -9999 -9999 -9999 -9999 -9999 -9999 -9999 -9999 -9999 -9999 -9999 -9999 -9999 -9999 -9999 101 101 -9999 -9999 -9999 -9999 101 51 51 51 -9999 -9999 67.66666412353515625 -9999 101 101 101 67.66666412353515625 -9999 67.66666412353515625 67.66666412353515625 -9999 84.33333587646484375 84.33333587646484375 67.66666412353515625 -9999 -9999 -9999 84.33333587646484375 -9999 -9999 51 -9999 -9999 -9999 -9999 51 -9999 -9999 -9999 -9999 -9999 -9999 -9999 -9999 101 -9999 -9999 -9999 -9999 -9999 -9999 
-9999 -9999 -9999 -9999 -9999 -9999 -9999 -9999 -9999 -9999 -9999 -9999 -9999 -9999 -9999 -9999 -9999 -9999 -9999 -9999 -9999 -9999 -9999 -9999 -9999 -9999 -9999 -9999 -9999 -9999 -9999 -9999 -9999 -9999 -9999 -9999 -9999 -9999 -9999 -9999 -9999 -9999 -9999 -9999 -9999 -9999 -9999 -9999 -9999 -9999 -9999 -9999 -9999 -9999 -9999 -9999 -9999 -9999 -9999 -9999 -9999 -9999 -9999 -9999 -9999 -9999 -9999 -9999 -9999 -9999 -9999 -9999 -9999 -9999 -9999 -9999 -9999 101 101 -9999 -9999 101 -9999 -9999 51 -9999 -9999 -9999 -9999 -9999 101 101 101 67.66666412353515625 67.66666412353515625 -9999 -9999 84.33333587646484375 84.33333587646484375 67.66666412353515625 67.66666412353515625 -9999 67.66666412353515625 84.33333587646484375 -9999 -9999 -9999 -9999 -9999 -9999 -9999 101 -9999 -9999 101 -9999 -9999 -9999 -9999 -9999 101 -9999 -9999 -9999 -9999 -9999 -9999 
-9999 -9999 -9999 -9999 -9999 -9999 -9999 -9999 -9999 -9999 -9999 -9999 -9999 -9999 -9999 -9999 -9999 -9999 -9999 -9999 -9999 -9999 -9999 -9999 -9999 -9999 -9999 -9999 -9999 -9999 -9999 -9999 -9999 -9999 -9999 -9999 -9999 -9999 -9999 -9999 -9999 -9999 -9999 -9999 -9999 -9999 -9999 -9999 -9999 -9999 -9999 -9999 -9999 -9999 -9999 -9999 -9999 -9999 -9999 -9999 -9999 -9999 -9999 -9999 -9999 -9999 -9999 -9999 -9999 -9999 -9999 -9999 -9999 -9999 101 -9999 -9999 -9999 -9999 101 -9999 -9999 -9999 -9999 -9999 -9999 -9999 -9999 101 101 101 101 -9999 67.66666412353515625 67.66666412353515625 -9999 67.66666412353515625 -9999 67.66666412353515625 51 -9999 -9999 -9999 -9999 -9999 84.33333587646484375 -9999 -9999 -9999 -9999 -9999 -9999 -9999 101 -9999 -9999 -9999 -9999 -9999 -9999 -9999 101 -9999 -9999 -9999 -9999 -9999 
-9999 -9999 -9999 -9999 -9999 -9999 -9999 -9999 -9999 -9999 -9999 -9999 -9999 -9999 -9999 -9999 -9999 -9999 -9999 -9999 -9999 -9999 -9999 -9999 -9999 -9999 -9999 -9999 -9999 -9999 -9999 -9999 -9999 -9999 -9999 -9999 -9999 -9999 -9999 -9999 -9999 -9999 -9999 -9999 -9999 -9999 -9999 -9999 -9999 -9999 -9999 -9999 -9999 -9999 -9999 -9999 -9999 -9999 -9999 -9999 -9999 -9999 -9999 -9999 -9999 -9999 -9999 -9999 -9999 -9999 -9999 -9999 -9999 -9999 101 101 -9999 -9999 -9999 -9999 101 -9999 -9999 101 -9999 -9999 -9999 -9999 -9999 -9999 101 101 -9999 -9999 67.66666412353515625 -9999 67.66666412353515625 -9999 -9999 84.33333587646484375 -9999 84.33333587646484375 -9999 -9999 84.33333587646484375 -9999 67.66666412353515625 67.66666412353515625 101 -9999 -9999 -9999 -9999 -9999 -9999 101 -9999 -9999 -9999 -9999 101 101 -9999 -9999 -9999 -9999 -9999 
-9999 -9999 -9999 -9999 -9999 -9999 -9999 -9999 -9999 -9999 -9999 -9999 -9999 -9999 -9999 -9999 -9999 -9999 -9999 -9999 -9999 -9999 -9999 -9999 -9999 -9999 -9999 -9999 -9999 -9999 -9999 -9999 -9999 -9999 -9999 -9999 -9999 -9999 -9999 -9999 -9999 -9999 -9999 -9999 -9999 -9999 -9999 -9999 -9999 -9999 -9999 -9999 -9999 -9999 -9999 -9999 -9999 -9999 -9999 -9999 -9999 -9999 -9999 -9999 -9999 -9999 -9999 -9999 -9999 -9999 -9999 -9999 -9999 -9999 -9999 -9999 101 -9999 101 -9999 -9999 -9999 -9999 -9999 -9999 -9999 -9999 -9999 101 -9999 101 -9999 67.66666412353515625 -9999 67.66666412353515625 -9999 67.66666412353515625 67.66666412353515625 -9999 84.33333587646484375 84.33333587646484375 84.33333587646484375 84.33333587646484375 84.33333587646484375 67.66666412353515625 67.66666412353515625 67.66666412353515625 67.66666412353515625 -9999 -9999 -9999 -9999 -9999 -9999 -9999 -9999 -9999 -9999 -9999 -9999 -9999 -9999 101 101 -9999 -9999 -9999 
-9999 -9999 -9999 -9999 -9999 -9999 -9999 -9999 -9999 -9999 -9999 -9999 -9999 -9999 -9999 -9999 -9999 -9999 -9999 -9999 -9999 -9999 -9999 -9999 -9999 -9999 -9999 -9999 -9999 -9999 -9999 -9999 -9999 -9999 -9999 -9999 -9999 -9999 -9999 -9999 -9999 -9999 -9999 -9999 -9999 -9999 -9999 -9999 -9999 -9999 -9999 -9999 -9999 -9999 -9999 -9999 -9999 -9999 -9999 -9999 -9999 -9999 -9999 -9999 -9999 -9999 -9999 -9999 -9999 -9999 -9999 -9999 -9999 -9999 -9999 -9999 -9999 -9999 101 101 -9999 -9999 -9999 -9999 -9999 -9999 -9999 -9999 -9999 101 -9999 67.66666412353515625 -9999 -9999 67.66666412353515625 -9999 -9999 67.66666412353515625 84.33333587646484375 84.33333587646484375 84.33333587646484375 84.33333587646484375 67.66666412353515625 -9999 67.66666412353515625 -9999 -9999 67.66666412353515625 67.66666412353515625 -9999 -9999 -9999 -9999 -9999 -9999 -9999 -9999 -9999 -9999 -9999 -9999 -9999 -9999 -9999 -9999 -9999 -9999 
-9999 -9999 -9999 -9999 -9999 -9999 -9999 -9999 -9999 -9999 -9999 -9999 -9999 -9999 -9999 -9999 -9999 -9999 -9999 -9999 -9999 -9999 -9999 -9999 -9999 -9999 -9999 -9999 -9999 -9999 -9999 -9999 -9999 -9999 -9999 -9999 -9999 -9999 -9999 -9999 -9999 -9999 -9999 -9999 -9999 -9999 -9999 -9999 -9999 -9999 -9999 -9999 -9999 -9999 -9999 -9999 -9999 -9999 -9999 -9999 -9999 -9999 -9999 -9999 -9999 -9999 -9999 -9999 -9999 -9999 -9999 -9999 -9999 -9999 -9999 -9999 -9999 -9999 101 101 -9999 -9999 -9999 -9999 -9999 -9999 -9999 51 51 51 -9999 67.66666412353515625 -9999 -9999 67.66666412353515625 67.66666412353515625 67.66666412353515625 67.66666412353515625 84.33333587646484375 84.33333587646484375 84.33333587646484375 84.33333587646484375 67.66666412353515625 -9999 51 51 51 101 -9999 -9999 -9999 -9999 -9999 -9999 -9999 51 -9999 51 -9999 -9999 -9999 -9999 -9999 -9999 -9999 -9999 -9999 
-9999 -9999 -9999 -9999 -9999 -9999 -9999 -9999 -9999 -9999 -9999 -9999 -9999 -9999 -9999 -9999 -9999 -9999 -9999 -9999 -9999 -9999 -9999 -9999 -9999 -9999 -9999 -9999 -9999 -9999 -9999 -9999 -9999 -9999 -9999 -9999 -9999 -9999 -9999 -9999 -9999 -9999 -9999 -9999 -9999 -9999 -9999 -9999 -9999 -9999 -9999 -9999 -9999 -9999 -9999 -9999 -9999 -9999 -9999 -9999 -9999 -9999 -9999 -9999 -9999 -9999 -9999 -9999 -9999 -9999 -9999 -9999 -9999 -9999 -9999 -9999 -9999 -9999 -9999 101 101 -9999 -9999 -9999 101 -9999 51 51 51 51 67.66666412353515625 67.66666412353515625 67.66666412353515625 67.66666412353515625 67.66666412353515625 -9999 67.66666412353515625 101 101 101 101 101 -9999 -9999 51 51 51 -9999 -9999 -9999 -9999 51 -9999 51 -9999 51 -9999 51 -9999 -9999 -9999 -9999 -9999 -9999 -9999 -9999 -9999 
-9999 -9999 -9999 -9999 -9999 -9999 -9999 -9999 -9999 -9999 -9999 -9999 -9999 -9999 -9999 -9999 -9999 -9999 -9999 -9999 -9999 -9999 -9999 -9999 -9999 -9999 -9999 -9999 -9999 -9999 -9999 -9999 -9999 -9999 -9999 -9999 -9999 -9999 -9999 -9999 -9999 -9999 -9999 -9999 -9999 -9999 -9999 -9999 -9999 -9999 -9999 -9999 -9999 -9999 -9999 -9999 -9999 -9999 -9999 -9999 -9999 -9999 -9999 -9999 -9999 -9999 -9999 -9999 -9999 -9999 -9999 -9999 -9999 -9999 -9999 -9999 -9999 -9999 -9999 -9999 101 -9999 -9999 -9999 -9999 -9999 -9999 -9999 51 67.66666412353515625 67.66666412353515625 -9999 67.66666412353515625 -9999 67.66666412353515625 -9999 67.66666412353515625 101 -9999 51 -9999 -9999 -9999 -9999 -9999 -9999 51 51 -9999 -9999 -9999 -9999 -9999 -9999 -9999 51 -9999 -9999 -9999 -9999 -9999 -9999 -9999 -9999 -9999 -9999 -9999 
-9999 -9999 -9999 -9999 -9999 -9999 -9999 -9999 -9999 -9999 -9999 -9999 -9999 -9999 -9999 -9999 -9999 -9999 -9999 -9999 -9999 -9999 -9999 -9999 -9999 -9999 -9999 -9999 -9999 -9999 -9999 -9999 -9999 -9999 -9999 -9999 -9999 -9999 -9999 -9999 -9999 -9999 -9999 -9999 -9999 -9999 -9999 -9999 -9999 -9999 -9999 -9999 -9999 -9999 -9999 -9999 -9999 -9999 -9999 -9999 -9999 -9999 -9999 -9999 -9999 -9999 -9999 -9999 -9999 -9999 -9999 -9999 -9999 -9999 -9999 -9999 -9999 -9999 -9999 -9999 101 101 -9999 -9999 -9999 -9999 -9999 -9999 -9999 -9999 -9999 -9999 -9999 -9999 -9999 67.66666412353515625 -9999 -9999 -9999 51 51 -9999 51 -9999 51 -9999 51 -9999 -9999 -9999 -9999 -9999 -9999 -9999 -9999 -9999 -9999 -9999 -9999 -9999 -9999 -9999 -9999 -9999 -9999 -9999 -9999 
-9999 -9999 -9999 -9999 -9999 -9999 -9999 -9999 -9999 -9999 -9999 -9999 -9999 -9999 -9999 -9999 -9999 -9999 -9999 -9999 -9999 -9999 -9999 -9999 -9999 -9999 -9999 -9999 -9999 -9999 -9999 -9999 -9999 -9999 -9999 -9999 -9999 -9999 -9999 -9999 -9999 -9999 -9999 -9999 -9999 -9999 -9999 -9999 -9999 -9999 -9999 -9999 -9999 -9999 -9999 -9999 -9999 -9999 -9999 -9999 -9999 -9999 -9999 -9999 -9999 -9999 -9999 -9999 -9999 -9999 -9999 -9999 -9999 -9999 -9999 -9999 -9999 -9999 -9999 -9999 -9999 101 -9999 101 -9999 -9999 -9999 67.66666412353515625 67.66666412353515625 -9999 -9999 67.66666412353515625 67.66666412353515625 67.66666412353515625 -9999 -9999 -9999 -9999 -9999 -9999 -9999 -9999 -9999 -9999 -9999 -9999 -9999 -9999 -9999 -9999 -9999 101 -9999 -9999 -9999 -9999 -9999 -9999 -9999 -9999 -9999 -9999 -9999 -9999 -9999 -9999 -9999 
-9999 -9999 -9999 -9999 -9999 -9999 -9999 -9999 -9999 -9999 -9999 -9999 -9999 -9999 -9999 -9999 -9999 -9999 -9999 -9999 -9999 -9999 -9999 -9999 -9999 -9999 -9999 -9999 -9999 -9999 -9999 -9999 -9999 -9999 -9999 -9999 -9999 -9999 -9999 -9999 -9999 -9999 -9999 -9999 -9999 -9999 -9999 -9999 -9999 -9999 -9999 -9999 -9999 -9999 -9999 -9999 -9999 -9999 -9999 -9999 -9999 -9999 -9999 -9999 -9999 -9999 -9999 -9999 -9999 -9999 -9999 -9999 -9999 -9999 -9999 -9999 -9999 -9999 -9999 -9999 -9999 101 -9999 101 101 101 -9999 -9999 -9999 67.66666412353515625 67.66666412353515625 67.66666412353515625 67.66666412353515625 67.66666412353515625 67.66666412353515625 101 101 101 101 67.66666412353515625 -9999 67.66666412353515625 -9999 -9999 -9999 -9999 -9999 -9999 -9999 -9999 -9999 -9999 -9999 -9999 -9999 -9999 -9999 -9999 -9999 -9999 -9999 -9999 -9999 -9999 -9999 -9999 -9999 
-9999 -9999 -9999 -9999 -9999 -9999 -9999 -9999 -9999 -9999 -9999 -9999 -9999 -9999 -9999 -9999 -9999 -9999 -9999 -9999 -9999 -9999 -9999 -9999 -9999 -9999 -9999 -9999 -9999 -9999 -9999 -9999 -9999 -9999 -9999 -9999 -9999 -9999 -9999 -9999 -9999 -9999 -9999 -9999 -9999 -9999 -9999 -9999 -9999 -9999 -9999 -9999 -9999 -9999 -9999 -9999 -9999 -9999 -9999 -9999 -9999 -9999 -9999 -9999 -9999 -9999 -9999 -9999 -9999 -9999 -9999 -9999 -9999 -9999 -9999 -9999 -9999 -9999 -9999 -9999 -9999 101 101 -9999 101 101 -9999 -9999 -9999 -9999 67.66666412353515625 -9999 67.66666412353515625 67.66666412353515625 67.66666412353515625 67.66666412353515625 67.66666412353515625 67.66666412353515625 101 67.66666412353515625 67.66666412353515625 -9999 -9999 -9999 -9999 -9999 -9999 -9999 -9999 101 101 -9999 -9999 101 101 -9999 -9999 -9999 -9999 -9999 -9999 -9999 -9999 -9999 -9999 -9999 -9999 
-9999 -9999 -9999 -9999 -9999 -9999 -9999 -9999 -9999 -9999 -9999 -9999 -9999 -9999 -9999 -9999 -9999 -9999 -9999 -9999 -9999 -9999 -9999 -9999 -9999 -9999 -9999 -9999 -9999 -9999 -9999 -9999 -9999 -9999 -9999 -9999 -9999 -9999 -9999 -9999 -9999 -9999 -9999 -9999 -9999 -9999 -9999 -9999 -9999 -9999 -9999 -9999 -9999 -9999 -9999 -9999 -9999 -9999 -9999 -9999 -9999 -9999 -9999 -9999 -9999 -9999 -9999 -9999 -9999 -9999 -9999 -9999 -9999 -9999 -9999 -9999 -9999 -9999 -9999 -9999 101 101 -9999 -9999 101 101 -9999 -9999 -9999 -9999 -9999 -9999 -9999 -9999 -9999 -9999 67.66666412353515625 -9999 67.66666412353515625 67.66666412353515625 67.66666412353515625 -9999 -9999 -9999 -9999 -9999 -9999 -9999 -9999 -9999 101 -9999 -9999 -9999 -9999 -9999 -9999 -9999 -9999 -9999 -9999 -9999 -9999 -9999 -9999 -9999 -9999 
-9999 -9999 -9999 -9999 -9999 -9999 -9999 -9999 -9999 -9999 -9999 -9999 -9999 -9999 -9999 -9999 -9999 -9999 -9999 -9999 -9999 -9999 -9999 -9999 -9999 -9999 -9999 -9999 -9999 -9999 -9999 -9999 -9999 -9999 -9999 -9999 -9999 -9999 -9999 -9999 -9999 -9999 -9999 -9999 -9999 -9999 -9999 -9999 -9999 -9999 -9999 -9999 -9999 -9999 -9999 -9999 -9999 -9999 -9999 -9999 -9999 -9999 -9999 -9999 -9999 -9999 -9999 -9999 -9999 -9999 -9999 -9999 -9999 -9999 -9999 -9999 -9999 -9999 -9999 -9999 -9999 -9999 101 101 -9999 101 101 -9999 -9999 -9999 101 -9999 -9999 -9999 101 -9999 67.66666412353515625 67.66666412353515625 -9999 101 -9999 -9999 -9999 -9999 -9999 -9999 -9999 -9999 -9999 -9999 -9999 -9999 -9999 -9999 -9999 -9999 -9999 -9999 -9999 -9999 -9999 -9999 -9999 -9999 -9999 -9999 -9999 
-9999 -9999 -9999 -9999 -9999 -9999 -9999 -9999 -9999 -9999 -9999 -9999 -9999 -9999 -9999 -9999 -9999 -9999 -9999 -9999 -9999 -9999 -9999 -9999 -9999 -9999 -9999 -9999 -9999 -9999 -9999 -9999 -9999 -9999 -9999 -9999 -9999 -9999 -9999 -9999 -9999 -9999 -9999 -9999 -9999 -9999 -9999 -9999 -9999 -9999 -9999 -9999 -9999 -9999 -9999 -9999 -9999 -9999 -9999 -9999 -9999 -9999 -9999 -9999 -9999 -9999 -9999 -9999 -9999 -9999 -9999 -9999 -9999 -9999 -9999 -9999 -9999 -9999 -9999 -9999 -9999 101 101 101 101 -9999 -9999 -9999 -9999 -9999 -9999 101 -9999 101 101 -9999 101 101 101 101 101 101 101 -9999 -9999 -9999 -9999 -9999 -9999 -9999 -9999 -9999 -9999 -9999 -9999 -9999 -9999 -9999 -9999 -9999 -9999 -9999 -9999 -9999 -9999 -9999 -9999 
-9999 -9999 -9999 -9999 -9999 -9999 -9999 -9999 -9999 -9999 -9999 -9999 -9999 -9999 -9999 -9999 -9999 -9999 -9999 -9999 -9999 -9999 -9999 -9999 -9999 -9999 -9999 -9999 -9999 -9999 -9999 -9999 -9999 -9999 -9999 -9999 -9999 -9999 -9999 -9999 -9999 -9999 -9999 -9999 -9999 -9999 -9999 -9999 -9999 -9999 -9999 -9999 -9999 -9999 -9999 -9999 -9999 -9999 -9999 -9999 -9999 -9999 -9999 -9999 -9999 -9999 -9999 -9999 -9999 -9999 -9999 -9999 -9999 -9999 -9999 -9999 -9999 -9999 -9999 -9999 101 -9999 101 101 101 101 -9999 -9999 -9999 -9999 -9999 101 -9999 101 101 -9999 101 101 101 101 101 101 101 101 -9999 -9999 -9999 -9999 -9999 -9999 -9999 -9999 -9999 -9999 -9999 -9999 -9999 -9999 -9999 -9999 -9999 -9999 -9999 -9999 -9999 -9999 -9999 
-9999 -9999 -9999 -9999 -9999 -9999 -9999 -9999 -9999 -9999 -9999 -9999 -9999 -9999 -9999 -9999 -9999 -9999 -9999 -9999 -9999 -9999 -9999 -9999 -9999 -9999 -9999 -9999 -9999 -9999 -9999 -9999 -9999 -9999 -9999 -9999 -9999 -9999 -9999 -9999 -9999 -9999 -9999 -9999 -9999 -9999 -9999 -9999 -9999 -9999 -9999 -9999 -9999 -9999 -9999 -9999 -9999 -9999 -9999 -9999 -9999 -9999 -9999 -9999 -9999 -9999 -9999 -9999 -9999 -9999 -9999 -9999 -9999 -9999 -9999 -9999 -9999 -9999 -9999 -9999 -9999 -9999 101 -9999 101 -9999 101 -9999 -9999 -9999 -9999 -9999 -9999 -9999 -9999 101 -9999 101 101 101 101 101 -9999 -9999 101 -9999 -9999 -9999 -9999 -9999 -9999 -9999 -9999 -9999 -9999 -9999 -9999 -9999 -9999 -9999 -9999 -9999 -9999 -9999 -9999 -9999 -9999 
-9999 -9999 -9999 -9999 -9999 -9999 -9999 -9999 -9999 -9999 -9999 -9999 -9999 -9999 -9999 -9999 -9999 -9999 -9999 -9999 -9999 -9999 -9999 -9999 -9999 -9999 -9999 -9999 -9999 -9999 -9999 -9999 -9999 -9999 -9999 -9999 -9999 -9999 -9999 -9999 -9999 -9999 -9999 -9999 -9999 -9999 -9999 -9999 -9999 -9999 -9999 -9999 -9999 -9999 -9999 -9999 -9999 -9999 -9999 -9999 -9999 -9999 -9999 -9999 -9999 -9999 -9999 -9999 -9999 -9999 -9999 -9999 -9999 -9999 -9999 -9999 -9999 -9999 -9999 -9999 -9999 -9999 -9999 -9999 -9999 -9999 -9999 -9999 -9999 -9999 -9999 -9999 -9999 -9999 101 101 101 101 101 101 101 101 -9999 -9999 101 101 101 101 -9999 -9999 -9999 -9999 -9999 -9999 -9999 -9999 -9999 -9999 -9999 -9999 -9999 -9999 -9999 -9999 -9999 -9999 -9999 
-9999 -9999 -9999 -9999 -9999 -9999 -9999 -9999 -9999 -9999 -9999 -9999 -9999 -9999 -9999 -9999 -9999 -9999 -9999 -9999 -9999 -9999 -9999 -9999 -9999 -9999 -9999 -9999 -9999 -9999 -9999 -9999 -9999 -9999 -9999 -9999 -9999 -9999 -9999 -9999 -9999 -9999 -9999 -9999 -9999 -9999 -9999 -9999 -9999 -9999 -9999 -9999 -9999 -9999 -9999 -9999 -9999 -9999 -9999 -9999 -9999 -9999 -9999 -9999 -9999 -9999 -9999 -9999 -9999 -9999 -9999 -9999 -9999 -9999 -9999 -9999 -9999 -9999 -9999 -9999 -9999 -9999 -9999 -9999 -9999 -9999 -9999 -9999 -9999 -9999 -9999 -9999 -9999 -9999 101 101 101 101 101 101 101 101 101 101 -9999 101 101 -9999 -9999 -9999 -9999 -9999 -9999 -9999 -9999 -9999 -9999 -9999 -9999 -9999 -9999 -9999 -9999 -9999 -9999 -9999 -9999 
-9999 -9999 -9999 -9999 -9999 -9999 -9999 -9999 -9999 -9999 -9999 -9999 -9999 -9999 -9999 -9999 -9999 -9999 -9999 -9999 -9999 -9999 -9999 -9999 -9999 -9999 -9999 -9999 -9999 -9999 -9999 -9999 -9999 -9999 -9999 -9999 -9999 -9999 -9999 -9999 -9999 -9999 -9999 -9999 -9999 -9999 -9999 -9999 -9999 -9999 -9999 -9999 -9999 -9999 -9999 -9999 -9999 -9999 -9999 -9999 -9999 -9999 -9999 -9999 -9999 -9999 -9999 -9999 -9999 -9999 -9999 -9999 -9999 -9999 -9999 -9999 -9999 -9999 -9999 -9999 -9999 -9999 -9999 -9999 -9999 -9999 -9999 -9999 -9999 -9999 -9999 -9999 -9999 -9999 -9999 -9999 101 -9999 101 101 101 101 -9999 101 -9999 -9999 -9999 -9999 -9999 -9999 -9999 -9999 -9999 -9999 -9999 -9999 -9999 -9999 -9999 -9999 -9999 -9999 -9999 -9999 -9999 -9999 -9999 
-9999 -9999 -9999 -9999 -9999 -9999 -9999 -9999 -9999 -9999 -9999 -9999 -9999 -9999 -9999 -9999 -9999 -9999 -9999 -9999 -9999 -9999 -9999 -9999 -9999 -9999 -9999 -9999 -9999 -9999 -9999 -9999 -9999 -9999 -9999 -9999 -9999 -9999 -9999 -9999 -9999 -9999 -9999 -9999 -9999 -9999 -9999 -9999 -9999 -9999 -9999 -9999 -9999 -9999 -9999 -9999 -9999 -9999 -9999 -9999 -9999 -9999 -9999 -9999 -9999 -9999 -9999 -9999 -9999 -9999 -9999 -9999 -9999 -9999 -9999 -9999 -9999 -9999 -9999 -9999 -9999 -9999 -9999 -9999 -9999 -9999 -9999 -9999 -9999 -9999 -9999 -9999 -9999 -9999 -9999 -9999 -9999 -9999 101 101 101 101 101 101 101 -9999 -9999 -9999 -9999 -9999 -9999 -9999 -9999 -9999 -9999 -9999 -9999 -9999 -9999 -9999 -9999 -9999 -9999 -9999 -9999 -9999 -9999 
-9999 -9999 -9999 -9999 -9999 -9999 -9999 -9999 -9999 -9999 -9999 -9999 -9999 -9999 -9999 -9999 -9999 -9999 -9999 -9999 -9999 -9999 -9999 -9999 -9999 -9999 -9999 -9999 -9999 -9999 -9999 -9999 -9999 -9999 -9999 -9999 -9999 -9999 -9999 -9999 -9999 -9999 -9999 -9999 -9999 -9999 -9999 -9999 -9999 -9999 -9999 -9999 -9999 -9999 -9999 -9999 -9999 -9999 -9999 -9999 -9999 -9999 -9999 -9999 -9999 -9999 -9999 -9999 -9999 -9999 -9999 -9999 -9999 -9999 -9999 -9999 -9999 -9999 -9999 -9999 -9999 -9999 -9999 -9999 -9999 -9999 -9999 -9999 -9999 -9999 -9999 -9999 -9999 -9999 -9999 -9999 -9999 -9999 -9999 -9999 -9999 101 101 101 101 101 101 -9999 -9999 -9999 -9999 -9999 -9999 -9999 -9999 -9999 -9999 -9999 -9999 -9999 -9999 -9999 -9999 -9999 -9999 -9999 -9999 
-9999 -9999 -9999 -9999 -9999 -9999 -9999 -9999 -9999 -9999 -9999 -9999 -9999 -9999 -9999 -9999 -9999 -9999 -9999 -9999 -9999 -9999 -9999 -9999 -9999 -9999 -9999 -9999 -9999 -9999 -9999 -9999 -9999 -9999 -9999 -9999 -9999 -9999 -9999 -9999 -9999 -9999 -9999 -9999 -9999 -9999 -9999 -9999 -9999 -9999 -9999 -9999 -9999 -9999 -9999 -9999 -9999 -9999 -9999 -9999 -9999 -9999 -9999 -9999 -9999 -9999 -9999 -9999 -9999 -9999 -9999 -9999 -9999 -9999 -9999 -9999 -9999 -9999 -9999 -9999 -9999 -9999 -9999 -9999 -9999 -9999 -9999 -9999 -9999 -9999 -9999 -9999 -9999 -9999 -9999 -9999 -9999 -9999 -9999 -9999 -9999 -9999 -9999 -9999 -9999 -9999 101 -9999 -9999 -9999 -9999 -9999 -9999 -9999 -9999 -9999 -9999 -9999 -9999 -9999 -9999 -9999 -9999 -9999 -9999 -9999 -9999 
-9999 -9999 -9999 -9999 -9999 -9999 -9999 -9999 -9999 -9999 -9999 -9999 -9999 -9999 -9999 -9999 -9999 -9999 -9999 -9999 -9999 -9999 -9999 -9999 -9999 -9999 -9999 -9999 -9999 -9999 -9999 -9999 -9999 -9999 -9999 -9999 -9999 -9999 -9999 -9999 -9999 -9999 -9999 -9999 -9999 -9999 -9999 -9999 -9999 -9999 -9999 -9999 -9999 -9999 -9999 -9999 -9999 -9999 -9999 -9999 -9999 -9999 -9999 -9999 -9999 -9999 -9999 -9999 -9999 -9999 -9999 -9999 -9999 -9999 -9999 -9999 -9999 -9999 -9999 -9999 -9999 -9999 -9999 -9999 -9999 -9999 -9999 -9999 -9999 -9999 -9999 -9999 -9999 -9999 -9999 -9999 -9999 -9999 -9999 -9999 -9999 -9999 -9999 101 101 101 -9999 -9999 -9999 -9999 -9999 -9999 -9999 -9999 -9999 -9999 -9999 -9999 -9999 -9999 -9999 -9999 -9999 -9999 -9999 -9999 -9999 
