ncols        127
nrows        131
xllcorner    -71.681135979344
yllcorner    -16.519694133538
cellsize     0.001836012963
NODATA_value -9999
1.0 1 1 1 1 1 1 1 1 1 1 1 1 1 1 1 1 1 1 1 1 1 1 1 1 1 1 1 1 1 1 1 1 1 1 1 1 1 1 1 1 1 1 1 1 1 1 1 1 1 1 1 1 1 1 1 1 1 1 1 1 1 1 1 1 1 1 1 1 1 1 1 1 1 1 1 1 1 1 1 1 1 1 1 1 1 1 1 1 1 1 1 1 1 1 1 1 1 1 1 1 1 1 1 1 1 1 1 1 1 1 1 1 1 1 1 1 1 1 1 1 1 1 1 1 1 1 
1 1 1 1 1 1 1 1 1 1 1 1 41 1 1 1 1 1 1 1 1 1 1 1 1 41 1 1 1 1 1 1 1 1 1 1 1 1 1 1 1 1 1 1 1 1 1 1 1 1 1 1 1 1 1 1 1 1 1 1 1 1 1 1 1 1 1 1 1 1 1 1 1 1 1 1 1 1 1 1 1 1 1 1 1 1 1 1 1 1 1 1 1 1 1 1 1 1 1 1 1 1 1 1 1 1 1 1 1 1 1 1 1 1 1 1 1 1 1 1 1 1 1 1 1 1 1 
1 1 1 1 1 1 1 1 1 1 1 1 1 1 1 1 1 1 1 1 1 1 1 1 1 1 1 1 1 1 1 1 1 1 1 1 1 1 1 1 1 1 1 1 1 1 1 1 1 1 1 1 1 1 1 1 1 1 1 1 1 1 1 1 1 1 1 1 1 1 1 1 1 1 1 1 1 1 1 1 1 1 1 1 1 1 1 1 1 1 1 1 1 1 1 1 1 1 1 1 1 1 1 1 1 1 1 1 1 1 1 1 1 1 1 1 1 1 1 1 1 1 1 1 1 1 1 
1 1 1 1 1 1 1 1 1 1 1 1 1 1 1 41 1 1 1 1 1 1 1 1 1 1 1 1 1 1 1 1 1 1 1 1 1 1 1 1 1 1 1 1 1 1 1 1 1 1 1 1 1 1 1 1 1 1 1 1 1 1 1 1 1 1 1 1 1 1 41 1 1 1 1 1 1 1 1 1 1 1 1 1 1 1 1 1 1 1 1 1 1 1 1 1 1 1 1 1 1 1 1 1 1 1 1 1 1 1 1 1 1 1 1 1 1 1 1 1 1 1 1 1 1 1 1 
1 1 1 1 1 1 1 1 1 1 1 1 41 41 41 41 1 1 1 1 1 1 1 1 1 1 1 1 1 1 1 1 1 1 1 1 1 1 1 1 1 1 1 1 1 1 1 1 1 1 1 1 1 1 1 1 1 1 1 1 1 1 1 1 1 1 1 1 1 41 1 1 1 1 1 1 1 1 1 1 1 1 1 1 1 1 1 1 1 1 1 1 1 1 1 1 1 1 1 1 1 1 1 1 1 1 1 1 1 1 1 1 1 1 1 1 1 1 1 1 1 1 1 1 1 1 1 
1 1 1 1 1 1 1 1 1 1 1 1 1 1 41 41 1 1 1 1 1 1 41 41 1 21 21 1 21 1 1 1 1 1 1 1 1 1 1 1 1 1 1 1 1 1 1 1 1 1 1 1 1 1 1 1 1 1 1 1 1 1 1 1 1 1 1 1 1 1 41 1 41 1 1 41 1 1 1 1 1 1 1 1 1 1 1 1 1 1 1 1 1 1 1 1 1 1 1 1 1 1 1 1 1 1 1 1 1 1 1 1 1 1 1 1 1 1 1 1 1 1 1 1 1 1 1 
1 1 1 1 1 1 1 1 1 1 1 1 1 41 41 41 1 1 1 1 1 1 41 1 1 21 21 1 21 1 1 1 1 1 1 1 1 1 1 1 1 1 1 1 1 1 1 1 1 1 1 1 1 1 1 1 1 1 1 1 1 1 1 1 1 1 1 1 1 1 1 1 1 1 1 1 1 1 1 1 1 1 1 1 1 1 1 41 1 1 1 1 1 1 1 1 1 1 1 1 1 1 1 1 1 1 1 1 1 1 1 1 1 1 1 1 1 1 1 1 1 1 1 1 1 1 1 
1 1 1 1 1 1 1 1 1 1 1 1 41 41 1 61 1 1 1 1 41 1 1 1 21 1 1 21 1 21 1 1 1 1 1 1 1 1 1 1 1 1 1 1 1 1 1 1 1 1 1 1 1 1 1 1 1 1 1 1 1 1 1 1 1 1 1 1 1 1 1 1 1 41 1 1 1 1 1 1 1 1 1 21 1 1 1 1 21 1 1 1 1 1 1 1 1 1 1 1 1 1 1 1 1 1 1 1 1 1 1 1 1 1 1 1 1 1 1 1 1 1 1 1 1 1 1 
1 1 1 1 1 1 1 1 1 1 1 1 1 1 1 1 1 1 1 1 1 1 1 1 21 1 1 1 1 1 41 41 41 1 1 1 1 1 1 1 1 1 1 1 1 1 1 1 1 1 1 1 1 1 1 1 1 1 1 1 1 1 1 1 1 1 1 1 1 1 1 1 41 41 1 1 1 1 1 1 1 1 21 1 1 1 1 1 1 1 1 1 1 1 1 1 1 1 1 1 1 1 1 1 1 1 1 1 1 1 1 1 1 1 1 1 1 1 1 1 1 1 1 1 1 1 1 
1 1 1 1 1 1 1 1 1 1 1 1 61 1 1 1 1 1 1 1 41 1 1 21 21 1 21 1 41 41 1 1 41 1 1 1 1 1 1 1 1 1 1 1 1 1 1 1 1 1 1 1 1 1 1 1 1 1 1 1 1 1 1 1 1 1 1 1 1 1 1 1 41 41 1 1 1 1 1 1 1 1 1 1 1 41 1 1 21 1 41 1 1 1 1 1 1 1 1 1 1 1 1 1 1 1 1 1 1 1 1 1 1 1 1 1 1 1 1 1 1 1 1 1 1 1 1 
1 1 1 1 1 1 1 1 1 1 1 1 1 1 1 1 1 1 1 1 1 1 1 21 21 21 21 1 1 41 1 41 1 1 1 1 1 1 1 1 1 1 1 1 1 1 1 1 1 1 1 1 1 1 1 1 1 1 1 1 1 1 1 1 1 1 1 1 1 1 1 1 41 1 1 1 1 1 1 1 1 1 1 21 1 21 21 1 21 1 41 1 1 1 1 1 1 1 1 1 1 1 1 1 1 1 1 1 1 1 1 1 1 1 1 1 1 1 1 1 1 1 1 1 1 1 1 
1 1 1 1 1 1 1 1 1 1 1 1 1 1 1 1 1 1 1 1 1 1 1 1 21 1 21 41 1 41 1 41 1 1 1 41 1 1 1 1 1 1 1 1 1 1 1 1 1 1 1 1 1 1 1 1 1 1 1 1 1 1 1 1 1 1 1 1 1 1 1 1 41 1 1 1 1 1 1 1 1 21 1 1 1 21 21 1 1 1 1 1 1 1 1 1 1 1 1 1 1 1 1 1 1 1 1 1 1 1 1 1 1 1 1 1 1 1 1 1 1 1 1 1 1 1 1 
1 1 1 1 1 1 1 1 1 1 1 1 1 1 1 1 1 1 1 1 1 1 41 41 41 1 1 1 41 41 1 1 41 41 41 41 1 1 1 1 1 1 1 1 1 1 1 1 1 1 1 1 1 1 1 1 1 1 1 1 1 1 1 1 1 1 1 1 1 1 1 1 1 1 1 1 1 1 1 1 1 21 1 1 1 1 1 1 1 1 1 1 1 1 1 1 1 1 1 1 1 1 1 1 1 1 1 1 1 1 1 1 1 1 1 1 1 1 1 1 1 1 1 1 1 1 1 
1 1 1 1 1 1 1 1 1 1 1 1 1 1 1 1 1 1 1 1 1 1 41 41 1 1 41 41 41 1 41 41 41 1 41 41 41 1 1 1 1 1 1 1 1 1 1 1 1 1 1 1 1 1 1 1 1 1 1 1 1 1 1 1 1 1 1 1 1 1 1 1 1 1 1 1 1 1 1 1 21 21 21 1 1 21 21 1 1 1 1 1 1 1 1 1 1 1 1 1 1 1 1 1 1 1 1 1 1 1 1 1 1 1 1 1 1 1 1 1 1 1 1 1 1 1 1 
1 1 1 1 1 1 1 61 61 1 1 1 1 1 1 1 1 1 41 1 1 1 1 21 1 41 1 41 41 1 41 1 1 41 1 41 41 21 1 1 1 1 1 1 1 1 1 1 1 1 1 1 1 1 1 1 1 1 1 1 1 1 1 1 1 1 1 1 1 1 1 21 1 21 1 1 1 1 1 21 21 21 21 1 1 21 1 1 1 1 1 1 1 1 1 1 1 1 1 1 1 1 1 1 1 1 1 1 1 1 1 1 1 1 1 1 1 1 1 1 1 1 1 1 1 1 1 
1 1 1 1 1 1 1 1 1 1 1 1 1 1 1 1 41 1 1 1 1 41 41 21 1 21 1 1 1 41 1 1 41 41 41 1 41 41 21 1 21 1 1 1 1 1 1 1 1 1 1 1 1 1 1 21 1 1 1 1 1 1 1 1 1 1 1 1 1 1 21 21 1 1 1 1 1 1 1 1 1 1 1 1 21 1 21 1 1 1 1 1 1 1 1 1 1 1 1 1 1 1 1 1 1 1 1 1 1 1 1 1 1 1 1 1 1 1 1 1 1 1 1 1 1 1 1 
1 1 1 1 1 1 1 1 1 61 1 1 1 1 1 41 41 1 1 1 1 41 1 21 1 21 41 1 1 21 1 21 41 41 1 41 41 1 41 1 21 1 1 1 1 1 1 1 1 1 1 1 1 1 1 1 1 1 1 1 1 1 1 1 1 1 1 41 1 21 41 1 21 21 1 1 1 1 21 21 21 21 21 21 21 21 1 1 1 1 1 1 1 1 1 1 1 1 1 1 1 1 1 1 1 1 1 1 1 1 1 1 1 1 1 1 1 1 1 1 1 1 1 1 1 1 1 
1 1 1 41 1 1 1 1 1 1 1 1 1 1 41 1 1 41 1 1 1 1 21 1 21 1 21 21 21 21 1 1 21 1 41 1 41 41 41 41 41 21 1 1 1 1 1 1 1 1 1 21 21 1 21 1 1 1 1 1 1 1 1 1 1 1 1 1 41 41 41 41 1 21 21 21 1 1 1 21 41 41 1 21 21 21 1 1 1 1 1 1 1 1 1 1 1 1 1 1 1 1 1 1 1 1 1 1 1 1 1 1 1 1 1 1 1 1 1 1 1 1 1 1 1 1 1 
1 1 1 1 1 1 1 1 1 1 1 1 1 41 1 41 1 41 41 1 41 21 1 21 21 1 21 21 21 1 1 1 1 1 1 1 41 1 41 41 41 21 41 1 1 1 1 1 1 1 1 21 21 1 1 1 41 1 1 1 1 1 1 1 1 1 1 1 1 21 41 21 21 21 1 21 21 21 21 1 1 1 1 1 1 21 1 1 1 1 1 1 1 1 1 1 1 1 1 1 1 1 1 1 1 1 1 1 1 1 1 1 1 1 1 1 1 1 1 1 1 1 1 1 1 1 1 
1 1 1 1 1 1 1 1 1 1 1 1 41 1 41 41 41 1 1 41 21 21 1 21 1 1 1 1 1 1 1 1 1 1 1 1 1 1 41 41 41 1 1 21 41 41 1 1 1 1 1 21 1 1 1 1 41 1 1 1 1 1 1 1 1 1 1 1 21 21 21 1 1 1 21 1 1 1 21 1 41 1 1 21 1 1 1 1 1 1 1 1 1 1 1 1 1 1 1 1 1 1 1 1 1 1 1 1 1 1 1 1 1 1 1 1 1 1 1 1 1 1 1 1 1 1 1 
1 1 1 1 1 1 1 1 1 1 1 1 1 41 1 1 1 1 1 1 21 21 41 1 1 1 1 1 21 1 1 21 1 41 41 1 1 1 41 41 41 41 1 21 41 41 41 21 21 1 21 21 1 21 1 21 1 1 1 1 1 1 1 1 1 1 1 1 1 21 1 1 21 1 1 1 1 1 1 21 1 1 1 1 41 1 1 1 1 1 1 1 1 1 1 1 1 1 1 1 1 1 1 1 1 1 1 1 1 1 1 1 1 1 1 1 1 1 1 1 1 1 1 1 1 1 1 
1 1 1 1 1 1 1 1 1 1 1 1 1 1 41 41 41 1 21 21 21 1 1 1 1 1 1 21 1 1 1 41 1 1 1 1 1 1 41 1 41 41 1 21 41 41 41 21 21 41 41 21 1 1 21 21 21 1 1 1 1 21 1 1 1 1 21 21 1 21 1 21 21 1 1 1 1 21 1 21 41 1 1 1 1 1 1 1 1 1 1 1 1 1 1 1 1 1 1 1 1 1 1 1 1 1 1 1 1 1 1 1 1 1 1 1 1 1 1 1 1 1 1 1 1 1 1 
1 1 1 1 1 1 1 1 1 1 1 1 1 1 1 1 1 21 21 21 21 1 1 1 1 1 1 21 21 1 1 41 1 41 1 1 21 21 1 1 41 41 41 1 1 41 41 21 1 41 41 21 1 21 21 21 21 1 1 1 1 21 21 1 21 21 21 21 21 41 41 21 21 1 1 1 1 1 21 1 41 41 1 1 1 1 1 1 1 1 1 1 1 1 1 1 1 1 1 1 1 1 1 1 1 1 1 1 1 1 1 1 1 1 1 1 1 1 1 1 1 1 1 1 1 1 1 
1 1 1 1 1 1 1 1 1 1 1 1 1 1 1 1 1 1 1 1 1 41 1 1 1 1 1 1 1 1 41 41 1 1 1 21 21 21 1 21 1 21 1 1 41 1 41 41 41 41 41 41 1 21 1 21 1 1 21 1 1 21 1 1 21 21 1 21 1 1 1 1 1 21 21 1 41 41 1 1 21 1 1 1 1 1 1 1 1 1 1 1 1 1 1 1 1 1 1 1 1 1 1 1 1 1 1 1 1 1 1 1 1 1 1 1 1 1 1 1 1 1 1 1 1 1 1 
1 1 1 41 1 1 1 1 1 1 1 1 1 1 1 1 1 1 1 1 1 1 1 1 1 1 1 1 1 1 41 41 1 1 1 21 21 21 1 1 21 1 21 1 21 1 41 41 41 41 1 41 1 21 21 21 21 21 1 1 1 21 21 21 41 41 41 41 41 41 21 1 1 21 1 41 41 1 1 21 1 1 1 1 1 1 1 1 1 1 1 1 1 1 1 1 1 1 1 1 1 1 1 1 1 1 1 1 1 1 1 1 1 1 1 1 1 1 1 1 1 1 1 1 1 1 1 
1 1 1 1 1 1 1 1 1 1 1 1 1 1 1 1 1 1 1 41 1 1 1 1 1 1 1 1 1 1 1 1 1 1 21 1 21 1 21 1 1 1 21 21 21 1 41 41 41 41 41 41 1 21 21 1 1 21 1 1 1 1 1 1 1 1 1 1 1 1 21 1 1 61 21 1 41 41 41 21 1 1 1 1 1 1 1 1 1 1 1 1 1 1 1 1 1 1 1 1 1 1 1 1 1 1 1 1 1 1 1 1 1 1 1 1 1 1 1 1 1 1 1 1 1 1 1 
1 1 1 1 1 1 1 1 1 1 1 1 1 1 1 1 1 1 1 1 1 1 1 1 1 1 1 1 1 1 41 41 1 1 1 1 21 21 1 21 1 1 21 21 1 21 41 41 41 41 1 21 1 21 1 21 21 41 41 41 1 41 41 41 41 41 41 41 41 41 1 1 61 21 61 61 1 1 1 41 1 1 1 1 1 1 1 1 1 1 1 1 1 1 1 1 1 1 1 1 1 1 1 1 1 1 1 1 1 1 1 1 1 1 1 1 1 1 1 1 1 1 1 1 1 1 1 
1 1 1 1 1 1 1 1 1 1 1 1 1 1 1 1 1 1 1 1 1 1 1 1 1 1 1 1 1 1 1 1 21 1 21 21 1 21 1 1 21 1 1 1 21 21 1 1 41 1 1 21 1 41 21 1 41 1 41 41 1 1 1 1 41 41 41 41 41 41 61 1 1 61 1 1 41 41 1 1 1 1 1 1 1 1 1 1 1 1 1 1 1 1 1 1 1 1 1 1 1 1 1 1 1 1 1 1 1 1 1 1 1 1 1 1 1 1 1 1 1 1 1 1 1 1 1 
1 1 1 1 1 1 1 1 1 1 1 1 1 1 1 1 1 1 1 1 1 1 1 1 1 1 1 1 1 1 1 1 21 1 1 1 1 1 1 21 1 1 21 1 21 21 21 41 41 41 41 41 1 1 21 1 1 1 41 41 1 41 41 1 41 41 41 41 41 41 41 41 61 1 1 1 61 41 41 1 1 1 1 1 1 1 1 1 1 1 1 1 1 1 1 1 1 1 1 1 1 1 1 1 1 1 1 1 1 1 1 1 1 1 1 1 1 1 1 1 1 1 1 1 1 1 1 
1 1 1 1 1 1 1 1 1 1 1 1 1 1 1 1 1 41 1 1 1 1 1 1 1 1 1 1 1 1 1 1 1 1 1 1 21 1 21 1 21 21 1 1 21 1 21 1 41 1 1 41 1 1 41 41 21 1 1 1 1 1 1 1 1 1 1 41 1 1 41 61 61 61 61 1 61 61 1 1 1 1 1 1 1 1 1 1 1 1 1 1 1 1 1 1 1 1 1 1 1 1 1 1 1 1 1 1 1 1 1 1 1 1 1 1 1 1 1 1 1 1 1 1 1 1 1 
1 1 1 1 1 1 1 1 1 1 1 1 1 1 1 1 1 1 1 1 1 1 1 1 1 1 1 1 1 1 21 21 21 1 1 21 21 21 1 1 1 1 21 21 21 1 21 1 41 41 1 41 41 41 1 21 1 1 1 1 1 1 1 1 1 1 1 1 1 1 61 61 61 1 61 61 1 1 1 1 1 1 1 1 1 1 1 1 1 1 1 1 41 1 1 1 1 1 1 1 1 1 1 1 1 1 1 1 1 1 1 1 1 1 1 1 1 1 1 1 1 1 1 1 1 1 1 
1 1 1 1 1 1 1 1 1 1 1 1 1 1 1 1 1 1 1 1 1 1 1 1 1 1 1 1 1 1 21 21 21 1 21 21 21 21 21 1 1 21 1 21 21 1 21 21 21 41 41 1 41 41 21 1 1 1 1 1 1 1 1 1 1 1 1 1 41 61 1 1 61 1 21 61 61 41 1 1 1 1 1 1 1 1 1 1 1 1 1 1 1 1 1 1 1 1 1 1 1 1 1 1 1 1 1 1 1 1 1 1 1 1 1 1 1 1 1 1 1 1 1 1 1 1 1 
1 1 1 1 1 1 1 1 1 1 1 1 1 1 1 1 1 1 1 1 1 1 1 1 1 1 1 1 1 1 1 1 21 21 21 21 1 21 21 1 1 21 1 1 1 1 1 1 1 41 1 1 1 1 1 1 1 1 1 1 1 1 1 1 1 1 1 1 41 61 61 41 1 21 21 61 61 41 1 1 1 1 1 1 1 1 1 21 1 41 1 1 1 1 1 1 1 1 1 1 1 1 1 1 1 1 1 1 1 1 1 1 1 1 1 1 1 1 1 1 1 1 1 1 1 1 1 
1 1 1 1 1 1 1 1 1 1 1 1 1 1 1 1 41 41 1 1 1 1 1 1 1 1 1 1 1 21 21 1 1 1 21 21 21 21 1 1 21 1 1 1 1 1 1 1 21 21 1 1 1 1 1 1 1 1 1 1 1 1 1 1 1 1 1 1 1 1 41 1 1 1 21 61 61 1 1 1 1 1 1 1 1 1 1 1 1 1 1 1 1 1 1 1 1 1 1 1 1 1 1 1 1 1 1 1 1 1 1 1 1 1 1 1 1 1 1 1 1 1 1 1 1 1 1 
1 1 1 1 1 1 1 1 1 1 1 1 1 41 1 1 1 1 1 1 1 1 1 1 1 1 1 1 21 1 1 1 1 21 21 21 1 1 21 21 21 21 21 21 1 21 1 21 41 1 1 41 1 61 61 61 1 1 1 1 1 1 1 1 1 1 1 1 1 1 41 1 21 41 1 41 1 1 1 1 1 1 1 1 1 1 1 1 1 41 41 1 1 1 1 1 1 1 1 1 1 1 1 1 1 1 1 1 1 1 1 1 1 1 1 1 1 1 1 1 1 1 1 1 1 1 1 
1 1 1 1 1 1 1 1 1 1 1 1 41 1 41 1 1 1 1 1 1 1 1 1 1 1 1 21 21 21 21 1 21 21 21 21 21 1 21 1 1 1 21 1 1 1 21 41 41 41 41 41 41 1 1 1 61 1 1 1 1 1 1 1 1 1 61 1 1 1 41 1 1 1 41 61 61 21 1 1 1 1 1 21 21 21 21 21 1 1 1 41 1 1 1 1 1 1 1 1 1 1 1 1 1 1 1 1 1 1 1 1 1 1 1 1 1 1 1 1 1 1 1 1 1 1 1 
1 1 1 1 1 1 1 1 1 1 1 1 1 41 41 41 1 1 1 1 1 1 1 1 1 1 1 1 21 21 1 21 21 1 1 21 1 1 1 1 21 1 1 41 41 1 41 1 1 41 41 1 1 41 1 61 1 61 1 1 1 1 1 1 1 1 1 61 41 1 1 1 41 1 41 61 61 1 1 1 1 1 1 21 21 1 21 41 1 1 1 41 1 41 1 1 1 1 1 1 1 1 1 1 1 1 1 1 1 1 1 1 1 1 1 1 1 1 1 1 1 1 1 1 1 1 1 
1 1 1 1 1 1 1 1 1 41 1 1 1 1 1 1 1 1 41 41 1 1 1 1 1 1 1 1 21 1 21 21 1 21 21 1 21 21 1 21 1 1 41 1 41 41 41 1 1 41 41 41 41 41 1 1 1 61 61 1 1 1 1 1 61 61 61 1 41 1 41 41 1 41 1 1 61 1 1 1 1 1 1 1 1 21 1 41 41 1 21 21 1 1 1 1 1 1 1 1 1 1 1 1 1 1 1 1 1 1 1 1 1 1 1 1 1 1 1 1 1 1 1 1 1 1 1 
1 1 1 1 1 1 1 1 41 1 1 1 1 1 41 1 1 1 1 1 1 1 1 1 41 1 1 21 21 21 21 1 1 21 21 1 21 21 21 21 1 21 21 1 41 41 1 1 41 1 41 41 41 41 1 61 61 61 61 1 1 1 1 1 61 1 61 1 41 1 41 41 1 41 1 61 1 1 1 1 1 1 1 1 1 21 41 41 1 1 1 1 1 1 1 1 1 1 1 1 1 1 1 1 1 1 1 1 1 1 1 1 1 1 1 1 1 1 1 1 1 1 1 1 1 1 1 
1 1 1 1 1 1 1 1 1 1 1 1 41 1 1 1 1 41 41 1 1 41 41 1 1 1 21 1 1 21 21 21 1 21 21 1 21 21 21 1 1 21 21 21 1 21 1 1 1 1 41 1 1 1 1 1 61 61 1 1 1 1 1 61 61 61 1 61 41 1 41 41 21 21 41 1 61 1 1 101 1 1 41 1 41 1 41 1 21 21 1 1 21 1 1 1 1 1 1 1 1 1 1 1 1 1 1 1 1 1 1 1 1 1 1 1 1 1 1 1 1 1 1 1 1 1 1 
1 1 1 1 1 1 1 1 41 1 1 1 1 1 1 1 1 41 1 1 1 1 41 1 1 1 21 1 1 1 1 21 1 21 1 21 1 1 1 21 1 21 21 41 21 21 1 41 41 41 41 1 1 1 1 61 1 1 61 61 61 1 61 61 61 61 1 1 1 1 1 1 1 1 1 61 1 1 1 101 1 1 1 1 1 41 21 21 21 1 1 1 1 21 21 1 1 1 1 1 1 1 1 1 1 1 1 1 1 1 1 1 1 1 1 1 1 1 1 1 1 1 1 1 1 1 1 
1 1 1 1 1 1 1 1 1 1 1 1 1 1 1 1 1 41 1 1 1 41 1 41 1 1 1 41 41 21 21 1 21 1 1 1 21 21 21 21 21 1 21 1 41 21 41 41 41 1 1 1 1 1 1 1 1 1 1 1 61 61 1 1 61 61 61 61 61 1 1 41 1 41 41 1 1 1 1 101 1 1 41 41 1 41 21 1 1 1 1 1 21 1 1 1 1 1 1 1 1 1 1 1 1 1 1 1 1 1 1 1 1 1 1 1 1 1 1 1 1 1 1 1 1 1 1 
1 1 1 1 1 1 1 1 1 1 1 1 1 1 1 1 1 1 1 1 1 1 1 1 1 1 21 21 21 1 1 21 21 21 1 21 1 1 1 21 1 1 1 1 1 21 41 1 1 1 1 1 1 1 1 61 1 1 1 1 61 61 61 61 61 61 61 61 61 1 41 1 1 41 1 61 61 1 1 101 1 1 1 41 41 1 1 41 21 21 1 1 1 1 1 1 41 1 21 1 1 1 1 1 1 1 1 1 1 1 1 1 1 1 1 1 1 1 1 1 1 1 1 1 1 1 1 
1 1 1 1 1 1 1 1 1 1 1 1 41 1 1 1 1 1 1 1 1 1 1 41 1 21 21 21 1 21 1 21 1 21 21 21 21 1 21 1 1 1 1 1 1 41 1 1 1 1 1 1 1 1 1 1 1 1 61 61 61 61 61 61 61 61 61 81 81 1 1 1 41 61 61 1 81 1 1 101 1 1 1 1 41 1 41 21 21 1 1 1 41 1 1 1 1 1 1 1 1 1 1 1 1 1 1 1 1 1 1 1 1 1 1 1 1 1 1 1 1 1 1 1 1 1 1 
1 1 1 1 1 1 1 1 1 1 1 1 41 1 1 1 1 1 1 41 41 1 41 1 1 21 1 1 1 21 1 21 1 1 1 1 21 1 41 1 1 1 1 21 21 1 1 1 1 1 1 1 1 1 1 1 61 1 1 1 61 61 61 81 1 81 81 81 81 1 1 1 61 61 61 81 1 1 1 101 1 1 1 41 41 21 1 1 1 41 41 41 1 41 1 1 21 21 21 61 61 1 1 1 1 1 1 1 1 1 1 1 1 1 1 1 1 1 1 1 1 1 1 1 1 1 1 
1 1 1 1 1 1 1 1 1 1 1 1 1 41 1 1 1 41 41 41 1 41 41 1 1 1 21 1 1 1 1 1 1 21 21 21 1 1 1 1 1 41 1 21 1 1 1 1 1 1 1 1 1 1 1 1 61 1 1 1 1 1 81 1 81 81 81 81 81 1 1 1 1 61 61 81 81 1 1 101 1 1 1 41 41 1 61 1 61 61 41 41 41 41 1 1 21 1 1 61 1 1 1 1 1 1 1 1 1 1 1 1 1 1 1 1 1 1 1 1 1 1 1 1 1 1 1 
1 1 1 1 1 1 1 1 1 1 1 1 1 41 41 1 1 41 1 1 41 41 1 1 21 1 1 1 1 41 1 1 1 1 21 1 1 1 1 1 1 41 41 21 1 1 1 1 1 1 1 1 1 1 1 1 81 1 1 1 1 1 81 81 1 81 81 81 81 1 41 1 1 61 1 1 1 1 1 101 101 41 1 1 1 1 61 1 1 1 61 41 41 41 41 1 1 1 1 61 1 1 1 1 1 1 1 1 1 1 1 1 1 1 1 1 1 1 1 1 1 1 1 1 1 1 1 
1 1 1 1 1 1 1 1 1 1 1 1 1 1 1 1 1 1 41 41 41 1 1 1 1 1 1 41 1 1 1 1 21 21 1 41 41 41 41 41 1 41 1 1 1 1 1 1 1 1 1 1 1 1 1 1 1 1 1 1 1 1 81 81 81 1 81 81 1 1 1 1 1 1 61 1 1 61 1 101 101 41 1 1 61 61 1 61 61 61 1 61 41 41 1 1 41 1 1 61 1 1 1 1 1 1 1 1 1 1 1 1 1 1 1 1 1 1 1 1 1 1 1 1 1 1 1 
1 1 1 1 1 1 1 1 1 1 1 1 1 41 1 1 1 41 1 1 1 1 1 1 1 1 41 1 1 1 1 1 1 1 41 1 1 1 1 41 1 1 1 1 1 1 1 1 1 1 1 1 1 1 1 1 1 1 1 1 1 1 1 81 1 81 1 1 1 81 1 61 1 1 1 1 1 61 1 101 101 1 61 61 61 61 1 1 61 1 1 1 1 61 41 41 1 41 41 1 1 1 21 21 21 1 1 1 1 1 1 1 1 1 1 1 1 1 1 1 1 1 1 1 1 1 1 
1 1 1 1 1 1 1 1 1 1 1 1 41 1 41 1 1 1 1 1 1 1 1 1 41 1 1 1 1 1 1 1 1 41 41 41 41 41 1 1 1 1 1 1 1 1 1 1 1 1 1 1 1 1 1 1 1 81 1 1 81 1 41 1 1 81 1 1 81 1 1 1 1 1 101 61 1 1 61 1 101 61 61 61 1 1 1 1 61 61 61 61 1 1 1 61 61 1 41 1 1 21 21 1 1 1 1 1 1 1 1 1 1 1 1 1 1 1 1 1 1 1 1 1 1 1 1 
1 1 1 1 1 1 1 1 1 1 1 1 41 1 41 1 1 1 1 1 1 1 1 1 41 41 41 1 1 1 1 1 41 41 1 1 1 1 1 1 1 1 1 1 1 1 1 1 1 1 1 1 1 1 1 1 1 81 81 1 1 1 1 81 81 1 1 1 81 81 1 1 101 101 101 1 1 1 1 1 1 1 61 1 61 1 1 81 1 61 1 1 61 1 61 61 1 41 1 41 41 21 1 1 1 1 1 1 1 1 1 1 1 1 1 1 1 1 1 1 1 1 1 1 1 1 1 
1 1 1 1 1 1 1 1 1 1 1 41 1 1 1 1 1 1 1 1 1 1 41 41 41 1 1 41 41 1 1 41 41 1 1 41 1 41 1 1 1 1 1 1 1 1 1 1 1 1 1 1 1 1 1 1 1 1 1 1 1 61 81 81 1 81 1 81 1 81 1 81 101 1 81 1 1 1 1 1 101 1 1 1 1 61 61 61 81 61 1 61 1 1 61 1 1 1 41 21 1 21 1 1 1 1 1 1 1 1 1 1 1 1 1 1 1 1 1 1 1 1 1 1 1 1 1 
1 1 1 1 1 1 1 1 1 1 1 1 1 1 1 1 1 1 1 1 1 41 41 41 1 41 41 41 41 1 1 1 1 1 1 1 41 41 1 1 1 1 1 1 1 1 1 1 1 1 1 1 1 1 1 1 1 1 61 61 61 61 81 1 81 81 81 1 1 1 81 1 1 1 81 1 1 1 1 1 1 101 61 61 61 1 1 61 61 1 1 61 1 1 41 41 41 41 41 1 1 21 1 1 21 1 1 1 1 1 1 1 1 1 1 1 1 1 1 1 1 1 1 1 1 1 1 
1 1 1 1 1 1 1 1 1 1 1 1 1 1 1 1 1 1 1 1 1 41 41 1 41 41 41 1 1 41 41 41 41 41 1 41 41 1 1 1 1 1 1 1 1 1 1 1 1 1 1 1 1 1 1 1 1 1 61 61 61 61 81 81 81 1 81 81 81 81 81 1 1 1 81 1 1 1 1 1 1 1 61 61 61 61 1 81 81 81 61 81 1 41 41 41 41 1 1 1 1 21 1 21 21 1 1 1 1 1 1 1 1 1 1 1 1 1 1 1 1 1 1 1 1 1 1 
1 1 1 1 1 1 1 1 1 1 1 1 1 1 1 1 1 1 1 1 1 1 1 1 1 1 41 1 1 41 41 41 41 1 1 1 1 41 1 1 1 1 1 1 1 1 1 1 1 1 1 1 1 1 1 1 1 1 61 61 61 61 81 81 81 81 81 81 1 1 81 81 81 81 81 1 1 81 1 1 101 61 1 61 1 81 1 1 81 81 81 1 61 1 1 1 1 1 1 1 1 21 21 1 1 21 1 1 1 1 1 1 1 1 1 1 1 1 1 1 1 1 1 1 1 1 1 
1 1 1 1 1 1 1 1 1 1 1 1 1 1 1 1 1 1 1 1 1 1 1 1 1 1 41 1 1 1 41 1 1 1 41 41 1 41 41 1 1 1 1 1 1 1 1 1 1 1 1 1 1 1 1 1 1 41 41 41 1 1 1 1 1 81 81 81 81 81 81 81 81 81 81 81 81 1 1 1 101 61 61 61 61 1 1 81 1 81 81 1 61 1 61 1 1 1 1 1 1 1 1 21 21 1 1 1 1 1 1 1 1 1 1 1 1 1 1 1 1 1 1 1 1 1 1 
1 1 1 1 1 1 1 1 1 1 1 1 1 1 1 1 1 1 1 1 1 1 1 1 1 1 41 1 1 41 21 41 21 1 21 41 1 41 1 1 1 1 1 1 1 1 1 1 1 1 1 1 1 1 1 1 41 1 1 61 1 1 61 1 1 1 101 1 81 81 1 1 81 1 81 1 81 1 101 1 101 1 81 81 81 81 81 81 81 81 1 61 61 1 1 1 1 41 1 1 1 1 1 1 1 1 1 1 1 1 41 1 1 1 1 1 1 1 1 1 1 1 1 1 1 1 1 
1 1 1 1 1 1 1 1 1 1 1 1 1 1 1 1 1 1 1 1 1 1 1 1 1 41 1 1 1 1 1 1 1 1 21 21 1 1 1 1 1 1 1 1 1 1 1 1 1 1 1 1 1 1 1 1 1 1 41 61 1 1 1 1 1 81 81 1 1 81 101 101 101 1 81 1 101 101 1 1 1 81 81 81 81 81 1 81 81 1 1 61 61 41 1 1 1 1 1 1 1 1 41 41 1 1 1 1 1 41 41 1 1 1 1 1 1 1 1 1 1 1 1 1 1 1 1 
1 1 1 1 1 1 1 1 1 1 1 1 1 1 1 1 1 1 1 1 1 1 1 1 1 1 1 1 1 1 1 1 1 1 1 1 1 1 1 1 1 1 1 1 1 1 1 1 1 1 1 1 1 1 1 1 41 1 1 1 61 61 1 1 1 81 1 1 1 81 1 81 81 81 101 101 101 101 101 1 1 81 81 81 81 81 81 81 61 61 1 61 81 81 1 1 1 1 1 1 1 1 1 1 41 1 1 1 41 41 41 1 1 1 1 1 1 1 1 1 1 1 1 1 1 1 1 
1 1 1 1 1 1 1 1 1 1 1 1 1 1 1 1 1 1 1 1 1 1 1 1 1 1 1 1 1 1 1 21 21 1 1 1 1 1 1 1 1 1 1 1 1 1 1 1 1 1 1 1 1 1 1 1 41 1 1 61 61 1 1 1 81 1 81 1 81 81 1 1 81 81 101 101 101 101 101 101 1 101 101 1 81 1 1 81 81 1 61 61 81 1 1 1 1 1 1 1 1 1 21 1 1 1 1 41 41 41 1 41 1 1 1 1 1 1 1 1 1 1 1 1 1 1 1 
1 1 1 1 1 1 1 1 1 1 1 1 1 1 1 1 1 1 1 1 1 1 1 1 1 1 1 1 1 1 1 1 1 1 1 1 1 1 1 1 1 1 1 1 1 1 1 1 1 1 1 1 1 1 41 41 1 1 41 61 1 61 1 1 81 81 1 1 81 1 1 81 1 1 101 101 101 1 101 101 101 1 101 1 81 81 1 81 1 81 1 1 1 1 1 1 1 1 1 1 41 1 21 1 1 1 1 1 41 1 1 41 1 1 1 1 1 1 1 1 1 1 1 1 1 1 1 
1 1 1 1 1 1 1 1 1 1 1 1 1 1 1 1 1 1 1 1 1 1 1 1 1 1 1 1 1 1 21 1 1 1 1 1 1 1 1 1 1 1 1 1 1 1 1 1 1 1 1 1 1 61 61 1 61 1 1 61 61 61 61 1 1 1 1 81 1 101 101 1 81 81 101 101 1 101 101 101 1 81 81 1 81 1 81 81 1 81 81 81 81 1 1 1 61 61 1 41 1 1 1 21 1 1 41 41 41 1 41 41 1 1 1 1 1 1 1 1 1 1 1 1 1 1 1 
1 1 1 1 1 1 1 1 1 1 1 1 1 1 1 1 1 1 1 1 1 1 1 1 1 1 1 1 1 1 1 1 1 1 1 1 1 1 1 1 1 1 1 1 1 1 1 1 1 1 1 1 1 41 41 41 1 61 1 1 1 61 61 1 1 81 1 1 1 101 1 101 101 101 101 101 101 1 81 101 101 81 81 81 1 81 1 81 1 81 81 81 1 81 81 1 1 61 1 1 21 1 1 21 1 1 1 1 1 41 1 41 1 1 1 1 1 1 1 1 1 1 1 1 1 1 1 
1 1 1 1 1 1 1 1 1 1 1 1 1 1 1 1 1 1 1 1 1 1 1 1 1 1 1 1 1 1 1 1 1 1 1 1 1 1 1 1 1 1 1 1 1 1 1 1 1 1 1 1 1 1 41 1 61 61 1 61 61 61 1 81 1 81 1 101 101 101 1 101 1 101 101 1 1 81 1 1 81 81 81 81 81 1 81 81 81 81 81 81 1 81 1 1 41 1 1 61 41 1 1 1 41 41 41 1 21 21 41 1 1 1 1 1 1 1 1 1 1 1 1 1 1 1 1 
1 1 1 1 1 1 1 1 1 1 1 1 1 1 1 1 1 1 1 1 1 1 1 1 1 1 1 1 1 1 1 1 1 1 1 1 1 1 1 1 1 1 1 1 1 1 1 1 1 1 1 1 1 41 41 41 1 61 61 61 61 61 1 1 1 1 1 101 101 1 1 101 101 1 1 101 81 81 1 81 1 81 81 81 81 81 81 81 81 81 81 1 1 1 1 61 61 61 1 61 41 41 1 41 41 1 21 41 1 41 1 1 1 1 1 1 1 1 1 1 1 1 1 1 1 1 1 
1 1 1 1 1 1 1 1 1 1 1 1 1 1 1 1 1 1 1 1 1 1 1 1 1 1 1 1 1 1 1 1 1 1 1 1 1 1 1 1 1 1 1 1 1 1 1 1 1 1 1 1 1 1 41 1 61 1 1 61 61 61 1 1 1 1 1 1 1 1 101 1 101 1 101 1 101 81 81 1 81 81 81 101 101 101 101 81 81 1 1 81 1 81 81 1 61 1 61 61 61 61 61 61 61 1 1 41 1 1 1 1 1 1 1 1 1 1 1 1 1 1 1 1 1 1 1 
1 1 1 1 1 1 1 1 1 1 1 1 1 1 1 1 1 1 1 1 1 1 1 1 1 1 1 1 1 1 1 1 1 1 1 1 1 1 1 1 1 1 1 1 1 1 1 1 1 1 1 1 1 1 41 61 1 61 1 61 61 61 1 1 1 1 1 101 101 101 101 101 101 101 101 101 101 81 81 81 81 81 101 1 101 101 1 101 1 1 81 81 81 1 81 81 81 81 1 1 1 61 1 1 61 21 21 41 41 41 1 1 1 1 1 1 1 1 1 1 1 1 1 1 1 1 1 
1 1 1 1 1 1 1 1 1 1 1 1 1 1 1 1 1 1 1 1 1 1 1 1 1 1 1 1 1 1 1 1 1 1 1 1 1 1 1 1 1 1 1 1 1 1 1 1 1 1 1 1 1 41 41 61 61 1 1 61 61 61 1 1 1 1 1 101 101 1 101 101 1 101 1 101 81 81 81 1 81 81 101 1 1 1 101 1 101 101 81 81 81 81 81 1 81 81 1 1 61 1 61 1 61 41 21 41 61 61 1 41 1 1 1 1 41 41 1 1 1 1 1 1 1 1 1 
1 1 1 1 1 1 1 1 1 1 1 1 1 1 1 1 1 1 1 1 1 1 1 1 1 1 1 1 1 1 1 1 1 1 1 1 1 1 1 1 1 1 1 1 1 1 1 1 1 1 1 1 1 41 41 41 1 1 1 1 81 1 1 101 1 1 1 1 101 101 101 1 101 101 101 1 1 81 81 1 81 101 1 101 101 101 1 1 101 101 81 1 81 81 81 61 81 1 81 61 61 61 61 1 1 1 61 1 61 61 1 41 41 41 41 41 41 41 1 1 1 1 1 1 1 1 1 
1 1 1 1 1 1 1 1 1 1 1 1 1 1 1 1 1 1 1 1 1 1 1 1 1 1 1 1 1 1 1 1 1 1 1 1 1 1 1 1 1 1 1 1 1 61 61 61 61 61 1 1 1 1 81 81 1 1 1 1 81 1 81 81 1 101 1 1 1 101 1 101 101 1 101 101 101 81 81 81 81 81 1 1 101 101 101 101 101 101 1 81 81 1 61 1 61 61 61 61 1 61 61 1 61 61 61 61 61 1 1 41 1 41 41 41 1 1 1 1 1 1 1 1 1 1 1 
1 1 1 1 1 1 1 1 1 1 1 1 1 1 1 1 1 1 1 1 1 1 1 1 1 1 1 1 1 1 1 1 1 1 1 1 1 1 1 1 1 1 1 1 1 61 1 1 1 1 1 1 1 1 1 1 1 1 1 81 1 81 1 1 1 81 101 1 1 101 1 101 1 1 1 101 101 1 1 1 81 1 101 1 101 1 101 101 101 1 81 81 81 1 1 81 61 41 61 61 61 61 1 61 1 61 1 1 61 1 1 41 1 1 1 41 1 1 1 1 1 1 1 1 1 1 1 
1 1 1 1 1 1 1 1 1 1 1 1 1 1 1 1 1 1 1 1 1 1 1 1 1 1 1 1 1 1 1 1 1 1 1 1 1 1 1 1 1 1 1 1 1 1 1 1 1 1 1 1 1 1 1 1 1 81 1 81 81 81 81 1 1 1 101 1 101 101 101 101 1 101 101 101 1 1 1 81 81 101 101 101 1 101 101 1 1 101 81 81 1 1 81 61 61 61 61 61 61 61 1 61 61 1 1 61 1 61 1 1 1 1 1 1 1 1 1 1 1 1 1 1 1 1 1 
1 1 1 1 1 1 1 1 1 1 1 1 1 1 1 1 1 1 1 1 1 1 1 1 1 1 1 1 1 1 1 1 1 1 1 1 1 1 1 1 1 1 1 1 1 41 41 1 1 1 1 1 1 1 81 81 81 81 1 1 1 81 1 1 1 81 1 1 1 1 1 1 1 101 101 1 1 101 1 1 101 101 1 101 101 1 1 101 1 81 81 81 1 1 61 61 1 1 61 61 1 1 1 1 1 61 61 61 1 1 1 21 21 21 1 21 1 21 21 1 1 1 1 1 1 1 1 
1 1 1 1 1 1 1 1 1 1 1 1 1 1 1 1 1 1 1 1 1 1 1 1 1 1 1 1 1 1 1 1 1 1 1 1 1 1 1 1 1 1 1 1 1 1 41 41 41 1 1 1 1 81 81 1 81 1 81 1 1 1 1 1 1 101 1 1 1 101 1 1 1 1 1 1 101 101 101 101 101 101 101 1 1 1 1 1 1 81 1 1 81 61 1 61 1 61 61 61 61 61 61 61 41 41 41 1 1 41 21 1 1 1 21 21 21 1 21 21 1 1 1 1 1 1 1 
1 1 1 1 1 1 1 1 1 1 1 1 1 1 1 1 1 1 1 1 1 1 1 1 1 1 1 1 1 1 1 1 1 1 1 1 1 1 1 1 1 1 1 1 1 1 41 1 1 1 1 1 1 1 1 1 1 1 1 1 1 1 1 1 1 1 1 1 1 101 101 101 1 101 101 1 1 101 1 101 101 101 101 101 1 1 1 1 101 101 1 81 81 81 81 61 61 1 61 61 61 1 61 1 41 1 1 41 41 1 1 1 41 21 21 1 1 1 1 1 1 1 1 1 1 1 1 
1 1 1 1 1 1 1 1 1 1 1 1 1 1 1 1 1 1 1 1 1 1 1 1 1 1 1 1 1 1 1 1 1 1 1 1 1 1 1 1 1 1 1 1 1 1 1 41 1 1 1 81 81 81 1 1 1 1 1 1 1 1 1 1 1 1 1 101 1 1 1 1 101 1 1 101 101 101 101 1 1 1 101 101 1 1 1 1 1 1 1 1 81 81 81 81 61 61 61 1 1 61 41 1 41 1 41 1 41 61 1 1 1 1 1 21 1 1 1 1 1 21 21 21 1 1 1 
1 1 1 1 1 1 1 1 1 1 1 1 1 1 1 1 1 1 1 1 1 1 1 1 1 1 1 1 1 1 1 1 1 1 1 1 1 1 1 1 1 1 1 1 1 1 1 1 1 1 1 1 1 1 1 1 1 1 1 1 1 1 1 1 1 1 1 1 1 1 1 1 1 101 101 101 101 101 1 1 1 101 101 101 101 101 1 101 1 81 1 81 1 81 1 81 61 1 61 61 1 1 1 1 1 1 1 41 1 1 1 21 21 41 1 21 1 21 1 1 21 21 1 1 1 1 1 
1 1 1 1 1 1 1 1 1 1 1 1 1 1 1 1 1 1 1 1 1 1 1 1 1 1 1 1 1 1 1 1 1 1 1 1 1 1 1 1 1 1 1 1 1 1 1 1 1 1 1 1 1 1 1 1 1 1 1 1 1 1 1 1 1 101 1 1 1 1 1 1 61 61 101 101 61 61 41 41 1 81 101 101 101 1 1 101 101 101 1 81 1 81 81 1 81 81 81 61 41 1 41 1 41 41 41 1 41 41 41 21 1 41 41 21 1 1 21 1 1 1 1 1 1 1 1 
1 1 1 1 1 1 1 1 1 1 1 1 1 1 1 1 1 1 1 1 1 1 1 1 1 1 1 1 1 1 1 1 1 1 1 1 1 1 1 1 1 1 1 1 1 1 1 1 1 1 1 1 1 1 1 1 1 1 1 1 101 1 1 1 101 1 1 1 61 1 1 61 61 1 61 61 1 1 41 41 1 81 81 1 101 101 1 1 101 101 1 81 1 1 81 81 1 1 61 61 61 61 41 41 41 21 1 21 1 41 41 41 1 1 21 1 1 21 21 1 1 1 1 1 1 1 1 
1 1 1 1 1 1 1 1 1 1 1 1 1 1 1 1 1 1 1 1 1 1 1 1 1 1 1 1 1 1 1 1 1 1 1 1 1 1 1 1 1 1 1 1 1 1 1 1 1 1 61 1 41 1 1 1 1 1 1 1 1 81 81 101 1 1 61 61 61 61 61 61 1 61 61 61 1 61 41 41 1 101 1 101 1 1 1 101 101 101 81 1 81 81 81 61 1 1 1 1 61 61 1 1 21 21 21 1 21 21 21 41 41 1 1 1 1 21 1 1 1 1 1 1 1 1 1 
1 1 1 1 1 1 1 1 1 1 1 1 1 1 1 1 1 1 1 1 1 1 1 1 1 1 1 1 1 1 1 1 1 1 1 1 1 1 1 1 1 1 1 1 1 1 1 61 1 1 1 1 41 41 1 1 1 81 1 101 1 81 101 101 61 61 61 61 1 1 1 1 1 61 61 61 1 61 61 1 1 101 101 81 81 1 101 101 1 101 101 81 81 81 1 1 61 1 61 1 61 61 61 41 1 1 21 1 1 21 41 41 1 1 1 41 1 1 1 1 1 1 1 1 1 1 1 
1 1 1 1 1 1 1 1 1 1 1 1 1 1 1 1 1 1 1 1 1 1 1 1 1 1 1 1 1 1 1 1 1 1 1 1 1 1 1 1 1 1 1 61 1 1 1 1 1 1 1 1 41 41 1 1 1 81 1 1 101 1 101 61 1 61 61 61 1 1 61 1 1 1 61 1 81 61 81 1 101 101 101 81 81 81 1 1 101 101 101 81 1 1 1 1 1 1 1 61 61 41 41 61 1 21 1 1 1 21 1 41 1 41 41 41 21 1 1 1 1 1 1 1 1 1 1 
1 1 1 1 1 1 1 1 1 1 1 1 1 1 1 1 1 1 1 1 1 1 1 1 1 1 1 1 1 1 1 1 1 1 1 1 1 1 1 1 1 1 1 1 1 1 1 61 1 1 1 1 41 21 1 1 1 1 1 1 101 101 101 61 61 1 61 61 1 1 61 1 61 61 81 1 81 41 61 81 81 81 81 81 1 1 101 1 101 101 101 1 81 81 1 1 1 1 1 61 1 1 1 81 41 1 1 21 1 21 1 1 1 41 1 1 1 1 1 1 1 1 1 1 1 1 1 
1 1 1 1 1 1 1 1 1 1 1 1 1 1 1 1 1 1 1 1 1 1 1 1 1 1 1 1 1 1 1 1 1 1 1 1 1 1 1 1 1 1 1 1 61 1 1 61 1 1 1 1 1 1 1 1 1 1 1 1 1 81 1 61 61 1 61 61 1 1 1 1 61 1 1 1 41 41 61 81 81 81 81 1 81 1 101 1 101 81 81 81 81 1 1 1 81 1 1 1 61 1 41 41 1 1 21 1 21 21 21 1 1 1 1 1 1 21 21 1 1 1 1 1 1 1 1 
1 1 1 1 1 1 1 1 1 1 1 1 1 1 1 1 1 1 1 1 1 1 1 1 1 1 1 1 1 1 1 1 1 1 1 1 1 1 1 1 1 1 1 61 61 1 1 1 1 1 1 1 1 41 41 1 1 1 1 101 1 1 1 1 1 1 1 1 1 1 61 1 1 1 1 1 1 61 1 81 1 1 81 81 81 81 1 101 1 1 1 1 81 81 1 1 1 1 1 1 1 1 41 41 41 1 1 41 1 21 21 41 41 41 1 1 21 21 1 1 1 1 1 1 1 1 1 
1 1 1 1 1 1 1 1 1 1 1 1 1 1 1 1 1 1 1 1 1 1 1 1 1 1 1 1 1 1 1 1 1 1 1 1 1 1 1 1 1 1 1 1 1 1 1 1 1 1 1 41 1 1 1 1 1 1 1 101 81 81 1 1 41 1 1 1 1 1 1 1 1 61 1 1 1 1 1 61 1 81 81 81 81 81 81 81 81 81 1 1 1 1 1 1 1 1 1 81 1 1 1 1 1 41 41 1 1 21 1 1 1 1 1 1 1 1 1 1 1 1 1 1 1 1 1 
1 1 1 1 1 1 1 1 1 1 1 1 1 1 1 1 1 1 1 1 1 1 1 1 1 1 1 1 1 1 1 1 1 1 1 1 1 1 1 1 1 1 1 1 1 1 41 1 1 41 41 1 1 1 41 1 1 101 1 1 1 1 1 21 41 81 81 61 1 1 1 1 1 61 1 61 61 1 1 1 61 81 81 81 81 1 81 1 1 1 1 1 1 1 1 1 1 1 1 1 81 1 1 1 1 1 1 1 1 1 1 1 1 1 1 1 1 1 1 1 1 1 1 1 1 1 1 
1 1 1 1 1 1 1 1 1 1 1 1 1 1 1 1 1 1 1 1 1 1 1 1 1 1 1 1 1 1 1 1 1 1 1 1 1 1 41 1 41 1 1 1 21 21 41 1 1 41 41 1 21 1 1 41 1 1 1 81 1 1 1 1 1 1 61 61 1 61 61 61 41 41 1 1 61 1 1 61 1 1 1 1 1 81 81 81 1 81 81 1 81 1 1 81 1 1 1 1 1 1 1 1 1 1 1 1 1 1 1 1 1 1 1 1 1 1 1 1 1 1 1 1 1 1 1 
1 1 1 1 1 1 1 1 1 1 1 1 1 1 1 1 1 1 1 1 1 1 1 1 1 1 1 1 1 1 1 1 1 1 1 1 1 1 1 1 1 1 41 21 21 1 1 21 1 1 1 41 1 21 1 41 1 1 1 1 1 1 1 1 1 61 61 61 61 61 1 1 1 1 1 1 1 1 1 81 81 1 81 1 81 81 81 1 81 1 81 1 1 1 1 1 1 1 1 1 1 1 1 1 1 1 1 1 1 1 1 1 1 1 1 1 1 1 1 1 1 1 1 1 1 1 1 
1 1 1 1 1 1 1 1 1 1 1 1 1 1 1 1 1 1 1 1 1 1 1 1 1 1 1 1 1 1 1 1 1 1 1 1 1 1 1 1 1 1 1 1 21 1 41 1 81 1 1 1 1 1 1 1 1 1 1 1 1 1 1 1 1 1 61 1 1 61 1 1 61 1 61 1 1 1 81 1 1 81 81 81 61 61 61 61 61 61 61 1 61 61 61 1 1 1 1 1 1 61 1 1 1 1 1 1 1 1 1 1 1 1 1 1 1 1 1 1 1 1 1 1 1 1 1 
1 1 1 1 1 1 1 1 1 1 1 1 1 1 1 1 1 1 1 1 1 1 1 1 1 1 1 1 1 1 1 1 1 1 1 1 1 1 1 1 1 1 1 1 1 1 1 1 1 1 1 1 1 1 1 1 61 1 1 1 1 1 1 41 1 1 61 61 61 1 1 61 61 1 1 1 1 1 1 81 81 81 61 1 61 1 61 1 61 61 61 61 1 1 1 61 1 1 1 1 61 1 1 1 1 1 1 1 1 1 1 1 1 1 1 1 1 1 1 1 1 1 1 1 1 1 1 
1 1 1 1 1 1 1 1 1 1 1 1 1 1 1 1 1 1 1 1 1 1 1 1 1 1 1 1 1 1 1 1 1 1 1 1 1 1 1 1 1 1 1 1 1 1 81 1 81 81 1 1 1 1 1 1 1 1 1 1 1 1 61 41 1 21 61 1 1 61 61 1 61 1 61 61 61 81 81 1 81 81 61 61 1 61 61 1 61 61 61 61 1 1 1 1 1 1 1 1 1 1 1 1 1 1 1 1 1 1 1 1 1 1 1 1 1 1 1 1 1 1 1 1 1 1 1 
1 1 1 1 1 1 1 1 1 1 1 1 1 1 1 1 1 1 1 1 1 1 1 1 1 1 1 1 1 1 1 1 1 1 1 1 1 1 1 1 1 1 1 81 1 1 1 1 81 1 81 1 81 81 1 81 1 1 1 1 1 1 61 1 1 1 41 61 61 61 61 61 41 1 41 1 81 81 81 81 81 1 61 61 1 61 61 61 1 61 61 61 1 1 1 1 1 1 1 1 1 1 1 1 1 1 1 1 1 1 1 1 1 1 1 1 1 1 1 1 1 1 1 1 1 1 1 
1 1 1 1 1 1 1 1 1 1 1 1 1 1 1 1 1 1 1 1 1 1 1 1 1 1 1 1 1 1 1 1 1 1 1 1 1 1 1 1 1 1 1 1 1 1 1 1 81 1 1 1 1 1 1 1 1 1 1 1 1 1 1 1 21 21 41 41 1 61 41 1 1 1 1 81 81 81 81 81 81 1 1 61 1 61 1 1 1 1 1 61 41 81 1 1 1 1 1 81 1 81 61 1 1 1 1 1 1 1 1 1 1 1 1 1 1 1 1 1 1 1 1 1 1 1 1 
1 1 1 1 1 1 1 1 1 1 1 1 1 1 1 1 1 1 1 1 1 1 1 1 1 1 1 1 1 1 1 1 1 1 1 1 1 1 1 1 1 1 1 1 1 1 1 1 1 81 1 1 1 1 1 1 1 1 1 1 1 1 1 1 41 21 41 41 61 1 61 41 1 1 1 81 1 81 81 81 81 1 1 1 61 1 1 1 1 61 61 61 1 41 1 1 1 1 1 81 1 1 1 1 1 1 1 1 1 1 1 1 1 1 1 1 1 1 1 1 1 1 1 1 1 1 1 
1 1 1 1 1 1 1 1 1 1 1 1 1 1 1 1 1 1 1 1 1 1 1 1 1 1 1 1 1 1 1 1 1 1 1 1 1 1 1 1 1 1 1 1 1 1 1 1 81 1 1 1 1 1 1 1 1 1 1 61 1 1 1 1 21 1 21 1 61 61 1 61 41 1 61 1 81 1 81 81 81 1 61 1 1 1 1 1 61 81 1 61 1 1 1 1 1 1 1 1 1 81 1 1 1 1 1 1 1 1 1 1 1 1 1 1 1 1 1 1 1 1 1 1 1 1 1 
1 1 1 1 1 1 1 1 1 1 1 1 1 1 1 1 1 1 1 1 1 1 1 1 1 1 1 1 1 1 1 1 1 1 1 1 1 1 1 1 1 1 1 1 1 1 1 1 1 1 1 1 1 1 1 1 1 1 1 1 1 1 1 1 1 1 1 61 61 61 41 41 1 1 61 1 1 61 61 1 1 1 81 1 1 1 61 61 81 81 81 1 1 41 41 1 41 1 1 1 1 81 1 1 1 1 21 1 1 1 1 1 1 1 1 1 1 1 1 1 1 1 1 1 1 1 1 
1 1 1 1 1 1 1 1 1 1 1 1 1 1 1 1 1 1 1 1 1 1 1 1 1 1 1 1 1 1 1 1 1 1 1 1 1 1 1 1 1 1 1 1 1 1 1 1 1 1 1 1 1 1 1 61 1 1 1 1 1 1 1 1 1 1 1 1 41 41 1 1 1 1 81 81 61 1 61 1 1 81 81 81 61 1 1 81 81 81 1 1 1 41 1 1 41 61 61 1 1 1 81 1 1 21 21 1 1 1 1 1 1 1 1 1 1 1 1 1 1 1 1 1 1 1 1 
1 1 1 1 1 1 1 1 1 1 1 1 1 1 1 1 1 1 1 1 1 1 1 1 1 1 1 1 1 1 1 1 1 1 1 1 1 1 1 1 1 1 1 1 1 1 1 1 1 1 1 1 1 41 1 1 1 41 1 1 1 1 1 1 1 1 1 1 1 41 1 1 1 1 1 81 61 61 61 1 1 1 1 81 1 1 81 81 81 1 1 41 1 1 41 41 1 1 1 61 1 1 1 1 1 41 21 1 1 1 1 1 1 1 1 1 1 1 1 1 1 1 1 1 1 1 1 
1 1 1 1 1 1 1 1 1 1 1 1 1 1 1 1 1 1 1 1 1 1 1 1 1 1 1 1 1 1 1 1 1 1 1 1 1 1 1 1 1 1 1 1 1 1 1 1 1 1 1 1 1 41 1 1 1 1 1 1 1 1 1 1 1 1 1 1 61 1 81 81 81 81 1 1 1 1 1 1 1 1 61 1 41 81 1 41 1 1 1 1 1 1 41 41 61 61 1 61 61 81 1 1 41 1 41 1 1 1 1 1 1 1 1 1 1 1 1 1 1 1 1 1 1 1 1 
1 1 1 1 1 1 1 1 1 1 1 1 1 1 1 1 1 1 1 1 1 1 1 1 1 1 1 1 1 1 1 1 1 1 1 1 1 1 1 1 1 1 1 1 1 1 1 1 1 1 1 1 1 41 1 1 1 1 1 1 1 1 1 1 1 1 1 1 1 1 1 81 1 1 1 1 1 1 1 1 1 1 1 1 1 1 1 1 1 1 1 1 1 41 41 41 61 61 1 1 1 61 1 41 41 1 1 1 1 1 1 1 1 1 1 1 1 1 1 1 1 1 1 1 1 1 1 
1 1 1 1 1 1 1 1 1 1 1 1 1 1 1 1 1 1 1 1 1 1 1 1 1 1 1 1 1 1 1 1 1 1 1 1 1 1 1 1 1 1 1 1 1 1 1 1 1 1 1 1 1 1 1 1 1 1 1 1 1 1 1 61 1 1 1 1 1 41 41 41 1 1 1 1 1 1 1 1 1 1 1 61 1 1 41 41 1 1 41 41 1 41 41 41 1 61 61 61 1 61 61 1 1 1 1 1 1 1 1 1 1 1 1 1 1 1 1 1 1 1 1 1 1 1 1 
1 1 1 1 1 1 1 1 1 1 1 1 1 1 1 1 1 1 1 1 1 1 1 1 1 1 1 1 1 1 1 1 1 1 1 1 1 1 1 1 1 1 1 1 1 1 1 1 1 1 1 1 1 1 1 1 1 1 1 1 1 1 1 1 1 1 1 1 1 41 1 1 1 1 1 1 1 1 1 1 1 1 1 61 61 61 1 1 41 1 41 41 1 41 1 41 41 41 1 61 61 61 1 1 1 1 61 1 61 1 1 1 1 1 1 1 1 1 1 1 1 1 1 1 1 1 1 
1 1 1 1 1 1 1 1 1 1 1 1 1 1 1 1 1 1 1 1 1 1 1 1 1 1 1 1 1 1 1 1 1 1 1 1 1 1 1 1 1 1 1 1 1 1 1 1 1 1 1 1 1 1 1 1 1 1 1 1 1 1 1 1 1 1 1 1 1 1 21 21 1 1 1 1 1 1 1 1 1 1 1 61 61 1 1 41 41 1 41 1 1 1 1 1 1 41 41 1 41 41 1 1 1 1 1 61 61 61 1 1 1 1 1 1 1 1 1 1 1 1 1 1 1 1 1 
1 1 1 1 1 1 1 1 1 1 1 1 1 1 1 1 1 1 1 1 1 1 1 1 1 1 1 1 1 1 1 1 1 1 1 1 1 1 1 1 1 1 1 1 1 1 1 1 1 1 1 1 1 1 1 1 1 1 1 1 1 1 1 1 1 1 1 1 1 1 1 1 1 1 1 1 1 1 1 1 1 1 61 61 61 61 1 41 1 1 1 1 1 1 1 1 41 41 41 41 41 41 1 41 41 1 61 61 61 1 1 1 1 61 1 1 1 1 1 1 1 1 1 1 1 1 1 
1 1 1 1 1 1 1 1 1 1 1 1 1 1 1 1 1 1 1 1 1 1 1 1 1 1 1 1 1 1 1 1 1 1 1 1 1 1 1 1 1 1 1 1 1 1 1 1 1 1 1 1 1 1 1 1 1 1 1 1 1 1 1 1 1 1 1 1 1 1 1 1 1 1 1 1 1 1 1 1 1 1 61 61 61 61 1 1 1 1 1 1 41 1 41 41 41 41 41 1 1 1 41 1 1 1 1 1 1 1 1 1 1 1 1 1 1 1 1 1 1 1 1 1 1 1 1 
1 1 1 1 1 1 1 1 1 1 1 1 1 1 1 1 1 1 1 1 1 1 1 1 1 1 1 1 1 1 1 1 1 1 1 1 1 1 1 1 1 1 1 1 1 1 1 1 1 1 1 1 1 1 1 1 1 1 1 1 1 1 1 1 1 1 1 1 1 1 1 1 1 1 1 1 1 1 1 1 1 1 61 61 61 1 1 41 1 1 1 1 41 1 41 41 1 21 21 41 1 1 1 21 1 1 61 1 1 1 1 61 1 1 1 1 1 1 1 1 1 1 1 1 1 1 1 
1 1 1 1 1 1 1 1 1 1 1 1 1 1 1 1 1 1 1 1 1 1 1 1 1 1 1 1 1 1 1 1 1 1 1 1 1 1 1 1 1 1 1 1 1 1 1 1 1 1 1 1 1 1 1 1 1 1 1 1 1 1 1 1 1 1 1 1 1 1 1 1 1 1 1 1 1 1 1 1 1 1 1 1 61 1 1 1 1 1 1 1 1 41 41 1 1 21 21 41 41 1 41 21 1 1 1 1 1 1 1 1 1 1 1 1 1 1 1 1 1 1 1 1 1 1 1 
1 1 1 1 1 1 1 1 1 1 1 1 1 1 1 1 1 1 1 1 1 1 1 1 1 1 1 1 1 1 1 1 1 1 1 1 1 1 1 1 1 1 1 1 1 1 1 1 1 1 1 1 1 1 1 1 1 1 1 1 1 1 1 1 1 1 1 1 1 1 1 1 1 1 1 1 1 1 1 1 1 1 1 1 1 1 1 1 1 1 1 1 1 41 41 1 41 1 41 61 1 1 1 1 1 21 1 1 1 1 1 1 1 1 1 1 1 1 1 1 1 1 1 1 1 1 1 
1 1 1 1 1 1 1 1 1 1 1 1 1 1 1 1 1 1 1 1 1 1 1 1 1 1 1 1 1 1 1 1 1 1 1 1 1 1 1 1 1 1 1 1 1 1 1 1 1 1 1 1 1 1 1 1 1 1 1 1 1 1 1 1 1 1 1 1 1 1 1 1 1 1 1 1 1 1 1 1 1 1 1 1 1 1 1 1 1 1 1 1 1 1 41 1 41 1 1 21 1 21 1 1 21 1 41 41 1 1 1 1 1 1 1 1 1 1 1 1 1 1 1 1 1 1 1 
1 1 1 1 1 1 1 1 1 1 1 1 1 1 1 1 1 1 1 1 1 1 1 1 1 1 1 1 1 1 1 1 1 1 1 1 1 1 1 1 1 1 1 1 1 1 1 1 1 1 1 1 1 1 1 1 1 1 1 1 1 1 1 1 1 1 1 1 1 1 1 1 1 1 1 1 1 1 1 1 1 1 1 1 1 1 1 1 1 1 1 1 41 1 41 1 41 41 1 21 21 21 21 21 41 41 41 41 1 1 1 1 1 1 1 1 1 1 1 1 1 1 1 1 1 1 1 
1 1 1 1 1 1 1 1 1 1 1 1 1 1 1 1 1 1 1 1 1 1 1 1 1 1 1 1 1 1 1 1 1 1 1 1 1 1 1 1 1 1 1 1 1 1 1 1 1 1 1 1 1 1 1 1 1 1 1 1 1 1 1 1 1 1 1 1 1 1 1 1 1 1 1 1 1 1 1 1 1 1 1 1 1 1 1 1 1 1 1 41 1 1 41 1 1 41 21 21 21 21 41 1 41 1 1 41 41 1 1 1 1 1 1 1 1 1 1 1 1 1 1 1 1 1 1 
1 1 1 1 1 1 1 1 1 1 1 1 1 1 1 1 1 1 1 1 1 1 1 1 1 1 1 1 1 1 1 1 1 1 1 1 1 1 1 1 1 1 1 1 1 1 1 1 1 1 1 1 1 1 1 1 1 1 1 1 1 1 1 1 1 1 1 1 1 1 1 1 1 1 1 1 1 1 1 1 1 1 1 1 1 1 1 61 61 61 1 41 1 1 41 41 41 41 21 21 21 21 41 1 61 61 61 1 1 1 1 1 1 1 1 61 1 61 1 1 1 1 1 1 1 1 1 
1 1 1 1 1 1 1 1 1 1 1 1 1 1 1 1 1 1 1 1 1 1 1 1 1 1 1 1 1 1 1 1 1 1 1 1 1 1 1 1 1 1 1 1 1 1 1 1 1 1 1 1 1 1 1 1 1 1 1 1 1 1 1 1 1 1 1 1 1 1 1 1 1 1 1 1 1 1 1 1 1 1 1 1 1 1 61 61 61 61 41 41 41 41 41 1 41 1 1 1 1 1 1 1 61 61 61 1 1 1 1 61 1 61 1 61 1 61 1 1 1 1 1 1 1 1 1 
1 1 1 1 1 1 1 1 1 1 1 1 1 1 1 1 1 1 1 1 1 1 1 1 1 1 1 1 1 1 1 1 1 1 1 1 1 1 1 1 1 1 1 1 1 1 1 1 1 1 1 1 1 1 1 1 1 1 1 1 1 1 1 1 1 1 1 1 1 1 1 1 1 1 1 1 1 1 1 1 1 1 1 1 1 1 1 1 61 41 41 1 41 1 41 1 41 1 1 61 1 1 1 1 1 1 61 61 1 1 1 1 1 1 1 61 1 1 1 1 1 1 1 1 1 1 1 
1 1 1 1 1 1 1 1 1 1 1 1 1 1 1 1 1 1 1 1 1 1 1 1 1 1 1 1 1 1 1 1 1 1 1 1 1 1 1 1 1 1 1 1 1 1 1 1 1 1 1 1 1 1 1 1 1 1 1 1 1 1 1 1 1 1 1 1 1 1 1 1 1 1 1 1 1 1 1 1 1 1 1 1 1 1 1 1 1 1 1 1 1 1 1 41 1 1 1 61 61 1 61 1 61 1 61 1 1 1 1 1 1 1 1 1 1 1 1 1 1 1 1 1 1 1 1 
1 1 1 1 1 1 1 1 1 1 1 1 1 1 1 1 1 1 1 1 1 1 1 1 1 1 1 1 1 1 1 1 1 1 1 1 1 1 1 1 1 1 1 1 1 1 1 1 1 1 1 1 1 1 1 1 1 1 1 1 1 1 1 1 1 1 1 1 1 1 1 1 1 1 1 1 1 1 1 1 1 1 1 1 1 1 1 41 41 1 1 41 41 41 1 1 1 1 1 1 1 1 1 1 1 1 1 1 1 1 1 1 1 1 1 1 1 1 1 1 1 1 1 1 1 1 1 
1 1 1 1 1 1 1 1 1 1 1 1 1 1 1 1 1 1 1 1 1 1 1 1 1 1 1 1 1 1 1 1 1 1 1 1 1 1 1 1 1 1 1 1 1 1 1 1 1 1 1 1 1 1 1 1 1 1 1 1 1 1 1 1 1 1 1 1 1 1 1 1 1 1 1 1 1 1 1 1 1 1 1 1 1 1 1 1 1 41 41 41 41 41 41 1 1 1 1 41 1 41 1 1 1 1 1 1 1 1 1 1 1 1 1 1 1 1 1 1 1 1 1 1 1 1 1 
1 1 1 1 1 1 1 1 1 1 1 1 1 1 1 1 1 1 1 1 1 1 1 1 1 1 1 1 1 1 1 1 1 1 1 1 1 1 1 1 1 1 1 1 1 1 1 1 1 1 1 1 1 1 1 1 1 1 1 1 1 1 1 1 1 1 1 1 1 1 1 1 1 1 1 1 1 1 1 1 1 1 1 1 1 1 1 1 1 1 41 1 41 41 41 41 41 41 1 41 41 1 1 1 1 1 1 1 1 1 1 1 1 1 1 1 1 1 1 1 1 1 1 1 1 1 1 
1 1 1 1 1 1 1 1 1 1 1 1 1 1 1 1 1 1 1 1 1 1 1 1 1 1 1 1 1 1 1 1 1 1 1 1 1 1 1 1 1 1 1 1 1 1 1 1 1 1 1 1 1 1 1 1 1 1 1 1 1 1 1 1 1 1 1 1 1 1 1 1 1 1 1 1 1 1 1 1 1 1 1 1 1 1 1 1 1 1 1 1 1 1 1 1 41 1 41 41 41 1 1 1 1 1 1 1 1 1 1 1 1 1 1 1 1 1 1 1 1 1 1 1 1 1 1 
1 1 1 1 1 1 1 1 1 1 1 1 1 1 1 1 1 1 1 1 1 1 1 1 1 1 1 1 1 1 1 1 1 1 1 1 1 1 1 1 1 1 1 1 1 1 1 1 1 1 1 1 1 1 1 1 1 1 1 1 1 1 1 1 1 1 1 1 1 1 1 1 1 1 1 1 1 1 1 1 1 1 1 1 1 1 1 1 1 1 1 1 1 1 1 1 41 41 1 1 1 1 1 1 1 1 1 1 1 1 1 1 1 1 1 1 1 1 1 1 1 1 1 1 1 1 1 
1 1 1 1 1 1 1 1 1 1 1 1 1 1 1 1 1 1 1 1 1 1 1 1 1 1 1 1 1 1 1 1 1 1 1 1 1 1 1 1 1 1 1 1 1 1 1 1 1 1 1 1 1 1 1 1 1 1 1 1 1 1 1 1 1 1 1 1 1 1 1 1 1 1 1 1 1 1 1 1 1 1 1 1 1 1 1 1 1 1 1 1 1 1 1 1 1 1 1 1 1 1 1 1 1 1 1 1 1 1 1 1 1 1 1 1 1 1 1 1 1 1 1 1 1 1 1 
1 1 1 1 1 1 1 1 1 1 1 1 1 1 1 1 1 1 1 1 1 1 1 1 1 1 1 1 1 1 1 1 1 1 1 1 1 1 1 1 1 1 1 1 1 1 1 1 1 1 1 1 1 1 1 1 1 1 1 1 1 1 1 1 1 1 1 1 1 1 1 1 1 1 1 1 1 1 1 1 1 1 1 1 1 1 1 1 1 1 1 1 1 1 1 1 1 1 1 1 1 1 1 1 1 1 1 1 1 1 1 1 1 1 1 1 1 1 1 1 1 1 1 1 1 1 1 
1 1 1 1 1 1 1 1 1 1 1 1 1 1 1 1 1 1 1 1 1 1 1 1 1 1 1 1 1 1 1 1 1 1 1 1 1 1 1 1 1 1 1 1 1 1 1 1 1 1 1 1 1 1 1 1 1 1 1 1 1 1 1 1 1 1 1 1 1 1 1 1 1 1 1 1 1 1 1 1 1 1 1 1 1 1 1 1 1 1 1 1 1 1 1 1 1 1 1 1 1 1 1 1 1 1 1 1 1 1 1 1 1 1 1 1 1 1 1 1 1 1 1 1 1 1 1 
1 1 1 1 1 1 1 1 1 1 1 1 1 1 1 1 1 1 1 1 1 1 1 1 1 1 1 1 1 1 1 1 1 1 1 1 1 1 1 1 1 1 1 1 1 1 1 1 1 1 1 1 1 1 1 1 1 1 1 1 1 1 1 1 1 1 1 1 1 1 1 1 1 1 1 1 1 1 1 1 1 1 1 1 1 1 1 1 1 1 1 1 1 1 1 1 1 1 1 1 1 1 1 1 1 1 1 1 1 1 1 1 1 1 1 1 1 1 1 1 1 1 1 1 1 1 1 
1 1 1 1 1 1 1 1 1 1 1 1 1 1 1 1 1 1 1 1 1 1 1 1 1 1 1 1 1 1 1 1 1 1 1 1 1 1 1 1 1 1 1 1 1 1 1 1 1 1 1 1 1 1 1 1 1 1 1 1 1 1 1 1 1 1 1 1 1 1 1 1 1 1 1 1 1 1 1 1 1 1 1 1 1 1 1 1 1 1 1 1 1 1 1 1 1 1 1 1 1 1 1 1 1 1 1 1 1 1 1 1 1 1 1 1 1 1 1 1 1 1 1 1 1 1 1 
1 1 1 1 1 1 1 1 1 1 1 1 1 1 1 1 1 1 1 1 1 1 1 1 1 1 1 1 1 1 1 1 1 1 1 1 1 1 1 1 1 1 1 1 1 1 1 1 1 1 1 1 1 1 1 1 1 1 1 1 1 1 1 1 1 1 1 1 1 1 1 1 1 1 1 1 1 1 1 1 1 1 1 1 1 1 1 1 1 1 1 1 1 1 1 1 1 1 1 1 1 1 1 1 1 1 1 1 1 1 1 1 1 1 1 1 1 1 1 1 1 1 1 1 1 1 1 
1 1 1 1 1 1 1 1 1 1 1 1 1 1 1 1 1 1 1 1 1 1 1 1 1 1 1 1 1 1 1 1 1 1 1 1 1 1 1 1 1 1 1 1 1 1 1 1 1 1 1 1 1 1 1 1 1 1 1 1 1 1 1 1 1 1 1 1 1 1 1 1 1 1 1 1 1 1 1 1 1 1 1 1 1 1 1 1 1 1 1 1 1 1 1 1 1 1 1 1 1 1 1 1 1 1 1 1 1 1 1 1 1 1 1 1 1 1 1 1 1 1 1 1 1 1 1 
1 1 1 1 1 1 1 1 1 1 1 1 1 1 1 1 1 1 1 1 1 1 1 1 1 1 1 1 1 1 1 1 1 1 1 1 1 1 1 1 1 1 1 1 1 1 1 1 1 1 1 1 1 1 1 1 1 1 1 1 1 1 1 1 1 1 1 1 1 1 1 1 1 1 1 1 1 1 1 1 1 1 1 1 1 1 1 1 1 1 1 1 1 1 1 1 1 1 1 1 1 1 1 1 1 1 1 1 1 1 1 1 1 1 1 1 1 1 1 1 1 1 1 1 1 1 1 
1 1 1 1 1 1 1 1 1 1 1 1 1 1 1 1 1 1 1 1 1 1 1 1 1 1 1 1 1 1 1 1 1 1 1 1 1 1 1 1 1 1 1 1 1 1 1 1 1 1 1 1 1 1 1 1 1 1 1 1 1 1 1 1 1 1 1 1 1 1 1 1 1 1 1 1 1 1 1 1 1 1 1 1 1 1 1 1 1 1 1 1 1 1 1 1 1 1 1 1 1 1 1 1 1 1 1 1 1 1 1 1 1 1 1 1 1 1 1 1 1 1 1 1 1 1 1 
1 1 1 1 1 1 1 1 1 1 1 1 1 1 1 1 1 1 1 1 1 1 1 1 1 1 1 1 1 1 1 1 1 1 1 1 1 1 1 1 1 1 1 1 1 1 1 1 1 1 1 1 1 1 1 1 1 1 1 1 1 1 1 1 1 1 1 1 1 1 1 1 1 1 1 1 1 1 1 1 1 1 1 1 1 1 1 1 1 1 1 1 1 1 1 1 1 1 1 1 1 1 1 1 1 1 1 1 1 1 1 1 1 1 1 1 1 1 1 1 1 1 1 1 1 1 1 
