ncols        127
nrows        131
xllcorner    -71.681135979344
yllcorner    -16.519694133538
cellsize     0.001836012963
NODATA_value nan
1.2990719079971313477 1.3170349597930908203 1.3371906280517578125 1.3599408864974975586 1.3857827186584472656 1.415333867073059082 1.4493621587753295898 1.4888184070587158203 1.5359921455383300781 1.5989780426025390625 1.6787384748458862305 1.7830039262771606445 1.9251173734664916992 2.1302561759948730469 2.4522929191589355469 3.0309617519378662109 4.3762249946594238281 11 11 4.3762249946594238281 4.3762249946594238281 11 11 4.3762249946594238281 11 11 4.3762249946594238281 11 4.3762249946594238281 3.0309617519378662109 2.8069784641265869141 2.5001242160797119141 2.3444950580596923828 2.2078022956848144531 2.0527253150939941406 1.9125078916549682617 1.795673370361328125 1.7006545066833496094 1.6234544515609741211 1.5602219104766845703 1.515166163444519043 1.4780699014663696289 1.4577389955520629883 1.4378604888916015625 1.4174443483352661133 1.3971395492553710938 1.3773995637893676758 1.3585141897201538086 1.3406484127044677734 1.3238770961761474609 1.3082140684127807617 1.308104395866394043 1.3278788328170776367 1.3503578901290893555 1.3761352300643920898 1.4059908390045166016 1.4409708976745605469 1.4825099706649780273 1.5326286554336547852 1.5942636728286743164 1.6718441247940063477 1.7723563909530639648 1.9074366092681884766 2.0977790355682373047 2.3830475807189941406 2.8436048030853271484 3.60887908935546875 4.3762249946594238281 11 4.3762249946594238281 4.3762249946594238281 11 11 4.3762249946594238281 11 4.3762249946594238281 4.2853236198425292969 3.60887908935546875 2.8436048030853271484 2.402225494384765625 2.402225494384765625 2.402225494384765625 2.5001242160797119141 2.8069784641265869141 2.9655323028564453125 2.9655323028564453125 2.9655323028564453125 2.8069784641265869141 2.5001242160797119141 2.2246110439300537109 2.0898754596710205078 2.0898754596710205078 2.0629861354827880859 1.9932277202606201172 1.90305328369140625 1.8108866214752197266 1.7262470722198486328 1.659404754638671875 1.6028407812118530273 1.5519386529922485352 1.5068808794021606445 1.4672753810882568359 1.4325174093246459961 1.4019680023193359375 1.3750314712524414062 1.3511835336685180664 1.329975128173828125 1.3110272884368896484 1.2940218448638916016 1.2786926031112670898 1.2648159265518188477 1.2522039413452148438 1.2406982183456420898 1.2301645278930664062 1.2204885482788085938 1.2115725278854370117 1.2033329010009765625 1.1956970691680908203 1.1886026859283447266 1.1819952726364135742 1.1758271455764770508 1.1700567007064819336 1.1646473407745361328 1.1595667600631713867 1.154786229133605957 1.1502802371978759766 1.1460261344909667969 
1.3041349649429321289 1.3219614028930664062 1.3431488275527954102 1.3672332763671875 1.3948280811309814453 1.4267227649688720703 1.4639452695846557617 1.5078483819961547852 1.5602262020111083984 1.6234591007232666016 1.7006592750549316406 1.7956783771514892578 1.9251252412796020508 2.1302654743194580078 2.4523043632507324219 3.0309767723083496094 4.3762459754943847656 11 4.3762459754943847656 3.60887908935546875 4.3762459754943847656 11 4.3762459754943847656 4.3762459754943847656 11 4.3762459754943847656 4.3762459754943847656 11 4.3762459754943847656 4.2853236198425292969 3.6088876724243164062 2.9655323028564453125 2.8069810867309570312 2.5001299381256103516 2.2246179580688476562 2.0154125690460205078 1.860075831413269043 1.7429054975509643555 1.659407496452331543 1.6028437614440917969 1.5519417524337768555 1.5225677490234375 1.4983229637145996094 1.4728827476501464844 1.4473770856857299805 1.4225819110870361328 1.3989752531051635742 1.3768123388290405273 1.3561942577362060547 1.3371236324310302734 1.3195432424545288086 1.310391545295715332 1.3286441564559936523 1.3512941598892211914 1.3772971630096435547 1.4074575901031494141 1.4428586959838867188 1.484996795654296875 1.5359969139099121094 1.5989832878112792969 1.6787444353103637695 1.7830107212066650391 1.9251252412796020508 2.1302654743194580078 2.4523043632507324219 3.0309767723083496094 4.3762459754943847656 11 11 4.3762459754943847656 11 11 11 11 11 11 11 4.3762459754943847656 3.0309767723083496094 2.9655323028564453125 2.9655323028564453125 2.9655323028564453125 2.8436160087585449219 3.6088876724243164062 4.2853236198425292969 4.2853236198425292969 4.2853236198425292969 3.6088876724243164062 2.8436160087585449219 2.402225494384765625 2.402225494384765625 2.402225494384765625 2.3444962501525878906 2.2078051567077636719 2.0527296066284179688 1.912512660026550293 1.8108900785446166992 1.7262508869171142578 1.6522504091262817383 1.588855743408203125 1.534865260124206543 1.4888219833374023438 1.4493656158447265625 1.4153372049331665039 1.3857858180999755859 1.3599437475204467773 1.3371933698654174805 1.3170375823974609375 1.2990744113922119141 1.2829771041870117188 1.2684781551361083984 1.2553571462631225586 1.2434314489364624023 1.2325483560562133789 1.2225794792175292969 1.2134162187576293945 1.204966425895690918 1.1971510648727416992 1.1899023056030273438 1.1831613779067993164 1.1768773794174194336 1.1710058450698852539 1.1655079126358032227 1.1603493690490722656 1.1554999351501464844 1.1509329080581665039 1.146624445915222168 
1.3128132820129394531 1.3306646347045898438 1.3511890172958374023 1.3750371932983398438 1.4019739627838134766 1.4354662895202636719 1.4752929210662841797 1.5229170322418212891 1.5807791948318481445 1.6523886919021606445 1.742911219596862793 1.8600820302963256836 2.0154192447662353516 2.2246246337890625 2.5001356601715087891 3.0309920310974121094 4.3762669563293457031 11 4.3762669563293457031 3.6088962554931640625 4.3762669563293457031 11 4.3762669563293457031 4.3762669563293457031 11 4.3762669563293457031 4.3762669563293457031 11 4.3762669563293457031 11 4.3762669563293457031 4.2853236198425292969 3.6088962554931640625 2.8436269760131835938 2.3830676078796386719 2.0977962017059326172 1.9074513912200927734 1.8108934164047241211 1.726254582405090332 1.6522542238235473633 1.6071604490280151367 1.5774466991424560547 1.5450621843338012695 1.5121206045150756836 1.4800536632537841797 1.4497069120407104492 1.4214968681335449219 1.395560145378112793 1.3718650341033935547 1.3502885103225708008 1.3306646347045898438 1.3309864997863769531 1.3346552848815917969 1.3512972593307495117 1.3773006200790405273 1.4074611663818359375 1.4428626298904418945 1.4850010871887207031 1.5360015630722045898 1.5989885330200195312 1.6787502765655517578 1.7830175161361694336 1.9251331090927124023 2.1302750110626220703 2.4523160457611083984 3.0309920310974121094 4.3762669563293457031 11 4.3762669563293457031 4.3762669563293457031 11 4.3762669563293457031 11 11 11 11 11 4.3762669563293457031 4.2853236198425292969 4.2853236198425292969 4.2853236198425292969 4.2853236198425292969 3.6088962554931640625 4.3762669563293457031 11 11 11 4.3762669563293457031 3.0309920310974121094 2.9655323028564453125 2.9655323028564453125 2.9655323028564453125 2.8069837093353271484 2.5001356601715087891 2.2246246337890625 2.0527338981628417969 1.912517547607421875 1.7956832647323608398 1.7006640434265136719 1.6234636306762695312 1.5602304935455322266 1.5078524351119995117 1.4639489650726318359 1.426726222038269043 1.3948314189910888672 1.3672363758087158203 1.3431518077850341797 1.321964263916015625 1.3031916618347167969 1.2864512205123901367 1.2714352607727050781 1.2578942775726318359 1.2456238269805908203 1.2344552278518676758 1.224248051643371582 1.2148844003677368164 1.2062649726867675781 1.1983050107955932617 1.190932154655456543 1.1840842962265014648 1.177707672119140625 1.1717554330825805664 1.1661868095397949219 1.1609661579132080078 1.156062006950378418 1.1514465808868408203 1.1470950841903686523 
1.3217682838439941406 1.341317296028137207 1.3630573749542236328 1.3872885704040527344 1.4153436422348022461 1.449372410774230957 1.4888291358947753906 1.5348726511001586914 1.594279170036315918 1.6718612909317016602 1.7723758220672607422 1.9074587821960449219 2.0978047847747802734 2.3830773830413818359 2.8436379432678222656 3.6089050769805908203 4.3762879371643066406 11 4.3762879371643066406 4.3762879371643066406 11 11 4.3762879371643066406 4.3762879371643066406 11 4.3762879371643066406 4.3762879371643066406 11 4.3762879371643066406 11 11 11 4.3762879371643066406 3.0310070514678955078 2.452327728271484375 2.2078108787536621094 2.0527379512786865234 1.9125223159790039062 1.7956881523132324219 1.7206988334655761719 1.6848292350769042969 1.6427221298217773438 1.5986808538436889648 1.5556184053421020508 1.515173792839050293 1.4780777692794799805 1.4445058107376098633 1.4143319129943847656 1.3872885704040527344 1.3630573749542236328 1.3483786582946777344 1.3544353246688842773 1.3589628934860229492 1.3617651462554931641 1.3773039579391479492 1.4074648618698120117 1.4428666830062866211 1.4850053787231445312 1.5360063314437866211 1.5989938974380493164 1.6787562370300292969 1.7830241918563842773 1.9251409769058227539 2.1302843093872070312 2.452327728271484375 3.0310070514678955078 4.3762879371643066406 11 11 11 11 4.3762879371643066406 11 4.3762879371643066406 11 11 4.3762879371643066406 4.3762879371643066406 11 11 11 11 4.3762879371643066406 4.3762879371643066406 11 4.3762879371643066406 11 4.3762879371643066406 4.2853236198425292969 4.2853236198425292969 4.2853236198425292969 4.2853236198425292969 3.6089050769805908203 2.8436379432678222656 2.5001413822174072266 2.2246313095092773438 2.0154259204864501953 1.860088348388671875 1.7429170608520507812 1.6523939371109008789 1.5807839632034301758 1.522921442985534668 1.4752969741821289062 1.4354701042175292969 1.401702880859375 1.3727296590805053711 1.347609400749206543 1.3256293535232543945 1.3062405586242675781 1.2890138626098632812 1.2736092805862426758 1.259754180908203125 1.2472270727157592773 1.2358468770980834961 1.2254636287689208984 1.2159523963928222656 1.2072081565856933594 1.1991420984268188477 1.1916784048080444336 1.1847524642944335938 1.1783081293106079102 1.1722971200942993164 1.1666772365570068359 1.1614115238189697266 1.1564675569534301758 1.1518169641494750977 1.147434234619140625 
1.3299856185913085938 1.3511945009231567383 1.3750429153442382812 1.4019798040390014648 1.4325296878814697266 1.467287898063659668 1.5078605413436889648 1.5602390766143798828 1.6234728097915649414 1.7006736993789672852 1.7956931591033935547 1.9251488447189331055 2.1302938461303710938 2.4523394107818603516 3.0310223102569580078 4.3763089179992675781 11 11 4.3763089179992675781 11 11 4.3763089179992675781 3.6089050769805908203 4.3763089179992675781 11 11 11 11 4.3763089179992675781 11 11 4.3763089179992675781 3.6089050769805908203 2.9655323028564453125 2.8069889545440673828 2.5001471042633056641 2.2246382236480712891 2.0154325962066650391 1.87674713134765625 1.8370641469955444336 1.7816928625106811523 1.7202310562133789062 1.6594158411026000977 1.6028528213500976562 1.5519511699676513672 1.5068935155868530273 1.467287898063659668 1.4325296878814697266 1.4019798040390014648 1.3750429153442382812 1.373821258544921875 1.3813551664352416992 1.3870282173156738281 1.3905576467514038086 1.3917561769485473633 1.4060016870498657227 1.4409826993942260742 1.4825227260589599609 1.5326427221298217773 1.594279170036315918 1.6718612909317016602 1.7723758220672607422 1.9074587821960449219 2.0978047847747802734 2.3830773830413818359 2.8436379432678222656 3.6089050769805908203 4.3763089179992675781 11 11 4.3763089179992675781 4.3763089179992675781 11 11 11 11 4.3763089179992675781 4.3763089179992675781 11 11 11 11 11 11 11 4.3763089179992675781 11 4.3763089179992675781 11 11 11 11 4.3763089179992675781 3.6089136600494384766 2.8436491489410400391 2.3830873966217041016 2.0978133678436279297 1.9074661731719970703 1.7723823785781860352 1.6718670129776000977 1.5942842960357666016 1.5326473712921142578 1.4825270175933837891 1.4409865140914916992 1.4060053825378417969 1.3761487007141113281 1.3503705263137817383 1.3278906345367431641 1.3081156015396118164 1.290585637092590332 1.2749398946762084961 1.2608902454376220703 1.2482048273086547852 1.2366943359375 1.2262029647827148438 1.216601252555847168 1.2077807188034057617 1.199649810791015625 1.1921308040618896484 1.1851571798324584961 1.178671717643737793 1.1726249456405639648 1.1669738292694091797 1.1616806983947753906 1.1567127704620361328 1.1520408391952514648 1.147639155387878418 
1.3372045755386352539 1.3599555492401123047 1.3857982158660888672 1.4153501987457275391 1.4493793249130249023 1.4888362884521484375 1.5348801612854003906 1.5888711214065551758 1.6524044275283813477 1.7429285049438476562 1.860100865364074707 2.0154395103454589844 2.2246448993682861328 2.5001528263092041016 3.0310373306274414062 4.3763298988342285156 11 4.3763298988342285156 4.3763298988342285156 11 4.3763298988342285156 4.2853236198425292969 3.6089222431182861328 4.3763298988342285156 11 11 4.3763298988342285156 11 11 11 11 4.3763298988342285156 4.2853236198425292969 4.2853236198425292969 3.6089222431182861328 2.8436601161956787109 2.3830974102020263672 2.0978219509124755859 2.0629885196685791016 1.9932355880737304688 1.9030665159225463867 1.8109034299850463867 1.7262656688690185547 1.6522657871246337891 1.5888711214065551758 1.5348801612854003906 1.4888362884521484375 1.4493793249130249023 1.4153501987457275391 1.3917158842086791992 1.4030267000198364258 1.4125456809997558594 1.4197797775268554688 1.4243102073669433594 1.425853729248046875 1.4243102073669433594 1.4354701042175292969 1.4752969741821289062 1.522921442985534668 1.5807839632034301758 1.6523939371109008789 1.7429170608520507812 1.860088348388671875 2.0154259204864501953 2.2246313095092773438 2.5001413822174072266 3.0310373306274414062 4.3763298988342285156 11 11 11 11 11 11 11 4.3763298988342285156 4.3763298988342285156 11 11 11 11 11 11 11 4.3763298988342285156 4.3763298988342285156 11 4.3763298988342285156 11 11 11 11 11 4.3763298988342285156 3.0310373306274414062 2.4523508548736572266 2.1303031444549560547 1.9251565933227539062 1.7830377817153930664 1.6787680387496948242 1.5990043878555297852 1.5360158681869506836 1.4850139617919921875 1.4428745508193969727 1.4074721336364746094 1.3773107528686523438 1.3513067960739135742 1.3286560773849487305 1.3087493181228637695 1.2911162376403808594 1.2753885984420776367 1.2612731456756591797 1.248534083366394043 1.2369796037673950195 1.2264517545700073242 1.2168195247650146484 1.2079732418060302734 1.1998205184936523438 1.1922829151153564453 1.1852933168411254883 1.1787940263748168945 1.1727352142333984375 1.1670734882354736328 1.1617712974548339844 1.1567951440811157227 1.1521160602569580078 1.1477081775665283203 
1.343163609504699707 1.3672490119934082031 1.3948447704315185547 1.4267404079437255859 1.4639641046524047852 1.5078685283660888672 1.5602476596832275391 1.6234818696975708008 1.7006832361221313477 1.7957029342651367188 1.9125368595123291016 2.0978302955627441406 2.3831074237823486328 2.8436713218688964844 3.6089310646057128906 4.37635040283203125 11 4.37635040283203125 4.37635040283203125 11 4.37635040283203125 11 4.37635040283203125 4.37635040283203125 11 11 4.37635040283203125 11 4.37635040283203125 11 11 11 11 11 4.37635040283203125 3.0310525894165039062 2.4523625373840332031 2.402225494384765625 2.3445012569427490234 2.2078197002410888672 2.0527508258819580078 1.9125368595123291016 1.7957029342651367188 1.7006832361221313477 1.6234818696975708008 1.5602476596832275391 1.5078685283660888672 1.4639641046524047852 1.4267404079437255859 1.422473907470703125 1.4368163347244262695 1.4490586519241333008 1.4584723711013793945 1.4644179344177246094 1.4664527177810668945 1.4644179344177246094 1.4584723711013793945 1.4639527797698974609 1.5078564882278442383 1.5602347850799560547 1.6234681606292724609 1.7006689310073852539 1.7956881523132324219 1.9125223159790039062 2.0978219509124755859 2.3830974102020263672 2.8436601161956787109 3.6089222431182861328 4.2853236198425292969 4.37635040283203125 11 11 11 4.37635040283203125 11 4.37635040283203125 11 11 11 11 11 4.37635040283203125 4.37635040283203125 11 4.37635040283203125 11 11 4.37635040283203125 11 11 11 11 11 4.37635040283203125 3.0310525894165039062 2.4523625373840332031 2.1303124427795410156 1.9251644611358642578 1.7830444574356079102 1.6787739992141723633 1.5990096330642700195 1.5360206365585327148 1.4850183725357055664 1.4428784847259521484 1.4074758291244506836 1.3773142099380493164 1.3513100147247314453 1.3286590576171875 1.3087520599365234375 1.2911189794540405273 1.2753911018371582031 1.2612755298614501953 1.2485363483428955078 1.2369818687438964844 1.2264539003372192383 1.2168215513229370117 1.2079751491546630859 1.1998224258422851562 1.192284703254699707 1.1852949857711791992 1.1787956953048706055 1.1727367639541625977 1.167075037956237793 1.1617727279663085938 1.156796574592590332 1.1521174907684326172 1.1477094888687133789 
1.3585262298583984375 1.3774110078811645508 1.4019887447357177734 1.4354851245880126953 1.4753131866455078125 1.5229390859603881836 1.5808031558990478516 1.6524149179458618164 1.7429399490356445312 1.8601133823394775391 2.0154528617858886719 2.2246584892272949219 2.5001642704010009766 3.0310678482055664062 4.3763713836669921875 11 11 4.3763713836669921875 4.3763713836669921875 11 4.3763713836669921875 11 11 4.3763713836669921875 11 4.3763713836669921875 4.3763713836669921875 11 11 11 11 11 4.3763713836669921875 4.2853236198425292969 3.6089310646057128906 2.8436713218688964844 2.8069965839385986328 2.9655323028564453125 2.8069965839385986328 2.5001642704010009766 2.2246584892272949219 2.0154528617858886719 1.8601133823394775391 1.7429399490356445312 1.6524149179458618164 1.5808031558990478516 1.5229390859603881836 1.4753131866455078125 1.4378684759140014648 1.4577454328536987305 1.4762297868728637695 1.4922945499420166016 1.5048385858535766602 1.5128502845764160156 1.5156084299087524414 1.5128502845764160156 1.5048385858535766602 1.4922945499420166016 1.4888291358947753906 1.5348726511001586914 1.588863372802734375 1.6524044275283813477 1.7429285049438476562 1.860100865364074707 2.0154395103454589844 2.2246448993682861328 2.5001528263092041016 2.8069915771484375 3.0310678482055664062 4.3763713836669921875 11 11 11 4.3763713836669921875 11 11 11 11 11 4.3763713836669921875 4.2853236198425292969 4.3763713836669921875 11 11 4.3763713836669921875 11 4.3763713836669921875 11 11 11 11 11 11 4.3763713836669921875 3.0310678482055664062 2.4523742198944091797 2.1303219795227050781 1.9251723289489746094 1.7830512523651123047 1.6787799596786499023 1.5990148782730102539 1.5360254049301147461 1.4850226640701293945 1.442882537841796875 1.4074795246124267578 1.3773176670074462891 1.3513132333755493164 1.3286620378494262695 1.3087549209594726562 1.2911216020584106445 1.2753936052322387695 1.2612779140472412109 1.2485387325286865234 1.2369840145111083984 1.2264559268951416016 1.2168234586715698242 1.2079770565032958984 1.199824213981628418 1.1922864913940429688 1.1852966547012329102 1.1787972450256347656 1.1727383136749267578 1.1670765876770019531 1.1617742776870727539 1.1567980051040649414 1.1521189212799072266 1.1477109193801879883 
1.3774125576019287109 1.3989887237548828125 1.4225945472717285156 1.4493895769119262695 1.4888470172882080078 1.5348913669586181641 1.5943048000335693359 1.6718900203704833984 1.7724082469940185547 1.9074957370758056641 2.0978474617004394531 2.3831272125244140625 2.8436934947967529297 3.6089482307434082031 4.376392364501953125 11 4.376392364501953125 11 4.376392364501953125 11 4.376392364501953125 4.376392364501953125 11 11 11 4.376392364501953125 11 11 11 11 11 4.376392364501953125 3.6089396476745605469 2.9655323028564453125 2.8069939613342285156 2.8436934947967529297 3.6089482307434082031 4.2853236198425292969 3.6089482307434082031 2.8436934947967529297 2.3831272125244140625 2.0978474617004394531 1.9074957370758056641 1.7724082469940185547 1.6718900203704833984 1.5943048000335693359 1.5326659679412841797 1.4825439453125 1.47289276123046875 1.4983311891555786133 1.5225738286972045898 1.5441420078277587891 1.561329960823059082 1.5724761486053466797 1.5763448476791381836 1.5724761486053466797 1.561329960823059082 1.5441420078277587891 1.5225738286972045898 1.5078645944595336914 1.5602433681488037109 1.6234773397445678711 1.7006784677505493164 1.7956980466842651367 1.9125319719314575195 2.0527465343475341797 2.2078168392181396484 2.3831174373626708984 2.8436822891235351562 3.6089396476745605469 4.376392364501953125 11 11 4.376392364501953125 11 11 11 11 11 4.376392364501953125 4.376392364501953125 11 11 4.376392364501953125 11 11 4.376392364501953125 11 4.376392364501953125 11 11 11 4.376392364501953125 3.6089396476745605469 2.8436822891235351562 2.3831174373626708984 2.0978388786315917969 1.9074883460998535156 1.7724018096923828125 1.6718842983245849609 1.5942996740341186523 1.5326613187789916992 1.4825397729873657227 1.4409983158111572266 1.406016230583190918 1.3761587142944335938 1.35037994384765625 1.3278995752334594727 1.3081239461898803711 1.2905936241149902344 1.2749472856521606445 1.2608973979949951172 1.2482116222381591797 1.236700892448425293 1.2262091636657714844 1.216607213020324707 1.2077864408493041992 1.1996552944183349609 1.1921361684799194336 1.1851623058319091797 1.1786767244338989258 1.1726297140121459961 1.1669783592224121094 1.1616852283477783203 1.1567170619964599609 1.1520450115203857422 1.1476433277130126953 
1.3989907503128051758 1.4225964546203613281 1.4497222900390625 1.4800680875778198242 1.512133479118347168 1.5602605342864990234 1.6234955787658691406 1.7006976604461669922 1.7957178354263305664 1.9251880645751953125 2.130340576171875 2.4523973464965820312 3.0310981273651123047 4.3764133453369140625 11 11 11 11 11 11 4.3764133453369140625 11 11 11 4.3764133453369140625 11 11 4.3764133453369140625 11 4.3764133453369140625 4.2853236198425292969 3.6089482307434082031 2.8436934947967529297 2.5001757144927978516 2.8437044620513916016 3.6089570522308349609 4.3764133453369140625 11 4.3764133453369140625 3.0310981273651123047 2.4523973464965820312 2.130340576171875 1.9251880645751953125 1.7830648422241210938 1.6787917613983154297 1.5990254878997802734 1.5360348224639892578 1.5048389434814453125 1.512133479118347168 1.5450730323791503906 1.5774549245834350586 1.6071658134460449219 1.6315096616744995117 1.6476373672485351562 1.6533008813858032227 1.6476373672485351562 1.6315096616744995117 1.6071658134460449219 1.5774549245834350586 1.5450730323791503906 1.5348801612854003906 1.5888711214065551758 1.6522657871246337891 1.7262656688690185547 1.8109034299850463867 1.9030665159225463867 2.0154528617858886719 2.2246584892272949219 2.5001642704010009766 3.0310981273651123047 4.3764133453369140625 11 11 4.3764133453369140625 11 11 11 11 11 4.3764133453369140625 4.3764133453369140625 11 4.3764133453369140625 4.3764133453369140625 11 4.3764133453369140625 4.3764133453369140625 11 4.3764133453369140625 11 11 11 4.3764133453369140625 3.0310981273651123047 2.5001642704010009766 2.2246584892272949219 2.0154528617858886719 1.8601133823394775391 1.7429399490356445312 1.6524149179458618164 1.5808031558990478516 1.5229390859603881836 1.4753131866455078125 1.4354851245880126953 1.4017169475555419922 1.372742772102355957 1.3476216793060302734 1.3256409168243408203 1.3062514066696166992 1.2890242338180541992 1.2736191749572753906 1.2597634792327880859 1.2472360134124755859 1.2358553409576416016 1.2254717350006103516 1.2159602642059326172 1.2072156667709350586 1.1991493701934814453 1.1916854381561279297 1.1847592592239379883 1.1783146858215332031 1.1723034381866455078 1.1666833162307739258 1.1614173650741577148 1.1564732789993286133 1.1518225669860839844 1.1474397182464599609 
1.4215152263641357422 1.4497244358062744141 1.4800701141357421875 1.5151915550231933594 1.5556348562240600586 1.5986952781677246094 1.6524306535720825195 1.7429572343826293945 1.8601322174072265625 2.0154731273651123047 2.2246789932250976562 2.5001814365386962891 3.0311131477355957031 4.376434326171875 11 11 11 11 11 4.376434326171875 4.376434326171875 11 11 4.376434326171875 4.376434326171875 11 11 11 11 4.376434326171875 3.0311131477355957031 2.8070044517517089844 2.9655323028564453125 2.843715667724609375 3.6089656352996826172 4.376434326171875 11 11 4.376434326171875 3.0311131477355957031 2.4524090290069580078 2.1303501129150390625 1.9251959323883056641 1.7830715179443359375 1.6787977218627929688 1.5990307331085205078 1.5724762678146362305 1.5613304376602172852 1.5556348562240600586 1.5986952781677246094 1.6427335739135742188 1.6848369836807250977 1.7207028865814208984 1.7452149391174316406 1.75397491455078125 1.7452149391174316406 1.7207028865814208984 1.6848369836807250977 1.6427335739135742188 1.5986952781677246094 1.5556348562240600586 1.5556348562240600586 1.6028559207916259766 1.6594185829162597656 1.7262843847274780273 1.8109201192855834961 1.9125416278839111328 2.0978560447692871094 2.3831372261047363281 2.8437044620513916016 3.6089570522308349609 4.376434326171875 11 11 11 4.376434326171875 11 11 11 4.376434326171875 4.376434326171875 11 4.376434326171875 4.376434326171875 11 11 4.376434326171875 11 11 11 11 11 4.376434326171875 3.0311131477355957031 2.5001814365386962891 2.2246789932250976562 2.0154731273651123047 1.8601322174072265625 1.7429572343826293945 1.6524306535720825195 1.5808175802230834961 1.5229523181915283203 1.4753253459930419922 1.4354964494705200195 1.4017274379730224609 1.3727526664733886719 1.3476309776306152344 1.3256496191024780273 1.3062596321105957031 1.289031982421875 1.2736265659332275391 1.259770512580871582 1.2472426891326904297 1.2358617782592773438 1.2254779338836669922 1.2159661054611206055 1.2072213888168334961 1.1991547346115112305 1.1916906833648681641 1.1847642660140991211 1.1783195734024047852 1.1723082065582275391 1.1666878461837768555 1.1614217758178710938 1.1564776897430419922 1.1518267393112182617 1.1474437713623046875 
1.4445272684097290039 1.4780989885330200195 1.5151941776275634766 1.5556372404098510742 1.6028740406036376953 1.6594351530075073242 1.7202472686767578125 1.7817046642303466797 1.9075180292129516602 2.0978732109069824219 2.3831572532653808594 2.8437266349792480469 3.6089742183685302734 4.3764553070068359375 11 11 11 11 11 11 11 11 4.3764553070068359375 3.6089656352996826172 4.3764553070068359375 11 11 11 4.3764553070068359375 4.2853236198425292969 3.6089742183685302734 3.6089742183685302734 4.2853236198425292969 3.6089742183685302734 4.3764553070068359375 11 11 4.3764553070068359375 3.6089656352996826172 2.843715667724609375 2.3831472396850585938 2.0978646278381347656 1.9075106382369995117 1.7724212408065795898 1.6719014644622802734 1.6533008813858032227 1.6476376056671142578 1.6315104961395263672 1.607167363166809082 1.6594351530075073242 1.7202472686767578125 1.7817046642303466797 1.8370705842971801758 1.8767490386962890625 1.8913290500640869141 1.8767490386962890625 1.8370705842971801758 1.7817046642303466797 1.7202472686767578125 1.6594351530075073242 1.6028740406036376953 1.6028740406036376953 1.6594351530075073242 1.7202472686767578125 1.7957276105880737305 1.9125609397888183594 2.0527718067169189453 2.2078340053558349609 2.3445062637329101562 2.5001871585845947266 3.0311284065246582031 4.3764553070068359375 11 11 4.3764553070068359375 4.3764553070068359375 11 11 11 4.3764553070068359375 11 11 4.3764553070068359375 4.3764553070068359375 11 11 4.3764553070068359375 11 11 11 11 11 4.3764553070068359375 3.6089742183685302734 2.8437266349792480469 2.3831572532653808594 2.0978732109069824219 1.9075180292129516602 1.772427678108215332 1.6719073057174682617 1.5943202972412109375 1.5326799154281616211 1.4825567007064819336 1.4410139322280883789 1.4060306549072265625 1.3761723041534423828 1.3503925800323486328 1.327911376953125 1.3081350326538085938 1.2906041145324707031 1.2749572992324829102 1.2609068155288696289 1.2482206821441650391 1.2367094755172729492 1.2262175083160400391 1.2166150808334350586 1.2077940702438354492 1.1996626853942871094 1.1921432018280029297 1.1851691007614135742 1.1786832809448242188 1.1726360321044921875 1.16698455810546875 1.1616911888122558594 1.1567227840423583984 1.1520506143569946289 1.1476486921310424805 
1.467312932014465332 1.506918787956237793 1.551976323127746582 1.6028771400451660156 1.659438014030456543 1.7262917757034301758 1.8109267950057983398 1.903084874153137207 1.9932465553283691406 2.1303689479827880859 2.4524323940277099609 3.0311436653137207031 4.376476287841796875 11 11 11 11 11 11 11 4.376476287841796875 4.2853236198425292969 3.6089830398559570312 3.6089830398559570312 4.376476287841796875 11 11 11 4.376476287841796875 11 4.376476287841796875 4.376476287841796875 11 4.376476287841796875 11 11 4.376476287841796875 3.6089742183685302734 2.8437266349792480469 2.5001814365386962891 2.2246789932250976562 2.0154731273651123047 1.8601322174072265625 1.7429572343826293945 1.745215296745300293 1.75397491455078125 1.745215296745300293 1.7207040786743164062 1.6848392486572265625 1.7262917757034301758 1.8109267950057983398 1.903084874153137207 1.9932465553283691406 2.0629918575286865234 2.0898754596710205078 2.0629918575286865234 1.9932465553283691406 1.903084874153137207 1.8109267950057983398 1.7262917757034301758 1.659438014030456543 1.6522928476333618164 1.7262917757034301758 1.8109267950057983398 1.903084874153137207 2.0154864788055419922 2.2246925830841064453 2.5001928806304931641 2.8070096969604492188 2.9655323028564453125 3.6089830398559570312 4.376476287841796875 11 4.376476287841796875 3.6089830398559570312 4.376476287841796875 11 11 4.376476287841796875 11 11 4.376476287841796875 3.6089830398559570312 4.376476287841796875 11 11 4.376476287841796875 11 4.376476287841796875 11 11 4.376476287841796875 11 4.376476287841796875 3.0311436653137207031 2.4524323940277099609 2.1303689479827880859 1.9252116680145263672 1.7830851078033447266 1.6788095235824584961 1.5990413427352905273 1.5360491275787353516 1.4850442409515380859 1.4429023265838623047 1.4074977636337280273 1.3773345947265625 1.3513290882110595703 1.3286769390106201172 1.3087688684463500977 1.2911348342895507812 1.2754061222076416016 1.2612898349761962891 1.2485500574111938477 1.2369948625564575195 1.2264662981033325195 1.2168334722518920898 1.2079865932464599609 1.1998333930969238281 1.1922953128814697266 1.1853052377700805664 1.1788054704666137695 1.1727463006973266602 1.1670843362808227539 1.1617816686630249023 1.1568052768707275391 1.1523929834365844727 1.1484713554382324219 
1.4888650178909301758 1.5349099636077880859 1.5889017581939697266 1.6522966623306274414 1.72629547119140625 1.8109302520751953125 1.9125705957412719727 2.0527803897857666016 2.2078399658203125 2.3445084095001220703 2.5001986026763916016 3.0311586856842041016 4.3764972686767578125 11 11 11 11 11 4.3764972686767578125 11 11 11 4.3764972686767578125 4.3764972686767578125 11 11 4.3764972686767578125 11 11 11 4.3764972686767578125 11 11 11 11 4.3764972686767578125 3.6089830398559570312 2.8437378406524658203 2.5001871585845947266 2.2246856689453125 2.0527677536010742188 1.9125560522079467773 1.7957227230072021484 1.8370723724365234375 1.8767495155334472656 1.8913290500640869141 1.8767495155334472656 1.8370723724365234375 1.7817080020904541016 1.8109302520751953125 1.9125705957412719727 2.0527803897857666016 2.2078399658203125 2.3445084095001220703 2.402225494384765625 2.3445084095001220703 2.2078399658203125 2.0527803897857666016 1.9125705957412719727 1.8109302520751953125 1.75397491455078125 1.7452154159545898438 1.7957375049591064453 1.9125705957412719727 2.0527803897857666016 2.2078399658203125 2.3831770420074462891 2.8437488079071044922 3.6089916229248046875 4.2853236198425292969 4.3764972686767578125 11 11 4.3764972686767578125 4.3764972686767578125 11 11 11 4.3764972686767578125 11 11 4.3764972686767578125 4.3764972686767578125 11 11 4.3764972686767578125 4.3764972686767578125 11 11 11 11 11 11 4.3764972686767578125 3.0311586856842041016 2.4524440765380859375 2.1303782463073730469 1.9252195358276367188 1.7830917835235595703 1.6788154840469360352 1.5990465879440307617 1.5360538959503173828 1.4850486516952514648 1.4429062604904174805 1.4075014591217041016 1.3773380517959594727 1.3513321876525878906 1.3286799192428588867 1.3087717294692993164 1.2911374568939208984 1.275408625602722168 1.2612922191619873047 1.2485523223876953125 1.2369970083236694336 1.2264683246612548828 1.2168353796005249023 1.2079885005950927734 1.1998351812362670898 1.1922971010208129883 1.1853069067001342773 1.1788071393966674805 1.1730833053588867188 1.1681288480758666992 1.1634080410003662109 1.1589084863662719727 1.1546185016632080078 1.1505262851715087891 
1.5121426582336425781 1.5602819919586181641 1.6235184669494628906 1.70072174072265625 1.7957425117492675781 1.9125753641128540039 2.0527846813201904297 2.2247061729431152344 2.5002043247222900391 2.8070149421691894531 2.9655323028564453125 3.6090002059936523438 4.37651824951171875 11 11 11 11 4.37651824951171875 11 11 4.37651824951171875 4.2853236198425292969 3.6089916229248046875 4.37651824951171875 11 4.37651824951171875 11 11 11 11 4.37651824951171875 11 11 11 4.37651824951171875 3.6089916229248046875 2.8437488079071044922 2.5001928806304931641 2.3445093631744384766 2.2078428268432617188 2.0527846813201904297 1.9125753641128540039 1.9030901193618774414 1.9932496547698974609 2.0629928112030029297 2.0898754596710205078 2.0629928112030029297 1.9932496547698974609 1.9030901193618774414 1.9125753641128540039 2.0527846813201904297 2.2247061729431152344 2.5002043247222900391 2.8070149421691894531 2.9655323028564453125 2.8070149421691894531 2.5002043247222900391 2.2247061729431152344 2.0527846813201904297 1.9125753641128540039 1.8913290500640869141 1.8767497539520263672 1.8601573705673217773 2.0154998302459716797 2.2247061729431152344 2.5002043247222900391 2.8070149421691894531 3.0311739444732666016 4.37651824951171875 11 11 11 4.37651824951171875 4.37651824951171875 11 11 11 4.37651824951171875 11 11 4.37651824951171875 4.2853236198425292969 4.37651824951171875 11 4.37651824951171875 3.6089916229248046875 4.37651824951171875 11 11 11 11 11 4.37651824951171875 3.6089916229248046875 2.8437488079071044922 2.3831770420074462891 2.0978903770446777344 1.907532811164855957 1.7724406719207763672 1.6719187498092651367 1.5943306684494018555 1.5326893329620361328 1.4825652837753295898 1.4410218000411987305 1.4060379266738891602 1.3761789798736572266 1.3503988981246948242 1.3279173374176025391 1.3081406354904174805 1.2906093597412109375 1.274962306022644043 1.2609115839004516602 1.2482252120971679688 1.2367137670516967773 1.2262215614318847656 1.2166191339492797852 1.2077977657318115234 1.1999298334121704102 1.1935094594955444336 1.1874152421951293945 1.1816306114196777344 1.1761389970779418945 1.1709239482879638672 1.1659693717956542969 1.1612600088119506836 1.1567810773849487305 1.1527096033096313477 
1.5556466579437255859 1.5987055301666259766 1.6524569988250732422 1.7429859638214111328 1.860163569450378418 2.015506744384765625 2.2247128486633300781 2.5002100467681884766 2.8437709808349609375 3.6090090274810791016 4.2853236198425292969 4.3765392303466796875 11 11 11 11 4.3765392303466796875 11 11 4.3765392303466796875 3.6090002059936523438 2.9655323028564453125 3.6090090274810791016 4.3765392303466796875 11 4.3765392303466796875 11 11 11 4.3765392303466796875 11 11 11 4.3765392303466796875 3.6090090274810791016 2.8437709808349609375 2.8070173263549804688 2.9655323028564453125 2.8070173263549804688 2.5002100467681884766 2.2247128486633300781 2.015506744384765625 2.0527887344360351562 2.2078456878662109375 2.3445103168487548828 2.402225494384765625 2.3445103168487548828 2.2078456878662109375 2.0527887344360351562 2.015506744384765625 2.2247128486633300781 2.5002100467681884766 2.8437709808349609375 3.6090090274810791016 4.2853236198425292969 3.6090090274810791016 2.8437709808349609375 2.5002100467681884766 2.2247128486633300781 2.0629935264587402344 2.0898754596710205078 2.0629935264587402344 1.9932513236999511719 2.0979075431823730469 2.3831970691680908203 2.8437709808349609375 3.6090090274810791016 4.2853236198425292969 4.3765392303466796875 11 4.3765392303466796875 4.2853236198425292969 3.6090090274810791016 4.3765392303466796875 11 11 11 4.3765392303466796875 11 4.3765392303466796875 4.3765392303466796875 11 4.3765392303466796875 11 4.3765392303466796875 3.6090090274810791016 4.3765392303466796875 11 11 11 11 11 4.3765392303466796875 3.0311892032623291016 2.5001986026763916016 2.2246992588043212891 2.0154931545257568359 1.8601510524749755859 1.7429745197296142578 1.6524463891983032227 1.5808320045471191406 1.522965550422668457 1.4753376245498657227 1.4355077743530273438 1.4017379283905029297 1.3727624416351318359 1.3476401567459106445 1.3256583213806152344 1.306267857551574707 1.2890397310256958008 1.2736339569091796875 1.2597775459289550781 1.2472494840621948242 1.2358831167221069336 1.2273259162902832031 1.2192275524139404297 1.2115694284439086914 1.2043305635452270508 1.1974886655807495117 1.191020965576171875 1.184904932975769043 1.1791186332702636719 1.173641204833984375 1.1684525012969970703 1.1636707782745361328 1.1594663858413696289 1.155424952507019043 
1.6028891801834106445 1.6594489812850952148 1.7202588319778442383 1.7957522869110107422 1.9125850200653076172 2.0979161262512207031 2.3832070827484130859 2.8437821865081787109 3.6090176105499267578 4.376560211181640625 11 11 11 11 11 4.376560211181640625 11 11 4.376560211181640625 3.6090090274810791016 2.8437821865081787109 3.6090176105499267578 4.376560211181640625 11 11 11 11 11 11 4.376560211181640625 11 11 4.376560211181640625 11 4.376560211181640625 3.0312042236328125 3.6090176105499267578 4.2853236198425292969 3.6090176105499267578 2.8437821865081787109 2.3832070827484130859 2.0979161262512207031 2.2247197628021240234 2.5002157688140869141 2.8070199489593505859 2.9655323028564453125 2.8070199489593505859 2.5002157688140869141 2.2247197628021240234 2.2078485488891601562 2.3832070827484130859 2.8437821865081787109 3.6090176105499267578 4.376560211181640625 11 4.376560211181640625 3.6090176105499267578 2.8437821865081787109 2.3832070827484130859 2.3445112705230712891 2.402225494384765625 2.3445112705230712891 2.2078485488891601562 2.1304063796997070312 2.4524788856506347656 3.0312042236328125 4.376560211181640625 11 11 11 4.376560211181640625 3.0312042236328125 4.376560211181640625 11 11 11 4.376560211181640625 11 11 4.376560211181640625 11 11 4.376560211181640625 11 4.376560211181640625 4.376560211181640625 11 11 4.376560211181640625 11 11 11 4.376560211181640625 3.0312042236328125 2.4524788856506347656 2.1304063796997070312 1.9252431392669677734 1.7957375049591064453 1.700716853141784668 1.6235138177871704102 1.5602777004241943359 1.5078967809677124023 1.4639905691146850586 1.4267652034759521484 1.394868016242980957 1.3672709465026855469 1.343184351921081543 1.3219950199127197266 1.3032208681106567383 1.2864789962768554688 1.2740464210510253906 1.2629590034484863281 1.2524889707565307617 1.2426214218139648438 1.2333329916000366211 1.2245954275131225586 1.2163780927658081055 1.2086490392684936523 1.2013766765594482422 1.1945302486419677734 1.1880801916122436523 1.1819987297058105469 1.1763081550598144531 1.1714720726013183594 1.1668334007263183594 1.1623859405517578125 1.1581231355667114258 
1.6594518423080444336 1.7263103723526000977 1.810943603515625 1.903097987174987793 2.0155200958251953125 2.2247264385223388672 2.5002214908599853516 3.031219482421875 4.3765811920166015625 11 11 11 11 11 4.3765811920166015625 4.3765811920166015625 11 4.3765811920166015625 3.6090176105499267578 2.8437821865081787109 3.031219482421875 4.3765811920166015625 11 11 4.3765811920166015625 11 4.3765811920166015625 11 11 11 11 4.3765811920166015625 11 11 4.3765811920166015625 3.6090261936187744141 4.3765811920166015625 11 4.3765811920166015625 3.031219482421875 2.4524905681610107422 2.2247264385223388672 2.5002214908599853516 2.8437931537628173828 3.6090261936187744141 4.2853236198425292969 3.6090261936187744141 2.8437931537628173828 2.5002214908599853516 2.5002214908599853516 2.8070225715637207031 3.031219482421875 4.3765811920166015625 11 11 11 4.3765811920166015625 3.031219482421875 2.5002214908599853516 2.8070225715637207031 2.9655323028564453125 2.8070225715637207031 2.5002214908599853516 2.2247264385223388672 2.4524905681610107422 3.031219482421875 4.3765811920166015625 11 4.3765811920166015625 4.2853236198425292969 3.6090176105499267578 3.031219482421875 4.3765811920166015625 11 11 11 4.3765811920166015625 11 4.3765811920166015625 11 11 4.3765811920166015625 11 11 4.3765811920166015625 4.3765811920166015625 11 4.3765811920166015625 4.3765811920166015625 11 11 11 4.3765811920166015625 3.031219482421875 2.4524905681610107422 2.1304159164428710938 1.925251007080078125 1.7831189632415771484 1.6788392066955566406 1.59906768798828125 1.536072850227355957 1.4888650178909301758 1.449406743049621582 1.4153763055801391602 1.3858231306076049805 1.3599791526794433594 1.3409721851348876953 1.3255230188369750977 1.3108195066452026367 1.2969175577163696289 1.2838337421417236328 1.2715580463409423828 1.26006317138671875 1.2493112087249755859 1.239258885383605957 1.2298604249954223633 1.2210699319839477539 1.2128428220748901367 1.2051362991333007812 1.1979105472564697266 1.1911280155181884766 1.1854135990142822266 1.1800365447998046875 1.1748943328857421875 1.1699787378311157227 1.1652806997299194336 1.1612280607223510742 
1.7263141870498657227 1.8109469413757324219 1.9125946760177612305 2.0528016090393066406 2.2078542709350585938 2.3832271099090576172 2.8438043594360351562 3.6090350151062011719 4.3766021728515625 11 11 11 11 4.3766021728515625 3.6090350151062011719 4.3766021728515625 11 4.3766021728515625 3.0312347412109375 2.5002272129058837891 3.0312347412109375 4.3766021728515625 11 4.3766021728515625 4.3766021728515625 11 4.3766021728515625 4.3766021728515625 11 11 4.3766021728515625 4.3766021728515625 11 4.3766021728515625 3.6090350151062011719 4.3766021728515625 11 11 4.3766021728515625 3.0312347412109375 2.4525022506713867188 2.3832271099090576172 2.8438043594360351562 3.6090350151062011719 4.3766021728515625 11 4.3766021728515625 3.6090350151062011719 2.8438043594360351562 2.8438043594360351562 3.6090350151062011719 4.2853236198425292969 4.3766021728515625 11 11 11 4.3766021728515625 3.0312347412109375 2.8438043594360351562 3.6090350151062011719 4.2853236198425292969 3.6090350151062011719 2.8438043594360351562 2.3832271099090576172 2.5002272129058837891 3.0312347412109375 4.3766021728515625 11 4.3766021728515625 3.0312347412109375 2.8070199489593505859 3.0312347412109375 4.3766021728515625 11 11 4.3766021728515625 11 11 4.3766021728515625 11 4.3766021728515625 11 11 4.3766021728515625 3.6090350151062011719 4.3766021728515625 11 4.3766021728515625 11 11 11 4.3766021728515625 3.6090261936187744141 2.8437931537628173828 2.3832170963287353516 2.0979247093200683594 1.9075624942779541016 1.7724666595458984375 1.6719417572021484375 1.5943511724472045898 1.5327079296112060547 1.4825823307037353516 1.4410374164581298828 1.4174685478210449219 1.3971667289733886719 1.377428889274597168 1.3585453033447265625 1.3406805992126464844 1.3239099979400634766 1.3082472085952758789 1.2936669588088989258 1.2801198959350585938 1.2675439119338989258 1.2558710575103759766 1.2450323104858398438 1.2349603176116943359 1.2255911827087402344 1.2168653011322021484 1.2087272405624389648 1.2017942667007446289 1.1954904794692993164 1.189478754997253418 1.1837489604949951172 1.1782898902893066406 1.1732963323593139648 1.1688872575759887695 1.1646252870559692383 
1.7957671880722045898 1.9125995635986328125 2.0528059005737304688 2.2247400283813476562 2.5002329349517822266 2.8070278167724609375 3.0312497615814208984 4.3766231536865234375 11 11 11 11 11 4.3766231536865234375 4.3766231536865234375 11 11 4.3766231536865234375 3.0312497615814208984 2.8438153266906738281 3.6090435981750488281 4.3766231536865234375 11 4.3766231536865234375 3.6090435981750488281 4.2853236198425292969 3.6090435981750488281 4.3766231536865234375 11 11 4.3766231536865234375 4.3766231536865234375 11 4.3766231536865234375 4.3766231536865234375 11 4.3766231536865234375 11 4.3766231536865234375 3.0312497615814208984 2.4525139331817626953 2.5002329349517822266 3.0312497615814208984 4.3766231536865234375 11 11 11 4.3766231536865234375 3.0312497615814208984 3.0312497615814208984 4.3766231536865234375 11 11 11 11 4.3766231536865234375 3.6090350151062011719 2.9655323028564453125 3.0312497615814208984 4.3766231536865234375 11 4.3766231536865234375 3.0312497615814208984 2.8070278167724609375 2.9655323028564453125 3.6090435981750488281 4.3766231536865234375 11 4.3766231536865234375 3.0312497615814208984 2.4525139331817626953 3.0312497615814208984 4.3766231536865234375 11 11 4.3766231536865234375 11 11 11 11 4.3766231536865234375 11 4.3766231536865234375 11 4.3766231536865234375 4.3766231536865234375 11 4.3766231536865234375 11 11 11 4.3766231536865234375 3.0312497615814208984 2.5002214908599853516 2.2247264385223388672 2.0155200958251953125 1.8601762056350708008 1.7429975271224975586 1.6524674892425537109 1.5808511972427368164 1.5229831933975219727 1.4983440637588500977 1.4729086160659790039 1.4474068880081176758 1.4226145744323730469 1.3990100622177124023 1.3768483400344848633 1.3562310934066772461 1.3371607065200805664 1.3195801973342895508 1.3034002780914306641 1.2885166406631469727 1.2748205661773681641 1.2622058391571044922 1.2505719661712646484 1.2398259639739990234 1.2298829555511474609 1.2213052511215209961 1.213817596435546875 1.2066986560821533203 1.1999363899230957031 1.1935160160064697266 1.1874216794967651367 1.1821936368942260742 1.1773040294647216797 1.1725885868072509766 1.1680462360382080078 
1.8601950407028198242 2.0155403614044189453 2.2247469425201416016 2.5002386569976806641 2.8438265323638916016 3.6090521812438964844 4.2853236198425292969 4.376644134521484375 11 4.376644134521484375 11 11 4.376644134521484375 4.2853236198425292969 4.376644134521484375 11 4.376644134521484375 3.6090435981750488281 2.8438153266906738281 3.0312650203704833984 4.376644134521484375 11 11 4.376644134521484375 4.376644134521484375 11 4.376644134521484375 4.376644134521484375 11 11 4.376644134521484375 4.376644134521484375 11 4.376644134521484375 11 11 11 11 4.376644134521484375 3.0312650203704833984 2.9655323028564453125 2.8438265323638916016 3.6090521812438964844 4.376644134521484375 11 11 11 4.376644134521484375 3.0312650203704833984 3.0312650203704833984 4.376644134521484375 11 11 11 11 4.376644134521484375 4.2853236198425292969 4.2853236198425292969 3.6090521812438964844 4.376644134521484375 11 4.376644134521484375 3.6090521812438964844 3.6090521812438964844 4.2853236198425292969 4.376644134521484375 11 4.376644134521484375 3.6090435981750488281 2.8438153266906738281 2.4525253772735595703 3.0312650203704833984 4.376644134521484375 11 11 4.376644134521484375 11 11 4.376644134521484375 4.376644134521484375 11 11 4.376644134521484375 11 11 11 11 11 11 11 11 4.376644134521484375 3.0312650203704833984 2.4525253772735595703 2.1304440498352050781 1.9252747297286987305 1.795757293701171875 1.7007361650466918945 1.6315139532089233398 1.6071743965148925781 1.5774679183959960938 1.5450900793075561523 1.5121537446975708008 1.4800907373428344727 1.4497464895248413086 1.4215379953384399414 1.3956019878387451172 1.3719069957733154297 1.3503302335739135742 1.3307056427001953125 1.3128534555435180664 1.2965958118438720703 1.2817651033401489258 1.2682085037231445312 1.2557884454727172852 1.2449206113815307617 1.2358901500701904297 1.2273329496383666992 1.2192345857620239258 1.2115764617919921875 1.2043375968933105469 1.1977077722549438477 1.1920479536056518555 1.1865954399108886719 1.1813509464263916016 1.1763124465942382812 1.1714763641357421875 
1.9075921773910522461 2.0979590415954589844 2.3832569122314453125 2.8438374996185302734 3.6090610027313232422 4.3766651153564453125 11 11 11 11 11 4.3766651153564453125 4.3766651153564453125 11 4.3766651153564453125 11 4.3766651153564453125 3.0312802791595458984 2.8438374996185302734 3.6090610027313232422 4.3766651153564453125 11 4.3766651153564453125 3.6090521812438964844 4.3766651153564453125 11 4.3766651153564453125 11 11 11 4.3766651153564453125 4.3766651153564453125 11 11 11 11 11 11 4.3766651153564453125 3.6090610027313232422 4.2853236198425292969 3.6090610027313232422 4.3766651153564453125 11 11 11 11 4.3766651153564453125 3.0312802791595458984 3.0312802791595458984 4.3766651153564453125 11 11 11 4.3766651153564453125 4.3766651153564453125 11 11 4.3766651153564453125 4.3766651153564453125 11 11 4.3766651153564453125 4.3766651153564453125 11 11 4.3766651153564453125 3.6090521812438964844 2.8438265323638916016 2.5002329349517822266 2.5002443790435791016 3.0312802791595458984 4.3766651153564453125 11 11 11 11 4.3766651153564453125 4.3766651153564453125 11 11 4.3766651153564453125 4.3766651153564453125 11 4.3766651153564453125 11 11 11 4.3766651153564453125 4.3766651153564453125 11 4.3766651153564453125 3.0312802791595458984 2.4525370597839355469 2.1304535865783691406 1.925282597541809082 1.7957770824432373047 1.7452167272567749023 1.7207093238830566406 1.6848493814468383789 1.6427515745162963867 1.5987179279327392578 1.5556608438491821289 1.5152196884155273438 1.478125452995300293 1.4445540904998779297 1.4143800735473632812 1.3873360157012939453 1.3631037473678588867 1.3413624763488769531 1.3218120336532592773 1.3041820526123046875 1.2882344722747802734 1.2740539312362670898 1.2629665136337280273 1.2524966001510620117 1.2426290512084960938 1.2333406209945678711 1.2246030569076538086 1.2163856029510498047 1.2093894481658935547 1.2030211687088012695 1.1969038248062133789 1.191037297248840332 1.185418248176574707 1.1800410747528076172 1.1748988628387451172 
1.9252904653549194336 2.1304628849029541016 2.4525487422943115234 3.0312952995300292969 4.37668609619140625 11 11 4.37668609619140625 11 11 4.37668609619140625 4.37668609619140625 11 4.37668609619140625 4.37668609619140625 11 4.37668609619140625 3.0312952995300292969 3.0312952995300292969 4.37668609619140625 11 11 4.37668609619140625 3.6090695858001708984 4.37668609619140625 11 11 11 4.37668609619140625 11 4.37668609619140625 4.37668609619140625 11 11 11 11 4.37668609619140625 11 4.37668609619140625 4.37668609619140625 11 4.37668609619140625 4.37668609619140625 11 4.37668609619140625 4.37668609619140625 11 4.37668609619140625 3.6090695858001708984 4.2853236198425292969 4.37668609619140625 11 11 11 4.37668609619140625 11 11 4.37668609619140625 3.6090610027313232422 4.37668609619140625 11 11 11 11 11 4.37668609619140625 3.6090610027313232422 2.8438374996185302734 2.5002386569976806641 2.5002501010894775391 2.8438487052917480469 3.6090695858001708984 4.37668609619140625 11 4.37668609619140625 11 11 4.37668609619140625 11 11 4.37668609619140625 4.37668609619140625 11 11 4.37668609619140625 11 11 4.37668609619140625 3.6090610027313232422 3.6090610027313232422 4.2853236198425292969 3.6090610027313232422 2.8438374996185302734 2.5002501010894775391 2.2247605323791503906 2.0155537128448486328 1.8913290500640869141 1.8767518997192382812 1.8370807170867919922 1.7817231416702270508 1.7202727794647216797 1.6594656705856323242 1.6029074192047119141 1.5520077943801879883 1.5069504976272583008 1.4673441648483276367 1.4325846433639526367 1.4020329713821411133 1.3750941753387451172 1.3512437343597412109 1.3300329446792602539 1.3110827207565307617 1.2969257831573486328 1.2838420867919921875 1.2715663909912109375 1.2600715160369873047 1.2493195533752441406 1.2392671108245849609 1.2300527095794677734 1.2225311994552612305 1.2153135538101196289 1.208403468132019043 1.2017991542816162109 1.1954952478408813477 1.1894835233688354492 1.1837538480758666992 1.1789401769638061523 
1.9252983331680297852 2.1304721832275390625 2.4525604248046875 3.0313105583190917969 4.3767070770263671875 11 11 11 11 4.3767070770263671875 4.2853236198425292969 4.3767070770263671875 11 4.3767070770263671875 4.3767070770263671875 11 4.3767070770263671875 3.0313105583190917969 3.0313105583190917969 4.3767070770263671875 11 11 4.3767070770263671875 4.3767070770263671875 11 11 4.3767070770263671875 11 11 11 4.3767070770263671875 4.3767070770263671875 11 11 11 4.3767070770263671875 4.3767070770263671875 11 11 11 11 11 4.3767070770263671875 11 4.3767070770263671875 4.3767070770263671875 11 4.3767070770263671875 4.3767070770263671875 11 11 11 11 11 11 11 4.3767070770263671875 3.6090695858001708984 3.0313105583190917969 4.3767070770263671875 11 11 11 4.3767070770263671875 4.2853236198425292969 3.6090695858001708984 2.8438487052917480469 2.5002443790435791016 2.5002558231353759766 2.8438596725463867188 3.6090784072875976562 4.3767070770263671875 11 11 4.3767070770263671875 11 4.3767070770263671875 4.3767070770263671875 11 4.3767070770263671875 3.6090695858001708984 4.3767070770263671875 11 11 4.3767070770263671875 4.3767070770263671875 11 4.3767070770263671875 3.0313105583190917969 2.9655323028564453125 3.6090784072875976562 4.2853236198425292969 3.6090784072875976562 2.8438596725463867188 2.3832769393920898438 2.0979762077331542969 2.0898754596710205078 2.0629973411560058594 1.9932638406753540039 1.9031138420104980469 1.810963749885559082 1.7263327836990356445 1.6523352861404418945 1.5889401435852050781 1.5349473953247070312 1.4889008998870849609 1.4494409561157226562 1.4154089689254760742 1.3858541250228881836 1.3600087165832519531 1.340689539909362793 1.3239190578460693359 1.3082565069198608398 1.2936761379241943359 1.2801290750503540039 1.2675529718399047852 1.2558799982070922852 1.2460494041442871094 1.2374233007431030273 1.2291760444641113281 1.2213104963302612305 1.2138227224349975586 1.2067039012908935547 1.1999415159225463867 1.1935211420059204102 1.1874268054962158203 1.1855005025863647461 
2.0155673027038574219 2.2247741222381591797 2.5002615451812744141 3.0313258171081542969 4.376728057861328125 11 11 11 4.376728057861328125 4.376728057861328125 11 11 11 4.376728057861328125 4.376728057861328125 11 4.376728057861328125 3.0313258171081542969 3.6090869903564453125 4.376728057861328125 11 4.376728057861328125 3.6090784072875976562 4.376728057861328125 11 11 4.376728057861328125 11 11 4.376728057861328125 3.6090869903564453125 4.376728057861328125 11 11 4.376728057861328125 4.376728057861328125 11 11 4.376728057861328125 11 4.376728057861328125 11 4.376728057861328125 11 4.376728057861328125 11 11 4.376728057861328125 4.376728057861328125 11 4.376728057861328125 11 11 4.376728057861328125 11 11 4.376728057861328125 3.6090869903564453125 4.2853236198425292969 4.376728057861328125 11 11 4.376728057861328125 3.6090784072875976562 2.9655323028564453125 2.8070356845855712891 2.5002501010894775391 2.3832869529724121094 2.8438708782196044922 3.6090869903564453125 4.376728057861328125 11 11 4.376728057861328125 11 11 4.376728057861328125 4.376728057861328125 11 4.376728057861328125 3.0313258171081542969 3.6090784072875976562 4.376728057861328125 11 11 4.376728057861328125 11 4.376728057861328125 3.6090869903564453125 4.2853236198425292969 4.376728057861328125 11 4.376728057861328125 3.0313258171081542969 2.4525721073150634766 2.402225494384765625 2.402225494384765625 2.3445193767547607422 2.2078716754913330078 2.0528268814086914062 1.9126237630844116211 1.7957918643951416016 1.7007697820663452148 1.6235641241073608398 1.5603250265121459961 1.507941126823425293 1.4640321731567382812 1.4268041849136352539 1.3990197181701660156 1.3768584728240966797 1.3562413454055786133 1.3371710777282714844 1.3195905685424804688 1.3034105300903320312 1.2885266542434692383 1.2748869657516479492 1.2644296884536743164 1.2544379234313964844 1.2449262142181396484 1.2358957529067993164 1.2273385524749755859 1.2192401885986328125 1.2115820646286010742 1.2043430805206298828 1.197501063346862793 1.194386601448059082 1.1925405263900756836 
2.0979933738708496094 2.383296966552734375 2.8438820838928222656 3.6090955734252929688 4.3767490386962890625 11 11 4.3767490386962890625 4.3767490386962890625 11 11 4.3767490386962890625 4.2853236198425292969 3.6090955734252929688 4.3767490386962890625 11 4.3767490386962890625 3.0313408374786376953 4.3767490386962890625 11 11 4.3767490386962890625 3.0313408374786376953 4.3767490386962890625 11 11 11 11 4.3767490386962890625 3.6090955734252929688 4.3767490386962890625 11 11 11 4.3767490386962890625 11 11 11 11 11 4.3767490386962890625 11 11 11 11 11 4.3767490386962890625 3.6090869903564453125 4.3767490386962890625 11 4.3767490386962890625 11 4.3767490386962890625 11 11 11 4.3767490386962890625 4.3767490386962890625 11 11 11 4.3767490386962890625 3.6090869903564453125 2.8438708782196044922 2.5002558231353759766 2.3445174694061279297 2.2078659534454345703 2.4525837898254394531 3.0313408374786376953 4.3767490386962890625 11 11 4.3767490386962890625 11 11 11 4.3767490386962890625 4.3767490386962890625 11 4.3767490386962890625 3.0313408374786376953 2.8438708782196044922 3.6090869903564453125 4.2853236198425292969 4.2853236198425292969 3.6090869903564453125 4.2853236198425292969 4.2853236198425292969 4.3767490386962890625 11 11 11 4.3767490386962890625 3.0313408374786376953 2.8070435523986816406 2.9655323028564453125 2.9655323028564453125 2.8070435523986816406 2.5002672672271728516 2.224781036376953125 2.0155739784240722656 1.8602265119552612305 1.7430435419082641602 1.6525095701217651367 1.5808897018432617188 1.5230184793472290039 1.4801009893417358398 1.4497574567794799805 1.4215494394302368164 1.3956136703491210938 1.3719186782836914062 1.350341796875 1.3307170867919921875 1.3128646612167358398 1.2980778217315673828 1.2857669591903686523 1.2740598917007446289 1.2629725933074951172 1.2525026798248291016 1.2426351308822631836 1.2333467006683349609 1.2246090173721313477 1.2163915634155273438 1.2086623907089233398 1.2039973735809326172 1.2021886110305786133 1.2001121044158935547 
2.2247877120971679688 2.5002732276916503906 3.0313560962677001953 4.37677001953125 11 11 11 11 4.37677001953125 11 4.37677001953125 3.6090955734252929688 3.0313560962677001953 4.37677001953125 11 11 4.37677001953125 3.6091043949127197266 4.37677001953125 11 4.37677001953125 3.6090955734252929688 3.0313560962677001953 4.37677001953125 11 11 11 11 4.37677001953125 4.37677001953125 11 11 11 11 11 11 11 4.37677001953125 4.2853236198425292969 4.2853236198425292969 4.37677001953125 11 11 4.37677001953125 11 4.37677001953125 3.6090955734252929688 3.0313560962677001953 4.37677001953125 11 4.37677001953125 11 4.37677001953125 11 11 11 4.37677001953125 11 11 4.37677001953125 4.2853236198425292969 3.6090955734252929688 2.8438820838928222656 2.5002615451812744141 2.2247741222381591797 2.0629968643188476562 2.2247877120971679688 2.5002732276916503906 3.0313560962677001953 4.37677001953125 11 4.37677001953125 11 11 11 11 4.37677001953125 11 11 4.37677001953125 3.0313560962677001953 2.5002615451812744141 2.8070409297943115234 2.9655323028564453125 2.9655323028564453125 3.0313560962677001953 4.37677001953125 11 11 11 11 4.37677001953125 4.2853236198425292969 4.2853236198425292969 3.6091043949127197266 4.2853236198425292969 4.2853236198425292969 3.6091043949127197266 2.8438930511474609375 2.3833067417144775391 2.0980019569396972656 1.9076292514801025391 1.7725250720977783203 1.6719934940338134766 1.598728179931640625 1.5556726455688476562 1.5152324438095092773 1.4781388044357299805 1.444567561149597168 1.4143935441970825195 1.387349247932434082 1.3631166219711303711 1.3413751125335693359 1.3255370855331420898 1.310834050178527832 1.2969324588775634766 1.2838487625122070312 1.271573185920715332 1.2600781917572021484 1.2493261098861694336 1.2392736673355102539 1.2298750877380371094 1.2210843563079833984 1.2143912315368652344 1.21266937255859375 1.2106206417083740234 1.2082744836807250977 
2.5002789497375488281 2.8439042568206787109 3.6091129779815673828 4.3767910003662109375 11 4.3767910003662109375 11 11 4.3767910003662109375 11 4.3767910003662109375 3.0313713550567626953 3.6091129779815673828 4.3767910003662109375 11 4.3767910003662109375 3.6091129779815673828 4.3767910003662109375 11 11 4.3767910003662109375 3.0313713550567626953 3.0313713550567626953 4.3767910003662109375 11 11 11 11 4.3767910003662109375 4.3767910003662109375 11 11 11 11 11 11 4.3767910003662109375 3.6091043949127197266 2.9655323028564453125 3.0313713550567626953 4.3767910003662109375 11 11 11 11 4.3767910003662109375 3.0313713550567626953 3.0313713550567626953 4.3767910003662109375 11 11 11 11 11 11 4.3767910003662109375 4.3767910003662109375 11 4.3767910003662109375 3.6091043949127197266 2.9655323028564453125 2.8070435523986816406 2.5002672672271728516 2.224781036376953125 2.0528268814086914062 2.0980105400085449219 2.3833167552947998047 2.8439042568206787109 3.6091129779815673828 4.3767910003662109375 11 11 11 4.3767910003662109375 11 4.3767910003662109375 11 11 4.3767910003662109375 3.6091043949127197266 2.8438930511474609375 2.3833067417144775391 2.3445193767547607422 2.402225494384765625 2.8439042568206787109 3.6091129779815673828 4.3767910003662109375 11 4.3767910003662109375 11 11 11 11 11 4.3767910003662109375 11 11 4.3767910003662109375 3.0313713550567626953 2.4526069164276123047 2.1305098533630371094 1.9253298044204711914 1.7831866741180419922 1.7202844619750976562 1.6594794988632202148 1.6029225587844848633 1.5520235300064086914 1.5069663524627685547 1.4673597812652587891 1.4325999021530151367 1.4020478725433349609 1.3774436712265014648 1.3585608005523681641 1.3406966924667358398 1.3239264488220214844 1.3082638978958129883 1.2936835289001464844 1.2801364660263061523 1.2675602436065673828 1.255887150764465332 1.2450481653213500977 1.2349759340286254883 1.2256214618682861328 1.2240561246871948242 1.2220910787582397461 1.2197586297988891602 1.2170952558517456055 
2.8439152240753173828 3.6091217994689941406 4.376811981201171875 11 11 4.376811981201171875 11 4.376811981201171875 11 11 4.376811981201171875 3.6091217994689941406 4.376811981201171875 11 11 4.376811981201171875 4.376811981201171875 11 11 4.376811981201171875 3.6091129779815673828 2.8439152240753173828 3.6091217994689941406 4.376811981201171875 11 11 11 4.376811981201171875 3.6091217994689941406 4.376811981201171875 11 11 11 11 11 4.376811981201171875 3.6091129779815673828 2.8439042568206787109 2.8439152240753173828 3.6091217994689941406 4.376811981201171875 11 11 11 4.376811981201171875 3.6091129779815673828 2.8439042568206787109 2.8439042568206787109 3.6091129779815673828 4.376811981201171875 11 4.376811981201171875 11 11 11 4.376811981201171875 11 11 4.376811981201171875 3.0313866138458251953 2.5002732276916503906 2.34452056884765625 2.2078745365142822266 2.0528311729431152344 1.925337672233581543 2.1305193901062011719 2.4526185989379882812 3.0313866138458251953 4.376811981201171875 11 11 11 4.376811981201171875 4.376811981201171875 11 11 11 4.376811981201171875 3.6091129779815673828 2.8439042568206787109 2.5002732276916503906 2.3445234298706054688 2.402225494384765625 2.4526185989379882812 3.0313866138458251953 4.376811981201171875 11 11 11 11 11 11 4.376811981201171875 11 11 11 4.376811981201171875 3.6091129779815673828 2.8439042568206787109 2.3833167552947998047 2.0980105400085449219 1.9932717084884643555 1.9031269550323486328 1.8109804391860961914 1.7263514995574951172 1.6523545980453491211 1.5889593362808227539 1.5349661111831665039 1.4889189004898071289 1.4497640132904052734 1.4226310253143310547 1.3990274667739868164 1.376866459846496582 1.3562495708465576172 1.3371793031692504883 1.3195987939834594727 1.3034186363220214844 1.2885347604751586914 1.2748383283615112305 1.2622232437133789062 1.2505890130996704102 1.239842534065246582 1.2364175319671630859 1.2346165180206298828 1.2323607206344604492 1.2296907901763916016 1.2266519069671630859 
3.0314016342163085938 4.3768329620361328125 11 11 4.3768329620361328125 11 11 4.3768329620361328125 11 4.3768329620361328125 3.6091217994689941406 4.3768329620361328125 11 11 4.3768329620361328125 3.6091217994689941406 4.3768329620361328125 11 4.3768329620361328125 4.2853236198425292969 3.6091303825378417969 3.0314016342163085938 4.3768329620361328125 11 11 11 11 4.3768329620361328125 4.3768329620361328125 11 11 11 11 11 11 4.3768329620361328125 3.0314016342163085938 2.8439264297485351562 3.6091303825378417969 4.3768329620361328125 11 11 4.3768329620361328125 11 4.3768329620361328125 3.0314016342163085938 2.8439264297485351562 3.6091303825378417969 4.2853236198425292969 4.3768329620361328125 11 4.3768329620361328125 11 11 4.3768329620361328125 11 11 4.3768329620361328125 3.6091217994689941406 2.8439152240753173828 2.3833267688751220703 2.0980193614959716797 1.9932669401168823242 1.9031190872192382812 2.0156009197235107422 2.2248082160949707031 2.5002903938293457031 3.0314016342163085938 4.3768329620361328125 11 11 4.3768329620361328125 4.3768329620361328125 11 11 11 4.3768329620361328125 3.6091217994689941406 2.8439152240753173828 2.5002789497375488281 2.5002903938293457031 2.8070538043975830078 2.9655323028564453125 2.8070538043975830078 3.0314016342163085938 4.3768329620361328125 11 11 11 11 11 11 11 11 4.3768329620361328125 4.2853236198425292969 4.2853236198425292969 3.6091303825378417969 2.8439264297485351562 2.5002903938293457031 2.3445246219635009766 2.2078862190246582031 2.0528481006622314453 1.9126478433609008789 1.7958165407180786133 1.7007938623428344727 1.6235870122909545898 1.5603466033935546875 1.5152400732040405273 1.4801092147827148438 1.4497662782669067383 1.4215586185455322266 1.3956229686737060547 1.371928095817565918 1.3503510951995849609 1.3307262659072875977 1.3128736019134521484 1.2966154813766479492 1.2817842960357666016 1.2682272195816040039 1.2558064460754394531 1.2498091459274291992 1.2482860088348388672 1.2461998462677001953 1.243594050407409668 1.2405197620391845703 1.2370333671569824219 
3.6091389656066894531 4.37685394287109375 11 4.37685394287109375 4.37685394287109375 11 11 11 11 4.37685394287109375 3.6091389656066894531 4.37685394287109375 11 4.37685394287109375 3.6091303825378417969 3.6091389656066894531 4.37685394287109375 11 11 11 4.37685394287109375 3.0314168930053710938 4.37685394287109375 11 4.37685394287109375 11 11 4.37685394287109375 4.37685394287109375 11 11 4.37685394287109375 4.2853236198425292969 4.2853236198425292969 4.2853236198425292969 3.6091303825378417969 2.8439264297485351562 3.0314168930053710938 4.37685394287109375 11 11 4.37685394287109375 4.37685394287109375 11 4.37685394287109375 3.0314168930053710938 3.6091389656066894531 4.37685394287109375 11 4.37685394287109375 11 4.37685394287109375 11 11 11 11 4.37685394287109375 3.6091303825378417969 2.8439264297485351562 2.5002846717834472656 2.2248013019561767578 2.0155942440032958984 1.8602453470230102539 1.9076590538024902344 2.0980365276336669922 2.3833467960357666016 2.8439373970031738281 3.6091389656066894531 4.37685394287109375 11 4.37685394287109375 3.6091389656066894531 4.37685394287109375 11 11 11 4.37685394287109375 3.0314168930053710938 2.5002846717834472656 2.3833467960357666016 2.8439373970031738281 3.6091389656066894531 4.2853236198425292969 3.6091389656066894531 4.2853236198425292969 4.37685394287109375 11 11 11 4.37685394287109375 4.2853236198425292969 4.2853236198425292969 4.37685394287109375 11 11 11 11 4.37685394287109375 3.6091389656066894531 2.9655323028564453125 2.807056427001953125 2.5002961158752441406 2.2248148918151855469 2.0156075954437255859 1.8602578639984130859 1.7430723905563354492 1.6594878435134887695 1.6029316186904907227 1.5556821823120117188 1.5152425765991210938 1.4781494140625 1.4445784091949462891 1.4144042730331420898 1.3873597383499145508 1.3631269931793212891 1.3413851261138916016 1.3218339681625366211 1.3042032718658447266 1.2882549762725830078 1.273781895637512207 1.2642611265182495117 1.2631742954254150391 1.2613927125930786133 1.2589586973190307617 1.2559276819229125977 1.2523649930953979492 1.2483419179916381836 
4.3768749237060546875 11 11 4.3768749237060546875 4.3768749237060546875 11 4.3768749237060546875 11 4.3768749237060546875 3.6091389656066894531 4.3768749237060546875 11 11 4.3768749237060546875 3.6091477870941162109 4.3768749237060546875 11 11 11 4.3768749237060546875 3.6091389656066894531 3.6091477870941162109 4.3768749237060546875 11 11 11 11 4.3768749237060546875 4.3768749237060546875 11 4.3768749237060546875 3.6091477870941162109 2.9655323028564453125 2.9655323028564453125 2.9655323028564453125 2.8070590496063232422 2.9655323028564453125 3.0314321517944335938 4.3768749237060546875 11 4.3768749237060546875 4.3768749237060546875 11 11 4.3768749237060546875 3.0314321517944335938 4.3768749237060546875 11 11 4.3768749237060546875 11 4.3768749237060546875 4.3768749237060546875 11 11 4.3768749237060546875 3.6091389656066894531 2.8439373970031738281 2.5002903938293457031 2.2248082160949707031 2.0528440475463867188 1.9126430749893188477 1.7958116531372070312 1.9253613948822021484 2.1305475234985351562 2.4526536464691162109 3.0314321517944335938 4.3768749237060546875 11 11 4.3768749237060546875 4.3768749237060546875 11 11 11 4.3768749237060546875 3.6091389656066894531 2.8439373970031738281 2.3833467960357666016 2.4526536464691162109 3.0314321517944335938 4.3768749237060546875 11 4.3768749237060546875 11 11 11 11 11 4.3768749237060546875 3.0314321517944335938 3.0314321517944335938 4.3768749237060546875 11 11 4.3768749237060546875 11 11 4.3768749237060546875 4.2853236198425292969 3.6091477870941162109 2.8439486026763916016 2.3833568096160888672 2.0980451107025146484 1.9076664447784423828 1.8109905719757080078 1.7263627052307128906 1.6594905853271484375 1.602934718132019043 1.5520361661911010742 1.5069791078567504883 1.4673724174499511719 1.4326120615005493164 1.4020596742630004883 1.3751198053359985352 1.3512684106826782227 1.3300565481185913086 1.3111054897308349609 1.2940969467163085938 1.2797571420669555664 1.2793250083923339844 1.2780405282974243164 1.2759389877319335938 1.2730759382247924805 1.2695238590240478516 1.2653664350509643555 1.2606948614120483398 
11 11 4.376895904541015625 4.376895904541015625 11 4.376895904541015625 4.376895904541015625 11 4.376895904541015625 3.0314474105834960938 4.376895904541015625 11 4.376895904541015625 3.6091477870941162109 4.376895904541015625 11 11 4.376895904541015625 11 4.376895904541015625 3.0314474105834960938 4.376895904541015625 11 11 11 11 11 4.376895904541015625 11 11 11 4.376895904541015625 3.0314474105834960938 2.5003075599670410156 2.843959808349609375 3.6091563701629638672 4.2853236198425292969 3.6091563701629638672 4.376895904541015625 11 4.376895904541015625 4.376895904541015625 11 4.376895904541015625 3.6091477870941162109 3.6091563701629638672 4.376895904541015625 11 4.376895904541015625 4.376895904541015625 11 11 11 11 4.376895904541015625 3.6091477870941162109 2.8439486026763916016 2.5002961158752441406 2.2248148918151855469 2.0528481006622314453 1.9126478433609008789 1.8109804391860961914 1.7958314418792724609 1.9253692626953125 2.1305570602416992188 2.4526653289794921875 3.0314474105834960938 4.376895904541015625 11 4.376895904541015625 4.376895904541015625 11 11 11 4.376895904541015625 3.6091477870941162109 2.8439486026763916016 2.5002961158752441406 2.2248148918151855469 2.4526653289794921875 3.0314474105834960938 4.376895904541015625 11 11 4.376895904541015625 11 11 4.376895904541015625 4.2853236198425292969 4.2853236198425292969 3.6091563701629638672 4.2853236198425292969 3.6091563701629638672 4.376895904541015625 11 11 11 4.376895904541015625 4.376895904541015625 11 4.376895904541015625 3.0314474105834960938 2.4526653289794921875 2.2078948020935058594 2.0528609752655029297 1.9126623868942260742 1.8109939098358154297 1.7263664007186889648 1.6523699760437011719 1.5889747142791748047 1.5349810123443603516 1.4889332056045532227 1.4494719505310058594 1.4154384136199951172 1.3858821392059326172 1.3600353002548217773 1.3372803926467895508 1.3171204328536987305 1.299153447151184082 1.2967231273651123047 1.2962068319320678711 1.2946738004684448242 1.2921713590621948242 1.2887737751007080078 1.2845762968063354492 1.2796884775161743164 1.2742272615432739258 
11 4.3769168853759765625 4.3769168853759765625 11 11 4.3769168853759765625 4.3769168853759765625 11 4.3769168853759765625 3.0314626693725585938 4.3769168853759765625 11 4.3769168853759765625 3.609165191650390625 4.3769168853759765625 11 4.3769168853759765625 11 11 4.3769168853759765625 3.0314626693725585938 4.3769168853759765625 11 11 11 11 11 11 11 11 11 4.3769168853759765625 3.0314626693725585938 2.8439707756042480469 3.609165191650390625 4.3769168853759765625 11 4.3769168853759765625 4.3769168853759765625 11 4.3769168853759765625 11 11 4.3769168853759765625 3.0314626693725585938 4.3769168853759765625 11 11 4.3769168853759765625 4.3769168853759765625 11 11 4.3769168853759765625 4.2853236198425292969 3.6091563701629638672 2.843959808349609375 2.5003018379211425781 2.2248218059539794922 2.0528523921966552734 1.9126527309417724609 1.8109838962554931641 1.7430896759033203125 1.8602768182754516602 2.0156278610229492188 2.2248353958129882812 2.5003132820129394531 3.0314626693725585938 4.3769168853759765625 11 4.3769168853759765625 4.3769168853759765625 11 4.3769168853759765625 11 4.3769168853759765625 3.0314626693725585938 2.5003018379211425781 2.2248218059539794922 2.2248353958129882812 2.5003132820129394531 3.0314626693725585938 4.3769168853759765625 11 4.3769168853759765625 3.6091563701629638672 4.3769168853759765625 11 11 4.3769168853759765625 11 4.3769168853759765625 11 4.3769168853759765625 11 11 11 4.3769168853759765625 4.2853236198425292969 4.3769168853759765625 11 4.3769168853759765625 3.0314626693725585938 2.8070642948150634766 2.5003132820129394531 2.2248353958129882812 2.0528650283813476562 1.9126672744750976562 1.795836329460144043 1.7008130550384521484 1.6236053705215454102 1.5603638887405395508 1.507977604866027832 1.4640662670135498047 1.4268361330032348633 1.3949346542358398438 1.3673336505889892578 1.3432435989379882812 1.3220510482788085938 1.3152558803558349609 1.31587982177734375 1.3152558803558349609 1.3134059906005859375 1.3103947639465332031 1.3063226938247680664 1.3013174533843994141 1.2955240011215209961 1.2890936136245727539 
4.2853236198425292969 4.3769378662109375 11 11 4.3769378662109375 3.6091737747192382812 4.3769378662109375 11 4.3769378662109375 3.0314776897430419922 4.3769378662109375 11 4.3769378662109375 4.3769378662109375 11 11 11 11 4.3769378662109375 3.609165191650390625 3.0314776897430419922 4.3769378662109375 11 11 11 11 11 11 11 11 4.3769378662109375 3.609165191650390625 2.8439707756042480469 3.0314776897430419922 4.3769378662109375 11 11 4.3769378662109375 4.3769378662109375 11 11 11 4.3769378662109375 4.2853236198425292969 4.2853236198425292969 4.3769378662109375 11 4.3769378662109375 4.3769378662109375 11 11 4.3769378662109375 3.609165191650390625 2.9655323028564453125 2.8070616722106933594 2.5003075599670410156 2.2248284816741943359 2.0528566837310791016 1.912657618522644043 1.8109872341156005859 1.7263588905334472656 1.7725770473480224609 1.9076887369155883789 2.0980708599090576172 2.3833868503570556641 2.8439819812774658203 3.6091737747192382812 4.3769378662109375 11 4.3769378662109375 4.3769378662109375 11 11 11 4.3769378662109375 3.0314776897430419922 2.4526886940002441406 2.1305758953094482422 2.3833868503570556641 2.8439819812774658203 3.6091737747192382812 4.3769378662109375 11 4.3769378662109375 3.6091737747192382812 4.3769378662109375 11 11 11 11 11 11 11 11 11 4.3769378662109375 4.3769378662109375 11 11 11 4.3769378662109375 4.2853236198425292969 3.6091737747192382812 2.8439819812774658203 2.5003190040588378906 2.2248423099517822266 2.0156345367431640625 1.8602831363677978516 1.7430955171585083008 1.6525568962097167969 1.5809329748153686523 1.5230582952499389648 1.4754230976104736328 1.4355869293212890625 1.4018117189407348633 1.3728314638137817383 1.3477048873901367188 1.3346570730209350586 1.3369171619415283203 1.337680816650390625 1.3369171619415283203 1.3346570730209350586 1.3309904336929321289 1.3260558843612670898 1.3200277090072631836 1.3130995035171508789 1.3054696321487426758 
4.3769588470458984375 11 11 4.3769588470458984375 3.6091825962066650391 4.3769588470458984375 11 11 4.3769588470458984375 3.6091825962066650391 4.3769588470458984375 11 4.3769588470458984375 11 4.3769588470458984375 11 11 4.3769588470458984375 3.6091737747192382812 2.8439819812774658203 3.0314929485321044922 4.3769588470458984375 11 4.3769588470458984375 11 11 11 11 11 4.3769588470458984375 3.6091737747192382812 2.8439819812774658203 2.5003132820129394531 3.0314929485321044922 4.3769588470458984375 11 11 4.3769588470458984375 4.3769588470458984375 11 4.3769588470458984375 4.3769588470458984375 11 11 11 11 11 4.3769588470458984375 11 11 4.3769588470458984375 3.6091737747192382812 2.8439819812774658203 2.5003132820129394531 2.3445274829864501953 2.2078948020935058594 2.0528609752655029297 1.9126623868942260742 1.8109905719757080078 1.7263627052307128906 1.6789461374282836914 1.7832409143447875977 1.9253929853439331055 2.1305851936340332031 2.4527003765106201172 3.0314929485321044922 4.3769588470458984375 11 11 4.3769588470458984375 11 11 11 4.3769588470458984375 3.6091737747192382812 2.8439819812774658203 2.3833868503570556641 2.1305851936340332031 2.4527003765106201172 3.0314929485321044922 4.3769588470458984375 11 11 4.3769588470458984375 4.3769588470458984375 11 11 4.3769588470458984375 4.2853236198425292969 4.2853236198425292969 4.3769588470458984375 11 11 4.3769588470458984375 11 11 11 11 11 4.3769588470458984375 4.3769588470458984375 11 4.3769588470458984375 3.6091825962066650391 2.8439931869506835938 2.3833968639373779297 2.0980794429779052734 1.9076961278915405273 1.7725836038589477539 1.6720453500747680664 1.5944441556930541992 1.5327920913696289062 1.4826591014862060547 1.4411081075668334961 1.4061177968978881836 1.3791413307189941406 1.3657356500625610352 1.3589650392532348633 1.361765742301940918 1.3627140522003173828 1.361765742301940918 1.3589650392532348633 1.3544402122497558594 1.3483867645263671875 1.3410458564758300781 1.3326807022094726562 1.3235536813735961914 
11 11 4.3769803047180175781 3.6091825962066650391 4.3769803047180175781 11 11 4.3769803047180175781 3.6091911792755126953 4.3769803047180175781 11 11 11 11 11 11 11 4.3769803047180175781 3.0315082073211669922 3.6091911792755126953 4.2853236198425292969 4.3769803047180175781 11 4.3769803047180175781 11 11 11 11 11 4.3769803047180175781 3.0315082073211669922 2.5003190040588378906 2.5003304481506347656 3.0315082073211669922 4.3769803047180175781 11 11 4.3769803047180175781 4.3769803047180175781 11 4.3769803047180175781 11 11 4.3769803047180175781 4.2853236198425292969 4.2853236198425292969 4.2853236198425292969 4.3769803047180175781 11 4.3769803047180175781 3.6091825962066650391 2.8439931869506835938 2.5003190040588378906 2.2248423099517822266 2.0630016326904296875 1.9932780265808105469 1.9031374454498291016 1.8109939098358154297 1.7263664007186889648 1.6594905853271484375 1.6789520978927612305 1.7832477092742919922 1.925400853157043457 2.1305947303771972656 2.4527120590209960938 3.0315082073211669922 4.3769803047180175781 11 11 11 11 11 11 4.3769803047180175781 3.0315082073211669922 2.5003190040588378906 2.2248423099517822266 2.1305947303771972656 2.4527120590209960938 3.0315082073211669922 4.3769803047180175781 11 11 4.3769803047180175781 11 11 4.3769803047180175781 3.6091825962066650391 2.9655323028564453125 3.0315082073211669922 4.3769803047180175781 11 4.3769803047180175781 4.2853236198425292969 4.3769803047180175781 11 11 11 11 4.3769803047180175781 11 11 11 4.3769803047180175781 3.0315082073211669922 2.4527120590209960938 2.1305947303771972656 1.925400853157043457 1.7832477092742919922 1.6789520978927612305 1.5991681814193725586 1.5361634492874145508 1.4889476299285888672 1.4494856595993041992 1.42264556884765625 1.406775355339050293 1.3903076648712158203 1.3870309591293334961 1.3905583620071411133 1.3917561769485473633 1.3905583620071411133 1.3870309591293334961 1.3813611268997192383 1.3738312721252441406 1.3647824525833129883 1.3545767068862915039 1.3435646295547485352 
11 4.3770012855529785156 3.6091911792755126953 3.6091997623443603516 4.3770012855529785156 11 4.3770012855529785156 3.6091997623443603516 4.3770012855529785156 11 11 4.3770012855529785156 11 4.3770012855529785156 11 11 4.3770012855529785156 3.6091911792755126953 3.0315234661102294922 4.3770012855529785156 11 11 11 4.3770012855529785156 4.3770012855529785156 11 11 11 4.3770012855529785156 3.6091911792755126953 2.8440041542053222656 2.5003364086151123047 2.8440153598785400391 3.6091997623443603516 4.3770012855529785156 11 4.3770012855529785156 11 11 11 4.3770012855529785156 11 4.3770012855529785156 3.6091911792755126953 2.9655323028564453125 3.6091997623443603516 4.3770012855529785156 11 11 4.3770012855529785156 3.0315234661102294922 2.5003247261047363281 2.2248489856719970703 2.0528693199157714844 1.9126720428466796875 1.8370900154113769531 1.7817400693893432617 1.7202961444854736328 1.6594934463500976562 1.6029376983642578125 1.6720511913299560547 1.7725900411605834961 1.9077036380767822266 2.0980880260467529297 2.3834066390991210938 2.8440041542053222656 3.6091911792755126953 4.3770012855529785156 11 11 11 11 4.3770012855529785156 3.6091911792755126953 2.8440041542053222656 2.3834066390991210938 2.0980880260467529297 2.0980880260467529297 2.3834066390991210938 2.8440041542053222656 3.6091911792755126953 4.3770012855529785156 11 4.3770012855529785156 11 4.3770012855529785156 3.6091997623443603516 2.8440153598785400391 2.8440153598785400391 3.6091997623443603516 4.3770012855529785156 11 4.3770012855529785156 11 11 11 11 11 4.3770012855529785156 11 11 11 11 4.3770012855529785156 3.0315234661102294922 2.4527237415313720703 2.1306040287017822266 1.9254087209701538086 1.7958561182022094727 1.700832366943359375 1.6236237287521362305 1.5603811740875244141 1.5121849775314331055 1.4801256656646728516 1.4577726125717163086 1.4379026889801025391 1.4197833538055419922 1.4197833538055419922 1.4243110418319702148 1.425853729248046875 1.4243110418319702148 1.4197833538055419922 1.4125533103942871094 1.4030393362045288086 1.391734004020690918 1.3791428804397583008 1.3657374382019042969 
11 4.3770222663879394531 3.0315387248992919922 4.3770222663879394531 11 11 4.3770222663879394531 4.3770222663879394531 11 11 4.3770222663879394531 4.3770222663879394531 11 11 11 11 4.3770222663879394531 3.0315387248992919922 3.0315387248992919922 4.3770222663879394531 11 4.3770222663879394531 4.2853236198425292969 3.6092085838317871094 4.3770222663879394531 11 11 4.3770222663879394531 3.6091997623443603516 2.8440153598785400391 2.5003421306610107422 2.8440263271331787109 3.6092085838317871094 4.3770222663879394531 11 11 11 11 4.3770222663879394531 11 11 11 4.3770222663879394531 3.0315387248992919922 3.0315387248992919922 4.3770222663879394531 11 11 4.3770222663879394531 3.6091997623443603516 2.8440153598785400391 2.3834166526794433594 2.0980966091156005859 1.9126769304275512695 1.8110005855560302734 1.7263739109039306641 1.6848616600036621094 1.6427696943283081055 1.5987405776977539062 1.5809426307678222656 1.6525673866271972656 1.7431070804595947266 1.8602956533432006836 2.0156481266021728516 2.2248558998107910156 2.5003304481506347656 2.8440153598785400391 3.6091997623443603516 4.3770222663879394531 11 11 4.3770222663879394531 3.6091997623443603516 2.8440153598785400391 2.5003304481506347656 2.2248558998107910156 2.0156481266021728516 2.0156481266021728516 2.2248558998107910156 2.5003304481506347656 3.0315387248992919922 4.3770222663879394531 11 11 11 11 4.3770222663879394531 3.0315387248992919922 3.0315387248992919922 4.3770222663879394531 11 11 11 11 4.3770222663879394531 4.3770222663879394531 11 11 11 11 11 11 4.3770222663879394531 3.6091997623443603516 2.8440153598785400391 2.5003421306610107422 2.2248694896697998047 2.0156617164611816406 1.8603082895278930664 1.7431185245513916016 1.6525779962539672852 1.5987529754638671875 1.5557010173797607422 1.5225999355316162109 1.4983664751052856445 1.4729361534118652344 1.4584771394729614258 1.4584771394729614258 1.4644191265106201172 1.4664527177810668945 1.4644191265106201172 1.4584771394729614258 1.4490684270858764648 1.4368325471878051758 1.4224965572357177734 1.4067771434783935547 1.3903098106384277344 
4.2853236198425292969 3.6092085838317871094 3.0315537452697753906 4.3770432472229003906 11 4.3770432472229003906 4.3770432472229003906 11 11 4.3770432472229003906 4.3770432472229003906 11 11 11 11 4.3770432472229003906 3.6092085838317871094 2.8440263271331787109 3.0315537452697753906 4.3770432472229003906 11 4.3770432472229003906 3.0315537452697753906 4.3770432472229003906 11 11 11 4.3770432472229003906 3.0315537452697753906 2.8070797920227050781 2.9655323028564453125 3.6092171669006347656 4.3770432472229003906 11 11 11 11 4.3770432472229003906 11 11 4.3770432472229003906 4.2853236198425292969 3.6092085838317871094 2.8440375328063964844 3.6092171669006347656 4.3770432472229003906 11 4.3770432472229003906 3.6092085838317871094 2.8440263271331787109 2.5003364086151123047 2.2248625755310058594 2.0156548023223876953 1.860301971435546875 1.7431128025054931641 1.6594989299774169922 1.6071836948394775391 1.5774821043014526367 1.5451085567474365234 1.5603767633438110352 1.62361907958984375 1.7008275985717773438 1.7958512306213378906 1.9126816987991333008 2.0528779029846191406 2.2248625755310058594 2.5003364086151123047 3.0315537452697753906 4.3770432472229003906 11 4.3770432472229003906 3.6092085838317871094 2.8440263271331787109 2.5003364086151123047 2.2248625755310058594 2.0528779029846191406 1.9126816987991333008 1.9126816987991333008 2.0981051921844482422 2.383426666259765625 2.8440263271331787109 3.6092085838317871094 4.3770432472229003906 11 11 4.3770432472229003906 3.6092085838317871094 2.9655323028564453125 3.6092171669006347656 4.3770432472229003906 11 11 11 11 4.3770432472229003906 11 11 11 4.3770432472229003906 11 11 4.3770432472229003906 4.2853236198425292969 4.2853236198425292969 3.6092171669006347656 2.8440375328063964844 2.3834366798400878906 2.0981137752532958984 1.9077259302139282227 1.7817518711090087891 1.7203124761581420898 1.6595128774642944336 1.6071890592575073242 1.5774903297424316406 1.5451194047927856445 1.5128519535064697266 1.5048447847366333008 1.5048447847366333008 1.5128519535064697266 1.5156084299087524414 1.5128519535064697266 1.5048447847366333008 1.4923076629638671875 1.476250767707824707 1.4577744007110595703 1.4379049539566040039 1.417496800422668457 
2.9655323028564453125 2.8440487384796142578 3.6092259883880615234 4.3770642280578613281 11 4.3770642280578613281 4.3770642280578613281 11 4.3770642280578613281 4.3770642280578613281 11 11 11 11 11 4.3770642280578613281 3.0315690040588378906 2.8440487384796142578 3.6092259883880615234 4.3770642280578613281 11 4.3770642280578613281 3.0315690040588378906 4.3770642280578613281 11 11 11 4.3770642280578613281 3.0315690040588378906 3.6092259883880615234 4.2853236198425292969 4.3770642280578613281 11 11 11 4.3770642280578613281 4.2853236198425292969 4.3770642280578613281 11 4.3770642280578613281 3.6092171669006347656 2.9655323028564453125 2.9655323028564453125 3.6092259883880615234 4.3770642280578613281 11 11 4.3770642280578613281 3.0315690040588378906 2.5003421306610107422 2.2248694896697998047 2.0528821945190429688 1.9126865863800048828 1.7958561182022094727 1.700832366943359375 1.6236237287521362305 1.5603811740875244141 1.5225946903228759766 1.4983594417572021484 1.53499603271484375 1.5889900922775268555 1.6523854732513427734 1.7263813018798828125 1.811007380485534668 1.9254324436187744141 2.1306324005126953125 2.4527587890625 3.0315690040588378906 4.3770642280578613281 11 4.3770642280578613281 3.0315690040588378906 2.5003421306610107422 2.2248694896697998047 2.0528821945190429688 1.9126865863800048828 1.811007380485534668 1.8603082895278930664 2.0156617164611816406 2.2248694896697998047 2.5003421306610107422 2.8440375328063964844 3.6092171669006347656 4.3770642280578613281 11 4.3770642280578613281 4.2853236198425292969 4.2853236198425292969 4.3770642280578613281 11 11 11 11 11 11 11 11 11 11 11 4.3770642280578613281 11 11 11 4.3770642280578613281 3.0315690040588378906 2.4527587890625 2.1306324005126953125 1.9932905435562133789 1.9031585454940795898 1.8110207319259643555 1.7263963222503662109 1.684870600700378418 1.6427828073501586914 1.5987570285797119141 1.5724784135818481445 1.5613385438919067383 1.5613385438919067383 1.5724784135818481445 1.5763448476791381836 1.5724784135818481445 1.5613385438919067383 1.5441597700119018555 1.5226017236709594727 1.4983688592910766602 1.4729390144348144531 1.4474416971206665039 
2.9655323028564453125 3.6092345714569091797 4.3770852088928222656 11 11 4.3770852088928222656 11 4.3770852088928222656 3.6092345714569091797 4.3770852088928222656 11 11 11 11 11 4.3770852088928222656 3.0315842628479003906 3.0315842628479003906 4.3770852088928222656 11 11 4.3770852088928222656 3.6092345714569091797 4.3770852088928222656 11 11 4.3770852088928222656 3.6092259883880615234 3.6092345714569091797 4.3770852088928222656 11 11 11 11 4.3770852088928222656 3.6092259883880615234 4.3770852088928222656 11 11 4.3770852088928222656 3.6092345714569091797 4.2853236198425292969 4.2853236198425292969 4.3770852088928222656 11 11 4.3770852088928222656 3.6092259883880615234 2.8440487384796142578 2.3834466934204101562 2.0981223583221435547 1.9126914739608764648 1.8110107183456420898 1.7263851165771484375 1.6523892879486083984 1.5889939069747924805 1.5349997282028198242 1.4889512062072753906 1.4673880338668823242 1.5069949626922607422 1.5520519018173217773 1.6029498577117919922 1.6789819002151489258 1.7832815647125244141 1.9254403114318847656 2.130641937255859375 2.4527704715728759766 3.0315842628479003906 4.3770852088928222656 11 4.3770852088928222656 3.0315842628479003906 2.4527704715728759766 2.130641937255859375 1.9254403114318847656 1.8110107183456420898 1.7264000177383422852 1.8110241889953613281 1.9127060174942016602 2.0981311798095703125 2.3834567070007324219 2.8440597057342529297 3.6092345714569091797 4.3770852088928222656 11 11 11 11 11 11 11 11 11 11 11 11 11 11 11 11 4.3770852088928222656 11 4.3770852088928222656 4.2853236198425292969 3.6092345714569091797 2.8440597057342529297 2.402225494384765625 2.3445367813110351562 2.2079210281372070312 2.0528991222381591797 1.9127060174942016602 1.8370983600616455078 1.7817552089691162109 1.7203171253204345703 1.6595183610916137695 1.6476407051086425781 1.6315221786499023438 1.6315221786499023438 1.6476407051086425781 1.6533008813858032227 1.6476407051086425781 1.6315221786499023438 1.6071906089782714844 1.5774927139282226562 1.5451225042343139648 1.5121923685073852539 1.4801338911056518555 
4.2853236198425292969 4.3771061897277832031 11 11 4.3771061897277832031 4.3771061897277832031 11 4.3771061897277832031 4.3771061897277832031 11 11 11 11 11 4.3771061897277832031 3.6092345714569091797 2.8440597057342529297 3.0315995216369628906 4.3771061897277832031 11 4.3771061897277832031 3.6092345714569091797 4.3771061897277832031 11 11 11 4.3771061897277832031 3.6092433929443359375 4.3771061897277832031 11 11 4.3771061897277832031 4.2853236198425292969 4.2853236198425292969 3.6092345714569091797 3.0315995216369628906 4.3771061897277832031 11 4.3771061897277832031 4.2853236198425292969 4.3771061897277832031 11 11 11 11 4.3771061897277832031 3.6092345714569091797 2.8440597057342529297 2.5003535747528076172 2.2248830795288085938 2.0156750679016113281 1.8603209257125854492 1.7431300878524780273 1.6595072746276855469 1.6029528379440307617 1.5520551204681396484 1.5069981813430786133 1.4673912525177001953 1.4445945024490356445 1.4851742982864379883 1.5361920595169067383 1.5992000102996826172 1.6789878606796264648 1.7832883596420288086 1.9254481792449951172 2.1306512355804443359 2.4527821540832519531 3.0315995216369628906 4.3771061897277832031 11 4.3771061897277832031 3.0315995216369628906 2.4527821540832519531 2.1306512355804443359 1.9254481792449951172 1.7832883596420288086 1.81102752685546875 1.9127107858657836914 2.0529034137725830078 2.2248966693878173828 2.5003650188446044922 3.0315995216369628906 4.3771061897277832031 11 11 4.3771061897277832031 4.2853236198425292969 4.2853236198425292969 4.2853236198425292969 4.2853236198425292969 4.3771061897277832031 11 11 11 11 4.3771061897277832031 4.2853236198425292969 4.2853236198425292969 4.3771061897277832031 11 11 11 11 11 4.3771061897277832031 3.0315995216369628906 2.9655323028564453125 2.8070876598358154297 2.5003650188446044922 2.2248966693878173828 2.0630066394805908203 1.99329376220703125 1.9031637907028198242 1.81102752685546875 1.75397491455078125 1.7452200651168823242 1.7207216024398803711 1.7207216024398803711 1.7452200651168823242 1.75397491455078125 1.7452200651168823242 1.7207216024398803711 1.6848728656768798828 1.6427860260009765625 1.5987612009048461914 1.5557105541229248047 1.5152733325958251953 
11 11 11 4.3771271705627441406 4.3771271705627441406 11 11 11 11 11 11 11 11 4.3771271705627441406 3.6092433929443359375 2.8440709114074707031 2.5003592967987060547 3.0316147804260253906 4.3771271705627441406 11 4.3771271705627441406 3.0316147804260253906 4.3771271705627441406 11 11 4.3771271705627441406 3.6092519760131835938 4.3771271705627441406 11 11 4.3771271705627441406 3.6092433929443359375 2.9655323028564453125 2.9655323028564453125 3.6092519760131835938 4.2853236198425292969 4.3771271705627441406 11 11 11 11 11 4.3771271705627441406 4.2853236198425292969 4.2853236198425292969 3.6092433929443359375 2.8440709114074707031 2.5003592967987060547 2.2248899936676025391 2.0528948307037353516 1.9127011299133300781 1.7958710193634033203 1.7008467912673950195 1.6236374378204345703 1.5603940486907958984 1.5152604579925537109 1.4781680107116699219 1.4445972442626953125 1.4430255889892578125 1.4851785898208618164 1.5361968278884887695 1.5992052555084228516 1.6789937019348144531 1.7832951545715332031 1.9254561662673950195 2.1306607723236083984 2.4527938365936279297 3.0316147804260253906 4.3771271705627441406 11 4.3771271705627441406 3.0316147804260253906 2.4527938365936279297 2.1306607723236083984 1.9254561662673950195 1.8110308647155761719 1.9127156734466552734 2.0529077053070068359 2.2249035835266113281 2.5003707408905029297 2.8440821170806884766 3.6092519760131835938 4.3771271705627441406 11 4.3771271705627441406 3.6092519760131835938 4.2853236198425292969 4.2853236198425292969 4.3771271705627441406 11 11 11 11 4.3771271705627441406 4.2853236198425292969 4.3771271705627441406 11 4.3771271705627441406 4.3771271705627441406 11 11 11 11 4.3771271705627441406 3.6092519760131835938 4.2853236198425292969 4.2853236198425292969 3.6092519760131835938 2.8440821170806884766 2.5003707408905029297 2.3445386886596679688 2.2079267501831054688 2.0529077053070068359 1.9127156734466552734 1.8913290500640869141 1.876757502555847168 1.8371001482009887695 1.8371001482009887695 1.876757502555847168 1.8913290500640869141 1.876757502555847168 1.8371001482009887695 1.7817585468292236328 1.7203217744827270508 1.6595239639282226562 1.6029710769653320312 1.5557129383087158203 
4.2853236198425292969 4.2853236198425292969 4.2853236198425292969 3.6092519760131835938 4.3771481513977050781 11 4.3771481513977050781 11 4.3771481513977050781 11 11 4.3771481513977050781 11 4.3771481513977050781 3.0316300392150878906 2.5003650188446044922 2.3834767341613769531 2.8440821170806884766 3.6092519760131835938 4.2853236198425292969 3.6092519760131835938 3.0316300392150878906 4.3771481513977050781 11 11 4.3771481513977050781 4.3771481513977050781 11 11 4.3771481513977050781 3.6092519760131835938 2.8440821170806884766 2.5003650188446044922 3.0316300392150878906 4.3771481513977050781 11 4.3771481513977050781 11 11 4.3771481513977050781 11 4.3771481513977050781 3.6092519760131835938 2.9655323028564453125 2.9655323028564453125 2.8070876598358154297 2.5003650188446044922 2.2248966693878173828 2.0528991222381591797 1.9127060174942016602 1.8110207319259643555 1.7263963222503662109 1.652400970458984375 1.5890054702758789062 1.5350109338760375977 1.4889620542526245117 1.4497839212417602539 1.4215769767761230469 1.4430295228958129883 1.4851830005645751953 1.5362015962600708008 1.5992105007171630859 1.6789996623992919922 1.7833019495010375977 1.9254640340805053711 2.1306700706481933594 2.4528055191040039062 3.0316300392150878906 4.3771481513977050781 11 4.3771481513977050781 3.0316300392150878906 2.4528055191040039062 2.1306700706481933594 1.9254640340805053711 1.9127204418182373047 2.0529117584228515625 2.2249104976654052734 2.5003764629364013672 2.8440930843353271484 3.6092607975006103516 4.3771481513977050781 11 11 4.3771481513977050781 4.3771481513977050781 11 11 11 11 4.3771481513977050781 4.2853236198425292969 4.2853236198425292969 3.6092607975006103516 4.3771481513977050781 11 11 4.3771481513977050781 11 11 4.3771481513977050781 4.3771481513977050781 11 4.3771481513977050781 4.3771481513977050781 11 11 4.3771481513977050781 3.6092607975006103516 2.9655323028564453125 2.8070929050445556641 2.5003764629364013672 2.2249104976654052734 2.0630075931549072266 2.0898754596710205078 2.0630075931549072266 1.9932968616485595703 1.9932968616485595703 2.0630075931549072266 2.0898754596710205078 2.0630075931549072266 1.9932968616485595703 1.9031691551208496094 1.8110342025756835938 1.7264112234115600586 1.6595267057418823242 1.6029741764068603516 
2.9655323028564453125 2.9655323028564453125 2.9655323028564453125 3.6092693805694580078 4.3771696090698242188 11 11 11 4.3771696090698242188 11 4.3771696090698242188 11 11 4.3771696090698242188 3.0316452980041503906 2.4528172016143798828 2.2249035835266113281 2.5003707408905029297 2.8070902824401855469 2.9655323028564453125 2.8070902824401855469 3.0316452980041503906 4.3771696090698242188 11 4.3771696090698242188 3.6092693805694580078 4.3771696090698242188 11 4.3771696090698242188 3.6092607975006103516 2.8440930843353271484 2.5003821849822998047 2.8070955276489257812 3.0316452980041503906 4.3771696090698242188 11 11 11 4.3771696090698242188 4.2853236198425292969 4.2853236198425292969 3.6092693805694580078 2.8441042900085449219 2.5003707408905029297 2.402225494384765625 2.3445377349853515625 2.20792388916015625 2.0529034137725830078 1.9127107858657836914 1.8110241889953613281 1.7264000177383422852 1.6595156192779541016 1.6029620170593261719 1.5520645380020141602 1.5070077180862426758 1.4674005508422851562 1.4326395988464355469 1.4076189994812011719 1.4430334568023681641 1.4851872920989990234 1.536206364631652832 1.5992158651351928711 1.6790056228637695312 1.7833087444305419922 1.9254719018936157227 2.1306796073913574219 2.4528172016143798828 3.0316452980041503906 4.3771696090698242188 11 4.3771696090698242188 3.0316452980041503906 2.4528172016143798828 2.1306796073913574219 1.9254719018936157227 2.01570892333984375 2.2249171733856201172 2.5003821849822998047 2.8441042900085449219 3.6092693805694580078 4.3771696090698242188 11 11 4.3771696090698242188 11 11 11 4.3771696090698242188 4.2853236198425292969 4.2853236198425292969 3.6092607975006103516 2.9655323028564453125 3.0316452980041503906 4.3771696090698242188 11 11 4.3771696090698242188 4.3771696090698242188 11 4.3771696090698242188 3.6092693805694580078 4.3771696090698242188 11 4.3771696090698242188 11 11 11 11 4.3771696090698242188 4.2853236198425292969 3.6092693805694580078 2.8441042900085449219 2.402225494384765625 2.3445408344268798828 2.402225494384765625 2.3445408344268798828 2.2079324722290039062 2.2079324722290039062 2.3445408344268798828 2.402225494384765625 2.3445408344268798828 2.2079324722290039062 2.0529160499572753906 1.9127253293991088867 1.8110375404357910156 1.7264149188995361328 1.6524202823638916016 
2.402225494384765625 2.5003881454467773438 3.0316603183746337891 4.3771905899047851562 11 11 11 4.3771905899047851562 11 11 11 11 4.3771905899047851562 3.6092693805694580078 2.8441042900085449219 2.3834967613220214844 2.0981655120849609375 2.2079267501831054688 2.3445386886596679688 2.402225494384765625 2.4528288841247558594 3.0316603183746337891 4.3771905899047851562 11 4.3771905899047851562 4.3771905899047851562 11 11 4.3771905899047851562 3.0316603183746337891 2.5003764629364013672 2.8441154956817626953 3.6092782020568847656 4.2853236198425292969 4.3771905899047851562 11 11 4.3771905899047851562 4.3771905899047851562 11 11 4.3771905899047851562 3.0316603183746337891 2.4528288841247558594 2.1306889057159423828 2.0630066394805908203 1.99329376220703125 1.9031637907028198242 1.81102752685546875 1.7264037132263183594 1.6595183610916137695 1.6029649972915649414 1.5557057857513427734 1.5152682065963745117 1.4781759977340698242 1.4446052312850952148 1.4144310951232910156 1.4076226949691772461 1.4430375099182128906 1.4851917028427124023 1.5362111330032348633 1.5992211103439331055 1.6790115833282470703 1.7833155393600463867 1.9254797697067260742 2.1306889057159423828 2.4528288841247558594 3.0316603183746337891 4.3771905899047851562 11 4.3771905899047851562 3.0316603183746337891 2.5003881454467773438 2.2249240875244140625 2.0157155990600585938 2.0981740951538085938 2.38350677490234375 2.8441154956817626953 3.6092782020568847656 4.3771905899047851562 11 11 4.3771905899047851562 11 11 11 4.3771905899047851562 3.6092693805694580078 2.9655323028564453125 2.9655323028564453125 2.8070981502532958984 2.9655323028564453125 3.6092782020568847656 4.3771905899047851562 11 4.3771905899047851562 11 11 11 4.3771905899047851562 4.3771905899047851562 11 11 11 11 4.3771905899047851562 4.2853236198425292969 4.3771905899047851562 11 11 4.3771905899047851562 3.0316603183746337891 2.9655323028564453125 2.8070981502532958984 2.9655323028564453125 2.8070981502532958984 2.5003881454467773438 2.5003881454467773438 2.8070981502532958984 2.9655323028564453125 2.8070981502532958984 2.5003881454467773438 2.2249240875244140625 2.0529203414916992188 1.9127302169799804688 1.7959007024765014648 1.7008757591247558594 
2.3835167884826660156 2.8441264629364013672 3.6092867851257324219 4.3772115707397460938 11 11 11 11 11 4.3772115707397460938 11 11 4.3772115707397460938 3.0316755771636962891 2.5003821849822998047 2.2249171733856201172 2.01570892333984375 2.0529246330261230469 2.2249307632446289062 2.5003938674926757812 2.8071007728576660156 3.0316755771636962891 4.3772115707397460938 11 4.3772115707397460938 11 11 4.3772115707397460938 3.6092782020568847656 2.8441154956817626953 2.9655323028564453125 3.0316755771636962891 4.3772115707397460938 11 11 11 4.3772115707397460938 4.3772115707397460938 11 11 4.3772115707397460938 3.6092782020568847656 2.8441154956817626953 2.38350677490234375 2.0981740951538085938 1.9077780246734619141 1.8370991945266723633 1.7817568778991699219 1.7203193902969360352 1.6595211029052734375 1.6029680967330932617 1.5557081699371337891 1.5152707099914550781 1.4801318645477294922 1.4497904777526855469 1.4215837717056274414 1.3956485986709594727 1.4076262712478637695 1.4430414438247680664 1.4851959943771362305 1.5362159013748168945 1.5992264747619628906 1.6790175437927246094 1.7833223342895507812 1.9254877567291259766 2.1306984424591064453 2.4528405666351318359 3.0316755771636962891 4.3772115707397460938 11 4.3772115707397460938 3.6092867851257324219 2.8441264629364013672 2.3835167884826660156 2.09818267822265625 2.1306984424591064453 2.4528405666351318359 3.0316755771636962891 4.3772115707397460938 11 11 4.3772115707397460938 11 11 4.3772115707397460938 4.2853236198425292969 3.6092782020568847656 2.8441154956817626953 2.9655323028564453125 2.9655323028564453125 3.6092867851257324219 4.2853236198425292969 4.3772115707397460938 11 11 11 11 4.3772115707397460938 4.2853236198425292969 4.3772115707397460938 11 11 11 11 4.3772115707397460938 3.6092867851257324219 4.3772115707397460938 11 11 4.3772115707397460938 3.6092782020568847656 3.6092867851257324219 4.2853236198425292969 3.6092867851257324219 4.2853236198425292969 3.6092867851257324219 2.8441264629364013672 2.8441264629364013672 3.6092867851257324219 4.2853236198425292969 3.6092867851257324219 2.8441264629364013672 2.5003938674926757812 2.2249307632446289062 2.0157222747802734375 1.8603650331497192383 1.7817653417587280273 
2.4528522491455078125 3.0316908359527587891 4.3772325515747070312 11 11 11 4.3772325515747070312 11 4.3772325515747070312 4.3772325515747070312 11 11 4.3772325515747070312 3.0316908359527587891 2.4528522491455078125 2.1307079792022705078 2.0157291889190673828 2.2249376773834228516 2.5003995895385742188 2.8441376686096191406 3.6092956066131591797 4.2853236198425292969 4.3772325515747070312 11 11 11 4.3772325515747070312 4.2853236198425292969 4.2853236198425292969 3.6092956066131591797 4.2853236198425292969 4.2853236198425292969 4.3772325515747070312 11 11 11 11 11 11 4.3772325515747070312 3.6092867851257324219 2.8441264629364013672 2.5003881454467773438 2.2249240875244140625 2.0157155990600585938 1.8603587150573730469 1.7431647777557373047 1.6848728656768798828 1.6427860260009765625 1.5987612009048461914 1.5557105541229248047 1.5152733325958251953 1.4801338911056518555 1.4497927427291870117 1.4226529598236083984 1.3990507125854492188 1.3774573802947998047 1.4076299667358398438 1.443045496940612793 1.4852004051208496094 1.5362206697463989258 1.599231719970703125 1.6790235042572021484 1.7833291292190551758 1.9254956245422363281 2.1307079792022705078 2.4528522491455078125 3.0316908359527587891 4.3772325515747070312 11 11 4.3772325515747070312 3.0316908359527587891 2.4528522491455078125 2.1307079792022705078 2.1307079792022705078 2.4528522491455078125 3.0316908359527587891 4.3772325515747070312 11 11 11 11 4.3772325515747070312 3.6092867851257324219 2.9655323028564453125 2.9655323028564453125 3.6092956066131591797 4.2853236198425292969 4.2853236198425292969 4.3772325515747070312 11 11 11 4.3772325515747070312 4.2853236198425292969 4.2853236198425292969 4.2853236198425292969 4.2853236198425292969 4.3772325515747070312 11 11 4.3772325515747070312 4.2853236198425292969 3.6092956066131591797 4.3772325515747070312 11 11 11 4.3772325515747070312 3.6092956066131591797 4.3772325515747070312 11 4.3772325515747070312 11 4.3772325515747070312 3.0316908359527587891 3.6092956066131591797 4.3772325515747070312 11 4.3772325515747070312 3.6092956066131591797 2.8441376686096191406 2.3835268020629882812 2.0981912612915039062 1.9933031797409057617 1.9031796455383300781 
2.4528639316558837891 3.0317060947418212891 4.3772535324096679688 11 11 4.3772535324096679688 11 11 4.3772535324096679688 4.3772535324096679688 11 11 4.3772535324096679688 3.0317060947418212891 2.4528639316558837891 2.1307172775268554688 2.0982000827789306641 2.3835368156433105469 2.8441488742828369141 3.6093041896820068359 4.3772535324096679688 11 11 11 11 11 11 11 11 4.3772535324096679688 11 11 11 11 4.3772535324096679688 4.2853236198425292969 4.2853236198425292969 4.2853236198425292969 4.2853236198425292969 3.6092956066131591797 2.8441376686096191406 2.5003938674926757812 2.2249307632446289062 2.0529203414916992188 1.9127302169799804688 1.7959007024765014648 1.7008757591247558594 1.6236649751663208008 1.5774939060211181641 1.545124053955078125 1.5121942758560180664 1.4801360368728637695 1.4497948884963989258 1.4226547479629516602 1.3990526199340820312 1.3774648904800415039 1.3859350681304931641 1.415494084358215332 1.4495303630828857422 1.4889944791793823242 1.5350446701049804688 1.5945113897323608398 1.6721203327178955078 1.7726681232452392578 1.9077928066253662109 2.0981912612915039062 2.3835268020629882812 2.8441376686096191406 3.6092956066131591797 4.3772535324096679688 11 4.3772535324096679688 3.0317060947418212891 2.4528639316558837891 2.1307172775268554688 2.1307172775268554688 2.4528639316558837891 3.0317060947418212891 4.3772535324096679688 11 11 11 4.3772535324096679688 3.6093041896820068359 4.2853236198425292969 4.2853236198425292969 4.2853236198425292969 4.3772535324096679688 11 11 11 11 11 4.3772535324096679688 3.6093041896820068359 4.2853236198425292969 4.3772535324096679688 11 11 11 11 4.3772535324096679688 3.6092956066131591797 3.6093041896820068359 4.3772535324096679688 11 11 11 4.3772535324096679688 3.6093041896820068359 4.3772535324096679688 11 11 4.3772535324096679688 11 4.3772535324096679688 3.6093041896820068359 4.3772535324096679688 11 11 11 4.3772535324096679688 3.0317060947418212891 2.4528639316558837891 2.3445448875427246094 2.2079441547393798828 2.0630099773406982422 
2.5004110336303710938 3.0317213535308837891 4.3772745132446289062 11 4.3772745132446289062 11 11 4.3772745132446289062 4.3772745132446289062 11 11 4.3772745132446289062 3.6093041896820068359 2.8441488742828369141 2.3835368156433105469 2.0982000827789306641 2.2079470157623291016 2.4528756141662597656 3.0317213535308837891 4.3772745132446289062 11 11 4.3772745132446289062 4.2853236198425292969 4.2853236198425292969 4.2853236198425292969 4.2853236198425292969 4.2853236198425292969 4.2853236198425292969 4.3772745132446289062 11 4.3772745132446289062 4.2853236198425292969 4.2853236198425292969 3.6093041896820068359 2.9655323028564453125 2.9655323028564453125 2.9655323028564453125 2.9655323028564453125 2.8071033954620361328 2.5003995895385742188 2.2249376773834228516 2.0529246330261230469 1.9127349853515625 1.8110543489456176758 1.7264336347579956055 1.6524395942687988281 1.5890439748764038086 1.5350484848022460938 1.498371124267578125 1.4729418754577636719 1.4474450349807739258 1.4226565361022949219 1.3990546464920043945 1.3774665594100952148 1.3673871755599975586 1.3949915170669555664 1.4268966913223266602 1.4641306400299072266 1.5080463886260986328 1.5604372024536132812 1.6236833333969116211 1.7008950710296630859 1.7959206104278564453 1.9127495288848876953 2.0982086658477783203 2.3835468292236328125 2.8441600799560546875 3.6093130111694335938 4.3772745132446289062 11 4.3772745132446289062 3.0317213535308837891 2.4528756141662597656 2.1307268142700195312 2.0982000827789306641 2.3835368156433105469 2.8441488742828369141 3.6093041896820068359 4.2853236198425292969 4.2853236198425292969 4.2853236198425292969 3.6093130111694335938 4.3772745132446289062 11 11 11 11 11 4.3772745132446289062 4.2853236198425292969 4.2853236198425292969 4.2853236198425292969 3.6093130111694335938 4.3772745132446289062 11 11 11 4.3772745132446289062 4.2853236198425292969 4.2853236198425292969 3.6093041896820068359 3.6093130111694335938 4.3772745132446289062 11 11 11 4.3772745132446289062 11 4.3772745132446289062 11 11 4.3772745132446289062 4.3772745132446289062 11 4.3772745132446289062 4.3772745132446289062 11 11 11 11 4.3772745132446289062 3.0317213535308837891 2.9655323028564453125 2.8071086406707763672 2.5004110336303710938 2.3445458412170410156 
2.8441710472106933594 3.60932159423828125 4.3772954940795898438 11 11 11 4.3772954940795898438 4.3772954940795898438 11 11 4.3772954940795898438 3.6093130111694335938 2.8441600799560546875 2.5004053115844726562 2.2249445915222167969 2.2249581813812255859 2.5004167556762695312 2.8071112632751464844 3.0317366123199462891 4.3772954940795898438 11 4.3772954940795898438 3.6093130111694335938 2.9655323028564453125 2.9655323028564453125 2.9655323028564453125 2.9655323028564453125 3.0317366123199462891 4.3772954940795898438 11 11 4.3772954940795898438 3.0317366123199462891 2.9655323028564453125 2.80710601806640625 2.5004053115844726562 2.402225494384765625 2.402225494384765625 2.402225494384765625 2.3445467948913574219 2.402225494384765625 2.3445467948913574219 2.2079498767852783203 2.0529415607452392578 1.9127544164657592773 1.7959254980087280273 1.7008998394012451172 1.6236878633499145508 1.5604416131973266602 1.5080504417419433594 1.4641344547271728516 1.4269001483917236328 1.3972029685974121094 1.3774682283401489258 1.3585866689682006836 1.3728873729705810547 1.4018715620040893555 1.4356513023376464844 1.4754924774169921875 1.5231335163116455078 1.5810148715972900391 1.6526464223861694336 1.7431936264038085938 1.8603901863098144531 2.0157494544982910156 2.2249581813812255859 2.5004167556762695312 3.0317366123199462891 4.3772954940795898438 11 11 4.3772954940795898438 3.0317366123199462891 2.4528872966766357422 2.1307361125946044922 2.0157358646392822266 2.2249445915222167969 2.5004053115844726562 2.8441710472106933594 3.60932159423828125 4.2853236198425292969 4.2853236198425292969 4.3772954940795898438 11 11 4.3772954940795898438 4.2853236198425292969 4.2853236198425292969 4.2853236198425292969 3.6093130111694335938 2.9655323028564453125 3.60932159423828125 4.2853236198425292969 4.3772954940795898438 11 11 4.3772954940795898438 4.2853236198425292969 3.6093130111694335938 2.9655323028564453125 3.60932159423828125 4.2853236198425292969 4.3772954940795898438 11 11 11 11 11 11 11 11 4.3772954940795898438 3.60932159423828125 4.3772954940795898438 11 4.3772954940795898438 11 11 11 11 4.3772954940795898438 3.6093130111694335938 3.60932159423828125 4.2853236198425292969 3.60932159423828125 2.9655323028564453125 2.8071112632751464844 
3.0317518711090087891 4.3773169517517089844 11 11 11 4.3773169517517089844 4.3773169517517089844 11 11 4.3773169517517089844 3.60932159423828125 2.8441710472106933594 2.5004110336303710938 2.2249512672424316406 2.0982258319854736328 2.3835668563842773438 2.8441822528839111328 3.6093304157257080078 4.2853236198425292969 4.3773169517517089844 11 4.3773169517517089844 3.0317518711090087891 2.5004110336303710938 2.402225494384765625 2.402225494384765625 2.8441822528839111328 3.6093304157257080078 4.3773169517517089844 11 4.3773169517517089844 3.60932159423828125 2.8441710472106933594 2.402225494384765625 2.3445448875427246094 2.2079441547393798828 2.0898754596710205078 2.2249648571014404297 2.5004224777221679688 2.8071136474609375 2.9655323028564453125 2.8071136474609375 2.5004224777221679688 2.2249648571014404297 2.0157561302185058594 1.8603965044021606445 1.743199467658996582 1.6526517868041992188 1.5810197591781616211 1.5231379270553588867 1.4754966497421264648 1.4356551170349121094 1.4018751382827758789 1.3728907108306884766 1.3505220413208007812 1.3763108253479003906 1.4061796665191650391 1.4411748647689819336 1.4827318191528320312 1.5328716039657592773 1.594532012939453125 1.6721434593200683594 1.7726942300796508789 1.9078226089477539062 2.0982258319854736328 2.3835668563842773438 2.8441822528839111328 3.6093304157257080078 4.3773169517517089844 11 4.3773169517517089844 3.60932159423828125 2.8441710472106933594 2.3835568428039550781 2.0982172489166259766 1.9255272150039672852 2.1307456493377685547 2.4528989791870117188 3.0317518711090087891 4.3773169517517089844 11 11 11 11 4.3773169517517089844 3.60932159423828125 2.9655323028564453125 2.9655323028564453125 2.9655323028564453125 2.8441822528839111328 3.6093304157257080078 4.3773169517517089844 11 11 11 4.3773169517517089844 4.2853236198425292969 4.2853236198425292969 4.2853236198425292969 4.2853236198425292969 4.3773169517517089844 11 11 11 11 11 4.3773169517517089844 4.3773169517517089844 11 11 4.3773169517517089844 11 4.3773169517517089844 11 11 4.3773169517517089844 11 11 11 4.3773169517517089844 3.60932159423828125 3.6093304157257080078 4.3773169517517089844 11 4.3773169517517089844 4.2853236198425292969 3.6093304157257080078 
3.0317671298980712891 4.3773379325866699219 11 4.3773379325866699219 4.2853236198425292969 3.6093389987945556641 4.3773379325866699219 11 4.3773379325866699219 3.6093304157257080078 2.8441822528839111328 2.5004167556762695312 2.2249581813812255859 2.0529372692108154297 2.1307551860809326172 2.4529106616973876953 3.0317671298980712891 4.3773379325866699219 11 11 11 4.3773379325866699219 3.0317671298980712891 2.5004284381866455078 2.224971771240234375 2.4529106616973876953 3.0317671298980712891 4.3773379325866699219 11 11 4.3773379325866699219 3.0317671298980712891 2.5004167556762695312 2.2249581813812255859 2.0630099773406982422 2.2079558372497558594 2.3445489406585693359 2.5004284381866455078 2.8441934585571289062 3.6093389987945556641 4.2853236198425292969 3.6093389987945556641 2.8441934585571289062 2.3835768699645996094 2.0982344150543212891 1.9078301191329956055 1.7727007865905761719 1.6721491813659667969 1.5945372581481933594 1.5328763723373413086 1.4827361106872558594 1.4411787986755371094 1.4061832427978515625 1.3763141632080078125 1.3514596223831176758 1.3774745464324951172 1.4076484441757202148 1.4430654048919677734 1.4852221012115478516 1.536244511604309082 1.5992583036422729492 1.6790533065795898438 1.7833631038665771484 1.9255352020263671875 2.1307551860809326172 2.4529106616973876953 3.0317671298980712891 4.3773379325866699219 11 11 4.3773379325866699219 3.0317671298980712891 2.5004284381866455078 2.224971771240234375 2.0157628059387207031 1.9078226089477539062 2.0982258319854736328 2.3835668563842773438 2.8441822528839111328 3.6093304157257080078 4.2853236198425292969 4.2853236198425292969 4.2853236198425292969 4.2853236198425292969 3.6093304157257080078 2.8441822528839111328 2.5004167556762695312 2.402225494384765625 2.8441934585571289062 3.6093389987945556641 4.3773379325866699219 11 11 4.3773379325866699219 4.2853236198425292969 4.3773379325866699219 11 11 11 11 11 11 4.3773379325866699219 4.2853236198425292969 4.2853236198425292969 4.2853236198425292969 4.3773379325866699219 11 11 4.3773379325866699219 4.3773379325866699219 11 11 11 4.3773379325866699219 11 11 11 11 4.3773379325866699219 3.6093389987945556641 4.3773379325866699219 11 11 4.3773379325866699219 11 4.3773379325866699219 
3.6093478202819824219 4.3773589134216308594 11 4.3773589134216308594 4.2853236198425292969 4.3773589134216308594 11 11 4.3773589134216308594 3.0317823886871337891 2.5004224777221679688 2.2249648571014404297 2.0529415607452392578 1.9255430698394775391 2.1307644844055175781 2.4529223442077636719 3.0317823886871337891 4.3773589134216308594 11 4.3773589134216308594 11 4.3773589134216308594 3.6093478202819824219 2.8442044258117675781 2.383586883544921875 2.4529223442077636719 3.0317823886871337891 4.3773589134216308594 11 4.3773589134216308594 3.6093389987945556641 2.8441934585571289062 2.3835768699645996094 2.0982344150543212891 2.2249786853790283203 2.5004341602325439453 2.8071188926696777344 2.9655323028564453125 3.6093478202819824219 4.3773589134216308594 11 4.3773589134216308594 3.0317823886871337891 2.4529223442077636719 2.1307644844055175781 1.9255430698394775391 1.783369898796081543 1.6790592670440673828 1.5992635488510131836 1.5362493991851806641 1.4852263927459716797 1.4430693387985229492 1.4076521396636962891 1.3774778842926025391 1.3514628410339355469 1.3763141632080078125 1.4061832427978515625 1.4411787986755371094 1.4827361106872558594 1.5328763723373413086 1.5945372581481933594 1.6721491813659667969 1.7727007865905761719 1.9078301191329956055 2.0982344150543212891 2.3835768699645996094 2.8441934585571289062 3.6093389987945556641 4.3773589134216308594 11 4.3773589134216308594 3.6093478202819824219 2.8442044258117675781 2.383586883544921875 2.0982429981231689453 1.9078375101089477539 2.0157561302185058594 2.2249648571014404297 2.5004224777221679688 2.8071136474609375 2.9655323028564453125 2.9655323028564453125 2.9655323028564453125 2.9655323028564453125 2.8071136474609375 2.5004224777221679688 2.2249786853790283203 2.5004341602325439453 3.0317823886871337891 4.3773589134216308594 11 11 4.3773589134216308594 4.2853236198425292969 4.3773589134216308594 11 11 4.3773589134216308594 4.3773589134216308594 11 11 11 4.3773589134216308594 4.2853236198425292969 4.2853236198425292969 4.3773589134216308594 11 11 11 4.3773589134216308594 4.3773589134216308594 11 11 4.3773589134216308594 11 11 11 11 11 4.3773589134216308594 4.3773589134216308594 11 11 4.3773589134216308594 11 11 11 
4.3773798942565917969 11 11 4.3773798942565917969 11 11 11 4.3773798942565917969 3.6093478202819824219 2.8442044258117675781 2.383586883544921875 2.0982429981231689453 1.9127593040466308594 2.0157763957977294922 2.2249853610992431641 2.5004398822784423828 3.0317976474761962891 4.3773798942565917969 11 4.3773798942565917969 11 11 4.3773798942565917969 3.0317976474761962891 2.8071215152740478516 2.5004398822784423828 3.0317976474761962891 4.3773798942565917969 11 4.3773798942565917969 3.0317976474761962891 2.5004284381866455078 2.224971771240234375 2.3445508480072021484 2.5004398822784423828 2.8442156314849853516 3.6093564033508300781 4.2853236198425292969 4.3773798942565917969 11 11 4.3773798942565917969 3.0317976474761962891 2.4529340267181396484 2.1307740211486816406 1.9255509376525878906 1.7833766937255859375 1.6790652275085449219 1.5992689132690429688 1.5362541675567626953 1.4852308034896850586 1.4430733919143676758 1.4076557159423828125 1.3774813413619995117 1.351466059684753418 1.3728939294815063477 1.4018787145614624023 1.4356589317321777344 1.4755007028579711914 1.5231423377990722656 1.5810245275497436523 1.6526570320129394531 1.7432051897048950195 1.8604028224945068359 2.0157628059387207031 2.224971771240234375 2.5004284381866455078 3.0317976474761962891 4.3773798942565917969 11 11 4.3773798942565917969 3.0317976474761962891 2.4529340267181396484 2.1307740211486816406 1.9255509376525878906 1.9127593040466308594 2.0529458522796630859 2.2079529762268066406 2.3445479869842529297 2.402225494384765625 2.402225494384765625 2.402225494384765625 2.402225494384765625 2.3445479869842529297 2.2249853610992431641 2.5004398822784423828 2.8442156314849853516 3.6093564033508300781 4.3773798942565917969 11 11 4.3773798942565917969 11 11 11 4.3773798942565917969 4.3773798942565917969 11 11 4.3773798942565917969 11 11 11 11 11 11 11 11 4.3773798942565917969 4.3773798942565917969 11 11 4.3773798942565917969 11 11 11 4.3773798942565917969 4.2853236198425292969 4.3773798942565917969 11 11 4.3773798942565917969 4.3773798942565917969 11 4.3773798942565917969 11 
4.3774008750915527344 11 11 11 11 4.3774008750915527344 4.2853236198425292969 3.6093564033508300781 2.8442156314849853516 2.5004341602325439453 2.2249786853790283203 2.0157697200775146484 1.9127786159515380859 2.0982604026794433594 2.3836069107055664062 2.844226837158203125 3.6093652248382568359 4.3774008750915527344 11 4.3774008750915527344 11 11 4.3774008750915527344 4.2853236198425292969 3.6093652248382568359 2.844226837158203125 3.6093652248382568359 4.3774008750915527344 11 4.3774008750915527344 3.0318129062652587891 2.452945709228515625 2.5004456043243408203 2.8071241378784179688 2.9655323028564453125 3.6093652248382568359 4.3774008750915527344 11 11 11 4.3774008750915527344 3.6093564033508300781 2.8442156314849853516 2.3835968971252441406 2.0982518196105957031 1.9078450202941894531 1.772713780403137207 1.6721607446670532227 1.5945476293563842773 1.5328856706619262695 1.4827445745468139648 1.4411866664886474609 1.4061905145645141602 1.376320958137512207 1.3505315780639648438 1.3673965930938720703 1.395001530647277832 1.4269073009490966797 1.4641420841217041016 1.5080585479736328125 1.5604501962661743164 1.6236970424652099609 1.7009094953536987305 1.795935511589050293 1.9127640724182128906 2.0982518196105957031 2.3835968971252441406 2.8442156314849853516 3.6093564033508300781 4.3774008750915527344 11 4.3774008750915527344 3.0318129062652587891 2.452945709228515625 2.1307835578918457031 1.925558924674987793 1.8767610788345336914 1.9031902551651000977 1.9933094978332519531 2.0630114078521728516 2.0898754596710205078 2.0898754596710205078 2.0898754596710205078 2.2079644203186035156 2.3445520401000976562 2.5004456043243408203 2.844226837158203125 3.6093652248382568359 4.3774008750915527344 11 11 4.3774008750915527344 4.3774008750915527344 11 4.3774008750915527344 4.2853236198425292969 4.3774008750915527344 11 11 4.3774008750915527344 4.2853236198425292969 4.2853236198425292969 4.2853236198425292969 4.2853236198425292969 4.2853236198425292969 4.3774008750915527344 11 11 11 11 4.3774008750915527344 11 11 4.3774008750915527344 11 11 4.3774008750915527344 3.6093652248382568359 4.3774008750915527344 11 11 4.3774008750915527344 4.3774008750915527344 11 11 11 11 
11 11 4.377422332763671875 4.2853236198425292969 4.2853236198425292969 3.6093652248382568359 2.9655323028564453125 2.8071215152740478516 2.5004398822784423828 2.2249853610992431641 2.0529544353485107422 1.9127689599990844727 2.0157899856567382812 2.2249991893768310547 2.5004513263702392578 3.0318281650543212891 4.377422332763671875 11 11 4.377422332763671875 11 4.377422332763671875 4.377422332763671875 11 4.377422332763671875 3.0318281650543212891 4.377422332763671875 11 11 4.377422332763671875 3.0318281650543212891 2.5004513263702392578 2.8442380428314208984 3.6093738079071044922 4.2853236198425292969 4.377422332763671875 11 11 11 4.377422332763671875 3.6093652248382568359 2.844226837158203125 2.5004398822784423828 2.2249853610992431641 2.0157763957977294922 1.8604154586791992188 1.7432167530059814453 1.6526676416397094727 1.5810341835021972656 1.5231511592864990234 1.4755089282989501953 1.4356664419174194336 1.4018857479095458984 1.3729006052017211914 1.3477697372436523438 1.3600975275039672852 1.3859474658966064453 1.415507197380065918 1.4495441913604736328 1.4890089035034179688 1.5350596904754638672 1.5945580005645751953 1.6721723079681396484 1.7727267742156982422 1.9078599214553833008 2.0982689857482910156 2.3836169242858886719 2.8442380428314208984 3.6093738079071044922 4.377422332763671875 11 4.377422332763671875 3.0318281650543212891 2.4529573917388916016 2.1307928562164306641 1.9933173656463623047 2.0630137920379638672 2.0898754596710205078 2.0898754596710205078 2.0898754596710205078 2.2079672813415527344 2.3445529937744140625 2.402225494384765625 2.5004513263702392578 2.8071267604827880859 2.9655323028564453125 3.6093738079071044922 4.377422332763671875 11 11 4.377422332763671875 4.377422332763671875 11 11 4.377422332763671875 11 11 11 4.377422332763671875 4.377422332763671875 11 11 4.377422332763671875 3.0318281650543212891 2.9655323028564453125 3.6093652248382568359 4.2853236198425292969 4.2853236198425292969 4.2853236198425292969 4.2853236198425292969 4.377422332763671875 11 11 11 11 11 4.377422332763671875 4.377422332763671875 11 11 4.377422332763671875 3.6093738079071044922 4.377422332763671875 11 11 11 11 
4.2853236198425292969 4.2853236198425292969 3.6093738079071044922 2.9655323028564453125 2.9655323028564453125 2.8071241378784179688 2.5004456043243408203 2.3445508480072021484 2.2079615592956542969 2.0529587268829345703 1.9127738475799560547 1.9078673124313354492 2.0982775688171386719 2.3836269378662109375 2.8442490100860595703 3.60938262939453125 4.3774433135986328125 11 4.3774433135986328125 11 11 4.3774433135986328125 11 11 4.3774433135986328125 4.2853236198425292969 4.3774433135986328125 11 4.3774433135986328125 3.6093738079071044922 2.8442380428314208984 2.8442490100860595703 3.60938262939453125 4.3774433135986328125 11 11 11 4.3774433135986328125 4.2853236198425292969 3.6093738079071044922 2.8442380428314208984 2.5004456043243408203 2.2249922752380371094 2.0529587268829345703 1.9127738475799560547 1.7959454059600830078 1.7009191513061523438 1.6237063407897949219 1.5604588985443115234 1.5080666542053222656 1.4641497135162353516 1.4269144535064697266 1.3950082063674926758 1.3674029111862182617 1.3433089256286621094 1.3514755964279174805 1.3774915933609008789 1.4076668024063110352 1.4430853128433227539 1.4852437973022460938 1.5362684726715087891 1.5992847681045532227 1.6790831089019775391 1.7833970785140991211 1.9255746603012084961 2.1308023929595947266 2.4529690742492675781 3.0318434238433837891 4.3774433135986328125 11 11 4.3774433135986328125 3.0318434238433837891 2.4529690742492675781 2.1308023929595947266 2.2079703807830810547 2.3445539474487304688 2.402225494384765625 2.402225494384765625 2.402225494384765625 2.5004570484161376953 2.8071293830871582031 2.9655323028564453125 2.9655323028564453125 3.60938262939453125 4.2853236198425292969 4.3774433135986328125 11 11 4.3774433135986328125 3.6093738079071044922 4.3774433135986328125 11 11 4.3774433135986328125 11 4.3774433135986328125 4.2853236198425292969 4.2853236198425292969 4.3774433135986328125 11 4.3774433135986328125 3.6093738079071044922 2.8442380428314208984 2.5004456043243408203 2.8071241378784179688 2.9655323028564453125 2.9655323028564453125 2.9655323028564453125 3.0318434238433837891 4.3774433135986328125 11 4.3774433135986328125 11 11 11 11 4.3774433135986328125 11 4.3774433135986328125 3.6093738079071044922 4.3774433135986328125 11 11 11 11 11 
2.9655323028564453125 2.9655323028564453125 2.8071267604827880859 2.5004513263702392578 2.402225494384765625 2.3445520401000976562 2.2079644203186035156 2.0630128383636474609 1.9933141469955444336 1.9031981229782104492 1.8110711574554443359 1.9255826473236083984 2.1308116912841796875 2.4529807567596435547 3.0318586826324462891 4.37746429443359375 11 11 11 11 11 11 11 4.37746429443359375 4.37746429443359375 11 11 11 4.37746429443359375 3.0318586826324462891 2.8442602157592773438 3.6093912124633789062 4.37746429443359375 11 11 4.37746429443359375 4.2853236198425292969 3.60938262939453125 2.9655323028564453125 2.8071267604827880859 2.5004513263702392578 2.2249991893768310547 2.0529627799987792969 1.9127786159515380859 1.8110711574554443359 1.7264523506164550781 1.6524590253829956055 1.5890632867813110352 1.5350672006607055664 1.4890161752700805664 1.4495511054992675781 1.4155137538909912109 1.3859537839889526367 1.3601033687591552734 1.3373452425003051758 1.3505411148071289062 1.3763312101364135742 1.406201481819152832 1.4411984682083129883 1.4827574491500854492 1.5328997373580932617 1.5945631265640258789 1.6721781492233276367 1.7727333307266235352 1.9078673124313354492 2.0982775688171386719 2.3836269378662109375 2.8442490100860595703 3.60938262939453125 4.37746429443359375 11 4.37746429443359375 3.0318586826324462891 2.4529807567596435547 2.2250127792358398438 2.5004627704620361328 2.8071320056915283203 2.9655323028564453125 2.9655323028564453125 2.9655323028564453125 2.9655323028564453125 3.6093912124633789062 4.2853236198425292969 4.2853236198425292969 4.37746429443359375 11 11 11 4.37746429443359375 3.60938262939453125 2.8442602157592773438 3.6093912124633789062 4.37746429443359375 11 11 11 4.37746429443359375 4.37746429443359375 11 11 11 4.37746429443359375 3.0318586826324462891 2.5004513263702392578 2.5004627704620361328 2.8442602157592773438 3.6093912124633789062 4.2853236198425292969 4.2853236198425292969 3.6093912124633789062 4.37746429443359375 11 4.37746429443359375 11 11 4.37746429443359375 4.37746429443359375 11 11 4.37746429443359375 4.2853236198425292969 4.37746429443359375 11 11 11 4.37746429443359375 4.2853236198425292969 
2.402225494384765625 2.402225494384765625 2.3445529937744140625 2.2079672813415527344 2.0898754596710205078 2.0630133152008056641 1.9933158159255981445 1.9032007455825805664 1.8371112346649169922 1.7817788124084472656 1.8604470491409301758 2.0158102512359619141 2.2250196933746337891 2.5004687309265136719 3.0318739414215087891 4.3774852752685546875 11 11 11 11 11 4.3774852752685546875 4.2853236198425292969 4.3774852752685546875 11 11 4.3774852752685546875 4.2853236198425292969 3.6093912124633789062 2.8442714214324951172 3.6094000339508056641 4.3774852752685546875 11 11 4.3774852752685546875 3.6093912124633789062 2.9655323028564453125 2.8071293830871582031 2.5004570484161376953 2.3445529937744140625 2.2079672813415527344 2.052967071533203125 1.912783503532409668 1.8110746145248413086 1.7264561653137207031 1.659557342529296875 1.6030076742172241211 1.5521119832992553711 1.5070554018020629883 1.4674477577209472656 1.4326856136322021484 1.4021308422088623047 1.3751884698867797852 1.3513343334197998047 1.3301199674606323242 1.3477790355682373047 1.3729104995727539062 1.401896357536315918 1.4356777667999267578 1.475521087646484375 1.5231645107269287109 1.5810487270355224609 1.6526833772659301758 1.7432341575622558594 1.860434412956237793 2.015796661376953125 2.2250058650970458984 2.5004570484161376953 3.0318739414215087891 4.3774852752685546875 11 4.3774852752685546875 3.0318739414215087891 2.4529924392700195312 2.3836469650268554688 2.8442714214324951172 3.6094000339508056641 4.2853236198425292969 4.2853236198425292969 4.2853236198425292969 4.2853236198425292969 4.3774852752685546875 11 11 11 11 4.3774852752685546875 4.2853236198425292969 3.6093912124633789062 2.8442602157592773438 3.0318739414215087891 4.3774852752685546875 11 11 4.3774852752685546875 4.2853236198425292969 4.3774852752685546875 11 11 4.3774852752685546875 4.2853236198425292969 3.6093912124633789062 2.8442602157592773438 2.3836469650268554688 2.8442714214324951172 3.6094000339508056641 4.3774852752685546875 11 11 4.3774852752685546875 4.3774852752685546875 11 11 11 11 4.3774852752685546875 4.3774852752685546875 11 4.3774852752685546875 11 11 11 11 11 4.3774852752685546875 4.2853236198425292969 4.2853236198425292969 
2.0898754596710205078 2.0898754596710205078 2.0630137920379638672 1.9933173656463623047 1.9032033681869506836 1.8767610788345336914 1.8371121883392333984 1.7817806005477905273 1.7452231645584106445 1.8110914230346679688 1.9128029346466064453 2.0983035564422607422 2.3836569786071777344 2.8442826271057128906 3.6094086170196533203 4.377506256103515625 11 11 11 11 4.377506256103515625 4.377506256103515625 11 11 11 4.377506256103515625 3.6094000339508056641 2.9655323028564453125 2.8442826271057128906 3.6094086170196533203 4.377506256103515625 11 11 4.377506256103515625 3.6094000339508056641 2.8442714214324951172 2.5004627704620361328 2.3445539474487304688 2.2079703807830810547 2.0630137920379638672 1.9933173656463623047 1.9032033681869506836 1.8110779523849487305 1.7264598608016967773 1.659560084342956543 1.6030106544494628906 1.5557413101196289062 1.5153065919876098633 1.4782158136367797852 1.4446457624435424805 1.4144713878631591797 1.3874260187149047852 1.3631917238235473633 1.3414481878280639648 1.3221213817596435547 1.343317866325378418 1.3674123287200927734 1.3950182199478149414 1.4269251823425292969 1.4641610383987426758 1.5080788135528564453 1.5604718923568725586 1.6237200498580932617 1.7009336948394775391 1.7959603071212768555 1.9255985021591186523 2.1308307647705078125 2.4530041217803955078 3.0318892002105712891 4.377506256103515625 11 4.377506256103515625 3.0318892002105712891 2.4530041217803955078 2.4530041217803955078 3.0318892002105712891 4.377506256103515625 11 11 11 11 11 11 4.377506256103515625 4.2853236198425292969 4.2853236198425292969 3.6094000339508056641 2.9655323028564453125 2.8071320056915283203 2.5004627704620361328 3.0318892002105712891 4.377506256103515625 11 11 4.377506256103515625 4.377506256103515625 11 11 4.377506256103515625 3.6094000339508056641 2.9655323028564453125 2.8071320056915283203 2.5004627704620361328 2.4530041217803955078 3.0318892002105712891 4.377506256103515625 11 11 4.377506256103515625 3.6094000339508056641 3.6094000339508056641 4.2853236198425292969 4.377506256103515625 11 4.377506256103515625 3.6094000339508056641 4.377506256103515625 11 11 11 4.377506256103515625 11 11 4.377506256103515625 4.377506256103515625 11 11 
1.8913290500640869141 1.8913290500640869141 1.876761317253112793 1.8371131420135498047 1.7817822694778442383 1.7452223300933837891 1.7817907333374023438 1.8371177911758422852 1.8767626285552978516 1.9128078222274780273 2.0529882907867431641 2.2250332832336425781 2.5004801750183105469 3.0319044589996337891 4.3775277137756347656 11 11 11 11 4.3775277137756347656 4.3775277137756347656 11 11 4.3775277137756347656 4.2853236198425292969 3.6094086170196533203 2.9655323028564453125 2.9655323028564453125 3.6094174385070800781 4.3775277137756347656 11 11 4.3775277137756347656 3.6094086170196533203 2.8442826271057128906 2.5004687309265136719 2.2250196933746337891 2.0630142688751220703 1.9933189153671264648 1.9032061100006103516 1.8371131420135498047 1.7817822694778442383 1.7203544378280639648 1.6595628261566162109 1.6030137538909912109 1.5557436943054199219 1.5153090953826904297 1.4801628589630126953 1.4498236179351806641 1.4216182231903076172 1.3956836462020874023 1.3719888925552368164 1.3504114151000976562 1.3307857513427734375 1.3171901702880859375 1.3373537063598632812 1.360112309455871582 1.3859630823135375977 1.415523529052734375 1.4495613574981689453 1.4890269041061401367 1.5362875461578369141 1.5993059873580932617 1.6791069507598876953 1.78342437744140625 1.9256063699722290039 2.1308400630950927734 2.4530158042907714844 3.0319044589996337891 4.3775277137756347656 11 4.3775277137756347656 3.0319044589996337891 2.5004801750183105469 2.3836569786071777344 2.8442826271057128906 3.6094086170196533203 4.3775277137756347656 11 11 4.3775277137756347656 4.2853236198425292969 4.2853236198425292969 3.6094086170196533203 2.9655323028564453125 2.9655323028564453125 2.8071346282958984375 2.5004687309265136719 2.3445551395416259766 2.3836569786071777344 2.8442826271057128906 3.6094086170196533203 4.3775277137756347656 11 11 11 11 11 4.3775277137756347656 3.0319044589996337891 2.5004687309265136719 2.3445551395416259766 2.2250332832336425781 2.5004801750183105469 3.0319044589996337891 4.3775277137756347656 11 11 4.3775277137756347656 3.0319044589996337891 3.0319044589996337891 4.3775277137756347656 11 11 4.3775277137756347656 3.0319044589996337891 4.3775277137756347656 11 11 4.3775277137756347656 3.6094086170196533203 4.3775277137756347656 11 11 11 11 11 
1.75397491455078125 1.75397491455078125 1.7452225685119628906 1.7207303047180175781 1.726482391357421875 1.8110980987548828125 1.9032192230224609375 1.9933267831802368164 2.0630166530609130859 2.0898754596710205078 2.2250401973724365234 2.5004858970642089844 2.8443048000335693359 3.6094260215759277344 4.3775486946105957031 11 4.3775486946105957031 11 4.3775486946105957031 3.6094260215759277344 4.3775486946105957031 11 4.3775486946105957031 4.2853236198425292969 4.2853236198425292969 4.2853236198425292969 4.2853236198425292969 4.2853236198425292969 4.3775486946105957031 11 11 4.3775486946105957031 3.6094174385070800781 2.8442935943603515625 2.5004744529724121094 2.2250263690948486328 2.0529799461364746094 1.9127980470657348633 1.8371140956878662109 1.7817839384078979492 1.7207303047180175781 1.6848897933959960938 1.6428107023239135742 1.5987921953201293945 1.5557460784912109375 1.5153117179870605469 1.4801648855209350586 1.4498258829116821289 1.4226802587509155273 1.3990797996520996094 1.3769208192825317383 1.3563050031661987305 1.3372350931167602539 1.3196544647216796875 1.3111737966537475586 1.3301278352737426758 1.3514915704727172852 1.3775087594985961914 1.4076852798461914062 1.4431053400039672852 1.4852656126022338867 1.5362924337387084961 1.5993113517761230469 1.6791130304336547852 1.7834311723709106445 1.9256143569946289062 2.1308495998382568359 2.4530277252197265625 3.0319197177886962891 4.3775486946105957031 11 4.3775486946105957031 3.6094260215759277344 2.8443048000335693359 2.3836772441864013672 2.5004744529724121094 2.8442935943603515625 3.6094174385070800781 4.2853236198425292969 4.2853236198425292969 3.6094174385070800781 2.9655323028564453125 2.9655323028564453125 2.8071372509002685547 2.5004744529724121094 2.402225494384765625 2.3445560932159423828 2.2079761028289794922 2.2250401973724365234 2.5004858970642089844 2.8443048000335693359 3.6094260215759277344 4.3775486946105957031 11 11 4.3775486946105957031 4.2853236198425292969 4.2853236198425292969 3.6094174385070800781 2.8442935943603515625 2.3836669921875 2.0983207225799560547 2.3836772441864013672 2.8443048000335693359 3.6094260215759277344 4.3775486946105957031 11 11 4.3775486946105957031 3.0319197177886962891 3.6094260215759277344 4.3775486946105957031 11 4.3775486946105957031 3.6094174385070800781 3.6094260215759277344 4.3775486946105957031 11 4.3775486946105957031 3.6094260215759277344 3.6094260215759277344 4.3775486946105957031 11 11 4.3775486946105957031 4.2853236198425292969 4.2853236198425292969 
1.6533008813858032227 1.6533008813858032227 1.6524939537048339844 1.7264860868453979492 1.8111015558242797852 1.9128174781799316406 2.0529968738555908203 2.2079877853393554688 2.3445601463317871094 2.402225494384765625 2.5004916191101074219 2.8443160057067871094 3.6094348430633544922 4.3775696754455566406 11 11 4.3775696754455566406 11 4.3775696754455566406 4.3775696754455566406 11 11 11 11 11 11 11 11 11 11 4.3775696754455566406 3.6094260215759277344 2.8443048000335693359 2.5004801750183105469 2.2250332832336425781 2.0529842376708984375 1.9128029346466064453 1.8110880851745605469 1.7264710664749145508 1.6848908662796020508 1.6428123712539672852 1.6072031259536743164 1.5775116682052612305 1.5451474189758300781 1.5122219324111938477 1.4801669120788574219 1.449828028678894043 1.4226821660995483398 1.3990818262100219727 1.3774894475936889648 1.3586091995239257812 1.3407468795776367188 1.3239777088165283203 1.3083156347274780273 1.308915257453918457 1.3288323879241943359 1.3514947891235351562 1.3775120973587036133 1.4076889753341674805 1.4431092739105224609 1.4852699041366577148 1.5362972021102905273 1.599316716194152832 1.6791189908981323242 1.7834379673004150391 1.9256222248077392578 2.1308591365814208984 2.4530394077301025391 3.0319349765777587891 4.3775696754455566406 11 11 4.3775696754455566406 3.0319349765777587891 2.4530394077301025391 2.2250332832336425781 2.5004801750183105469 2.8071398735046386719 2.9655323028564453125 2.9655323028564453125 2.8071398735046386719 2.5004801750183105469 2.402225494384765625 2.3445570468902587891 2.2079789638519287109 2.0898754596710205078 2.2079877853393554688 2.3445601463317871094 2.5004916191101074219 2.8443160057067871094 3.6094348430633544922 4.3775696754455566406 11 11 4.3775696754455566406 3.6094260215759277344 2.9655323028564453125 2.9655323028564453125 2.8071398735046386719 2.5004801750183105469 2.2250332832336425781 2.1308591365814208984 2.4530394077301025391 3.0319349765777587891 4.3775696754455566406 11 11 4.3775696754455566406 3.6094260215759277344 3.0319349765777587891 4.3775696754455566406 11 11 4.3775696754455566406 4.2853236198425292969 4.3775696754455566406 11 11 11 4.3775696754455566406 4.3775696754455566406 11 11 4.3775696754455566406 3.6094260215759277344 2.9655323028564453125 2.9655323028564453125 
1.5763448476791381836 1.6237522363662719727 1.7009675502777099609 1.7959949970245361328 1.9128223657608032227 2.0530011653900146484 2.2250537872314453125 2.5004973411560058594 2.8071477413177490234 2.9655323028564453125 2.8443272113800048828 3.60944366455078125 4.3775906562805175781 11 11 4.3775906562805175781 4.3775906562805175781 11 4.3775906562805175781 11 11 11 11 4.3775906562805175781 4.2853236198425292969 4.2853236198425292969 4.2853236198425292969 4.2853236198425292969 4.2853236198425292969 4.2853236198425292969 3.6094348430633544922 2.8443160057067871094 2.5004858970642089844 2.2250401973724365234 2.0529882907867431641 1.9128078222274780273 1.8110914230346679688 1.7264748811721801758 1.6595711708068847656 1.6072038412094116211 1.5775128602981567383 1.5451489686965942383 1.5226165056228637695 1.4983888864517211914 1.4729635715484619141 1.4474700689315795898 1.4226839542388916016 1.3990837335586547852 1.3774911165237426758 1.358610987663269043 1.3410286903381347656 1.3255823850631713867 1.3108808994293212891 1.2969802618026733398 1.311191558837890625 1.3301463127136230469 1.3514980077743530273 1.3775155544281005859 1.4076926708221435547 1.4431133270263671875 1.4852743148803710938 1.5363019704818725586 1.5993219614028930664 1.6791249513626098633 1.7834447622299194336 1.9256300926208496094 2.1308684349060058594 2.4530510902404785156 3.0319502353668212891 4.3775906562805175781 11 4.3775906562805175781 3.6094348430633544922 2.8443160057067871094 2.3836872577667236328 2.0983293056488037109 2.2079818248748779297 2.3445580005645751953 2.402225494384765625 2.402225494384765625 2.3445580005645751953 2.2079818248748779297 2.0898754596710205078 2.0630176067352294922 2.2079906463623046875 2.3445611000061035156 2.5004973411560058594 2.8071477413177490234 2.9655323028564453125 3.60944366455078125 4.3775906562805175781 11 11 4.3775906562805175781 3.6094348430633544922 2.8443160057067871094 2.5004858970642089844 2.402225494384765625 2.3445580005645751953 2.2079906463623046875 2.3445611000061035156 2.402225494384765625 2.5004973411560058594 3.0319502353668212891 4.3775906562805175781 11 4.3775906562805175781 3.6094348430633544922 3.60944366455078125 4.2853236198425292969 4.3775906562805175781 11 4.3775906562805175781 4.3775906562805175781 11 11 11 11 11 11 11 11 4.3775906562805175781 3.6094348430633544922 2.8443160057067871094 2.5004858970642089844 2.402225494384765625 
1.5810873508453369141 1.6527256965637207031 1.7432804107666015625 1.8604849576950073242 2.0158507823944091797 2.2250607013702392578 2.5005033016204833984 2.8443384170532226562 3.6094522476196289062 4.2853236198425292969 3.6094522476196289062 4.3776116371154785156 11 11 4.3776116371154785156 3.6094522476196289062 4.3776116371154785156 11 4.3776116371154785156 11 4.3776116371154785156 4.2853236198425292969 4.2853236198425292969 3.60944366455078125 2.9655323028564453125 2.9655323028564453125 2.9655323028564453125 2.9655323028564453125 2.9655323028564453125 2.9655323028564453125 2.8071451187133789062 2.5004916191101074219 2.2250468730926513672 2.0529925823211669922 1.9128125905990600586 1.8110947608947753906 1.72647857666015625 1.6595740318298339844 1.6030259132385253906 1.5557531118392944336 1.5226174592971801758 1.4983900785446166992 1.4762625694274902344 1.4577908515930175781 1.4379255771636962891 1.4175209999084472656 1.3972256183624267578 1.3774927854537963867 1.3586126565933227539 1.341030120849609375 1.3255839347839355469 1.3109909296035766602 1.2981204986572265625 1.2992404699325561523 1.3172117471694946289 1.3373762369155883789 1.3601360321044921875 1.3859881162643432617 1.4155498743057250977 1.4495890140533447266 1.4890558719635009766 1.5363067388534545898 1.5993273258209228516 1.6791309118270874023 1.7834515571594238281 1.9256380796432495117 2.1308779716491699219 2.4530627727508544922 3.0319654941558837891 4.3776116371154785156 11 4.3776116371154785156 3.0319654941558837891 2.5004916191101074219 2.2250468730926513672 2.0158374309539794922 1.9933252334594726562 2.0630161762237548828 2.0898754596710205078 2.0898754596710205078 2.0630183219909667969 2.0898754596710205078 2.2079935073852539062 2.3445620536804199219 2.5005033016204833984 2.8071503639221191406 2.9655323028564453125 3.6094522476196289062 4.2853236198425292969 4.3776116371154785156 11 11 4.3776116371154785156 3.60944366455078125 2.8443272113800048828 2.5004916191101074219 2.2250468730926513672 2.3445620536804199219 2.402225494384765625 2.5005033016204833984 2.8071503639221191406 2.9655323028564453125 2.9655323028564453125 3.6094522476196289062 4.3776116371154785156 11 4.3776116371154785156 4.2853236198425292969 4.3776116371154785156 11 11 11 11 11 11 11 11 11 11 11 4.3776116371154785156 4.2853236198425292969 4.2853236198425292969 3.6094522476196289062 2.8443384170532226562 2.3837072849273681641 2.098346710205078125 
1.5946097373962402344 1.6722302436828613281 1.7727921009063720703 1.9079345464706420898 2.0983552932739257812 2.3837172985076904297 2.8443493843078613281 3.6094610691070556641 4.3776330947875976562 11 4.3776330947875976562 11 11 4.3776330947875976562 3.6094522476196289062 4.3776330947875976562 11 11 11 11 4.3776330947875976562 3.0319807529449462891 2.9655323028564453125 2.8071477413177490234 2.5004973411560058594 2.402225494384765625 2.402225494384765625 2.402225494384765625 2.402225494384765625 2.402225494384765625 2.3445601463317871094 2.2079877853393554688 2.0529968738555908203 1.9128174781799316406 1.8371224403381347656 1.7817991971969604492 1.720377802848815918 1.6595907211303710938 1.6030441522598266602 1.5521498918533325195 1.5070936679840087891 1.4674855470657348633 1.4379267692565917969 1.4225101470947265625 1.4067945480346679688 1.3903306722640991211 1.3736377954483032227 1.3571110963821411133 1.3410316705703735352 1.325585484504699707 1.3109922409057617188 1.2981219291687011719 1.2883396148681640625 1.3042908906936645508 1.3221466541290283203 1.3433446884155273438 1.3674408197402954102 1.3950483798980712891 1.426957249641418457 1.46419525146484375 1.5081152915954589844 1.5605107545852661133 1.6237614154815673828 1.7009772062301635742 1.7960050106048583984 1.9256459474563598633 2.1308875083923339844 2.4530744552612304688 3.0319807529449462891 4.3776330947875976562 11 4.3776330947875976562 3.0319807529449462891 2.4530744552612304688 2.1308875083923339844 1.9256459474563598633 1.8371224403381347656 1.9128320217132568359 2.0530097484588623047 2.207996368408203125 2.3445632457733154297 2.402225494384765625 2.5005090236663818359 2.8071529865264892578 2.9655323028564453125 3.6094610691070556641 4.2853236198425292969 4.3776330947875976562 11 11 11 4.3776330947875976562 3.6094522476196289062 2.8443384170532226562 2.5004973411560058594 2.3445632457733154297 2.5005090236663818359 2.8071529865264892578 2.9655323028564453125 2.9655323028564453125 3.6094610691070556641 4.2853236198425292969 4.2853236198425292969 4.3776330947875976562 11 11 4.3776330947875976562 11 11 11 11 4.3776330947875976562 11 11 11 11 11 11 4.3776330947875976562 11 11 11 11 4.3776330947875976562 3.0319807529449462891 2.4530744552612304688 2.1308875083923339844 
1.5993379354476928711 1.6791428327560424805 1.783465266227722168 1.9256539344787597656 2.1308968067169189453 2.4530861377716064453 3.0319960117340087891 4.3776540756225585938 11 11 11 11 4.3776540756225585938 3.6094610691070556641 3.6094696521759033203 4.3776540756225585938 11 4.3776540756225585938 4.2853236198425292969 4.2853236198425292969 3.6094610691070556641 2.8443493843078613281 2.402225494384765625 2.3445611000061035156 2.2079906463623046875 2.0898754596710205078 2.0898754596710205078 2.0898754596710205078 2.0898754596710205078 2.0898754596710205078 2.0630192756652832031 2.0898754596710205078 2.0898754596710205078 2.0630192756652832031 1.9933347702026367188 1.9032324552536010742 1.8111150264739990234 1.7265011072158813477 1.6525094509124755859 1.5891134738922119141 1.5351160764694213867 1.4890630245208740234 1.4495959281921386719 1.4155564308166503906 1.3859943151473999023 1.3657554388046264648 1.3519457578659057617 1.3380585908889770508 1.3243468999862670898 1.3109935522079467773 1.2981233596801757812 1.2858175039291381836 1.2941868305206298828 1.311199188232421875 1.3301542997360229492 1.3513702154159545898 1.3752256631851196289 1.4021694660186767578 1.435715794563293457 1.4755620956420898438 1.5232088565826416016 1.5810970067977905273 1.6527363061904907227 1.7432919740676879883 1.860497593879699707 2.0158643722534179688 2.2250742912292480469 2.5005147457122802734 3.0319960117340087891 4.3776540756225585938 11 4.3776540756225585938 3.0319960117340087891 2.4530861377716064453 2.1308968067169189453 1.9256539344787597656 1.9933347702026367188 2.0630192756652832031 2.2250742912292480469 2.5005147457122802734 2.807155609130859375 2.9655323028564453125 2.9655323028564453125 3.6094696521759033203 4.2853236198425292969 4.3776540756225585938 11 11 11 4.3776540756225585938 4.2853236198425292969 3.6094610691070556641 2.8443493843078613281 2.5005033016204833984 2.5005147457122802734 2.807155609130859375 2.9655323028564453125 3.6094696521759033203 4.2853236198425292969 4.2853236198425292969 4.3776540756225585938 11 11 11 11 11 11 11 4.3776540756225585938 4.2853236198425292969 4.2853236198425292969 3.6094610691070556641 4.2853236198425292969 4.2853236198425292969 4.2853236198425292969 4.2853236198425292969 4.3776540756225585938 11 11 11 4.3776540756225585938 4.2853236198425292969 4.2853236198425292969 3.6094610691070556641 2.8443493843078613281 2.3837172985076904297 2.0983552932739257812 
1.5993431806564331055 1.6791487932205200195 1.7834720611572265625 1.9256618022918701172 2.1309063434600830078 2.4530978202819824219 3.0320112705230712891 4.3776750564575195312 11 11 4.3776750564575195312 4.2853236198425292969 3.6094696521759033203 3.0320112705230712891 4.3776750564575195312 11 11 4.3776750564575195312 3.0320112705230712891 2.9655323028564453125 2.8071529865264892578 2.5005090236663818359 2.2250673770904541016 2.0630176067352294922 1.9933300018310546875 1.9032351970672607422 1.9933363199234008789 2.0630197525024414062 2.0898754596710205078 2.2080023288726806641 2.3445651531219482422 2.402225494384765625 2.402225494384765625 2.3445651531219482422 2.2080023288726806641 2.0530183315277099609 1.912841796875 1.7960149049758911133 1.7009868621826171875 1.623770594596862793 1.5605194568634033203 1.5081233978271484375 1.464202880859375 1.4269644021987915039 1.3950551748275756836 1.3736529350280761719 1.3571276664733886719 1.3410494327545166016 1.3256043195724487305 1.3109035491943359375 1.2970033884048461914 1.2839206457138061523 1.2992480993270874023 1.3172197341918945312 1.3373848199844360352 1.3601449728012084961 1.3859974145889282227 1.4155596494674682617 1.4495993852615356445 1.4890667200088500977 1.5351197719573974609 1.5946202278137207031 1.6722418069839477539 1.7728050947189331055 1.9079494476318359375 2.0983724594116210938 2.3837373256683349609 2.844371795654296875 3.6094784736633300781 4.3776750564575195312 11 4.3776750564575195312 3.0320112705230712891 2.4530978202819824219 2.1309063434600830078 2.0898754596710205078 2.2080023288726806641 2.3445651531219482422 2.5005204677581787109 2.844371795654296875 3.6094784736633300781 4.2853236198425292969 4.2853236198425292969 4.3776750564575195312 11 11 11 4.3776750564575195312 4.2853236198425292969 3.6094696521759033203 2.9655323028564453125 2.9655323028564453125 2.9655323028564453125 2.9655323028564453125 2.9655323028564453125 3.6094784736633300781 4.2853236198425292969 4.3776750564575195312 11 11 11 11 4.3776750564575195312 4.2853236198425292969 4.2853236198425292969 4.2853236198425292969 4.2853236198425292969 4.2853236198425292969 3.6094696521759033203 2.9655323028564453125 2.9655323028564453125 2.9655323028564453125 2.9655323028564453125 2.9655323028564453125 3.6094784736633300781 4.3776750564575195312 11 11 11 11 11 4.3776750564575195312 4.2853236198425292969 3.6094784736633300781 2.844371795654296875 2.402225494384765625 2.3445651531219482422 
1.5993485450744628906 1.6791547536849975586 1.783478856086730957 1.9256697893142700195 2.1309158802032470703 2.4531097412109375 3.0320265293121337891 4.3776965141296386719 11 11 4.3776965141296386719 3.6094870567321777344 2.9655323028564453125 3.6094870567321777344 4.3776965141296386719 11 4.3776965141296386719 3.6094784736633300781 2.844371795654296875 2.402225494384765625 2.3445632457733154297 2.207996368408203125 2.0530097484588623047 1.9933378696441650391 2.0630202293395996094 2.0898754596710205078 2.2080051898956298828 2.34456634521484375 2.402225494384765625 2.5005261898040771484 2.8071608543395996094 2.9655323028564453125 2.9655323028564453125 2.8071608543395996094 2.5005261898040771484 2.2250878810882568359 2.0158779621124267578 1.8605102300643920898 1.7433036565780639648 1.6527467966079711914 1.5811066627502441406 1.5232177972793579102 1.4755703210830688477 1.4379404783248901367 1.4175385236740112305 1.3972452878952026367 1.3775141239166259766 1.3586353063583374023 1.3407738208770751953 1.3240052461624145508 1.3083434104919433594 1.293763279914855957 1.3033727407455444336 1.3221551179885864258 1.3433536291122436523 1.3674502372741699219 1.3950585126876831055 1.4269679784774780273 1.464206695556640625 1.5081274509429931641 1.5605237483978271484 1.6237752437591552734 1.7009917497634887695 1.7960199117660522461 1.9256697893142700195 2.1309158802032470703 2.4531097412109375 3.0320265293121337891 4.3776965141296386719 11 11 4.3776965141296386719 3.0320265293121337891 2.4531097412109375 2.402225494384765625 2.402225494384765625 2.5005261898040771484 2.8071608543395996094 2.9655323028564453125 3.6094870567321777344 4.3776965141296386719 11 11 11 11 4.3776965141296386719 4.2853236198425292969 4.2853236198425292969 4.2853236198425292969 4.2853236198425292969 4.2853236198425292969 4.2853236198425292969 4.2853236198425292969 4.2853236198425292969 4.2853236198425292969 4.3776965141296386719 11 11 11 4.3776965141296386719 4.2853236198425292969 4.2853236198425292969 3.6094784736633300781 2.9655323028564453125 2.9655323028564453125 2.9655323028564453125 2.9655323028564453125 2.9655323028564453125 2.9655323028564453125 3.6094870567321777344 4.2853236198425292969 4.2853236198425292969 4.2853236198425292969 4.2853236198425292969 4.3776965141296386719 11 11 11 11 4.3776965141296386719 11 11 11 4.3776965141296386719 3.0320265293121337891 2.9655323028564453125 2.8071608543395996094 
1.6596018075942993164 1.7203871011734008789 1.781805872917175293 1.9079568386077880859 2.0983812808990478516 2.3837473392486572266 2.8443830013275146484 3.6094870567321777344 4.3777174949645996094 11 11 4.3777174949645996094 4.2853236198425292969 4.3777174949645996094 11 11 4.3777174949645996094 3.0320417881011962891 2.5005204677581787109 2.2250812053680419922 2.063018798828125 1.9933394193649291992 2.0630207061767578125 2.2080080509185791016 2.3445672988891601562 2.402225494384765625 2.5005321502685546875 2.8071634769439697266 2.9655323028564453125 2.9655323028564453125 3.6094958782196044922 4.2853236198425292969 4.2853236198425292969 3.6094958782196044922 2.8443942070007324219 2.3837573528289794922 2.0983898639678955078 1.9079643487930297852 1.7728182077407836914 1.6722533702850341797 1.5946305990219116211 1.5329608917236328125 1.49840545654296875 1.4729838371276855469 1.447493433952331543 1.4227095842361450195 1.3991109132766723633 1.376953125 1.3563379049301147461 1.3372682332992553711 1.3196876049041748047 1.3035066127777099609 1.3109067678451538086 1.3258268833160400391 1.3478193283081054688 1.3729534149169921875 1.4019422531127929688 1.4357271194458007812 1.4755743741989135742 1.5232222080230712891 1.5811115503311157227 1.6527521610260009766 1.7433093786239624023 1.8605165481567382812 2.0158846378326416016 2.2250947952270507812 2.5005321502685546875 3.0320417881011962891 4.3777174949645996094 11 4.3777174949645996094 3.6094870567321777344 2.8443830013275146484 2.9655323028564453125 2.9655323028564453125 2.9655323028564453125 2.9655323028564453125 3.6094958782196044922 4.2853236198425292969 4.3777174949645996094 11 11 4.3777174949645996094 4.2853236198425292969 4.2853236198425292969 4.2853236198425292969 4.3777174949645996094 11 11 11 11 11 11 11 11 11 11 4.3777174949645996094 4.2853236198425292969 3.6094870567321777344 2.9655323028564453125 2.9655323028564453125 2.8071634769439697266 2.9655323028564453125 3.6094958782196044922 4.2853236198425292969 4.2853236198425292969 4.2853236198425292969 4.2853236198425292969 4.3777174949645996094 11 11 11 11 11 11 4.3777174949645996094 11 11 11 4.3777174949645996094 4.2853236198425292969 4.2853236198425292969 4.2853236198425292969 4.2853236198425292969 4.2853236198425292969 3.6094958782196044922 
1.7265161275863647461 1.8111284971237182617 1.9032430648803710938 1.9933410882949829102 2.0630211830139160156 2.2251017093658447266 2.500537872314453125 2.8444051742553710938 3.60950469970703125 4.3777384757995605469 11 4.3777384757995605469 11 11 11 4.3777384757995605469 3.6094958782196044922 2.8443942070007324219 2.3837573528289794922 2.0983898639678955078 2.0530309677124023438 2.2080109119415283203 2.3445682525634765625 2.500537872314453125 2.8071660995483398438 2.9655323028564453125 2.9655323028564453125 3.60950469970703125 4.2853236198425292969 4.2853236198425292969 4.3777384757995605469 11 11 4.3777384757995605469 3.0320570468902587891 2.4531331062316894531 2.1309347152709960938 1.9256856441497802734 1.7834924459457397461 1.6791666746139526367 1.6072146892547607422 1.5775294303894042969 1.5451706647872924805 1.5122497081756591797 1.480197906494140625 1.4498612880706787109 1.4216573238372802734 1.3957234621047973633 1.3720288276672363281 1.3504509925842285156 1.330824732780456543 1.3129701614379882812 1.3240088224411010742 1.3407773971557617188 1.358638763427734375 1.3775174617767333984 1.4062526226043701172 1.441253662109375 1.482817530632019043 1.532965540885925293 1.5946357250213623047 1.6722590923309326172 1.7728247642517089844 1.9079718589782714844 2.0983984470367431641 2.3837673664093017578 2.8444051742553710938 3.60950469970703125 4.3777384757995605469 11 4.3777384757995605469 3.0320570468902587891 3.60950469970703125 4.2853236198425292969 4.2853236198425292969 4.2853236198425292969 4.2853236198425292969 4.3777384757995605469 11 11 11 4.3777384757995605469 4.2853236198425292969 4.3777384757995605469 11 11 11 11 4.3777384757995605469 4.2853236198425292969 4.2853236198425292969 4.2853236198425292969 4.2853236198425292969 4.2853236198425292969 4.2853236198425292969 4.2853236198425292969 4.2853236198425292969 3.6094958782196044922 2.9655323028564453125 2.8071608543395996094 2.500537872314453125 2.8444051742553710938 3.60950469970703125 4.2853236198425292969 4.3777384757995605469 11 11 11 11 11 11 4.3777384757995605469 4.2853236198425292969 4.2853236198425292969 4.2853236198425292969 4.2853236198425292969 3.6094958782196044922 4.2853236198425292969 4.3777384757995605469 11 11 11 11 11 11 11 4.3777384757995605469 
1.8111318349838256836 1.9128612279891967773 2.0530352592468261719 2.2080140113830566406 2.3445692062377929688 2.5005435943603515625 2.8444163799285888672 3.6095132827758789062 4.3777594566345214844 11 11 11 11 4.3777594566345214844 4.2853236198425292969 3.60950469970703125 2.8444051742553710938 2.5005321502685546875 2.2250947952270507812 2.0158982276916503906 2.2251086235046386719 2.5005435943603515625 2.8071684837341308594 2.9655323028564453125 3.6095132827758789062 4.2853236198425292969 4.2853236198425292969 4.3777594566345214844 11 11 11 11 4.3777594566345214844 3.60950469970703125 2.8444051742553710938 2.3837673664093017578 2.0983984470367431641 1.9079718589782714844 1.7728247642517089844 1.7207397222518920898 1.6849077939987182617 1.6428370475769042969 1.5988253355026245117 1.5557839870452880859 1.5153527259826660156 1.47826385498046875 1.4446943998336791992 1.4145199060440063477 1.3874738216400146484 1.3632384538650512695 1.3414936065673828125 1.3219392299652099609 1.3372724056243896484 1.3563420772552490234 1.3769571781158447266 1.3991148471832275391 1.4227132797241210938 1.4474967718124389648 1.4853091239929199219 1.5363402366638183594 1.5993645191192626953 1.6791727542877197266 1.7834992408752441406 1.925693511962890625 2.1309442520141601562 2.4531447887420654297 3.0320723056793212891 4.3777594566345214844 11 11 4.3777594566345214844 4.2853236198425292969 4.3777594566345214844 11 11 11 11 11 11 4.3777594566345214844 4.2853236198425292969 4.3777594566345214844 11 11 11 4.3777594566345214844 4.2853236198425292969 4.2853236198425292969 3.60950469970703125 2.9655323028564453125 2.9655323028564453125 2.9655323028564453125 2.9655323028564453125 2.9655323028564453125 2.9655323028564453125 2.9655323028564453125 2.9655323028564453125 2.8071634769439697266 2.5005435943603515625 2.8071684837341308594 2.9655323028564453125 3.6095132827758789062 4.3777594566345214844 11 11 11 4.3777594566345214844 4.2853236198425292969 4.2853236198425292969 4.2853236198425292969 4.2853236198425292969 3.60950469970703125 2.9655323028564453125 2.9655323028564453125 2.9655323028564453125 2.9655323028564453125 2.9655323028564453125 2.9655323028564453125 3.60950469970703125 4.2853236198425292969 4.2853236198425292969 4.3777594566345214844 11 11 4.3777594566345214844 4.2853236198425292969 3.6095132827758789062 
1.9128661155700683594 2.05303955078125 2.2251152992248535156 2.50054931640625 2.8071711063385009766 2.9655323028564453125 3.6095221042633056641 4.377780914306640625 11 11 11 11 4.377780914306640625 3.6095132827758789062 2.9655323028564453125 2.8071660995483398438 2.500537872314453125 2.2251017093658447266 2.0530266761779785156 2.0984158515930175781 2.3837876319885253906 2.8444275856018066406 3.6095221042633056641 4.2853236198425292969 4.377780914306640625 11 11 11 11 4.377780914306640625 4.2853236198425292969 4.2853236198425292969 3.6095132827758789062 2.8444163799285888672 2.500537872314453125 2.2251017093658447266 2.0158915519714355469 1.8913290500640869141 1.8767658472061157227 1.8371289968490600586 1.7818109989166259766 1.720394134521484375 1.6596102714538574219 1.60306549072265625 1.5521720647811889648 1.5071159601211547852 1.467507481575012207 1.4327439069747924805 1.402187347412109375 1.3752428293228149414 1.3513866662979125977 1.3308293819427490234 1.3504557609558105469 1.3720334768295288086 1.3957281112670898438 1.4216619729995727539 1.4498656988143920898 1.4802020788192749023 1.5122534036636352539 1.5451737642288208008 1.5993698835372924805 1.6791787147521972656 1.7835061550140380859 1.9257014989852905273 2.1309537887573242188 2.4531564712524414062 3.0320878028869628906 4.377780914306640625 11 11 4.377780914306640625 11 11 11 4.377780914306640625 4.2853236198425292969 4.2853236198425292969 4.2853236198425292969 4.2853236198425292969 4.2853236198425292969 4.377780914306640625 11 11 4.377780914306640625 4.2853236198425292969 3.6095132827758789062 2.9655323028564453125 2.9655323028564453125 2.8071660995483398438 2.500537872314453125 2.402225494384765625 2.402225494384765625 2.402225494384765625 2.402225494384765625 2.402225494384765625 2.402225494384765625 2.402225494384765625 2.50054931640625 2.8444275856018066406 3.6095221042633056641 4.2853236198425292969 4.377780914306640625 11 11 4.377780914306640625 4.2853236198425292969 3.6095132827758789062 2.9655323028564453125 3.6095221042633056641 4.2853236198425292969 4.2853236198425292969 4.2853236198425292969 4.2853236198425292969 4.2853236198425292969 4.2853236198425292969 4.2853236198425292969 4.2853236198425292969 4.2853236198425292969 3.6095221042633056641 2.9655323028564453125 2.9655323028564453125 3.6095132827758789062 4.377780914306640625 11 11 11 4.377780914306640625 
2.0530438423156738281 2.2251222133636474609 2.5005550384521484375 2.8444387912750244141 3.6095306873321533203 4.2853236198425292969 4.3778018951416015625 11 11 4.3778018951416015625 4.2853236198425292969 4.2853236198425292969 3.6095221042633056641 2.8444275856018066406 2.5005435943603515625 2.3445682525634765625 2.2080109119415283203 2.0530309677124023438 1.9257093667984008789 2.1309630870819091797 2.4531681537628173828 3.0321030616760253906 4.3778018951416015625 11 4.3778018951416015625 11 4.3778018951416015625 4.2853236198425292969 4.2853236198425292969 3.6095221042633056641 2.9655323028564453125 2.9655323028564453125 2.8071684837341308594 2.5005435943603515625 2.2251086235046386719 2.063022613525390625 2.0898754596710205078 2.0898754596710205078 2.063022613525390625 1.9933457374572753906 1.9032510519027709961 1.8111386299133300781 1.7265273332595825195 1.6525366306304931641 1.5891404151916503906 1.5351423025131225586 1.4890884160995483398 1.4496201276779174805 1.4155794382095336914 1.3860162496566772461 1.3601627349853515625 1.3414987325668334961 1.3632436990737915039 1.3874790668487548828 1.4145252704620361328 1.4446997642517089844 1.4782692193984985352 1.5153578519821166992 1.5557887554168701172 1.5988295078277587891 1.6428403854370117188 1.6849100589752197266 1.7728377580642700195 1.907986760139465332 2.0984158515930175781 2.3837876319885253906 2.8444275856018066406 3.6095221042633056641 4.3778018951416015625 11 11 4.3778018951416015625 4.2853236198425292969 4.2853236198425292969 3.6095221042633056641 2.9655323028564453125 3.6095306873321533203 4.2853236198425292969 4.3778018951416015625 11 11 11 4.3778018951416015625 3.6095221042633056641 2.9655323028564453125 2.8071684837341308594 2.5005435943603515625 2.402225494384765625 2.3445682525634765625 2.2080109119415283203 2.0898754596710205078 2.0898754596710205078 2.0898754596710205078 2.0898754596710205078 2.0898754596710205078 2.2251222133636474609 2.5005550384521484375 2.8444387912750244141 3.6095306873321533203 4.3778018951416015625 11 11 11 4.3778018951416015625 3.6095221042633056641 2.9655323028564453125 2.8444387912750244141 3.6095306873321533203 4.3778018951416015625 11 11 11 11 11 11 11 11 11 4.3778018951416015625 4.2853236198425292969 3.6095306873321533203 3.6095306873321533203 4.2853236198425292969 4.2853236198425292969 4.2853236198425292969 4.2853236198425292969 4.2853236198425292969 
2.2251291275024414062 2.5005609989166259766 2.8444499969482421875 3.6095395088195800781 4.3778228759765625 11 11 11 4.3778228759765625 3.6095306873321533203 2.9655323028564453125 2.9655323028564453125 2.8071711063385009766 2.50054931640625 2.2251152992248535156 2.0630211830139160156 1.9933410882949829102 1.9032430648803710938 1.9257173538208007812 2.1309726238250732422 2.4531800746917724609 3.0321183204650878906 4.3778228759765625 11 11 11 4.3778228759765625 3.0321183204650878906 2.9655323028564453125 2.8071711063385009766 2.50054931640625 2.402225494384765625 2.3445692062377929688 2.2080140113830566406 2.2080225944519042969 2.3445723056793212891 2.402225494384765625 2.402225494384765625 2.3445723056793212891 2.2080225944519042969 2.0530481338500976562 1.9128757715225219727 1.7960497140884399414 1.7010207176208496094 1.6238029003143310547 1.5605497360229492188 1.5081518888473510742 1.464229583740234375 1.4269893169403076172 1.3950786590576171875 1.3674691915512084961 1.3513922691345214844 1.3752486705780029297 1.4021933078765869141 1.4327501058578491211 1.4675137996673583984 1.5071223974227905273 1.552178502082824707 1.6030715703964233398 1.6596157550811767578 1.7203987836837768555 1.7818143367767333984 1.8371307849884033203 1.8767663240432739258 2.0159051418304443359 2.2251152992248535156 2.50054931640625 2.8444387912750244141 3.6095306873321533203 4.2853236198425292969 4.2853236198425292969 3.6095306873321533203 2.9655323028564453125 3.6095395088195800781 4.2853236198425292969 4.2853236198425292969 4.3778228759765625 11 11 11 4.3778228759765625 4.2853236198425292969 3.6095306873321533203 2.8444387912750244141 2.50054931640625 2.3445692062377929688 2.2080140113830566406 2.0898754596710205078 2.0630211830139160156 1.9933410882949829102 1.9032430648803710938 1.9128757715225219727 2.0530481338500976562 2.2080225944519042969 2.3445723056793212891 2.5005609989166259766 2.8444499969482421875 3.6095395088195800781 4.3778228759765625 11 11 4.3778228759765625 4.2853236198425292969 3.6095306873321533203 2.8444387912750244141 2.9655323028564453125 3.6095395088195800781 4.3778228759765625 11 11 4.3778228759765625 4.2853236198425292969 4.2853236198425292969 4.2853236198425292969 4.2853236198425292969 4.2853236198425292969 4.3778228759765625 11 11 11 4.3778228759765625 4.3778228759765625 11 4.3778228759765625 4.3778228759765625 11 11 
2.3838176727294921875 2.8444612026214599609 3.6095483303070068359 4.3778438568115234375 11 11 11 4.3778438568115234375 3.6095395088195800781 2.8444499969482421875 2.5005550384521484375 2.402225494384765625 2.3445703983306884766 2.2080168724060058594 2.05303955078125 1.9128661155700683594 1.8371270895004272461 1.7818076610565185547 1.9080016613006591797 2.0984330177307128906 2.3838076591491699219 2.8444499969482421875 3.6095395088195800781 4.3778438568115234375 11 4.3778438568115234375 3.6095395088195800781 2.8444499969482421875 2.402225494384765625 2.3445703983306884766 2.2080168724060058594 2.0898754596710205078 2.0630216598510742188 2.22513580322265625 2.5005667209625244141 2.8071789741516113281 2.9655323028564453125 2.9655323028564453125 2.8071789741516113281 2.5005667209625244141 2.22513580322265625 2.0159254074096679688 1.8605544567108154297 1.7433441877365112305 1.6527838706970214844 1.5811406373977661133 1.5232489109039306641 1.4755989313125610352 1.4357498884201049805 1.4019634723663330078 1.3729732036590576172 1.3601686954498291016 1.3860224485397338867 1.4155859947204589844 1.449626922607421875 1.4890955686569213867 1.5351499319076538086 1.5891481637954711914 1.6525443792343139648 1.7265348434448242188 1.8111453056335449219 1.9032562971115112305 1.9933489561080932617 2.0630235671997070312 2.0898754596710205078 2.0898754596710205078 2.2251222133636474609 2.5005550384521484375 2.8071737289428710938 2.9655323028564453125 2.9655323028564453125 3.6095483303070068359 4.2853236198425292969 4.3778438568115234375 11 11 11 11 4.3778438568115234375 4.2853236198425292969 3.6095395088195800781 2.9655323028564453125 2.8071737289428710938 2.5005550384521484375 2.2251222133636474609 2.0630216598510742188 1.9933426380157470703 1.9032456874847412109 1.8767652511596679688 1.8371317386627197266 1.9032562971115112305 2.0159254074096679688 2.22513580322265625 2.5005667209625244141 2.8071789741516113281 2.9655323028564453125 3.6095483303070068359 4.3778438568115234375 11 11 4.3778438568115234375 3.6095395088195800781 2.9655323028564453125 2.8444612026214599609 3.6095483303070068359 4.2853236198425292969 4.3778438568115234375 11 11 11 11 11 4.3778438568115234375 4.2853236198425292969 3.6095483303070068359 2.9655323028564453125 3.6095395088195800781 4.2853236198425292969 4.3778438568115234375 11 11 11 11 4.3778438568115234375 4.3778438568115234375 11 11 
2.4532034397125244141 3.0321488380432128906 4.3778653144836425781 11 11 4.3778653144836425781 4.2853236198425292969 3.6095483303070068359 2.8444612026214599609 2.5005609989166259766 2.2251291275024414062 2.0898754596710205078 2.0630221366882324219 1.9933441877365112305 1.9032484292984008789 1.8111351728439331055 1.7265236377716064453 1.7433383464813232422 1.8605481386184692383 2.0159184932708740234 2.2251291275024414062 2.5005609989166259766 2.8444612026214599609 3.6095483303070068359 4.2853236198425292969 3.6095483303070068359 2.8444612026214599609 2.5005609989166259766 2.2251291275024414062 2.0630221366882324219 1.9933441877365112305 1.9080166816711425781 2.0984504222869873047 2.3838276863098144531 2.8444724082946777344 3.6095569133758544922 4.2853236198425292969 4.2853236198425292969 3.6095569133758544922 2.8444724082946777344 2.3838276863098144531 2.0984504222869873047 1.9080166816711425781 1.7728639841079711914 1.6722939014434814453 1.5946669578552246094 1.5329937934875488281 1.4828432798385620117 1.4412773847579956055 1.4062744379043579102 1.3763990402221679688 1.3674755096435546875 1.3950853347778320312 1.4269964694976806641 1.464237213134765625 1.5081599950790405273 1.5605584383010864258 1.6238120794296264648 1.7010303735733032227 1.7960596084594726562 1.9128855466842651367 2.0530564785003662109 2.2080285549163818359 2.3445744514465332031 2.402225494384765625 2.402225494384765625 2.3445744514465332031 2.402225494384765625 2.5005724430084228516 2.8444724082946777344 3.6095569133758544922 4.3778653144836425781 11 11 11 4.3778653144836425781 4.2853236198425292969 4.2853236198425292969 3.6095483303070068359 2.9655323028564453125 2.8071763515472412109 2.5005609989166259766 2.3445713520050048828 2.2080197334289550781 2.0530438423156738281 1.9128708839416503906 1.8371280431747436523 1.8111487627029418945 1.9032589197158813477 1.9933505058288574219 2.0630240440368652344 2.2080285549163818359 2.3838276863098144531 2.8444724082946777344 3.6095569133758544922 4.2853236198425292969 4.3778653144836425781 11 11 4.3778653144836425781 3.6095483303070068359 2.8444612026214599609 2.8444724082946777344 3.6095569133758544922 4.3778653144836425781 11 11 11 11 11 4.3778653144836425781 11 11 11 4.3778653144836425781 3.6095569133758544922 4.2853236198425292969 4.2853236198425292969 3.6095569133758544922 4.3778653144836425781 11 11 11 11 11 11 11 
2.4532151222229003906 3.0321640968322753906 4.3778862953186035156 11 11 4.3778862953186035156 3.0321640968322753906 2.8071789741516113281 2.5005667209625244141 2.22513580322265625 2.0530481338500976562 1.9128757715225219727 1.8767658472061157227 1.8371289968490600586 1.7818109989166259766 1.720394134521484375 1.6596102714538574219 1.7010207176208496094 1.7960497140884399414 1.9128757715225219727 2.0530481338500976562 2.22513580322265625 2.5005667209625244141 2.8071789741516113281 2.9655323028564453125 2.8071789741516113281 2.5005667209625244141 2.22513580322265625 2.0530481338500976562 1.9128757715225219727 1.8371289968490600586 1.9257411956787109375 2.1310009956359863281 2.4532151222229003906 3.0321640968322753906 4.3778862953186035156 11 11 4.3778862953186035156 3.0321640968322753906 2.4532151222229003906 2.1310009956359863281 1.9257411956787109375 1.7835402488708496094 1.6792085170745849609 1.5993964672088623047 1.5363690853118896484 1.4853353500366210938 1.4431692361831665039 1.407744288444519043 1.3775635957717895508 1.3729798793792724609 1.4019705057144165039 1.4357575178146362305 1.4756071567535400391 1.5232577323913574219 1.5811502933502197266 1.6527944803237915039 1.7433557510375976562 1.8605672121047973633 2.0159389972686767578 2.2251496315002441406 2.5005781650543212891 2.8071842193603515625 2.9655323028564453125 2.9655323028564453125 2.8071842193603515625 2.9655323028564453125 2.9655323028564453125 3.60956573486328125 4.3778862953186035156 11 11 4.3778862953186035156 4.2853236198425292969 3.6095569133758544922 2.9655323028564453125 2.9655323028564453125 2.8071789741516113281 2.5005667209625244141 2.3445723056793212891 2.2080225944519042969 2.063022613525390625 1.9933457374572753906 1.9032510519027709961 1.8111386299133300781 1.8371336460113525391 1.9128904342651367188 2.0530607700347900391 2.2080314159393310547 2.3445754051208496094 2.5005781650543212891 2.8071842193603515625 3.0321640968322753906 4.3778862953186035156 11 11 11 4.3778862953186035156 3.6095569133758544922 2.9655323028564453125 2.9655323028564453125 3.60956573486328125 4.3778862953186035156 11 11 4.3778862953186035156 11 11 11 11 11 4.3778862953186035156 4.2853236198425292969 3.6095569133758544922 4.3778862953186035156 11 11 4.3778862953186035156 11 11 11 11 11 11 4.3778862953186035156 4.2853236198425292969 
2.3838376998901367188 2.8444833755493164062 3.60956573486328125 4.2853236198425292969 4.2853236198425292969 3.60956573486328125 2.8444833755493164062 2.3838376998901367188 2.2080254554748535156 2.0530524253845214844 1.9128806591033935547 1.8111419677734375 1.7452253103256225586 1.7207403182983398438 1.6849088668823242188 1.6428387165069580078 1.5988274812698364258 1.6525404453277587891 1.7265311479568481445 1.8111419677734375 1.9128806591033935547 2.0530524253845214844 2.2080254554748535156 2.3445732593536376953 2.402225494384765625 2.3445732593536376953 2.2080254554748535156 2.0530524253845214844 1.9128806591033935547 1.8111419677734375 1.7728705406188964844 1.9080240726470947266 2.0984590053558349609 2.3838376998901367188 2.8444833755493164062 3.60956573486328125 4.3779072761535644531 11 4.3779072761535644531 3.0321793556213378906 2.4532268047332763672 2.1310105323791503906 1.9257490634918212891 1.7835470438003540039 1.6792145967483520508 1.5994017124176025391 1.5363738536834716797 1.4853396415710449219 1.4431732892990112305 1.4077479839324951172 1.3775670528411865234 1.3764058351516723633 1.4062818288803100586 1.441285252571105957 1.482851862907409668 1.5330030918121337891 1.5946773290634155273 1.6723054647445678711 1.7728769779205322266 1.9080315828323364258 2.0984675884246826172 2.3838477134704589844 2.8444945812225341797 3.6095743179321289062 4.2853236198425292969 4.2853236198425292969 3.6095743179321289062 4.2853236198425292969 4.2853236198425292969 4.3779072761535644531 11 11 4.3779072761535644531 3.60956573486328125 2.9655323028564453125 2.8071815967559814453 2.5005724430084228516 2.402225494384765625 2.3445732593536376953 2.2080254554748535156 2.0630230903625488281 1.9933474063873291016 1.9032536745071411133 1.8913290500640869141 1.8767673969268798828 1.9032642841339111328 1.993353724479675293 2.0630249977111816406 2.2251565456390380859 2.5005838871002197266 2.8071868419647216797 2.9655323028564453125 3.6095743179321289062 4.2853236198425292969 4.3779072761535644531 11 11 4.3779072761535644531 3.6095743179321289062 3.6095743179321289062 4.2853236198425292969 4.2853236198425292969 4.3779072761535644531 11 11 4.3779072761535644531 3.60956573486328125 4.2853236198425292969 4.2853236198425292969 4.2853236198425292969 4.2853236198425292969 4.2853236198425292969 3.60956573486328125 2.9655323028564453125 3.0321793556213378906 4.3779072761535644531 11 11 4.3779072761535644531 11 11 11 11 4.3779072761535644531 4.2853236198425292969 3.60956573486328125 2.9655323028564453125 
2.2251496315002441406 2.5005781650543212891 2.8071842193603515625 2.9655323028564453125 2.9655323028564453125 2.8071842193603515625 2.5005781650543212891 2.2251496315002441406 2.0159389972686767578 1.9032562971115112305 1.8111453056335449219 1.7265348434448242188 1.6596157550811767578 1.6315350532531738281 1.6072163581848144531 1.5775318145751953125 1.552178502082824707 1.6030715703964233398 1.6596157550811767578 1.7265348434448242188 1.8111453056335449219 1.9032562971115112305 1.9933489561080932617 2.0630235671997070312 2.0898754596710205078 2.0630235671997070312 1.9933489561080932617 1.9032562971115112305 1.8111453056335449219 1.7265348434448242188 1.7433674335479736328 1.8605798482894897461 2.0159525871276855469 2.2251632213592529297 2.5005898475646972656 3.0321948528289794922 4.3779287338256835938 11 4.3779287338256835938 3.0321948528289794922 2.4532387256622314453 2.1310200691223144531 1.9257570505142211914 1.7835538387298583984 1.6792205572128295898 1.5994070768356323242 1.5363786220550537109 1.4853440523147583008 1.4431772232055664062 1.4077516794204711914 1.3775703907012939453 1.3775703907012939453 1.4077516794204711914 1.4431772232055664062 1.4853440523147583008 1.5363786220550537109 1.5994070768356323242 1.6792205572128295898 1.7835538387298583984 1.9257570505142211914 2.1310200691223144531 2.4532387256622314453 3.0321948528289794922 4.3779287338256835938 11 11 4.3779287338256835938 11 11 11 11 4.3779287338256835938 3.6095743179321289062 2.8444945812225341797 2.5005781650543212891 2.3445744514465332031 2.2080285549163818359 2.0898754596710205078 2.0630254745483398438 2.0898754596710205078 2.0898754596710205078 2.0898754596710205078 2.0898754596710205078 2.0898754596710205078 2.0630254745483398438 2.0630254745483398438 2.2080371379852294922 2.3445775508880615234 2.5005898475646972656 2.8445057868957519531 3.6095831394195556641 4.2853236198425292969 4.3779287338256835938 11 11 11 11 11 4.3779287338256835938 4.3779287338256835938 11 11 11 11 4.3779287338256835938 3.6095743179321289062 2.8444945812225341797 2.9655323028564453125 2.9655323028564453125 2.9655323028564453125 3.6095831394195556641 4.2853236198425292969 3.6095831394195556641 2.8445057868957519531 3.0321948528289794922 4.3779287338256835938 11 11 11 11 11 11 4.3779287338256835938 3.6095743179321289062 2.9655323028564453125 2.8071842193603515625 2.5005781650543212891 
2.0530607700347900391 2.2080314159393310547 2.3445754051208496094 2.402225494384765625 2.402225494384765625 2.3445754051208496094 2.2080314159393310547 2.0530607700347900391 1.9128904342651367188 1.7960646152496337891 1.7204011678695678711 1.6596186161041259766 1.6030746698379516602 1.5613478422164916992 1.5441787242889404297 1.5226314067840576172 1.5153603553771972656 1.5557911396026611328 1.6030746698379516602 1.6596186161041259766 1.7204011678695678711 1.7818161249160766602 1.8371317386627197266 1.8767666816711425781 1.8913290500640869141 1.8767666816711425781 1.8371317386627197266 1.7818161249160766602 1.7204011678695678711 1.6723170280456542969 1.7728900909423828125 1.9080466032028198242 2.0984849929809570312 2.3838679790496826172 2.8445169925689697266 3.6095919609069824219 4.3779497146606445312 11 4.3779497146606445312 3.0322101116180419922 2.4532504081726074219 2.1310296058654785156 1.925764918327331543 1.783560633659362793 1.6792265176773071289 1.5994124412536621094 1.5363833904266357422 1.4853483438491821289 1.4431812763214111328 1.4077553749084472656 1.377573847770690918 1.377573847770690918 1.4077553749084472656 1.4431812763214111328 1.4853483438491821289 1.5363833904266357422 1.5994124412536621094 1.6792265176773071289 1.783560633659362793 1.925764918327331543 2.1310296058654785156 2.4532504081726074219 3.0322101116180419922 4.3779497146606445312 11 11 11 11 4.3779497146606445312 4.2853236198425292969 4.2853236198425292969 3.6095831394195556641 2.8445057868957519531 2.5005838871002197266 2.2251565456390380859 2.0630240440368652344 2.0530736446380615234 2.2080402374267578125 2.3445785045623779297 2.402225494384765625 2.402225494384765625 2.402225494384765625 2.402225494384765625 2.402225494384765625 2.3445785045623779297 2.3445785045623779297 2.5005955696105957031 2.8071920871734619141 2.9655323028564453125 3.6095919609069824219 4.3779497146606445312 11 11 11 4.3779497146606445312 4.2853236198425292969 4.3779497146606445312 11 11 11 11 4.3779497146606445312 4.2853236198425292969 4.2853236198425292969 3.6095831394195556641 2.8445057868957519531 2.5005838871002197266 2.402225494384765625 2.8445169925689697266 3.6095919609069824219 4.3779497146606445312 11 4.3779497146606445312 3.0322101116180419922 3.6095919609069824219 4.3779497146606445312 11 11 11 4.3779497146606445312 4.3779497146606445312 11 4.3779497146606445312 3.0322101116180419922 2.5005838871002197266 2.3445754051208496094 2.2080314159393310547 
1.9032616615295410156 1.993352055549621582 2.0630245208740234375 2.0898754596710205078 2.0898754596710205078 2.0630245208740234375 1.993352055549621582 1.9032616615295410156 1.8111521005630493164 1.726542353630065918 1.6525521278381347656 1.5988336801528930664 1.5557935237884521484 1.5153629779815673828 1.4923219680786132812 1.4762737751007080078 1.4802062511444091797 1.5153629779815673828 1.5557935237884521484 1.5988336801528930664 1.6428437232971191406 1.6849123239517211914 1.7207419872283935547 1.7452257871627807617 1.75397491455078125 1.7452257871627807617 1.7207419872283935547 1.6849123239517211914 1.6428437232971191406 1.679232478141784668 1.7835675477981567383 1.9257729053497314453 2.1310389041900634766 2.4532620906829833984 3.0322253704071044922 4.3779706954956054688 11 11 4.3779706954956054688 3.0322253704071044922 2.4532620906829833984 2.1310389041900634766 1.9257729053497314453 1.7835675477981567383 1.679232478141784668 1.5994176864624023438 1.5363881587982177734 1.4853527545928955078 1.4431852102279663086 1.4077590703964233398 1.3775773048400878906 1.3764126300811767578 1.4062891006469726562 1.4412932395935058594 1.4828604459762573242 1.5330125093460083008 1.5946877002716064453 1.6723170280456542969 1.7728900909423828125 1.9080466032028198242 2.0984849929809570312 2.3838679790496826172 2.8445169925689697266 3.6095919609069824219 4.2853236198425292969 4.2853236198425292969 4.2853236198425292969 4.2853236198425292969 3.6095919609069824219 2.9655323028564453125 2.9655323028564453125 2.8071894645690917969 2.5005898475646972656 2.2251632213592529297 2.0530650615692138672 2.0530779361724853516 2.2251770496368408203 2.5006012916564941406 2.8071947097778320312 2.9655323028564453125 2.9655323028564453125 2.9655323028564453125 2.9655323028564453125 2.9655323028564453125 2.8071947097778320312 2.8071947097778320312 2.9655323028564453125 3.6096005439758300781 4.2853236198425292969 4.3779706954956054688 11 11 4.3779706954956054688 4.2853236198425292969 3.6095919609069824219 2.9655323028564453125 3.6095919609069824219 4.2853236198425292969 4.2853236198425292969 4.2853236198425292969 4.2853236198425292969 3.6095919609069824219 2.9655323028564453125 2.9655323028564453125 2.8071894645690917969 2.5005898475646972656 2.5006012916564941406 2.8071947097778320312 3.0322253704071044922 4.3779706954956054688 11 11 4.3779706954956054688 3.6096005439758300781 4.3779706954956054688 11 11 4.3779706954956054688 11 11 11 11 4.3779706954956054688 3.0322253704071044922 2.4532620906829833984 2.1310389041900634766 1.993352055549621582 
1.781819462776184082 1.8371336460113525391 1.8767671585083007812 1.8913290500640869141 1.8913290500640869141 1.8767671585083007812 1.8371336460113525391 1.781819462776184082 1.7204058170318603516 1.6596240997314453125 1.60308074951171875 1.5521879196166992188 1.5122590065002441406 1.480208277702331543 1.4498722553253173828 1.4368506669998168945 1.4498722553253173828 1.480208277702331543 1.5122590065002441406 1.5451784133911132812 1.5775353908538818359 1.607218623161315918 1.6315361261367797852 1.6476445198059082031 1.6533008813858032227 1.6476445198059082031 1.6315361261367797852 1.607218623161315918 1.5994230508804321289 1.679238438606262207 1.7835743427276611328 1.9257807731628417969 2.1310484409332275391 2.453273773193359375 3.0322406291961669922 4.3779921531677246094 11 4.3779921531677246094 3.6096005439758300781 2.8445281982421875 2.3838779926300048828 2.0984935760498046875 1.9080539941787719727 1.7728966474533081055 1.6723228693008422852 1.5946928262710571289 1.533017277717590332 1.4828647375106811523 1.4412971735000610352 1.4062927961349487305 1.3764160871505737305 1.3729897737503051758 1.4019811153411865234 1.4357689619064331055 1.4756194353103637695 1.5232710838317871094 1.5811648368835449219 1.6528103351593017578 1.7433731555938720703 1.8605861663818359375 2.0159592628479003906 2.225170135498046875 2.5005955696105957031 2.8071920871734619141 2.9655323028564453125 2.9655323028564453125 2.9655323028564453125 2.9655323028564453125 2.8071920871734619141 2.5005955696105957031 2.402225494384765625 2.3445775508880615234 2.2080371379852294922 2.0530693531036376953 2.0530822277069091797 2.2251837253570556641 2.5006070137023925781 2.8445394039154052734 3.6096093654632568359 4.2853236198425292969 4.2853236198425292969 4.2853236198425292969 4.2853236198425292969 4.2853236198425292969 3.6096093654632568359 3.6096093654632568359 4.2853236198425292969 4.3779921531677246094 11 11 11 4.3779921531677246094 3.6096005439758300781 2.9655323028564453125 2.8071920871734619141 2.5005955696105957031 2.8071920871734619141 2.9655323028564453125 2.9655323028564453125 2.9655323028564453125 2.9655323028564453125 2.8071920871734619141 2.5005955696105957031 2.402225494384765625 2.3445775508880615234 2.3838880062103271484 2.8445394039154052734 3.6096093654632568359 4.2853236198425292969 4.3779921531677246094 11 4.3779921531677246094 3.6096093654632568359 4.3779921531677246094 11 11 11 4.3779921531677246094 11 11 11 4.3779921531677246094 3.6096005439758300781 2.8445281982421875 2.3838779926300048828 2.0984935760498046875 1.9080539941787719727 
1.6849145889282226562 1.7207431793212890625 1.7452261447906494141 1.75397491455078125 1.75397491455078125 1.7452261447906494141 1.7207431793212890625 1.6849145889282226562 1.6428469419479370117 1.5988378524780273438 1.5557982921600341797 1.5153681039810180664 1.4782798290252685547 1.4475034475326538086 1.4227205514907836914 1.4030539989471435547 1.4227205514907836914 1.4475034475326538086 1.4729926586151123047 1.4984124898910522461 1.5226340293884277344 1.5441803932189941406 1.5613486766815185547 1.5724811553955078125 1.5763448476791381836 1.5724811553955078125 1.5613486766815185547 1.560588836669921875 1.6238443851470947266 1.7010643482208251953 1.7960945367813110352 1.9257887601852416992 2.1310579776763916016 2.4532856941223144531 3.0322558879852294922 4.3780131340026855469 11 4.3780131340026855469 3.0322558879852294922 2.5006012916564941406 2.2251770496368408203 2.0159661769866943359 1.8605924844741821289 1.7433789968490600586 1.652815699577331543 1.5811696052551269531 1.5232754945755004883 1.4756236076354980469 1.4357727766036987305 1.4019846916198730469 1.3729931116104125977 1.3674881458282470703 1.3950988054275512695 1.4270107746124267578 1.4642523527145385742 1.5081762075424194336 1.5605758428573608398 1.6238305568695068359 1.7010498046875 1.7960795164108276367 1.9129049777984619141 2.0530736446380615234 2.2080402374267578125 2.3445785045623779297 2.402225494384765625 2.402225494384765625 2.402225494384765625 2.402225494384765625 2.3445785045623779297 2.2080402374267578125 2.0898754596710205078 2.0630254745483398438 1.9933552742004394531 2.0530865192413330078 2.2251906394958496094 2.5006129741668701172 2.8445506095886230469 3.6096181869506835938 4.3780131340026855469 11 11 11 11 11 4.3780131340026855469 4.3780131340026855469 11 11 11 4.3780131340026855469 4.2853236198425292969 3.6096093654632568359 2.8445394039154052734 2.5006012916564941406 2.3445785045623779297 2.2080402374267578125 2.3445785045623779297 2.402225494384765625 2.402225494384765625 2.402225494384765625 2.402225494384765625 2.3445785045623779297 2.2080402374267578125 2.0898754596710205078 2.1310579776763916016 2.4532856941223144531 3.0322558879852294922 4.3780131340026855469 11 11 11 4.3780131340026855469 4.3780131340026855469 11 11 4.3780131340026855469 4.2853236198425292969 4.3780131340026855469 11 11 4.3780131340026855469 4.2853236198425292969 3.6096181869506835938 2.8445506095886230469 2.3838980197906494141 2.0985109806060791016 1.9080690145492553711 
1.6072201728820800781 1.6315369606018066406 1.6476447582244873047 1.6533008813858032227 1.6533008813858032227 1.6476447582244873047 1.6315369606018066406 1.6072201728820800781 1.5775377750396728516 1.5451815128326416016 1.5122627019882202148 1.4802124500274658203 1.4498767852783203125 1.4216734170913696289 1.3972558975219726562 1.3775256872177124023 1.3972558975219726562 1.417548060417175293 1.4379485845565795898 1.4578090906143188477 1.4762756824493408203 1.4923232793807983398 1.504852294921875 1.5128538608551025391 1.5156084299087524414 1.5128538608551025391 1.5232888460159301758 1.5811841487884521484 1.6528315544128417969 1.7433964014053344727 1.8606114387512207031 2.0159864425659179688 2.2251975536346435547 2.5006186962127685547 3.0322713851928710938 4.3780341148376464844 11 4.3780341148376464844 3.0322713851928710938 2.5006186962127685547 2.2251975536346435547 2.0159864425659179688 1.8606114387512207031 1.7433964014053344727 1.6528315544128417969 1.5811841487884521484 1.5232888460159301758 1.4756358861923217773 1.4357841014862060547 1.4019953012466430664 1.3730030059814453125 1.3601835966110229492 1.3860381841659545898 1.4156024456024169922 1.4496442079544067383 1.4891136884689331055 1.5351686477661132812 1.589167475700378418 1.6525638103485107422 1.7265536785125732422 1.8111622333526611328 1.9032695293426513672 1.9933568239212036133 2.0630259513854980469 2.0898754596710205078 2.0898754596710205078 2.0898754596710205078 2.0898754596710205078 2.0630259513854980469 1.9933568239212036133 1.9032695293426513672 1.9129244089126586914 2.0530908107757568359 2.2251975536346435547 2.5006186962127685547 2.8445618152618408203 3.60962677001953125 4.3780341148376464844 11 11 4.3780341148376464844 4.2853236198425292969 4.3780341148376464844 11 11 11 11 4.3780341148376464844 4.2853236198425292969 3.6096181869506835938 2.9655323028564453125 2.8071973323822021484 2.5006070137023925781 2.2251837253570556641 2.0630259513854980469 1.9933568239212036133 2.0630259513854980469 2.0898754596710205078 2.0898754596710205078 2.0898754596710205078 2.0898754596710205078 2.0630259513854980469 1.9933568239212036133 1.9257967472076416016 2.1310675144195556641 2.4532973766326904297 3.0322713851928710938 4.3780341148376464844 11 11 4.3780341148376464844 3.6096181869506835938 4.3780341148376464844 11 4.3780341148376464844 11 11 11 4.3780341148376464844 4.3780341148376464844 11 11 4.3780341148376464844 3.0322713851928710938 2.4532973766326904297 2.1310675144195556641 1.9257967472076416016 
1.5441814661026000977 1.5613491535186767578 1.5724812746047973633 1.5763448476791381836 1.5763448476791381836 1.5724812746047973633 1.5613491535186767578 1.5441814661026000977 1.5226358175277709961 1.4984148740768432617 1.4729955196380615234 1.4475067853927612305 1.4227242469787597656 1.3991265296936035156 1.3769693374633789062 1.3571387529373168945 1.3736629486083984375 1.3903527259826660156 1.4068129062652587891 1.4225244522094726562 1.4368522167205810547 1.4490805864334106445 1.4584827423095703125 1.4644206762313842773 1.4664527177810668945 1.4828819036483764648 1.5330361127853393555 1.5947136878967285156 1.6723461151123046875 1.7729228734970092773 1.9080839157104492188 2.0985281467437744141 2.3839182853698730469 2.8445730209350585938 3.6096355915069580078 4.378055572509765625 11 4.378055572509765625 3.6096355915069580078 2.8445730209350585938 2.3839182853698730469 2.0985281467437744141 1.9080839157104492188 1.7729228734970092773 1.6723461151123046875 1.5947136878967285156 1.5330361127853393555 1.4828819036483764648 1.4413129091262817383 1.4063073396682739258 1.3764296770095825195 1.351408839225769043 1.3752658367156982422 1.4022111892700195312 1.4327685832977294922 1.4675327539443969727 1.5071414709091186523 1.5521974563598632812 1.6030899286270141602 1.659632563591003418 1.7204128503799438477 1.7818245887756347656 1.837136387825012207 1.8767679929733276367 1.8913290500640869141 1.8913290500640869141 1.8913290500640869141 1.8913290500640869141 1.8767679929733276367 1.837136387825012207 1.9129292964935302734 2.0530951023101806641 2.2252044677734375 2.5006244182586669922 2.8445730209350585938 3.6096355915069580078 4.378055572509765625 11 11 4.378055572509765625 3.60962677001953125 2.9655323028564453125 3.60962677001953125 4.2853236198425292969 4.2853236198425292969 4.2853236198425292969 4.2853236198425292969 3.60962677001953125 2.9655323028564453125 2.8071999549865722656 2.5006129741668701172 2.3445804119110107422 2.20804595947265625 2.0530822277069091797 1.9129147529602050781 1.837136387825012207 1.8767679929733276367 1.8913290500640869141 1.8913290500640869141 1.8913290500640869141 1.8913290500640869141 1.8767679929733276367 1.837136387825012207 1.9080764055252075195 2.0985195636749267578 2.3839082717895507812 2.8445618152618408203 3.60962677001953125 4.378055572509765625 11 4.378055572509765625 4.2853236198425292969 3.6096355915069580078 4.2853236198425292969 3.60962677001953125 4.378055572509765625 11 11 11 11 11 11 4.378055572509765625 3.0322866439819335938 2.5006244182586669922 2.2252044677734375 2.0159931182861328125 
1.4923239946365356445 1.5048526525497436523 1.5128539800643920898 1.5156084299087524414 1.5156084299087524414 1.5128539800643920898 1.5048526525497436523 1.4923239946365356445 1.4762769937515258789 1.4578108787536621094 1.4379508495330810547 1.4175506830215454102 1.3972589969635009766 1.3775289058685302734 1.3586509227752685547 1.3407900333404541016 1.3519667387008666992 1.3657734394073486328 1.3791724443435668945 1.3917566537857055664 1.4030551910400390625 1.4125628471374511719 1.4197878837585449219 1.4243122339248657227 1.4432052373886108398 1.4853745698928833008 1.5364122390747070312 1.5994443893432617188 1.6792623996734619141 1.7836016416549682617 1.9258126020431518555 2.1310863494873046875 2.4533207416534423828 3.0323019027709960938 4.3780765533447265625 11 11 11 4.3780765533447265625 3.0323019027709960938 2.4533207416534423828 2.1310863494873046875 1.9258126020431518555 1.7836016416549682617 1.6792623996734619141 1.5994443893432617188 1.5364122390747070312 1.4853745698928833008 1.4432052373886108398 1.4077775478363037109 1.3775944709777832031 1.3515716791152954102 1.3632619380950927734 1.3874976634979248047 1.414544224739074707 1.4447187185287475586 1.4782879352569580078 1.5153758525848388672 1.5558054447174072266 1.5988440513610839844 1.6428519487380981445 1.6849179267883300781 1.7207449674606323242 1.7452266216278076172 1.75397491455078125 1.75397491455078125 1.75397491455078125 1.75397491455078125 1.7452266216278076172 1.8606241941452026367 2.0160000324249267578 2.2252111434936523438 2.5006301403045654297 2.8445839881896972656 3.6096444129943847656 4.3780765533447265625 11 11 4.3780765533447265625 3.6096355915069580078 2.8445730209350585938 2.5006186962127685547 2.8072025775909423828 2.9655323028564453125 2.9655323028564453125 2.9655323028564453125 2.9655323028564453125 2.8072025775909423828 2.5006186962127685547 2.34458160400390625 2.2080488204956054688 2.0630269050598144531 1.9933600425720214844 1.9032748937606811523 1.8111690282821655273 1.7265611886978149414 1.7452266216278076172 1.75397491455078125 1.75397491455078125 1.75397491455078125 1.75397491455078125 1.7452266216278076172 1.7433964014053344727 1.8606114387512207031 2.0159864425659179688 2.2251975536346435547 2.5006186962127685547 3.0323019027709960938 4.3780765533447265625 11 11 11 4.3780765533447265625 4.2853236198425292969 4.2853236198425292969 4.3780765533447265625 11 11 11 11 11 4.3780765533447265625 4.2853236198425292969 3.6096444129943847656 2.8445839881896972656 2.3839282989501953125 2.0985369682312011719 
1.4490811824798583984 1.4584830999374389648 1.4644206762313842773 1.4664527177810668945 1.4664527177810668945 1.4644206762313842773 1.4584830999374389648 1.4490811824798583984 1.4368532896041870117 1.4225258827209472656 1.4068146944046020508 1.3903548717498779297 1.3736654520034790039 1.3571416139602661133 1.341064453125 1.3256199359893798828 1.332098841667175293 1.3435951471328735352 1.3546013832092285156 1.3648011684417724609 1.373844146728515625 1.3813688755035400391 1.3870345354080200195 1.40631103515625 1.4413169622421264648 1.482886195182800293 1.5330407619476318359 1.59471893310546875 1.672351837158203125 1.7729294300079345703 1.908091425895690918 2.0985369682312011719 2.3839282989501953125 2.8445839881896972656 3.6096444129943847656 4.3780980110168457031 11 11 4.3780980110168457031 3.0323171615600585938 2.4533326625823974609 2.13109588623046875 1.9258205890655517578 1.7836084365844726562 1.6792683601379394531 1.5994497537612915039 1.5364170074462890625 1.4853789806365966797 1.4432092905044555664 1.4077812433242797852 1.3775979280471801758 1.3515748977661132812 1.3504743576049804688 1.372052311897277832 1.3957468271255493164 1.4216803312301635742 1.4498833417892456055 1.4802186489105224609 1.5122681856155395508 1.5451862812042236328 1.577541351318359375 1.6072225570678710938 1.6315381526947021484 1.6476449966430664062 1.6533008813858032227 1.6533008813858032227 1.6533008813858032227 1.6723576784133911133 1.7729359865188598633 1.9080989360809326172 2.0985455513000488281 2.3839383125305175781 2.8445951938629150391 3.6096529960632324219 4.3780980110168457031 11 11 4.3780980110168457031 3.6096444129943847656 2.8445839881896972656 2.5006244182586669922 2.2252044677734375 2.3445825576782226562 2.402225494384765625 2.402225494384765625 2.402225494384765625 2.402225494384765625 2.3445825576782226562 2.2080516815185546875 2.0630273818969726562 1.9933615922927856445 1.9032775163650512695 1.8371382951736450195 1.7818279266357421875 1.75397491455078125 1.75397491455078125 1.75397491455078125 1.75397491455078125 1.7452276945114135742 1.7207490205764770508 1.6849257946014404297 1.6476449966430664062 1.7010692358016967773 1.7960994243621826172 1.9129244089126586914 2.0985369682312011719 2.3839282989501953125 2.8445839881896972656 3.6096444129943847656 4.2853236198425292969 4.3780980110168457031 11 11 11 11 11 11 11 4.3780980110168457031 11 11 11 11 4.3780980110168457031 3.0323171615600585938 2.4533326625823974609 2.13109588623046875 
1.412563323974609375 1.4197881221771240234 1.4243123531341552734 1.425853729248046875 1.425853729248046875 1.4243123531341552734 1.4197881221771240234 1.412563323974609375 1.403056025505065918 1.3917577266693115234 1.3791738748550415039 1.3657753467559814453 1.3519687652587890625 1.3380844593048095703 1.3243750333786010742 1.3110235929489135742 1.3139417171478271484 1.3235797882080078125 1.332701563835144043 1.3410615921020507812 1.348397374153137207 1.3544465303421020508 1.3730095624923706055 1.4020023345947265625 1.4357917308807373047 1.4756441116333007812 1.5232977867126464844 1.5811939239501953125 1.6528421640396118164 1.7434079647064208984 1.8606241941452026367 2.0160000324249267578 2.2252111434936523438 2.5006301403045654297 2.8445951938629150391 3.6096529960632324219 4.2853236198425292969 4.2853236198425292969 3.6096529960632324219 2.8445951938629150391 2.3839383125305175781 2.0985455513000488281 1.9080989360809326172 1.7729359865188598633 1.6723576784133911133 1.5947240591049194336 1.5330455303192138672 1.4828904867172241211 1.4413208961486816406 1.4063147306442260742 1.3764364719390869141 1.3506395816802978516 1.3372911214828491211 1.3563606739044189453 1.3769752979278564453 1.3991323709487915039 1.4227297306060791016 1.4475117921829223633 1.4729998111724853516 1.4984184503555297852 1.5226384401321411133 1.5441831350326538086 1.5613499879837036133 1.5724815130233764648 1.5763448476791381836 1.5763448476791381836 1.5994549989700317383 1.679274439811706543 1.7836153507232666016 1.9258284568786621094 2.1311054229736328125 2.4533443450927734375 3.0323324203491210938 4.3781189918518066406 11 11 4.3781189918518066406 3.6096529960632324219 2.8445951938629150391 2.5006301403045654297 2.2252111434936523438 2.0530951023101806641 2.0630278587341308594 2.0898754596710205078 2.0898754596710205078 2.0898754596710205078 2.0898754596710205078 2.0630278587341308594 1.9933631420135498047 1.9032801389694213867 1.837139129638671875 1.8371437788009643555 1.8767701387405395508 1.8913290500640869141 1.8913290500640869141 1.8913290500640869141 1.8913290500640869141 1.8913290500640869141 1.8767701387405395508 1.8371437788009643555 1.7818380594253540039 1.7207496166229248047 1.6849269866943359375 1.7434079647064208984 1.8606241941452026367 2.0160000324249267578 2.2252111434936523438 2.5006301403045654297 2.8072078227996826172 2.9655323028564453125 3.6096529960632324219 4.2853236198425292969 4.2853236198425292969 4.3781189918518066406 11 11 11 4.3781189918518066406 4.3781189918518066406 11 11 4.3781189918518066406 4.2853236198425292969 3.6096529960632324219 2.8445951938629150391 2.3839383125305175781 2.0985455513000488281 
1.3813692331314086914 1.3870347738265991211 1.3905594348907470703 1.3917561769485473633 1.3917561769485473633 1.3905594348907470703 1.3870347738265991211 1.3813692331314086914 1.3738448619842529297 1.3648021221160888672 1.3546026945114135742 1.3435966968536376953 1.3321005105972290039 1.3203836679458618164 1.3086640834808349609 1.2971103191375732422 1.2973564863204956055 1.3054921627044677734 1.3131172657012939453 1.3200409412384033203 1.3260648250579833984 1.3434072732925415039 1.3675071001052856445 1.3951189517974853516 1.4270322322845458984 1.4642752408981323242 1.5082006454467773438 1.5606018304824829102 1.6238582134246826172 1.7010788917541503906 1.7961094379425048828 1.9129341840744018555 2.0530991554260253906 2.2252180576324462891 2.5006361007690429688 2.8072104454040527344 2.9655323028564453125 2.9655323028564453125 2.8072104454040527344 2.5006361007690429688 2.2252180576324462891 2.0160067081451416016 1.8606305122375488281 1.7434138059616088867 1.6528474092483520508 1.5811986923217773438 1.5233021974563598633 1.4756481647491455078 1.4357955455780029297 1.4020059108734130859 1.3730129003524780273 1.3478751182556152344 1.3258795738220214844 1.3407953977584838867 1.3586561679840087891 1.3775339126586914062 1.3972635269165039062 1.4175547361373901367 1.4379543066024780273 1.4578136205673217773 1.4762790203094482422 1.4923253059387207031 1.5048532485961914062 1.5128540992736816406 1.5156084299087524414 1.5364266633987426758 1.5994603633880615234 1.679280400276184082 1.7836221456527709961 1.9258364439010620117 2.131114959716796875 2.4533560276031494141 3.0323479175567626953 4.3781399726867675781 11 4.3781399726867675781 3.6096706390380859375 2.8446176052093505859 2.5006361007690429688 2.2252180576324462891 2.0530991554260253906 1.9129341840744018555 1.8767690658569335938 1.8913290500640869141 1.8913290500640869141 1.8913290500640869141 1.8913290500640869141 1.8767690658569335938 1.8371400833129882812 1.811192631721496582 1.9032933712005615234 1.993371129035949707 2.0630304813385009766 2.0898754596710205078 2.0898754596710205078 2.0898754596710205078 2.0898754596710205078 2.0898754596710205078 2.0630304813385009766 1.993371129035949707 1.9032933712005615234 1.8371447324752807617 1.7818398475646972656 1.7204339504241943359 1.7961094379425048828 1.9129341840744018555 2.0530991554260253906 2.2080576419830322266 2.3445847034454345703 2.5006361007690429688 2.8072104454040527344 2.9655323028564453125 2.9655323028564453125 3.6096618175506591797 4.2853236198425292969 4.3781399726867675781 11 11 4.3781399726867675781 4.3781399726867675781 11 4.3781399726867675781 3.0323479175567626953 2.8072104454040527344 2.5006361007690429688 2.2252180576324462891 2.0160067081451416016 
1.3544467687606811523 1.3589681386947631836 1.3617664575576782227 1.3627140522003173828 1.3627140522003173828 1.3617664575576782227 1.3589681386947631836 1.3544467687606811523 1.3483978509902954102 1.3410623073577880859 1.3327025175094604492 1.3235809803009033203 1.3139431476593017578 1.3040065765380859375 1.2939549684524536133 1.2839374542236328125 1.2821993827819824219 1.2891130447387695312 1.2955392599105834961 1.3013287782669067383 1.3172709941864013672 1.3374385833740234375 1.3602014780044555664 1.3860569000244140625 1.4156222343444824219 1.449665069580078125 1.4891353845596313477 1.5351912975311279297 1.5891907215118408203 1.6525871753692626953 1.7265762090682983398 1.8111824989318847656 1.9129390716552734375 2.0531034469604492188 2.2080605030059814453 2.3445856571197509766 2.402225494384765625 2.402225494384765625 2.3445856571197509766 2.2080605030059814453 2.0531034469604492188 1.9129390716552734375 1.7961144447326660156 1.7010837793350219727 1.6238627433776855469 1.5606061220169067383 1.5082046985626220703 1.4642790555953979492 1.4270358085632324219 1.3951222896575927734 1.3675103187561035156 1.3434102535247802734 1.3222087621688842773 1.3256247043609619141 1.3410688638687133789 1.3571457862854003906 1.3736692667007446289 1.3903582096099853516 1.4068174362182617188 1.4225280284881591797 1.4368547201156616211 1.4490821361541748047 1.458483576774597168 1.4644207954406738281 1.4853920936584472656 1.536431431770324707 1.5994657278060913086 1.6792863607406616211 1.7836289405822753906 1.9258444309234619141 2.1311242580413818359 2.4533677101135253906 3.0323631763458251953 4.3781614303588867188 11 11 4.3781614303588867188 3.0323631763458251953 2.4533677101135253906 2.1311242580413818359 1.9258444309234619141 1.8111824989318847656 1.7452272176742553711 1.75397491455078125 1.75397491455078125 1.75397491455078125 1.75397491455078125 1.7452272176742553711 1.7961293458938598633 1.9129536151885986328 2.0531163215637207031 2.2080693244934082031 2.3445887565612792969 2.402225494384765625 2.402225494384765625 2.402225494384765625 2.402225494384765625 2.402225494384765625 2.3445887565612792969 2.2080693244934082031 2.0630309581756591797 1.9933726787567138672 1.9032959938049316406 1.8111959695816040039 1.7265912294387817383 1.8111824989318847656 1.9032855033874511719 1.9933663606643676758 2.0630290508270263672 2.2080605030059814453 2.3445856571197509766 2.402225494384765625 2.5006418228149414062 2.8072130680084228516 2.9655323028564453125 3.6096706390380859375 4.3781614303588867188 11 11 11 4.3781614303588867188 3.6096706390380859375 2.8446176052093505859 2.3839585781097412109 2.2080605030059814453 2.0531034469604492188 1.9129390716552734375 
1.3309959173202514648 1.334659576416015625 1.3369177579879760742 1.337680816650390625 1.337680816650390625 1.3369177579879760742 1.334659576416015625 1.3309959173202514648 1.3260653018951416016 1.3200415372848510742 1.3131181001663208008 1.3054932355880737305 1.2973577976226806641 1.2888865470886230469 1.2802324295043945312 1.2715244293212890625 1.268330693244934082 1.2742443084716796875 1.2797017097473144531 1.2942355871200561523 1.3112499713897705078 1.3302072286605834961 1.3514254093170166016 1.3752831220626831055 1.4022290706634521484 1.4327870607376098633 1.4675517082214355469 1.5071606636047363281 1.5522165298461914062 1.6031082868576049805 1.6596492528915405273 1.7265799045562744141 1.8111858367919921875 1.9032881259918212891 1.9933679103851318359 2.0630295276641845703 2.0898754596710205078 2.0898754596710205078 2.0630295276641845703 1.9933679103851318359 1.9032881259918212891 1.8111858367919921875 1.7265799045562744141 1.6525909900665283203 1.5891946554183959961 1.5351951122283935547 1.4891390800476074219 1.4496685266494750977 1.4156255722045898438 1.3860599994659423828 1.3602044582366943359 1.3374413251876831055 1.3172737360000610352 1.3110276460647583008 1.3243788480758666992 1.3380880355834960938 1.3519719839096069336 1.3657779693603515625 1.3791761398315429688 1.3917595148086547852 1.4030572175979614258 1.4125640392303466797 1.4197884798049926758 1.441332697868347168 1.4829033613204956055 1.5330595970153808594 1.5947396755218505859 1.6723750829696655273 1.7729555368423461914 1.9081213474273681641 2.0985715389251708984 2.3839685916900634766 2.8446288108825683594 3.6096792221069335938 4.3781824111938476562 11 4.3781824111938476562 3.0323784351348876953 2.4533796310424804688 2.1311337947845458984 1.9258522987365722656 1.7836357355117797852 1.6792923212051391602 1.6533008813858032227 1.6533008813858032227 1.6533008813858032227 1.6533008813858032227 1.7434370517730712891 1.8606559038162231445 2.0160338878631591797 2.2252454757690429688 2.5006592273712158203 2.8072209358215332031 2.9655323028564453125 2.9655323028564453125 2.9655323028564453125 2.9655323028564453125 2.9655323028564453125 2.8072209358215332031 2.5006592273712158203 2.3445897102355957031 2.2080721855163574219 2.0531206130981445312 1.9129585027694702148 1.8371466398239135742 1.7818431854248046875 1.8111994266510009766 1.9129585027694702148 2.0531206130981445312 2.2080721855163574219 2.3445897102355957031 2.402225494384765625 2.5006592273712158203 2.8072209358215332031 2.9655323028564453125 2.9655323028564453125 3.6096792221069335938 4.2853236198425292969 4.2853236198425292969 4.2853236198425292969 3.6096792221069335938 2.8446288108825683594 2.5006475448608398438 2.2252318859100341797 2.0160202980041503906 1.9032881259918212891 1.8111858367919921875 
1.3103994131088256836 1.3134081363677978516 1.3152563571929931641 1.31587982177734375 1.31587982177734375 1.3152563571929931641 1.3134081363677978516 1.3103994131088256836 1.306330561637878418 1.3013292551040649414 1.2955399751663208008 1.2891139984130859375 1.2822004556655883789 1.2749396562576293945 1.2674579620361328125 1.2598652839660644531 1.2556202411651611328 1.2607285976409912109 1.2739101648330688477 1.2883877754211425781 1.3043407201766967773 1.3219760656356811523 1.3415316343307495117 1.3632775545120239258 1.3875136375427246094 1.4145604372024536133 1.4447350502014160156 1.4783039093017578125 1.515391230583190918 1.5558196306228637695 1.60311126708984375 1.6596521139144897461 1.7204293012619018555 1.781836390495300293 1.8371429443359375 1.8767699003219604492 1.8913290500640869141 1.8913290500640869141 1.8767699003219604492 1.8371429443359375 1.781836390495300293 1.7204293012619018555 1.6596521139144897461 1.60311126708984375 1.5522197484970092773 1.5071638822555541992 1.4675548076629638672 1.4327901601791381836 1.402232050895690918 1.3752859830856323242 1.3514281511306762695 1.3302099704742431641 1.311252593994140625 1.2971138954162597656 1.3086674213409423828 1.3203866481781005859 1.3321031332015991211 1.3435989618301391602 1.3546044826507568359 1.3648035526275634766 1.3738458156585693359 1.3957750797271728516 1.4217079877853393555 1.4499100446701049805 1.4802434444427490234 1.5233156681060791016 1.5812132358551025391 1.6528633832931518555 1.7434312105178833008 1.8606494665145874023 2.0160272121429443359 2.2252385616302490234 2.5006532669067382812 3.0323936939239501953 4.3782033920288085938 11 4.3782033920288085938 3.0323936939239501953 2.4533913135528564453 2.1311433315277099609 1.925860285758972168 1.7836426496505737305 1.67929840087890625 1.6849313974380493164 1.7207520008087158203 1.7452285289764404297 1.75397491455078125 1.7729686498641967773 1.9081363677978515625 2.0985889434814453125 2.3839886188507080078 2.8446512222290039062 3.6096968650817871094 4.2853236198425292969 4.2853236198425292969 4.2853236198425292969 4.2853236198425292969 4.2853236198425292969 3.6096968650817871094 2.9655323028564453125 2.8072235584259033203 2.5006649494171142578 2.2252523899078369141 2.0630319118499755859 1.9933757781982421875 1.9033013582229614258 1.9129633903503417969 2.0531249046325683594 2.2252523899078369141 2.5006649494171142578 2.8072235584259033203 2.9655323028564453125 2.9655323028564453125 3.6096968650817871094 4.2853236198425292969 4.2853236198425292969 3.6096968650817871094 2.9655323028564453125 2.9655323028564453125 2.9655323028564453125 2.8072183132171630859 2.5006532669067382812 2.2252385616302490234 2.053112030029296875 1.9129488468170166016 1.7961243391036987305 1.720440983772277832 
1.29217529296875 1.2946755886077880859 1.2962071895599365234 1.2967231273651123047 1.2967231273651123047 1.2962071895599365234 1.2946755886077880859 1.29217529296875 1.2887804508209228516 1.2845863103866577148 1.279702305793762207 1.2742450237274169922 1.2683316469192504883 1.2620749473571777344 1.2555791139602661133 1.2489370107650756836 1.244515538215637207 1.2559255361557006836 1.268349766731262207 1.2819104194641113281 1.2967449426651000977 1.313006281852722168 1.3308615684509277344 1.3504884243011474609 1.3720663785934448242 1.3957608938217163086 1.4216941595077514648 1.449896693229675293 1.4802310466766357422 1.5153938531875610352 1.5558220148086547852 1.5988585948944091797 1.6428635120391845703 1.6849257946014404297 1.7207490205764770508 1.7452276945114135742 1.75397491455078125 1.75397491455078125 1.7452276945114135742 1.7207490205764770508 1.6849257946014404297 1.6428635120391845703 1.5988585948944091797 1.5558220148086547852 1.5153938531875610352 1.4783065319061279297 1.4447376728057861328 1.4145630598068237305 1.3875163793563842773 1.363280177116394043 1.3415341377258300781 1.321978449821472168 1.304343104362487793 1.2883901596069335938 1.2939577102661132812 1.3040090799331665039 1.3139454126358032227 1.3235828876495361328 1.3415493965148925781 1.3632957935333251953 1.387532353401184082 1.4145792722702026367 1.4447540044784545898 1.4783226251602172852 1.5154092311859130859 1.5558363199234008789 1.5988709926605224609 1.6526143550872802734 1.7266025543212890625 1.8112061023712158203 1.9258682727813720703 2.1311528682708740234 2.4534029960632324219 3.0324091911315917969 4.3782248497009277344 11 4.3782248497009277344 3.0324091911315917969 2.4534029960632324219 2.1311528682708740234 1.9258682727813720703 1.783649444580078125 1.7204433679580688477 1.7818466424942016602 1.8371484279632568359 1.8767714500427246094 1.8913290500640869141 1.8767714500427246094 1.9258682727813720703 2.1311528682708740234 2.4534029960632324219 3.0324091911315917969 4.3782248497009277344 11 11 11 11 11 4.3782248497009277344 4.2853236198425292969 3.6097054481506347656 2.8446624279022216797 2.5006706714630126953 2.3445916175842285156 2.2080781459808349609 2.0898754596710205078 2.0630323886871337891 2.2252593040466308594 2.5006706714630126953 2.8446624279022216797 3.6097054481506347656 4.2853236198425292969 4.2853236198425292969 4.3782248497009277344 11 11 4.3782248497009277344 3.0324091911315917969 2.5006706714630126953 2.402225494384765625 2.3445887565612792969 2.2080693244934082031 2.0898754596710205078 2.0630323886871337891 1.9933774471282958984 1.903303980827331543 1.8112061023712158203 
1.2759423255920410156 1.2780420780181884766 1.2793253660202026367 1.2797571420669555664 1.2797571420669555664 1.2793253660202026367 1.2780420780181884766 1.2759423255920410156 1.2730817794799804688 1.2695325613021850586 1.2653784751892089844 1.2607103586196899414 1.2556210756301879883 1.2502012252807617188 1.2445368766784667969 1.2387061119079589844 1.2399536371231079102 1.2507028579711914062 1.2623397111892700195 1.2749572992324829102 1.2886558771133422852 1.3035415410995483398 1.3197227716445922852 1.3373036384582519531 1.3563729524612426758 1.376987457275390625 1.3991440534591674805 1.4227408170700073242 1.4498989582061767578 1.4802331924438476562 1.5122811794281005859 1.5451971292495727539 1.5775496959686279297 1.6072280406951904297 1.6315408945083618164 1.6476457118988037109 1.6533008813858032227 1.6533008813858032227 1.6476457118988037109 1.6315408945083618164 1.6072280406951904297 1.5775496959686279297 1.5451971292495727539 1.5122811794281005859 1.4802331924438476562 1.4498989582061767578 1.4216964244842529297 1.3957632780075073242 1.3720687627792358398 1.3504906892776489258 1.3308638334274291992 1.3130085468292236328 1.2967472076416015625 1.2819125652313232422 1.2802349328994750977 1.2942551374435424805 1.3112703561782836914 1.3302284479141235352 1.3514474630355834961 1.3753061294555664062 1.4022529125213623047 1.432811737060546875 1.4675769805908203125 1.5071862936019897461 1.5522419214248657227 1.6031327247619628906 1.6596716642379760742 1.7204456329345703125 1.7961492538452148438 1.9129731655120849609 2.0531334877014160156 2.2252662181854248047 2.5006763935089111328 3.0324244499206542969 4.3782458305358886719 11 4.3782458305358886719 3.0324244499206542969 2.4534149169921875 2.1311624050140380859 1.9258761405944824219 1.7836562395095825195 1.811209559440612793 1.9033066034317016602 1.9933789968490600586 2.0630328655242919922 2.0898754596710205078 2.0630328655242919922 1.9933789968490600586 2.0985975265502929688 2.3839986324310302734 2.8446624279022216797 3.6097054481506347656 4.2853236198425292969 4.2853236198425292969 4.2853236198425292969 4.3782458305358886719 11 11 11 4.3782458305358886719 3.6097142696380615234 2.9655323028564453125 2.8072288036346435547 2.5006763935089111328 2.402225494384765625 2.3445928096771240234 2.3840088844299316406 2.8446736335754394531 3.6097142696380615234 4.3782458305358886719 11 11 11 11 4.3782458305358886719 4.2853236198425292969 3.6097142696380615234 2.8446736335754394531 2.402225494384765625 2.402225494384765625 2.3445928096771240234 2.402225494384765625 2.3445928096771240234 2.2080810070037841797 2.0531334877014160156 1.9129731655120849609 
1.261395573616027832 1.2631756067276000977 1.2642614841461181641 1.2646263837814331055 1.2646263837814331055 1.2642614841461181641 1.2631756067276000977 1.261395573616027832 1.2589637041091918945 1.2559353113174438477 1.252375483512878418 1.2483555078506469727 1.2439494132995605469 1.2392307519912719727 1.2342700958251953125 1.2291334867477416992 1.2350820302963256836 1.2451562881469726562 1.2559971809387207031 1.2676717042922973633 1.2802489995956420898 1.2937967777252197266 1.3083767890930175781 1.3240382671356201172 1.3408062458038330078 1.358666539192199707 1.3775438070297241211 1.3991460800170898438 1.4227426052093505859 1.4475234746932983398 1.4730100631713867188 1.4984266757965087891 1.5226445198059082031 1.5441870689392089844 1.5613518953323364258 1.572481989860534668 1.5763448476791381836 1.5763448476791381836 1.572481989860534668 1.5613518953323364258 1.5441870689392089844 1.5226445198059082031 1.4984266757965087891 1.4730100631713867188 1.4475234746932983398 1.4227426052093505859 1.3991460800170898438 1.3769894838333129883 1.3563750982284545898 1.3373056650161743164 1.3197247982025146484 1.3035435676574707031 1.2886579036712646484 1.2749592065811157227 1.2832115888595581055 1.2993201017379760742 1.3172953128814697266 1.3374640941619873047 1.3602283000946044922 1.3860851526260375977 1.4156519174575805664 1.4496961832046508789 1.4891680479049682617 1.5352252721786499023 1.5892256498336791992 1.6526221036911010742 1.7266100645065307617 1.8112128973007202148 1.9033093452453613281 2.0160610675811767578 2.2252728939056396484 2.5006823539733886719 2.8446848392486572266 3.6097230911254882812 4.3782672882080078125 11 4.3782672882080078125 3.0324397087097167969 2.4534265995025634766 2.1311717033386230469 1.9258841276168823242 1.7961542606353759766 1.912978053092956543 2.0531377792358398438 2.2080838680267333984 2.3445937633514404297 2.402225494384765625 2.3445937633514404297 2.2080838680267333984 2.0531377792358398438 2.2252593040466308594 2.5006706714630126953 2.8072261810302734375 2.9655323028564453125 2.9655323028564453125 2.9655323028564453125 3.6097142696380615234 4.2853236198425292969 4.3782672882080078125 11 11 4.3782672882080078125 4.2853236198425292969 3.6097230911254882812 2.9655323028564453125 2.9655323028564453125 2.8072314262390136719 2.5006823539733886719 3.0324397087097167969 4.3782672882080078125 11 11 11 4.3782672882080078125 4.3782672882080078125 11 11 4.3782672882080078125 3.0324397087097167969 2.9655323028564453125 2.9655323028564453125 2.8072314262390136719 2.9655323028564453125 2.8072314262390136719 2.5006823539733886719 2.2252728939056396484 2.0160610675811767578 
1.2482885122299194336 1.249810338020324707 1.2507370710372924805 1.2510483264923095703 1.2510483264923095703 1.2507370710372924805 1.249810338020324707 1.2482885122299194336 1.2462042570114135742 1.2436008453369140625 1.2405290603637695312 1.2370454072952270508 1.2332094907760620117 1.2290810346603393555 1.2247185707092285156 1.22118377685546875 1.2299759387969970703 1.2393759489059448242 1.2494294643402099609 1.2601821422576904297 1.2716772556304931641 1.2839524745941162109 1.2970349788665771484 1.3109344244003295898 1.3256341218948364258 1.3410778045654296875 1.3586683273315429688 1.3775453567504882812 1.3972741365432739258 1.4175642728805541992 1.4379622936248779297 1.4578200578689575195 1.4762836694717407227 1.4923281669616699219 1.5048546791076660156 1.512854456901550293 1.5156084299087524414 1.5156084299087524414 1.512854456901550293 1.5048546791076660156 1.4923281669616699219 1.4762836694717407227 1.4578200578689575195 1.4379622936248779297 1.4175642728805541992 1.3972741365432739258 1.3775453567504882812 1.3586683273315429688 1.3408080339431762695 1.3240401744842529297 1.3083786964416503906 1.2937985658645629883 1.2802509069442749023 1.2716671228408813477 1.286694645881652832 1.303447723388671875 1.3222342729568481445 1.34343719482421875 1.3675388097763061523 1.3951525688171386719 1.4270679950714111328 1.4643133878707885742 1.5082414150238037109 1.5606452226638793945 1.6239043474197387695 1.7011274099349975586 1.7961592674255371094 1.912982940673828125 2.0531420707702636719 2.2080867290496826172 2.3840289115905761719 2.844696044921875 3.6097316741943359375 4.37828826904296875 11 11 4.37828826904296875 3.0324552059173583984 2.4534382820129394531 2.1311812400817871094 1.9258921146392822266 1.8606876134872436523 2.0160679817199707031 2.2252798080444335938 2.5006880760192871094 2.8072340488433837891 2.9655323028564453125 2.8072340488433837891 2.5006880760192871094 2.2252798080444335938 2.0531291961669921875 2.2080781459808349609 2.3445916175842285156 2.402225494384765625 2.402225494384765625 2.5006763935089111328 2.8072288036346435547 2.9655323028564453125 3.6097230911254882812 4.37828826904296875 11 11 11 4.37828826904296875 4.2853236198425292969 4.2853236198425292969 3.6097316741943359375 2.9655323028564453125 3.0324552059173583984 4.37828826904296875 11 4.37828826904296875 4.2853236198425292969 4.37828826904296875 11 11 4.37828826904296875 4.2853236198425292969 4.2853236198425292969 4.2853236198425292969 4.2853236198425292969 3.6097316741943359375 4.2853236198425292969 3.6097316741943359375 2.844696044921875 2.3840289115905761719 2.0986235141754150391 
1.236419677734375 1.237730860710144043 1.238528132438659668 1.2387956380844116211 1.2387956380844116211 1.238528132438659668 1.237730860710144043 1.236419677734375 1.2346204519271850586 1.2323666810989379883 1.2296990156173706055 1.2266626358032226562 1.2233054637908935547 1.2196766138076782227 1.2158243656158447266 1.2164862155914306641 1.2247046232223510742 1.2334430217742919922 1.2427318096160888672 1.2525993585586547852 1.2630685567855834961 1.2741546630859375 1.2858597040176391602 1.2981675863265991211 1.3110358715057373047 1.3256356716156005859 1.3410793542861938477 1.3571554422378540039 1.3736780881881713867 1.3903659582138061523 1.4068238735198974609 1.4225330352783203125 1.4368582963943481445 1.4490842819213867188 1.4584845304489135742 1.4644211530685424805 1.4664527177810668945 1.4664527177810668945 1.4644211530685424805 1.4584845304489135742 1.4490842819213867188 1.4368582963943481445 1.4225330352783203125 1.4068238735198974609 1.3903659582138061523 1.3736780881881713867 1.3571554422378540039 1.3410793542861938477 1.3256356716156005859 1.3109360933303833008 1.2970365285873413086 1.2839541435241699219 1.2716790437698364258 1.2738468647003173828 1.2892639636993408203 1.3065044879913330078 1.3259087800979614258 1.3479062318801879883 1.3730460405349731445 1.402041316032409668 1.4358336925506591797 1.4756892919540405273 1.5233467817306518555 1.5812472105026245117 1.6529004573822021484 1.743471980094909668 1.8606939315795898438 2.0160746574401855469 2.2252867221832275391 2.5006937980651855469 2.8072366714477539062 3.0324704647064208984 4.3783092498779296875 11 11 4.3783092498779296875 3.6097316741943359375 2.844696044921875 2.3840289115905761719 2.2080895900726318359 2.0531463623046875 1.912987828254699707 2.0986320972442626953 2.3840389251708984375 2.8447072505950927734 3.6097404956817626953 4.2853236198425292969 3.6097404956817626953 2.8447072505950927734 2.3840389251708984375 2.0986320972442626953 1.9933774471282958984 2.0630323886871337891 2.0898754596710205078 2.0898754596710205078 2.2080810070037841797 2.3445928096771240234 2.5006823539733886719 2.844696044921875 3.6097316741943359375 4.2853236198425292969 4.3783092498779296875 11 11 11 11 4.3783092498779296875 4.2853236198425292969 3.6097404956817626953 4.3783092498779296875 11 4.3783092498779296875 11 11 11 11 4.3783092498779296875 11 11 11 11 4.3783092498779296875 11 4.3783092498779296875 3.0324704647064208984 2.4534502029418945312 2.1311907768249511719 
1.2256233692169189453 1.2267608642578125 1.2274516820907592773 1.2276833057403564453 1.2276833057403564453 1.2274516820907592773 1.2267608642578125 1.2256233692169189453 1.2240595817565917969 1.2220963239669799805 1.2197659015655517578 1.2171049118041992188 1.2141520977020263672 1.2109481096267700195 1.2075330018997192383 1.2116718292236328125 1.2193304300308227539 1.2274289131164550781 1.235985875129699707 1.2450156211853027344 1.2545261383056640625 1.264515995979309082 1.2749707698822021484 1.2858612537384033203 1.2981690168380737305 1.3110371828079223633 1.3243877887725830078 1.3380962610244750977 1.351979374885559082 1.3657842874526977539 1.3791813850402832031 1.3917634487152099609 1.4030599594116210938 1.4125657081604003906 1.4197891950607299805 1.424312591552734375 1.425853729248046875 1.425853729248046875 1.424312591552734375 1.4197891950607299805 1.4125657081604003906 1.4030599594116210938 1.3917634487152099609 1.3791813850402832031 1.3657842874526977539 1.351979374885559082 1.3380962610244750977 1.3243877887725830078 1.3110371828079223633 1.2981690168380737305 1.2858612537384033203 1.2741562128067016602 1.2630701065063476562 1.275180816650390625 1.2908399105072021484 1.3083845376968383789 1.3281761407852172852 1.3506746292114257812 1.3764739036560058594 1.4063550233840942383 1.4413644075393676758 1.4829378128051757812 1.533097386360168457 1.5947813987731933594 1.672421574592590332 1.7730079889297485352 1.908181309700012207 2.0986409187316894531 2.3840491771697998047 2.8447184562683105469 3.6097493171691894531 4.2853236198425292969 4.2853236198425292969 4.2853236198425292969 4.2853236198425292969 3.6097493171691894531 2.9655323028564453125 2.9655323028564453125 2.8072392940521240234 2.5006995201110839844 2.2252936363220214844 2.0531504154205322266 2.1312003135681152344 2.4534618854522705078 3.0324857234954833984 4.3783307075500488281 11 4.3783307075500488281 3.0324857234954833984 2.5006995201110839844 2.2252936363220214844 2.0160815715789794922 1.8767714500427246094 1.8913290500640869141 1.9033066034317016602 1.9933789968490600586 2.0630328655242919922 2.2252798080444335938 2.5006880760192871094 2.8072340488433837891 2.9655323028564453125 3.6097404956817626953 4.2853236198425292969 4.2853236198425292969 4.3783307075500488281 11 11 11 4.3783307075500488281 11 11 11 11 4.3783307075500488281 4.2853236198425292969 4.3783307075500488281 11 11 4.3783307075500488281 4.2853236198425292969 4.3783307075500488281 11 11 4.3783307075500488281 3.0324857234954833984 2.4534618854522705078 2.402225494384765625 
1.2157617807388305664 1.2167547941207885742 1.2173572778701782227 1.2175592184066772461 1.2175592184066772461 1.2173572778701782227 1.2167547941207885742 1.2157617807388305664 1.2143943309783935547 1.2126741409301757812 1.2106271982192993164 1.2082831859588623047 1.2056740522384643555 1.2028330564498901367 1.2000262737274169922 1.2067888975143432617 1.2139077186584472656 1.2213951349258422852 1.2292599678039550781 1.2375060319900512695 1.2461303472518920898 1.255120396614074707 1.2645174264907836914 1.274972081184387207 1.2858589887619018555 1.2971222400665283203 1.3086751699447631836 1.320393681526184082 1.3321093320846557617 1.3436042070388793945 1.3546086549758911133 1.3648066520690917969 1.37384796142578125 1.3813711404800415039 1.3870356082916259766 1.3905595541000366211 1.3917561769485473633 1.3917561769485473633 1.3905595541000366211 1.3870356082916259766 1.3813711404800415039 1.37384796142578125 1.3648066520690917969 1.3546086549758911133 1.3436042070388793945 1.3321093320846557617 1.320393681526184082 1.3086751699447631836 1.2971222400665283203 1.2858589887619018555 1.274972081184387207 1.2645174264907836914 1.2615032196044921875 1.2756308317184448242 1.2913719415664672852 1.309019923210144043 1.3289436101913452148 1.3516134023666381836 1.3776391744613647461 1.4078257083892822266 1.4432573318481445312 1.4854314327239990234 1.5364747047424316406 1.5995136499404907227 1.679340362548828125 1.7836904525756835938 1.9259159564971923828 2.1312098503112792969 2.4534735679626464844 3.032501220703125 4.3783516883850097656 11 11 11 11 4.3783516883850097656 4.2853236198425292969 4.2853236198425292969 3.6097579002380371094 2.8447296619415283203 2.5007054805755615234 2.2253005504608154297 2.1312098503112792969 2.4534735679626464844 3.032501220703125 4.3783516883850097656 11 4.3783516883850097656 3.6097579002380371094 2.8447296619415283203 2.3840591907501220703 2.0986495018005371094 1.9081888198852539062 1.8913290500640869141 1.8913290500640869141 1.8913290500640869141 1.912982940673828125 2.0531420707702636719 2.2080867290496826172 2.3445947170257568359 2.5006937980651855469 2.8072366714477539062 2.9655323028564453125 2.9655323028564453125 3.6097493171691894531 4.3783516883850097656 11 11 11 11 11 11 4.3783516883850097656 4.2853236198425292969 4.3783516883850097656 11 11 4.3783516883850097656 3.6097493171691894531 3.032501220703125 4.3783516883850097656 11 4.3783516883850097656 3.6097493171691894531 2.9655323028564453125 2.9655323028564453125 2.9655323028564453125 
1.206719517707824707 1.2075915336608886719 1.2081201076507568359 1.2082972526550292969 1.2082972526550292969 1.2081201076507568359 1.2075915336608886719 1.206719517707824707 1.2055170536041259766 1.2040016651153564453 1.2021945714950561523 1.2001199722290039062 1.1978043317794799805 1.1952751874923706055 1.195575714111328125 1.2018795013427734375 1.2084833383560180664 1.2153927087783813477 1.2226091623306274414 1.2301290035247802734 1.2379415035247802734 1.2461316585540771484 1.2551215887069702148 1.2644519805908203125 1.2740813493728637695 1.2839478254318237305 1.293964385986328125 1.304015040397644043 1.313950657844543457 1.3235872983932495117 1.332707524299621582 1.3410660028457641602 1.3484004735946655273 1.3544483184814453125 1.3589688539505004883 1.3617666959762573242 1.3627140522003173828 1.3627140522003173828 1.3617666959762573242 1.3589688539505004883 1.3544483184814453125 1.3484004735946655273 1.3410660028457641602 1.332707524299621582 1.3235872983932495117 1.313950657844543457 1.304015040397644043 1.293964385986328125 1.2839478254318237305 1.2740813493728637695 1.2644519805908203125 1.2551215887069702148 1.2611217498779296875 1.2751834392547607422 1.2908425331115722656 1.3083872795104980469 1.3281791210174560547 1.3506777286529541016 1.376477360725402832 1.4063585996627807617 1.4413683414459228516 1.4829421043395996094 1.5331020355224609375 1.594786524772644043 1.6724274158477783203 1.7730145454406738281 1.9081888198852539062 2.0986495018005371094 2.3840591907501220703 2.8447296619415283203 3.6097579002380371094 4.2853236198425292969 4.2853236198425292969 4.3783731460571289062 11 11 11 11 4.3783731460571289062 3.6097667217254638672 2.8447408676147460938 2.5007112026214599609 2.2253072261810302734 2.4534854888916015625 3.0325164794921875 4.3783731460571289062 11 11 4.3783731460571289062 3.0325164794921875 2.4534854888916015625 2.1312193870544433594 2.0630357265472412109 2.0898754596710205078 2.0898754596710205078 2.0898754596710205078 2.0630357265472412109 1.9933885335922241211 1.9933822154998779297 2.0630338191986083984 2.2080895900726318359 2.3445959091186523438 2.402225494384765625 2.5006995201110839844 2.8447296619415283203 3.6097579002380371094 4.2853236198425292969 4.2853236198425292969 4.2853236198425292969 4.3783731460571289062 11 11 11 11 11 11 4.3783731460571289062 4.2853236198425292969 3.6097667217254638672 3.6097667217254638672 4.3783731460571289062 11 4.3783731460571289062 3.6097667217254638672 4.2853236198425292969 4.2853236198425292969 4.2853236198425292969 
1.1983993053436279297 1.199169158935546875 1.1996353864669799805 1.1997915506362915039 1.1997915506362915039 1.1996353864669799805 1.199169158935546875 1.1983993053436279297 1.1973364353179931641 1.1959948539733886719 1.1943919658660888672 1.1925476789474487305 1.1904839277267456055 1.1882239580154418945 1.1911133527755737305 1.196979522705078125 1.2030960321426391602 1.2094633579254150391 1.2160773277282714844 1.2229291200637817383 1.2301301956176757812 1.2379425764083862305 1.246027827262878418 1.2543544769287109375 1.2628772258758544922 1.2715334892272949219 1.2802406549453735352 1.2888938188552856445 1.2973641157150268555 1.3054984807968139648 1.3131222724914550781 1.3200446367263793945 1.3260673284530639648 1.3309971094131469727 1.3346601724624633789 1.336917877197265625 1.337680816650390625 1.337680816650390625 1.336917877197265625 1.3346601724624633789 1.3309971094131469727 1.3260673284530639648 1.3200446367263793945 1.3131222724914550781 1.3054984807968139648 1.2973641157150268555 1.2888938188552856445 1.2802406549453735352 1.2715334892272949219 1.2628772258758544922 1.2543544769287109375 1.2474472522735595703 1.2599849700927734375 1.2738517522811889648 1.2892692089080810547 1.3065099716186523438 1.3259146213531494141 1.3479124307632446289 1.3730527162551879883 1.4020484685897827148 1.4358413219451904297 1.4756975173950195312 1.5233557224273681641 1.5812569856643676758 1.6529111862182617188 1.7434835433959960938 1.8607065677642822266 2.0160882472991943359 2.2253005504608154297 2.5007054805755615234 2.8072419166564941406 2.9655323028564453125 2.9655323028564453125 3.6097667217254638672 4.2853236198425292969 4.2853236198425292969 4.3783941268920898438 11 11 4.3783941268920898438 3.609775543212890625 2.8447520732879638672 2.5007169246673583984 2.4534971714019775391 3.03253173828125 4.3783941268920898438 11 11 4.3783941268920898438 3.03253173828125 2.4534971714019775391 2.2081012725830078125 2.3445999622344970703 2.402225494384765625 2.402225494384765625 2.402225494384765625 2.3445999622344970703 2.2081012725830078125 2.0531632900238037109 1.9130072593688964844 1.9933837652206420898 2.0630342960357666016 2.0898754596710205078 2.2253005504608154297 2.5007054805755615234 2.8072419166564941406 2.9655323028564453125 2.9655323028564453125 2.9655323028564453125 3.6097667217254638672 4.2853236198425292969 4.2853236198425292969 4.3783941268920898438 11 11 11 11 11 4.3783941268920898438 4.3783941268920898438 11 11 4.3783941268920898438 4.3783941268920898438 11 11 11 
1.190718531608581543 1.1914014816284179688 1.1918148994445800781 1.1919533014297485352 1.1919533014297485352 1.1918148994445800781 1.1914014816284179688 1.190718531608581543 1.1897745132446289062 1.1885813474655151367 1.1871533393859863281 1.1855070590972900391 1.1836606264114379883 1.1816337108612060547 1.1866674423217773438 1.1921192407608032227 1.1977779865264892578 1.2036401033401489258 1.2096978425979614258 1.2160784006118774414 1.2229301929473876953 1.2300037145614624023 1.2372751235961914062 1.2447103261947631836 1.2522630691528320312 1.2598732709884643555 1.2674651145935058594 1.2749459743499755859 1.2822058200836181641 1.2891184091567993164 1.2955434322357177734 1.3013317584991455078 1.3063323497772216797 1.3104003667831420898 1.3134086132049560547 1.3152564764022827148 1.31587982177734375 1.31587982177734375 1.3152564764022827148 1.3134086132049560547 1.3104003667831420898 1.3063323497772216797 1.3013317584991455078 1.2955434322357177734 1.2891184091567993164 1.2822058200836181641 1.2749459743499755859 1.2674651145935058594 1.2598732709884643555 1.2522630691528320312 1.2447103261947631836 1.2458418607711791992 1.2581224441528320312 1.2716743946075439453 1.286702275276184082 1.3034558296203613281 1.32224273681640625 1.3434461355209350586 1.3675483465194702148 1.3951627016067504883 1.4270788431167602539 1.464324951171875 1.5082536935806274414 1.5606583356857299805 1.6239181756973266602 1.7011419534683227539 1.7961742877960205078 1.9129974842071533203 2.0531547069549560547 2.208095550537109375 2.3445978164672851562 2.402225494384765625 2.5007112026214599609 2.8072445392608642578 2.9655323028564453125 2.9655323028564453125 3.609775543212890625 4.3784155845642089844 11 11 4.3784155845642089844 3.6097843647003173828 2.8447632789611816406 2.5007228851318359375 3.0325472354888916016 4.3784155845642089844 11 4.3784155845642089844 3.609775543212890625 2.8447520732879638672 2.3840794563293457031 2.5007228851318359375 2.8072497844696044922 2.9655323028564453125 2.9655323028564453125 2.9655323028564453125 2.8072497844696044922 2.5007228851318359375 2.2253210544586181641 2.0161087512969970703 1.8913290500640869141 1.8913290500640869141 1.9129974842071533203 2.0531547069549560547 2.208095550537109375 2.3445978164672851562 2.402225494384765625 2.5007228851318359375 2.8072497844696044922 2.9655323028564453125 2.9655323028564453125 2.9655323028564453125 3.609775543212890625 4.2853236198425292969 4.2853236198425292969 4.2853236198425292969 4.3784155845642089844 11 11 11 11 11 11 11 11 4.3784155845642089844 4.2853236198425292969 
1.1836067438125610352 1.1842154264450073242 1.1845836639404296875 1.1847068071365356445 1.1847068071365356445 1.1845836639404296875 1.1842154264450073242 1.1836067438125610352 1.1827646493911743164 1.181698918342590332 1.1804213523864746094 1.1789460182189941406 1.1772881746292114258 1.1773728132247924805 1.1822617053985595703 1.187323451042175293 1.1925545930862426758 1.1979485750198364258 1.2036411762237548828 1.209698796272277832 1.2159394025802612305 1.2223440408706665039 1.228886723518371582 1.2355326414108276367 1.2422369718551635742 1.2489439249038696289 1.2555853128433227539 1.2620804309844970703 1.2683362960815429688 1.2742488384246826172 1.2797052860260009766 1.2845884561538696289 1.2887818813323974609 1.2921761274337768555 1.2946759462356567383 1.2962073087692260742 1.2967231273651123047 1.2967231273651123047 1.2962073087692260742 1.2946759462356567383 1.2921761274337768555 1.2887818813323974609 1.2845884561538696289 1.2797052860260009766 1.2742488384246826172 1.2683362960815429688 1.2620804309844970703 1.2555853128433227539 1.2489439249038696289 1.2422369718551635742 1.2355326414108276367 1.2436459064483642578 1.255580902099609375 1.2687116861343383789 1.2832214832305908203 1.2993303537368774414 1.3173060417175292969 1.3374754190444946289 1.3602402210235595703 1.3860976696014404297 1.4156650304794311523 1.4497100114822387695 1.489182591438293457 1.5352402925491333008 1.5892411470413208008 1.6526377201080322266 1.7266250848770141602 1.8112264871597290039 1.9033199548721313477 1.9933868646621704102 2.0630352497100830078 2.0898754596710205078 2.2080984115600585938 2.3445987701416015625 2.402225494384765625 2.5007169246673583984 2.8447632789611816406 3.6097843647003173828 4.3784365653991699219 11 11 4.3784365653991699219 3.6097929477691650391 2.8447744846343994141 2.8447632789611816406 3.6097843647003173828 4.2853236198425292969 3.6097843647003173828 2.8447632789611816406 2.5007169246673583984 2.500728607177734375 2.8447744846343994141 3.6097929477691650391 4.2853236198425292969 4.2853236198425292969 4.2853236198425292969 3.6097929477691650391 2.8447744846343994141 2.3840994834899902344 2.0986843109130859375 2.0898754596710205078 2.0898754596710205078 2.0898754596710205078 2.0898754596710205078 2.2253279685974121094 2.500728607177734375 2.8072524070739746094 2.9655323028564453125 3.6097929477691650391 4.2853236198425292969 4.2853236198425292969 4.2853236198425292969 4.2853236198425292969 4.2853236198425292969 4.3784365653991699219 11 11 11 4.3784365653991699219 4.2853236198425292969 4.2853236198425292969 4.2853236198425292969 4.3784365653991699219 11 11 4.3784365653991699219 3.6097929477691650391 
1.1770032644271850586 1.1775480508804321289 1.1778774261474609375 1.1779875755310058594 1.1779875755310058594 1.1778774261474609375 1.1775480508804321289 1.1770032644271850586 1.1762489080429077148 1.1752932071685791016 1.1741460561752319336 1.1728190183639526367 1.1713252067565917969 1.1733614206314086914 1.1779154539108276367 1.1826120615005493164 1.1874456405639648438 1.192555546760559082 1.197949528694152832 1.2034959793090820312 1.2091801166534423828 1.2149815559387207031 1.2208734750747680664 1.2268222570419311523 1.2327854633331298828 1.2387121915817260742 1.244542241096496582 1.25020599365234375 1.2556250095367431641 1.2607135772705078125 1.2653809785842895508 1.2695343494415283203 1.2730830907821655273 1.2759430408477783203 1.2780424356460571289 1.2793254852294921875 1.2797571420669555664 1.2797571420669555664 1.2793254852294921875 1.2780424356460571289 1.2759430408477783203 1.2730830907821655273 1.2695343494415283203 1.2653809785842895508 1.2607135772705078125 1.2556250095367431641 1.25020599365234375 1.244542241096496582 1.2387121915817260742 1.2327854633331298828 1.2303661108016967773 1.2409075498580932617 1.2524214982986450195 1.2650421857833862305 1.2789282798767089844 1.2942674160003662109 1.311283111572265625 1.3302417993545532227 1.3514612913131713867 1.3753204345703125 1.4022678136825561523 1.4328271150588989258 1.4675927162170410156 1.5072022676467895508 1.5522577762603759766 1.6031479835510253906 1.6596856117248535156 1.7204574346542358398 1.7818567752838134766 1.8371540307998657227 1.8767731189727783203 1.9033225774765014648 1.9933885335922241211 2.0630357265472412109 2.0898754596710205078 2.2253210544586181641 2.5007228851318359375 2.8447744846343994141 3.6097929477691650391 4.3784580230712890625 11 11 4.3784580230712890625 3.6098017692565917969 2.8447856903076171875 2.8072497844696044922 2.9655323028564453125 2.8072497844696044922 2.5007228851318359375 2.3841094970703125 2.8447856903076171875 3.6098017692565917969 4.3784580230712890625 11 11 11 4.3784580230712890625 3.0325777530670166016 2.4535324573516845703 2.402225494384765625 2.402225494384765625 2.402225494384765625 2.402225494384765625 2.402225494384765625 2.5007343292236328125 2.8447856903076171875 3.6098017692565917969 4.2853236198425292969 4.3784580230712890625 11 11 11 11 11 11 11 4.3784580230712890625 11 11 4.3784580230712890625 3.6098017692565917969 2.9655323028564453125 3.6097929477691650391 4.3784580230712890625 11 11 4.3784580230712890625 
1.1708558797836303711 1.1713453531265258789 1.1716411113739013672 1.1717400550842285156 1.1717400550842285156 1.1716411113739013672 1.1713453531265258789 1.1708558797836303711 1.1701775789260864258 1.1693172454833984375 1.1682834625244140625 1.1670858860015869141 1.1657353639602661133 1.1694048643112182617 1.1736447811126708984 1.1780008077621459961 1.1826130151748657227 1.18744659423828125 1.1924086809158325195 1.1974872350692749023 1.2026662826538085938 1.207924962043762207 1.2132372856140136719 1.218570709228515625 1.2238864898681640625 1.2291388511657714844 1.2342748641967773438 1.2392348051071166992 1.2439528703689575195 1.2483583688735961914 1.252377629280090332 1.2559368610382080078 1.2589647769927978516 1.2613961696624755859 1.26317596435546875 1.2642614841461181641 1.2646263837814331055 1.2646263837814331055 1.2642614841461181641 1.26317596435546875 1.2613961696624755859 1.2589647769927978516 1.2559368610382080078 1.252377629280090332 1.2483583688735961914 1.2439528703689575195 1.2392348051071166992 1.2342748641967773438 1.2291388511657714844 1.2238864898681640625 1.2275451421737670898 1.2376835346221923828 1.2487156391143798828 1.2607564926147460938 1.2739390134811401367 1.2884176969528198242 1.3043717145919799805 1.3220080137252807617 1.3415645360946655273 1.3633114099502563477 1.3875483274459838867 1.414595484733581543 1.4447703361511230469 1.4783387184143066406 1.5154247283935546875 1.5558506250381469727 1.598883509635925293 1.64288330078125 1.6849393844604492188 1.7207560539245605469 1.7452297210693359375 1.7818584442138671875 1.8371549844741821289 1.8767733573913574219 1.9130121469497680664 2.0531675815582275391 2.2253279685974121094 2.500728607177734375 2.8447856903076171875 3.6098017692565917969 4.37847900390625 11 11 4.37847900390625 3.6098105907440185547 2.9655323028564453125 2.8072576522827148438 2.50074005126953125 2.3446040153503417969 2.4535441398620605469 3.0325932502746582031 4.37847900390625 11 11 4.37847900390625 4.2853236198425292969 3.6098017692565917969 2.8447856903076171875 2.8072576522827148438 2.9655323028564453125 2.9655323028564453125 2.9655323028564453125 2.9655323028564453125 2.9655323028564453125 2.9655323028564453125 3.6098105907440185547 4.37847900390625 11 11 11 4.37847900390625 4.2853236198425292969 4.2853236198425292969 4.2853236198425292969 4.2853236198425292969 4.2853236198425292969 3.6098017692565917969 4.37847900390625 11 11 4.37847900390625 3.6098105907440185547 2.9655323028564453125 3.6098105907440185547 4.37847900390625 11 11 
1.1651190519332885742 1.1655604839324951172 1.1658271551132202148 1.1659162044525146484 1.1659162044525146484 1.1658271551132202148 1.1655604839324951172 1.1651190519332885742 1.1645069122314453125 1.1637299060821533203 1.1627950668334960938 1.1617106199264526367 1.1616694927215576172 1.165515899658203125 1.1694619655609130859 1.1736456155776977539 1.1780016422271728516 1.1824671030044555664 1.187031865119934082 1.1916835308074951172 1.1964052915573120117 1.2011768817901611328 1.2059730291366577148 1.2107638120651245117 1.2155137062072753906 1.2201820611953735352 1.224722743034362793 1.2290847301483154297 1.233212590217590332 1.2370479106903076172 1.240530848503112793 1.2436021566390991211 1.2462052106857299805 1.2482889890670776367 1.2498105764389038086 1.2507371902465820312 1.2510483264923095703 1.2510483264923095703 1.2507371902465820312 1.2498105764389038086 1.2482889890670776367 1.2462052106857299805 1.2436021566390991211 1.240530848503112793 1.2370479106903076172 1.233212590217590332 1.2290847301483154297 1.224722743034362793 1.2201820611953735352 1.2155137062072753906 1.2243422269821166992 1.2340362071990966797 1.2445410490036010742 1.255952000617980957 1.2683769464492797852 1.2819383144378662109 1.2967735528945922852 1.3130356073379516602 1.3308914899826049805 1.3505188226699829102 1.372097015380859375 1.3957914113998413086 1.4217242002487182617 1.449925541877746582 1.4802579879760742188 1.512303471565246582 1.5452158451080322266 1.5775640010833740234 1.6072373390197753906 1.6315455436706542969 1.6476470232009887695 1.6849404573440551758 1.7207566499710083008 1.7452298402786254883 1.8112366199493408203 1.9130170345306396484 2.0531718730926513672 2.2253348827362060547 2.5007343292236328125 2.8447968959808349609 3.6098105907440185547 4.3784999847412109375 11 11 4.3784999847412109375 4.2853236198425292969 3.6098191738128662109 2.9655323028564453125 2.8072602748870849609 2.8072602748870849609 3.0326085090637207031 4.3784999847412109375 11 4.3784999847412109375 3.6098105907440185547 2.9655323028564453125 2.8072550296783447266 2.8448081016540527344 3.6098191738128662109 4.2853236198425292969 4.2853236198425292969 4.2853236198425292969 4.2853236198425292969 4.2853236198425292969 4.2853236198425292969 4.3784999847412109375 11 11 4.3784999847412109375 4.2853236198425292969 3.6098105907440185547 2.9655323028564453125 2.9655323028564453125 2.9655323028564453125 2.9655323028564453125 2.9655323028564453125 2.8447968959808349609 3.6098105907440185547 4.3784999847412109375 11 11 4.3784999847412109375 4.2853236198425292969 4.3784999847412109375 11 11 11 
1.1597532033920288086 1.1601526737213134766 1.160393834114074707 1.1604744195938110352 1.1604744195938110352 1.160393834114074707 1.1601526737213134766 1.1597532033920288086 1.1591989994049072266 1.1584948301315307617 1.1576467752456665039 1.1566619873046875 1.1581133604049682617 1.1617045402526855469 1.1655167341232299805 1.1694626808166503906 1.1735023260116577148 1.1776276826858520508 1.1818283796310424805 1.1860910654067993164 1.1903996467590332031 1.1947343349456787109 1.1990712881088256836 1.2033830881118774414 1.2076379060745239258 1.21179962158203125 1.2158280611038208008 1.2196798324584960938 1.2233082056045532227 1.2266647815704345703 1.2297006845474243164 1.2323678731918334961 1.2346211671829223633 1.2364201545715332031 1.2377309799194335938 1.238528132438659668 1.2387956380844116211 1.2387956380844116211 1.238528132438659668 1.2377309799194335938 1.2364201545715332031 1.2346211671829223633 1.2323678731918334961 1.2297006845474243164 1.2266647815704345703 1.2233082056045532227 1.2196798324584960938 1.2158280611038208008 1.21179962158203125 1.2122471332550048828 1.2208102941513061523 1.2300308942794799805 1.2399778366088867188 1.250727534294128418 1.2623651027679443359 1.2749831676483154297 1.2886822223663330078 1.3035682439804077148 1.3197497129440307617 1.3373305797576904297 1.3563998937606811523 1.3770138025283813477 1.3991694450378417969 1.4227646589279174805 1.4475435018539428711 1.4730274677276611328 1.4984409809112548828 1.5226550102233886719 1.5441937446594238281 1.5613552331924438477 1.5775651931762695312 1.6072381734848022461 1.6315459012985229492 1.6596939563751220703 1.7266401052474975586 1.8112399578094482422 1.9130219221115112305 2.0531761646270751953 2.2253415584564208984 2.50074005126953125 2.8448081016540527344 3.6098191738128662109 4.3785214424133300781 11 11 11 4.3785214424133300781 4.2853236198425292969 3.6098279953002929688 3.6098279953002929688 4.2853236198425292969 4.3785214424133300781 11 4.3785214424133300781 3.0326237678527832031 2.9655323028564453125 2.9655323028564453125 3.6098279953002929688 4.3785214424133300781 11 11 11 11 11 11 11 11 4.3785214424133300781 3.6098191738128662109 2.9655323028564453125 2.8072576522827148438 2.50074005126953125 2.402225494384765625 2.402225494384765625 2.402225494384765625 2.402225494384765625 2.50074005126953125 2.8448081016540527344 3.6098191738128662109 4.3785214424133300781 11 11 11 11 11 4.3785214424133300781 4.2853236198425292969 
1.1547236442565917969 1.1550862789154052734 1.1553051471710205078 1.1553783416748046875 1.1553783416748046875 1.1553051471710205078 1.1550862789154052734 1.1547236442565917969 1.1542202234268188477 1.1535801887512207031 1.1528085470199584961 1.151911616325378418 1.1546261310577392578 1.1581141948699951172 1.1617053747177124023 1.1653773784637451172 1.1691236495971679688 1.1729358434677124023 1.1768031120300292969 1.1807123422622680664 1.1846477985382080078 1.1885907649993896484 1.1925193071365356445 1.1964081525802612305 1.2002289295196533203 1.2039499282836914062 1.2075363397598266602 1.2109509706497192383 1.2141544818878173828 1.2171066999435424805 1.2197673320770263672 1.2220973968505859375 1.2240602970123291016 1.2256238460540771484 1.2267609834671020508 1.2274516820907592773 1.2276833057403564453 1.2276833057403564453 1.2274516820907592773 1.2267609834671020508 1.2256238460540771484 1.2240602970123291016 1.2220973968505859375 1.2197673320770263672 1.2171066999435424805 1.2141544818878173828 1.2109509706497192383 1.2075363397598266602 1.2039499282836914062 1.2088626623153686523 1.2170037031173706055 1.2257326841354370117 1.2351047992706298828 1.2451794147491455078 1.256020665168762207 1.2676955461502075195 1.2802730798721313477 1.2938209772109985352 1.3084009885787963867 1.3240622282028198242 1.3408297300338745117 1.3586891889572143555 1.3775651454925537109 1.3972923755645751953 1.4175804853439331055 1.4379761219024658203 1.4578310251235961914 1.4762915372848510742 1.4923330545425415039 1.5048570632934570312 1.5226559638977050781 1.544194340705871582 1.5613554716110229492 1.6031602621078491211 1.6596968173980712891 1.7266439199447631836 1.8112432956695556641 1.9130268096923828125 2.0531804561614990234 2.2253484725952148438 2.5007460117340087891 2.8448193073272705078 3.6098279953002929688 4.2853236198425292969 4.3785424232482910156 11 11 11 4.3785424232482910156 4.3785424232482910156 11 11 11 4.3785424232482910156 4.2853236198425292969 4.2853236198425292969 4.2853236198425292969 4.3785424232482910156 11 11 11 4.3785424232482910156 4.2853236198425292969 4.2853236198425292969 4.2853236198425292969 4.2853236198425292969 4.2853236198425292969 3.6098279953002929688 2.8448193073272705078 2.5007460117340087891 2.3446040153503417969 2.2081129550933837891 2.0898754596710205078 2.0898754596710205078 2.0898754596710205078 2.0898754596710205078 2.2253484725952148438 2.5007460117340087891 2.8448193073272705078 3.6098279953002929688 4.2853236198425292969 4.2853236198425292969 4.2853236198425292969 4.2853236198425292969 4.2853236198425292969 3.6098279953002929688 2.9655323028564453125 
1.1499998569488525391 1.1503300666809082031 1.1505292654037475586 1.1505959033966064453 1.1505959033966064453 1.1505292654037475586 1.1503300666809082031 1.1499998569488525391 1.1495412588119506836 1.1489577293395996094 1.1482537984848022461 1.1481413841247558594 1.1513448953628540039 1.1546268463134765625 1.1579793691635131836 1.1613965034484863281 1.1648715734481811523 1.1683957576751708984 1.1719583272933959961 1.1755465269088745117 1.1791453361511230469 1.1827372312545776367 1.1863020658493041992 1.1898169517517089844 1.1932567358016967773 1.1965934038162231445 1.1997970342636108398 1.2028355598449707031 1.2056760787963867188 1.2082848548889160156 1.2106283903121948242 1.2126749753952026367 1.2143949270248413086 1.2157621383666992188 1.2167550325393676758 1.2173573970794677734 1.2175592184066772461 1.2175592184066772461 1.2173573970794677734 1.2167550325393676758 1.2157621383666992188 1.2143949270248413086 1.2126749753952026367 1.2106283903121948242 1.2082848548889160156 1.2056760787963867188 1.2028355598449707031 1.1997970342636108398 1.1980379819869995117 1.2052663564682006836 1.2129752635955810547 1.2212046384811401367 1.2299971580505371094 1.2393974065780639648 1.2494511604309082031 1.2602040767669677734 1.2716991901397705078 1.2839744091033935547 1.2970565557479858398 1.3109555244445800781 1.3256545066833496094 1.3410972356796264648 1.3571722507476806641 1.3736932277679443359 1.3903791904449462891 1.4068349599838256836 1.4225416183471679688 1.4368643760681152344 1.449087977409362793 1.4584863185882568359 1.4762922525405883789 1.492333531379699707 1.5154349803924560547 1.5558601617813110352 1.6031632423400878906 1.659699559211730957 1.7266476154327392578 1.8112467527389526367 1.9130316972732543945 2.0531847476959228516 2.2253553867340087891 2.5007517337799072266 2.8072628974914550781 2.9655323028564453125 3.6098368167877197266 4.2853236198425292969 4.3785638809204101562 11 11 11 11 4.3785638809204101562 4.2853236198425292969 4.3785638809204101562 11 11 11 11 11 4.3785638809204101562 4.2853236198425292969 3.6098368167877197266 2.9655323028564453125 2.9655323028564453125 2.9655323028564453125 2.9655323028564453125 2.9655323028564453125 2.8072628974914550781 2.5007517337799072266 2.2253553867340087891 2.0630383491516113281 1.9933964014053344727 1.9033358097076416016 1.8913290500640869141 1.8913290500640869141 1.9130316972732543945 2.0531847476959228516 2.2253553867340087891 2.5007517337799072266 2.8072628974914550781 2.9655323028564453125 2.9655323028564453125 2.9655323028564453125 2.9655323028564453125 2.9655323028564453125 2.8072681427001953125 2.5007634162902832031 
1.1455549001693725586 1.1458564996719360352 1.1460382938385009766 1.1460989713668823242 1.1460989713668823242 1.1460382938385009766 1.1458564996719360352 1.1455549001693725586 1.1451359987258911133 1.1446025371551513672 1.1439585685729980469 1.1451308727264404297 1.1481420993804931641 1.1512148380279541016 1.1543445587158203125 1.1575253009796142578 1.1607499122619628906 1.1640095710754394531 1.1672940254211425781 1.1705907583236694336 1.1738859415054321289 1.1771630048751831055 1.180403590202331543 1.1835875511169433594 1.1866919994354248047 1.1896927356719970703 1.1925636529922485352 1.1952774524688720703 1.1978061199188232422 1.2001214027404785156 1.2021956443786621094 1.2040024995803833008 1.2055175304412841797 1.2067197561264038086 1.2075916528701782227 1.2081201076507568359 1.2082972526550292969 1.2082972526550292969 1.2081201076507568359 1.2075916528701782227 1.2067197561264038086 1.2055175304412841797 1.2040024995803833008 1.2021956443786621094 1.2001214027404785156 1.1978061199188232422 1.1952774524688720703 1.1925636529922485352 1.1946526765823364258 1.2015011310577392578 1.2087751626968383789 1.2165057659149169922 1.2247245311737060547 1.2334629297256469727 1.2427518367767333984 1.2526193857192993164 1.2630884647369384766 1.2741743326187133789 1.2858790159225463867 1.298186182975769043 1.3110536336898803711 1.3244032859802246094 1.3381103277206420898 1.3519920110702514648 1.3657952547073364258 1.3791902065277099609 1.3917702436447143555 1.403064727783203125 1.4125685691833496094 1.4225423336029052734 1.4368648529052734375 1.4499344825744628906 1.4802663326263427734 1.5154376029968261719 1.5558625459671020508 1.6031663417816162109 1.6597024202346801758 1.7266514301300048828 1.8112500905990600586 1.9130365848541259766 2.0531890392303466797 2.2081189155578613281 2.3446061611175537109 2.5007574558258056641 2.8072655200958251953 2.9655323028564453125 3.6098456382751464844 4.2853236198425292969 4.3785848617553710938 11 11 11 11 11 11 4.3785848617553710938 4.2853236198425292969 4.2853236198425292969 4.2853236198425292969 3.6098456382751464844 2.9655323028564453125 2.8072655200958251953 2.5007574558258056641 2.402225494384765625 2.402225494384765625 2.402225494384765625 2.402225494384765625 2.3446061611175537109 2.2081189155578613281 2.0630407333374023438 1.993404388427734375 1.9033491611480712891 1.8913290500640869141 1.8913290500640869141 1.8913290500640869141 1.8913290500640869141 1.9130365848541259766 2.0531890392303466797 2.2081189155578613281 2.3446061611175537109 2.402225494384765625 2.402225494384765625 2.8448529243469238281 3.6098542213439941406 4.2853236198425292969 3.6098542213439941406 2.8448529243469238281 
1.1413649320602416992 1.1416409015655517578 1.1418073177337646484 1.1418629884719848633 1.1418629884719848633 1.1418073177337646484 1.1416409015655517578 1.1413649320602416992 1.1409810781478881836 1.1404923200607299805 1.1399017572402954102 1.1421792507171630859 1.1450059413909912109 1.1478828191757202148 1.1508051156997680664 1.153766632080078125 1.1567603349685668945 1.1597774028778076172 1.1628080606460571289 1.1658403873443603516 1.16886138916015625 1.1718560457229614258 1.1748075485229492188 1.1776977777481079102 1.1805067062377929688 1.1832127571105957031 1.1857936382293701172 1.188225865364074707 1.1904855966567993164 1.1925489902496337891 1.1943929195404052734 1.1959955692291259766 1.1973369121551513672 1.1983995437622070312 1.1991692781448364258 1.1996353864669799805 1.1997915506362915039 1.1997915506362915039 1.1996353864669799805 1.1991692781448364258 1.1983995437622070312 1.1973369121551513672 1.1959955692291259766 1.1943929195404052734 1.1925489902496337891 1.1904855966567993164 1.188225865364074707 1.1857936382293701172 1.1911382675170898438 1.1976073980331420898 1.2044504880905151367 1.2116901874542236328 1.219348907470703125 1.2274473905563354492 1.2360043525695800781 1.2450339794158935547 1.2545441389083862305 1.2645336389541625977 1.2749878168106079102 1.2858741283416748047 1.2971365451812744141 1.3086884021759033203 1.3204056024551391602 1.3321199417114257812 1.3436131477355957031 1.3546159267425537109 1.3648122549057006836 1.373851776123046875 1.3813734054565429688 1.3917708396911621094 1.4030650854110717773 1.4227719306945800781 1.4499366283416748047 1.4802683591842651367 1.5154401063919067383 1.5558649301528930664 1.6031694412231445312 1.6597051620483398438 1.7266552448272705078 1.8112535476684570312 1.9033411741256713867 1.9933996200561523438 2.0630393028259277344 2.2081217765808105469 2.3446071147918701172 2.5007634162902832031 2.8072681427001953125 2.9655323028564453125 3.6098542213439941406 4.2853236198425292969 4.2853236198425292969 4.2853236198425292969 4.2853236198425292969 4.2853236198425292969 4.2853236198425292969 3.6098542213439941406 2.9655323028564453125 2.9655323028564453125 2.9655323028564453125 2.8072681427001953125 2.5007634162902832031 2.402225494384765625 2.402225494384765625 2.402225494384765625 2.3446102142333984375 2.402225494384765625 2.402225494384765625 2.402225494384765625 2.402225494384765625 2.3446102142333984375 2.2081305980682373047 2.0898754596710205078 2.0898754596710205078 2.0898754596710205078 2.0898754596710205078 2.0898754596710205078 2.0630412101745605469 1.9934059381484985352 1.9933996200561523438 2.0630393028259277344 2.1313238143920898438 2.4536149501800537109 3.0326852798461914062 4.3786063194274902344 11 4.3786063194274902344 3.0326852798461914062 
1.1374084949493408203 1.1376619338989257812 1.137814640998840332 1.1378655433654785156 1.1378655433654785156 1.137814640998840332 1.1376619338989257812 1.1374084949493408203 1.1370561122894287109 1.136607050895690918 1.1366777420043945312 1.1392867565155029297 1.1419403553009033203 1.1446343660354614258 1.1473637819290161133 1.150122523307800293 1.1529033184051513672 1.1556980609893798828 1.1584970951080322266 1.1612894535064697266 1.1640629768371582031 1.1668039560317993164 1.169497370719909668 1.1721266508102416992 1.1746741533279418945 1.177121281623840332 1.1794484853744506836 1.1816354990005493164 1.1836621761322021484 1.1855081319808959961 1.1871541738510131836 1.1885819435119628906 1.1897749900817871094 1.1907187700271606445 1.1914016008377075195 1.1918148994445800781 1.1919533014297485352 1.1919533014297485352 1.1918148994445800781 1.1914016008377075195 1.1907187700271606445 1.1897749900817871094 1.1885819435119628906 1.1871541738510131836 1.1855081319808959961 1.1836621761322021484 1.1816354990005493164 1.1817415952682495117 1.1875272989273071289 1.1936223506927490234 1.2000433206558227539 1.2068060636520385742 1.2139248847961425781 1.2214121818542480469 1.2292767763137817383 1.2375226020812988281 1.2461466789245605469 1.2551361322402954102 1.2644660472869873047 1.274094700813293457 1.2839602231979370117 1.293975830078125 1.3040252923965454102 1.3139595985412597656 1.3235946893692016602 1.3327134847640991211 1.3410705327987670898 1.3484034538269042969 1.3546165227890014648 1.3648126125335693359 1.3775718212127685547 1.3991792201995849609 1.4227738380432128906 1.4499388933181762695 1.4802705049514770508 1.5154427289962768555 1.555867314338684082 1.6031724214553833008 1.6597080230712890625 1.7204761505126953125 1.7818703651428222656 1.8371615409851074219 1.9033437967300415039 1.9934011697769165039 2.0630397796630859375 2.2081246376037597656 2.3446080684661865234 2.5007691383361816406 2.8072707653045654297 2.9655323028564453125 2.9655323028564453125 2.9655323028564453125 2.9655323028564453125 2.9655323028564453125 2.9655323028564453125 2.9655323028564453125 2.9655323028564453125 2.9655323028564453125 2.9655323028564453125 2.9655323028564453125 2.9655323028564453125 2.9655323028564453125 2.9655323028564453125 2.9655323028564453125 2.8072760105133056641 2.9655323028564453125 2.9655323028564453125 2.9655323028564453125 2.9655323028564453125 2.8072760105133056641 2.5007808208465576172 2.402225494384765625 2.402225494384765625 2.402225494384765625 2.402225494384765625 2.402225494384765625 2.3446111679077148438 2.2081334590911865234 2.0898754596710205078 2.0898754596710205078 2.1313333511352539062 2.4536266326904296875 3.0327007770538330078 4.3786273002624511719 11 4.3786273002624511719 3.0327007770538330078 
1.1336668729782104492 1.1338999271392822266 1.1340404748916625977 1.1340873241424560547 1.1340873241424560547 1.1340404748916625977 1.1338999271392822266 1.1336668729782104492 1.1333426237106323242 1.1329290866851806641 1.1340017318725585938 1.1364569664001464844 1.1389484405517578125 1.14147186279296875 1.1440221071243286133 1.1465930938720703125 1.1491780281066894531 1.1517689228057861328 1.1543567180633544922 1.1569312810897827148 1.1594812870025634766 1.1619942188262939453 1.164456486701965332 1.1668535470962524414 1.1691695451736450195 1.1713883876800537109 1.1734929084777832031 1.175465703010559082 1.1772894859313964844 1.1789470911026000977 1.1804221868515014648 1.1816993951797485352 1.1827650070190429688 1.1836069822311401367 1.184215545654296875 1.1845836639404296875 1.1847068071365356445 1.1847068071365356445 1.1845836639404296875 1.184215545654296875 1.1836069822311401367 1.1827650070190429688 1.1816993951797485352 1.1804221868515014648 1.1789470911026000977 1.1772894859313964844 1.175465703010559082 1.1783900260925292969 1.1838496923446655273 1.1895798444747924805 1.1955916881561279297 1.2018953561782836914 1.2084990739822387695 1.2154083251953125 1.222624659538269043 1.2301441431045532227 1.2379561662673950195 1.2460409402847290039 1.2543669939041137695 1.2628890275955200195 1.271544337272644043 1.28025054931640625 1.2889026403427124023 1.2973716259002685547 1.3055046796798706055 1.3131271600723266602 1.3200483322143554688 1.3260698318481445312 1.3327139616012573242 1.3411031961441040039 1.3586978912353515625 1.3775733709335327148 1.3991811275482177734 1.4227756261825561523 1.4499411582946777344 1.4802725315093994141 1.5154452323913574219 1.5558696985244750977 1.5989000797271728516 1.6428965330123901367 1.6849484443664550781 1.7207608222961425781 1.7818720340728759766 1.8371624946594238281 1.913065791130065918 2.0532147884368896484 2.2081363201141357422 2.34461212158203125 2.402225494384765625 2.402225494384765625 2.402225494384765625 2.402225494384765625 2.8448865413665771484 3.6098806858062744141 4.2853236198425292969 4.2853236198425292969 4.2853236198425292969 4.2853236198425292969 4.2853236198425292969 4.2853236198425292969 4.2853236198425292969 4.2853236198425292969 4.2853236198425292969 4.2853236198425292969 3.6098806858062744141 4.2853236198425292969 4.2853236198425292969 4.2853236198425292969 4.2853236198425292969 3.6098806858062744141 2.8448865413665771484 2.9655323028564453125 2.9655323028564453125 2.9655323028564453125 2.9655323028564453125 2.9655323028564453125 2.8072786331176757812 2.5007865428924560547 2.402225494384765625 2.402225494384765625 2.34461212158203125 2.4536385536193847656 3.0327160358428955078 4.3786487579345703125 11 4.3786487579345703125 3.0327160358428955078 
1.1301230192184448242 1.1303379535675048828 1.1304674148559570312 1.1305106878280639648 1.1305106878280639648 1.1304674148559570312 1.1303379535675048828 1.1301230192184448242 1.1298239231109619141 1.1294423341751098633 1.1313815116882324219 1.1336923837661743164 1.1360322237014770508 1.1383966207504272461 1.1407804489135742188 1.1431779861450195312 1.1455825567245483398 1.1479866504669189453 1.1503818035125732422 1.152758479118347168 1.1551063060760498047 1.1574139595031738281 1.1596692800521850586 1.1618591547012329102 1.1639696359634399414 1.1659865379333496094 1.1678949594497680664 1.1696798801422119141 1.1713263988494873047 1.172819972038269043 1.1741467714309692383 1.1752936840057373047 1.1762492656707763672 1.1770035028457641602 1.1775481700897216797 1.1778774261474609375 1.1779875755310058594 1.1779875755310058594 1.1778774261474609375 1.1775481700897216797 1.1770035028457641602 1.1762492656707763672 1.1752936840057373047 1.1741467714309692383 1.172819972038269043 1.1713263988494873047 1.1700738668441772461 1.1749899387359619141 1.1801323890686035156 1.1855094432830810547 1.1911282539367675781 1.1969941854476928711 1.2031106948852539062 1.2094776630401611328 1.2160915136337280273 1.2229428291320800781 1.2300159931182861328 1.2372869253158569336 1.2447214126586914062 1.2522734403610229492 1.259882807731628418 1.2674736976623535156 1.2749534845352172852 1.282212376594543457 1.2891236543655395508 1.2955476045608520508 1.3013348579406738281 1.306334376335144043 1.3131276369094848633 1.3256623744964599609 1.3411047458648681641 1.3586996793746948242 1.3775750398635864258 1.3991831541061401367 1.4227775335311889648 1.4499433040618896484 1.4802746772766113281 1.5123183727264404297 1.5452283620834350586 1.5775735378265380859 1.607243657112121582 1.6529908180236816406 1.7435709238052368164 1.8608019351959228516 2.0161902904510498047 2.2254035472869873047 2.5007922649383544922 2.8072812557220458984 2.9655323028564453125 2.9655323028564453125 2.9655323028564453125 2.9655323028564453125 3.0327312946319580078 4.37866973876953125 11 11 11 11 11 11 11 11 11 11 4.37866973876953125 11 11 11 11 4.37866973876953125 3.6098892688751220703 4.2853236198425292969 4.2853236198425292969 4.2853236198425292969 4.2853236198425292969 4.2853236198425292969 3.6098892688751220703 2.9655323028564453125 2.9655323028564453125 2.9655323028564453125 2.8072812557220458984 2.5007922649383544922 3.0327312946319580078 4.37866973876953125 11 4.37866973876953125 3.0327312946319580078 
1.1267616748809814453 1.1269602775573730469 1.1270798444747924805 1.1271197795867919922 1.1271197795867919922 1.1270798444747924805 1.1269602775573730469 1.1267616748809814453 1.1264851093292236328 1.1266698837280273438 1.1288192272186279297 1.1309947967529296875 1.1331927776336669922 1.1354089975357055664 1.1376386880874633789 1.1398758888244628906 1.1421146392822265625 1.1443474292755126953 1.1465666294097900391 1.1487634181976318359 1.1509283781051635742 1.1530510187149047852 1.1551204919815063477 1.1571252346038818359 1.159052729606628418 1.1608905792236328125 1.1626257896423339844 1.1642453670501708984 1.1657364368438720703 1.1670867204666137695 1.1682840585708618164 1.1693177223205566406 1.1701778173446655273 1.1708559989929199219 1.1713454723358154297 1.1716411113739013672 1.1717400550842285156 1.1717400550842285156 1.1716411113739013672 1.1713454723358154297 1.1708559989929199219 1.1701778173446655273 1.1693177223205566406 1.1682840585708618164 1.1670867204666137695 1.1657364368438720703 1.1669243574142456055 1.171563267707824707 1.17639923095703125 1.181437373161315918 1.1866812705993652344 1.1921328306198120117 1.1977914571762084961 1.2036533355712890625 1.2097107172012329102 1.2159508466720581055 1.2223551273345947266 1.2288972139358520508 1.2355425357818603516 1.2422461509704589844 1.2489522695541381836 1.2555928230285644531 1.2620869874954223633 1.2683418989181518555 1.2742533683776855469 1.2797088623046875 1.2845910787582397461 1.2891241312026977539 1.2981933355331420898 1.3110605478286743164 1.3256639242172241211 1.3411062955856323242 1.3587013483047485352 1.3775767087936401367 1.3991850614547729492 1.4227793216705322266 1.4475568532943725586 1.4730391502380371094 1.4984503984451293945 1.5331776142120361328 1.5948699712753295898 1.6725203990936279297 1.7731195688247680664 1.908308863639831543 2.0987884998321533203 2.3842206001281738281 2.8449089527130126953 3.6098980903625488281 4.2853236198425292969 4.2853236198425292969 4.2853236198425292969 4.2853236198425292969 3.6098980903625488281 3.6098892688751220703 4.2853236198425292969 4.2853236198425292969 4.2853236198425292969 4.2853236198425292969 4.2853236198425292969 4.2853236198425292969 4.3786911964416503906 11 4.3786911964416503906 11 11 11 11 11 11 4.3786911964416503906 4.3786911964416503906 11 11 11 11 11 4.3786911964416503906 4.2853236198425292969 4.2853236198425292969 4.2853236198425292969 3.6098980903625488281 2.9655323028564453125 2.9655323028564453125 3.6098892688751220703 4.2853236198425292969 3.6098892688751220703 2.8448977470397949219 
1.1235691308975219727 1.1237530708312988281 1.1238638162612915039 1.1239007711410522461 1.1239007711410522461 1.1238638162612915039 1.1237530708312988281 1.1235691308975219727 1.1233130693435668945 1.1242886781692504883 1.1263165473937988281 1.1283651590347290039 1.1304306983947753906 1.1325092315673828125 1.1345957517623901367 1.1366850137710571289 1.1387708187103271484 1.1408467292785644531 1.1429053544998168945 1.1449384689331054688 1.1469376087188720703 1.1488933563232421875 1.1507958173751831055 1.1526345014572143555 1.154398798942565918 1.1560775041580200195 1.1576592922210693359 1.159132838249206543 1.1604871749877929688 1.1617114543914794922 1.1627955436706542969 1.1637302637100219727 1.1645071506500244141 1.165119171142578125 1.165560603141784668 1.1658271551132202148 1.1659162044525146484 1.1659162044525146484 1.1658271551132202148 1.165560603141784668 1.165119171142578125 1.1645071506500244141 1.1637302637100219727 1.1627955436706542969 1.1617114543914794922 1.1604871749877929688 1.1637576818466186523 1.16812896728515625 1.1726709604263305664 1.1773858070373535156 1.1822745800018310547 1.1873360872268676758 1.192566990852355957 1.1979607343673706055 1.2035068273544311523 1.2091906070709228516 1.214991450309753418 1.2208828926086425781 1.2268309593200683594 1.2327935695648193359 1.2387195825576782227 1.244548797607421875 1.2502117156982421875 1.2556297779083251953 1.2607175111770629883 1.2653840780258178711 1.2695366144180297852 1.2749943733215332031 1.2858878374099731445 1.2981947660446166992 1.311061859130859375 1.325665593147277832 1.3411077260971069336 1.3587031364440917969 1.3775783777236938477 1.397304534912109375 1.4175913333892822266 1.4433256387710571289 1.4855058193206787109 1.5365564823150634766 1.599604487419128418 1.6794424057006835938 1.783806920051574707 1.9260513782501220703 2.1313714981079101562 2.4536738395690917969 3.0327620506286621094 4.3787121772766113281 11 11 11 11 4.3787121772766113281 4.2853236198425292969 4.3787121772766113281 11 11 4.3787121772766113281 4.2853236198425292969 3.6099069118499755859 3.6098980903625488281 4.2853236198425292969 4.3787121772766113281 11 4.3787121772766113281 11 11 4.3787121772766113281 11 11 4.3787121772766113281 11 4.3787121772766113281 4.2853236198425292969 4.3787121772766113281 11 11 11 11 11 4.3787121772766113281 4.2853236198425292969 4.2853236198425292969 4.2853236198425292969 3.6099069118499755859 2.8449203968048095703 2.5007922649383544922 
1.120532989501953125 1.1207036972045898438 1.1208063364028930664 1.1208406686782836914 1.1208406686782836914 1.1208063364028930664 1.1207036972045898438 1.120532989501953125 1.120295405387878418 1.1219605207443237305 1.1238743066787719727 1.1258040666580200195 1.1277461051940917969 1.1296963691711425781 1.1316502094268798828 1.1336027383804321289 1.1355479955673217773 1.1374799013137817383 1.1393916606903076172 1.1412757635116577148 1.1431244611740112305 1.1449292898178100586 1.1466813087463378906 1.1483712196350097656 1.1499894857406616211 1.1515262126922607422 1.1529716253280639648 1.1543158292770385742 1.1555492877960205078 1.1566627025604248047 1.157647252082824707 1.1584951877593994141 1.1591992378234863281 1.1597533226013183594 1.1601527929306030273 1.160393834114074707 1.1604744195938110352 1.1604744195938110352 1.160393834114074707 1.1601527929306030273 1.1597533226013183594 1.1591992378234863281 1.1584951877593994141 1.157647252082824707 1.1566627025604248047 1.1566199064254760742 1.1605894565582275391 1.1647040843963623047 1.1689653396606445312 1.1733735799789428711 1.1779274940490722656 1.1826238632202148438 1.1874572038650512695 1.1924189329147338867 1.1974971294403076172 1.2026758193969726562 1.2079340219497680664 1.2132457494735717773 1.2185785770416259766 1.2238937616348266602 1.2291454076766967773 1.234280705451965332 1.239239811897277832 1.2439570426940917969 1.2483617067337036133 1.2523802518844604492 1.2559387683868408203 1.2645418643951416016 1.2749956846237182617 1.2858893871307373047 1.2981963157653808594 1.3110631704330444336 1.3256671428680419922 1.3411092758178710938 1.3571833372116088867 1.3777011632919311523 1.4078924655914306641 1.4433296918869018555 1.4855102300643920898 1.5365613698959350586 1.5996098518371582031 1.6794483661651611328 1.7838137149810791016 1.9260593652725219727 2.1313810348510742188 2.453685760498046875 3.0327775478363037109 4.3787336349487304688 11 11 11 11 11 11 11 11 11 11 11 4.3787336349487304688 3.0327775478363037109 3.0327775478363037109 4.3787336349487304688 11 4.3787336349487304688 11 11 4.3787336349487304688 4.3787336349487304688 11 11 11 11 11 11 11 4.3787336349487304688 4.2853236198425292969 4.3787336349487304688 11 11 11 11 11 4.3787336349487304688 3.0327775478363037109 2.453685760498046875 
1.1176421642303466797 1.1178007125854492188 1.1178961992263793945 1.1179280281066894531 1.1179280281066894531 1.1178961992263793945 1.1178007125854492188 1.1176421642303466797 1.1178945302963256836 1.1196864843368530273 1.1214931011199951172 1.1233116388320922852 1.1251382827758789062 1.1269693374633789062 1.1288002729415893555 1.1306263208389282227 1.1324421167373657227 1.134241938591003418 1.1360193490982055664 1.137767791748046875 1.1394798755645751953 1.1411479711532592773 1.1427642107009887695 1.1443202495574951172 1.1458076238632202148 1.1472175121307373047 1.1485414505004882812 1.1497707366943359375 1.1508970260620117188 1.1519123315811157227 1.1528090238571166992 1.1535804271697998047 1.1542204618453979492 1.1547237634658813477 1.1550863981246948242 1.1553051471710205078 1.1553783416748046875 1.1553783416748046875 1.1553051471710205078 1.1550863981246948242 1.1547237634658813477 1.1542204618453979492 1.1535804271697998047 1.1528090238571166992 1.1519123315811157227 1.1536889076232910156 1.1574332714080810547 1.1613028049468994141 1.1652976274490356445 1.1694161891937255859 1.1736558675765991211 1.178011775016784668 1.1824767589569091797 1.1870414018630981445 1.1916925907135009766 1.1964139938354492188 1.2011851072311401367 1.2059806585311889648 1.2107708454132080078 1.2155201435089111328 1.2201879024505615234 1.2247278690338134766 1.2290890216827392578 1.2332161664962768555 1.2370507717132568359 1.2405331134796142578 1.2461541891098022461 1.2551434040069580078 1.2645431756973266602 1.2749969959259033203 1.2858908176422119141 1.2981977462768554688 1.311064600944519043 1.3282330036163330078 1.3507351875305175781 1.3765388727188110352 1.4064246416091918945 1.4414397478103637695 1.483019709587097168 1.5331870317459106445 1.5948804616928100586 1.6725320816040039062 1.7731326818466186523 1.9083238840103149414 2.0988059043884277344 2.3842408657073974609 2.8449316024780273438 3.6099157333374023438 4.2853236198425292969 4.2853236198425292969 4.2853236198425292969 4.3787550926208496094 11 11 4.3787550926208496094 4.2853236198425292969 4.2853236198425292969 4.3787550926208496094 11 4.3787550926208496094 4.2853236198425292969 3.6099245548248291016 3.6099157333374023438 4.2853236198425292969 3.6099157333374023438 4.2853236198425292969 4.2853236198425292969 4.2853236198425292969 3.6099245548248291016 4.2853236198425292969 4.3787550926208496094 11 11 11 4.3787550926208496094 4.2853236198425292969 3.6099157333374023438 2.9655323028564453125 3.6099157333374023438 4.2853236198425292969 4.2853236198425292969 4.2853236198425292969 4.3787550926208496094 11 4.3787550926208496094 3.0327928066253662109 2.4536974430084228516 
1.1148865222930908203 1.1150341033935546875 1.1151229143142700195 1.1151525974273681641 1.1151525974273681641 1.1151229143142700195 1.1150341033935546875 1.1148865222930908203 1.1157718896865844727 1.1174669265747070312 1.1191731691360473633 1.1208875179290771484 1.1226066350936889648 1.1243267059326171875 1.1260436773300170898 1.1277529001235961914 1.1294494867324829102 1.1311278343200683594 1.1327824592590332031 1.1344068050384521484 1.1359946727752685547 1.137538909912109375 1.1390323638916015625 1.1404677629470825195 1.1418374776840209961 1.1431337594985961914 1.1443490982055664062 1.1454759836196899414 1.1465070247650146484 1.1474351882934570312 1.1482542753219604492 1.1489580869674682617 1.1495414972305297852 1.1499999761581420898 1.1503301858901977539 1.1505292654037475586 1.1505959033966064453 1.1505959033966064453 1.1505292654037475586 1.1503301858901977539 1.1499999761581420898 1.1495414972305297852 1.1489580869674682617 1.1482542753219604492 1.1474351882934570312 1.1507718563079833984 1.1543009281158447266 1.1579375267028808594 1.1616802215576171875 1.1655265092849731445 1.1694722175598144531 1.1735116243362426758 1.1776367425918579102 1.1818369626998901367 1.1860994100570678711 1.1904075145721435547 1.1947417259216308594 1.1990782022476196289 1.2033895254135131836 1.2076436281204223633 1.2118047475814819336 1.2158325910568237305 1.2196836471557617188 1.223311305046081543 1.2266672849655151367 1.2301511764526367188 1.2379629611968994141 1.2461553812026977539 1.2551447153091430664 1.2645444869995117188 1.2749983072280883789 1.2893164157867431641 1.3065599203109741211 1.3259674310684204102 1.3479685783386230469 1.3731124401092529297 1.4021123647689819336 1.4359099864959716797 1.4757716655731201172 1.5234360694885253906 1.5813444852828979492 1.6530067920684814453 1.7435883283615112305 1.8608210086822509766 2.0162107944488525391 2.2254240512847900391 2.5008096694946289062 2.80728912353515625 2.9655323028564453125 2.9655323028564453125 2.9655323028564453125 3.6099331378936767578 4.3787760734558105469 11 4.3787760734558105469 3.0328083038330078125 3.0328083038330078125 4.3787760734558105469 11 11 11 4.3787760734558105469 4.2853236198425292969 4.2853236198425292969 3.6099331378936767578 4.3787760734558105469 11 11 4.3787760734558105469 4.2853236198425292969 4.3787760734558105469 11 4.3787760734558105469 11 4.3787760734558105469 3.0328083038330078125 2.80728912353515625 2.5008096694946289062 2.80728912353515625 2.9655323028564453125 2.9655323028564453125 2.9655323028564453125 3.6099245548248291016 4.2853236198425292969 3.6099245548248291016 2.8449428081512451172 2.3842508792877197266 
1.1122566461563110352 1.1123942136764526367 1.1124770641326904297 1.1125047206878662109 1.1125047206878662109 1.1124770641326904297 1.1123942136764526367 1.1122566461563110352 1.113698124885559082 1.1153020858764648438 1.1169140338897705078 1.1185309886932373047 1.1201497316360473633 1.1217666864395141602 1.1233780384063720703 1.1249792575836181641 1.1265658140182495117 1.1281327009201049805 1.1296745538711547852 1.1311857700347900391 1.1326603889465332031 1.1340920925140380859 1.1354745626449584961 1.1368010044097900391 1.1380647420883178711 1.1392589807510375977 1.140377044677734375 1.1414122581481933594 1.1423583030700683594 1.1432090997695922852 1.14395904541015625 1.1446028947830200195 1.1451361179351806641 1.1455550193786621094 1.1458564996719360352 1.1460382938385009766 1.1460989713668823242 1.1460989713668823242 1.1460382938385009766 1.1458564996719360352 1.1455550193786621094 1.1451361179351806641 1.1446028947830200195 1.14395904541015625 1.1446470022201538086 1.1478782892227172852 1.1512024402618408203 1.1546182632446289062 1.1581234931945800781 1.1617144346237182617 1.165386199951171875 1.169132232666015625 1.1729440689086914062 1.1768109798431396484 1.1807199716567993164 1.1846549510955810547 1.1885974407196044922 1.1925255060195922852 1.196413874626159668 1.2002340555191040039 1.2039544582366943359 1.2075402736663818359 1.2109543085098266602 1.2141573429107666016 1.2171089649200439453 1.2229491472244262695 1.2301522493362426758 1.2379640340805053711 1.2461566925048828125 1.2581641674041748047 1.271718144416809082 1.2867482900619506836 1.3035042285919189453 1.3222937583923339844 1.3435001373291015625 1.3676054477691650391 1.3952232599258422852 1.4271433353424072266 1.4643937349319458008 1.5083271265029907227 1.5607366561889648438 1.6240013837814331055 1.7012294530868530273 1.7962641716003417969 1.9130853414535522461 2.0532319545745849609 2.2081482410430908203 2.3842711448669433594 2.8449652194976806641 3.6099419593811035156 4.2853236198425292969 4.3787975311279296875 11 4.3787975311279296875 4.2853236198425292969 4.2853236198425292969 4.2853236198425292969 3.6099419593811035156 4.2853236198425292969 4.3787975311279296875 11 11 11 11 4.3787975311279296875 11 11 11 4.3787975311279296875 11 11 11 11 4.3787975311279296875 3.6099331378936767578 2.8449540138244628906 2.3842608928680419922 2.2081482410430908203 2.3446161746978759766 2.402225494384765625 2.402225494384765625 2.5008153915405273438 2.8072917461395263672 2.9655323028564453125 2.8072917461395263672 2.5008153915405273438 2.2254309654235839844 
1.1097441911697387695 1.1098728179931640625 1.1099500656127929688 1.1099759340286254883 1.1099759340286254883 1.1099500656127929688 1.1098728179931640625 1.1101628541946411133 1.1116734743118286133 1.1131917238235473633 1.1147152185440063477 1.1162412166595458984 1.1177663803100585938 1.1192873716354370117 1.1208006143569946289 1.122301936149597168 1.1237870454788208008 1.1252514123916625977 1.126689910888671875 1.1280976533889770508 1.1294690370559692383 1.13079833984375 1.1320799589157104492 1.1333078145980834961 1.1344759464263916016 1.1355783939361572266 1.1366090774536132812 1.1375621557235717773 1.1384322643280029297 1.1392138004302978516 1.1399021148681640625 1.140492558479309082 1.1409813165664672852 1.1413649320602416992 1.1416410207748413086 1.1418073177337646484 1.1418629884719848633 1.1418629884719848633 1.1418073177337646484 1.1416410207748413086 1.1413649320602416992 1.1409813165664672852 1.140492558479309082 1.1399021148681640625 1.1419662237167358398 1.1450164318084716797 1.1481462717056274414 1.1513537168502807617 1.1546355485916137695 1.1579878330230712891 1.1614048480987548828 1.1648795604705810547 1.1684033870697021484 1.1719657182693481445 1.1755535602569580078 1.1791518926620483398 1.1827433109283447266 1.1863076686859130859 1.189822077751159668 1.1932613849639892578 1.1965974569320678711 1.1998004913330078125 1.2028386592864990234 1.2056785821914672852 1.2097166776657104492 1.2160990238189697266 1.2229502201080322266 1.2327915430068969727 1.2436848878860473633 1.2556214332580566406 1.268754124641418457 1.2832657098770141602 1.2993767261505126953 1.3173547983169555664 1.3375265598297119141 1.3602939844131469727 1.3861541748046875 1.4157245159149169922 1.4497724771499633789 1.4892479181289672852 1.5353083610534667969 1.5893110036849975586 1.6527079343795776367 1.7266929149627685547 1.8112874031066894531 1.926091313362121582 2.1314191818237304688 2.4537327289581298828 3.0328390598297119141 4.378818511962890625 11 11 11 11 11 11 11 4.378818511962890625 3.0328390598297119141 3.6099419593811035156 4.2853236198425292969 4.378818511962890625 11 11 11 11 11 11 11 11 4.378818511962890625 4.378818511962890625 11 4.378818511962890625 3.0328390598297119141 2.5008327960968017578 2.2254517078399658203 2.0162379741668701172 2.0630440711975097656 2.0898754596710205078 2.0898754596710205078 2.2081511020660400391 2.3446173667907714844 2.402225494384765625 2.3446173667907714844 2.2081511020660400391 2.0532362461090087891 
1.1073415279388427734 1.1074618101119995117 1.1075341701507568359 1.1075583696365356445 1.1075583696365356445 1.1075341701507568359 1.1074618101119995117 1.1082652807235717773 1.1096978187561035156 1.1111356019973754883 1.1125762462615966797 1.1140168905258178711 1.1154547929763793945 1.1168866157531738281 1.1183087825775146484 1.1197175979614257812 1.1211091279983520508 1.1224790811538696289 1.1238228082656860352 1.1251356601715087891 1.1264127492904663086 1.1276488304138183594 1.1288388967514038086 1.1299773454666137695 1.1310590505599975586 1.1320784091949462891 1.1330304145812988281 1.1339098215103149414 1.1347117424011230469 1.1354314088821411133 1.1360645294189453125 1.1366072893142700195 1.1370563507080078125 1.1374086141586303711 1.1376619338989257812 1.137814640998840332 1.1378655433654785156 1.1378655433654785156 1.137814640998840332 1.1376619338989257812 1.1374086141586303711 1.1370563507080078125 1.1366072893142700195 1.1365065574645996094 1.1393151283264160156 1.1421934366226196289 1.1451393365859985352 1.1481504440307617188 1.1512229442596435547 1.1543524265289306641 1.1575329303741455078 1.1607573032379150391 1.1640166044235229492 1.1673007011413574219 1.1705971956253051758 1.173891901969909668 1.1771684885025024414 1.1804087162017822266 1.1835922002792358398 1.186696171760559082 1.1896964311599731445 1.1925667524337768555 1.1952801942825317383 1.1979663372039794922 1.2036604881286621094 1.2117936611175537109 1.2207176685333251953 1.2304022312164306641 1.2409451007843017578 1.2524605989456176758 1.2650828361511230469 1.2789704799652099609 1.2943115234375 1.3113290071487426758 1.3302896022796630859 1.3515111207962036133 1.3753724098205566406 1.4023216962814331055 1.4328826665878295898 1.4676496982574462891 1.5072599649429321289 1.5523151159286499023 1.6032030582427978516 1.6725554466247558594 1.773159027099609375 1.9083539247512817383 2.0988407135009765625 2.384281158447265625 2.8449764251708984375 3.6099507808685302734 4.2853236198425292969 4.3788399696350097656 11 11 4.3788399696350097656 4.2853236198425292969 4.2853236198425292969 3.6099507808685302734 2.8449764251708984375 2.8072969913482666016 2.9655323028564453125 3.6099507808685302734 4.2853236198425292969 4.2853236198425292969 4.3788399696350097656 11 11 11 11 11 11 11 11 4.3788399696350097656 3.6099596023559570312 2.8449876308441162109 2.3842911720275878906 2.0988492965698242188 2.0630464553833007812 2.0898754596710205078 2.0630464553833007812 1.9934233427047729492 2.0630445480346679688 2.0898754596710205078 2.0630445480346679688 1.9934170246124267578 1.9033703804016113281 
1.1050416231155395508 1.1051542758941650391 1.1052221059799194336 1.105244755744934082 1.105244755744934082 1.1052221059799194336 1.1051542758941650391 1.1064118146896362305 1.1077709197998046875 1.1091330051422119141 1.1104959249496459961 1.1118569374084472656 1.1132133007049560547 1.1145620346069335938 1.1158998012542724609 1.1172230243682861328 1.1185280084609985352 1.119810938835144043 1.1210675239562988281 1.1222934722900390625 1.1234842538833618164 1.1246353387832641602 1.1257418394088745117 1.1267992258071899414 1.1278024911880493164 1.1287469863891601562 1.1296279430389404297 1.1304409503936767578 1.1311814785003662109 1.1318454742431640625 1.1324292421340942383 1.1329293251037597656 1.133342742919921875 1.1336669921875 1.1339000463485717773 1.1340404748916625977 1.1340873241424560547 1.1340873241424560547 1.1340404748916625977 1.1339000463485717773 1.1336669921875 1.133342742919921875 1.1329293251037597656 1.1340439319610595703 1.1366995573043823242 1.1394147872924804688 1.1421871185302734375 1.1450136899948120117 1.1478904485702514648 1.1508125066757202148 1.1537737846374511719 1.1567671298980712891 1.1597839593887329102 1.1628142595291137695 1.1658462285995483398 1.1688668727874755859 1.1718610525131225586 1.1748121976852416992 1.1777020692825317383 1.180510401725769043 1.183216094970703125 1.1857964992523193359 1.1882282495498657227 1.1941660642623901367 1.201598048210144043 1.2095994949340820312 1.2182353734970092773 1.2275800704956054688 1.2377195358276367188 1.2487530708312988281 1.2607951164245605469 1.2739790678024291992 1.2884591817855834961 1.3044146299362182617 1.3220523595809936523 1.3416103124618530273 1.3633583784103393555 1.3875963687896728516 1.4146442413330078125 1.4448192119598388672 1.478386998176574707 1.5234539508819580078 1.5813639163970947266 1.6530281305313110352 1.7436116933822631836 1.860846400260925293 2.0162379741668701172 2.2254517078399658203 2.5008327960968017578 2.8072996139526367188 3.0328698158264160156 4.3788609504699707031 11 4.3788609504699707031 3.6099596023559570312 2.9655323028564453125 2.9655323028564453125 2.8072996139526367188 2.5008327960968017578 2.3446192741394042969 2.5008327960968017578 2.8072996139526367188 2.9655323028564453125 2.9655323028564453125 3.6099596023559570312 4.2853236198425292969 4.2853236198425292969 4.2853236198425292969 4.3788609504699707031 11 11 4.3788609504699707031 11 11 4.3788609504699707031 3.0328698158264160156 2.4537563323974609375 2.2081656455993652344 2.3446223735809326172 2.402225494384765625 2.3446223735809326172 2.2081656455993652344 2.0532574653625488281 1.9131146669387817383 1.8767782449722290039 1.8371717929840087891 1.7818890810012817383 
1.1028380393981933594 1.1029437780380249023 1.1030073165893554688 1.1030285358428955078 1.1030285358428955078 1.1030073165893554688 1.1033160686492919922 1.1046024560928344727 1.1058923006057739258 1.1071832180023193359 1.1084733009338378906 1.1097598075866699219 1.1110401153564453125 1.1123114824295043945 1.1135706901550292969 1.1148146390914916992 1.1160397529602050781 1.1172423362731933594 1.1184186935424804688 1.1195648908615112305 1.1206766366958618164 1.1217499971389770508 1.1227805614471435547 1.1237640380859375 1.1246961355209350586 1.1255726814270019531 1.1263893842697143555 1.1271423101425170898 1.1278275251388549805 1.1284414529800415039 1.1289807558059692383 1.1294424533843994141 1.1298240423202514648 1.1301230192184448242 1.1303379535675048828 1.1304674148559570312 1.1305106878280639648 1.1305106878280639648 1.1304674148559570312 1.1303379535675048828 1.1301230192184448242 1.1298240423202514648 1.1294424533843994141 1.1316138505935668945 1.1341243982315063477 1.1366853713989257812 1.1392942667007446289 1.1419477462768554688 1.1446415185928344727 1.1473706960678100586 1.1501290798187255859 1.1529096364974975586 1.1557041406631469727 1.1585028171539306641 1.1612948179244995117 1.1640679836273193359 1.1668086051940917969 1.1695015430450439453 1.1721304655075073242 1.1746776103973388672 1.1771243810653686523 1.1794511079788208008 1.1854572296142578125 1.1921713352203369141 1.1993663311004638672 1.2070926427841186523 1.2154074907302856445 1.224375605583190918 1.2340706586837768555 1.244576573371887207 1.2559884786605834961 1.268414616584777832 1.2819770574569702148 1.2968133687973022461 1.3130762577056884766 1.3309329748153686523 1.3505609035491943359 1.3721394538879394531 1.3958338499069213867 1.4271577596664428711 1.4644091129302978516 1.5083434581756591797 1.5607540607452392578 1.6240198612213134766 1.7012488842010498047 1.7962840795516967773 1.9131048917770385742 2.0532488822937011719 2.2081599235534667969 2.3843014240264892578 2.8449988365173339844 3.6099684238433837891 4.2853236198425292969 3.6099684238433837891 2.8449988365173339844 2.5008387565612792969 2.402225494384765625 2.3446204662322998047 2.2081685066223144531 2.344623565673828125 2.402225494384765625 2.402225494384765625 2.402225494384765625 2.5008387565612792969 2.8073022365570068359 2.9655323028564453125 2.9655323028564453125 2.9655323028564453125 3.6099770069122314453 4.2853236198425292969 4.2853236198425292969 3.6099684238433837891 4.2853236198425292969 4.2853236198425292969 3.6099684238433837891 2.9655323028564453125 2.8073074817657470703 2.5008502006530761719 2.8073074817657470703 2.9655323028564453125 2.8073074817657470703 2.5008502006530761719 2.2254724502563476562 2.0162584781646728516 1.860865473747253418 1.7436292171478271484 1.6849608421325683594 
1.1007248163223266602 1.1008241176605224609 1.1008838415145874023 1.1009037494659423828 1.1009037494659423828 1.1008838415145874023 1.1016138792037963867 1.1028367280960083008 1.1040612459182739258 1.1052854061126708984 1.1065070629119873047 1.1077238321304321289 1.1089332103729248047 1.1101325750350952148 1.1113188266754150391 1.1124892234802246094 1.1136403083801269531 1.1147688627243041992 1.1158713102340698242 1.1169440746307373047 1.1179834604263305664 1.1189856529235839844 1.1199467182159423828 1.1208629608154296875 1.1217303276062011719 1.1225451231002807617 1.123303532600402832 1.1240020990371704102 1.1246373653411865234 1.1252061128616333008 1.1257053613662719727 1.1261324882507324219 1.1264852285385131836 1.1267616748809814453 1.1269602775573730469 1.1270798444747924805 1.1271197795867919922 1.1271197795867919922 1.1270798444747924805 1.1269602775573730469 1.1267616748809814453 1.1264852285385131836 1.1268924474716186523 1.1292204856872558594 1.1315934658050537109 1.1340088844299316406 1.1364639997482299805 1.1389553546905517578 1.1414785385131835938 1.1440284252166748047 1.1465992927551269531 1.1491838693618774414 1.1517745256423950195 1.1543619632720947266 1.1569361686706542969 1.1594858169555664062 1.1619983911514282227 1.164460301399230957 1.1668570041656494141 1.1691726446151733398 1.1716631650924682617 1.1773728132247924805 1.1834548711776733398 1.1899447441101074219 1.1968816518783569336 1.2043097019195556641 1.2122781276702880859 1.2208421230316162109 1.2300635576248168945 1.2400113344192504883 1.2507619857788085938 1.2624002695083618164 1.2750190496444702148 1.2887187004089355469 1.3036054372787475586 1.319787144660949707 1.3375378847122192383 1.3603059053421020508 1.3861668109893798828 1.4157377481460571289 1.4497864246368408203 1.4892624616622924805 1.5353233814239501953 1.5893265008926391602 1.6527235507965087891 1.7267079353332519531 1.8113009929656982422 1.9033783674240112305 2.0162518024444580078 2.2254655361175537109 2.5008444786071777344 2.8073048591613769531 2.9655323028564453125 2.8073048591613769531 2.5008444786071777344 2.2254655361175537109 2.0898754596710205078 2.2254791259765625 2.5008561611175537109 2.8073101043701171875 2.9655323028564453125 2.9655323028564453125 2.9655323028564453125 2.9655323028564453125 2.9655323028564453125 2.9655323028564453125 2.9655323028564453125 3.0329005718231201172 4.3789033889770507812 11 4.3789033889770507812 3.0329005718231201172 2.9655323028564453125 2.9655323028564453125 3.6099858283996582031 4.2853236198425292969 3.6099858283996582031 2.9655323028564453125 3.6099858283996582031 4.2853236198425292969 3.6099858283996582031 2.8450214862823486328 2.3843216896057128906 2.0988755226135253906 1.9083839654922485352 1.7731853723526000977 1.6725786924362182617 
1.098696589469909668 1.0987899303436279297 1.0988460779190063477 1.0988649129867553711 1.0988649129867553711 1.0988460779190063477 1.0999511480331420898 1.1011141538619995117 1.1022772789001464844 1.1034386157989501953 1.1045961380004882812 1.1057476997375488281 1.1068906784057617188 1.1080228090286254883 1.1091413497924804688 1.1102434396743774414 1.1113259792327880859 1.1123861074447631836 1.1134204864501953125 1.1144257783889770508 1.1153985261917114258 1.1163355112075805664 1.1172331571578979492 1.1180877685546875 1.1188961267471313477 1.1196547746658325195 1.120360255241394043 1.1210095882415771484 1.1215994358062744141 1.1221272945404052734 1.1225903034210205078 1.1229863166809082031 1.1233131885528564453 1.1235691308975219727 1.1237530708312988281 1.1238638162612915039 1.1239007711410522461 1.1239007711410522461 1.1238638162612915039 1.1237530708312988281 1.1235691308975219727 1.1233131885528564453 1.1246623992919921875 1.1268671751022338867 1.1291099786758422852 1.1313883066177368164 1.1336990594863891602 1.136038661003112793 1.1384028196334838867 1.1407864093780517578 1.1431837081909179688 1.1455880403518676758 1.1479918956756591797 1.1503866910934448242 1.1527630090713500977 1.155110478401184082 1.1574178934097290039 1.159672856330871582 1.1618622541427612305 1.1646593809127807617 1.1698652505874633789 1.1753903627395629883 1.1812626123428344727 1.1875129938125610352 1.1941754817962646484 1.2012879848480224609 1.2088922262191772461 1.2170339822769165039 1.2257635593414306641 1.2351362705230712891 1.2452116012573242188 1.2560533285140991211 1.2677286863327026367 1.2803065776824951172 1.2943212985992431641 1.311339259147644043 1.3303003311157226562 1.3515223264694213867 1.3753838539123535156 1.4023336172103881836 1.4328950643539428711 1.4676624536514282227 1.5072728395462036133 1.5523278713226318359 1.603215336799621582 1.6597472429275512695 1.7205090522766113281 1.796294093132019043 1.9131146669387817383 2.0532574653625488281 2.2081656455993652344 2.3446223735809326172 2.402225494384765625 2.3446223735809326172 2.2081656455993652344 2.0532574653625488281 2.0988841056823730469 2.3843317031860351562 2.8450326919555664062 3.6099946498870849609 4.2853236198425292969 4.2853236198425292969 4.2853236198425292969 4.2853236198425292969 4.2853236198425292969 4.2853236198425292969 4.2853236198425292969 4.2853236198425292969 4.3789248466491699219 11 4.3789248466491699219 3.6099946498870849609 4.2853236198425292969 3.6099946498870849609 4.3789248466491699219 11 4.3789248466491699219 4.2853236198425292969 4.3789248466491699219 11 4.3789248466491699219 3.0329158306121826172 2.4537918567657470703 2.1314668655395507812 1.926131129264831543 1.7838754653930664062 1.6795024871826171875 
1.0967482328414916992 1.0968362092971801758 1.0968890190124511719 1.0969067811965942383 1.0969067811965942383 1.0972218513488769531 1.09832763671875 1.0994340181350708008 1.1005393266677856445 1.1016416549682617188 1.1027389764785766602 1.1038293838500976562 1.1049104928970336914 1.1059800386428833008 1.1070353984832763672 1.1080740690231323242 1.1090931892395019531 1.1100898981094360352 1.1110614538192749023 1.1120045185089111328 1.1129162311553955078 1.1137932538986206055 1.1146326065063476562 1.1154310703277587891 1.1161855459213256836 1.1168929338455200195 1.1175502538681030273 1.1181546449661254883 1.1187034845352172852 1.1191941499710083008 1.1196243762969970703 1.1199921369552612305 1.1202955245971679688 1.1205331087112426758 1.1207036972045898438 1.1208063364028930664 1.1208406686782836914 1.1208406686782836914 1.1208063364028930664 1.1207036972045898438 1.1205331087112426758 1.12041473388671875 1.1224687099456787109 1.1245566606521606445 1.1266764402389526367 1.1288256645202636719 1.1310009956359863281 1.133198857307434082 1.1354148387908935547 1.1376442909240722656 1.1398812532424926758 1.1421196460723876953 1.1443523168563842773 1.1465711593627929688 1.1487677097320556641 1.1509321928024291992 1.1530545949935913086 1.1551238298416137695 1.1581293344497680664 1.1628879308700561523 1.1679213047027587891 1.1732517480850219727 1.1789034605026245117 1.1849031448364257812 1.1912798881530761719 1.1980655193328857422 1.2052943706512451172 1.2130037546157836914 1.2212337255477905273 1.2300267219543457031 1.2394273281097412109 1.2494813203811645508 1.2608038187026977539 1.2739880084991455078 1.2884683609008789062 1.3044241666793823242 1.3220622539520263672 1.3416204452514648438 1.3633688688278198242 1.3876070976257324219 1.4146550893783569336 1.4448300600051879883 1.4783977270126342773 1.5154813528060913086 1.5559030771255493164 1.598929286003112793 1.6527314186096191406 1.7267155647277832031 1.8113077878952026367 1.9033837318420410156 1.9934250116348266602 2.0630471706390380859 2.0898754596710205078 2.0630471706390380859 1.9934250116348266602 1.9261391162872314453 2.1314764022827148438 2.4538035392761230469 3.0329313278198242188 4.3789463043212890625 11 11 11 11 11 11 11 11 11 11 11 4.3789463043212890625 11 4.3789463043212890625 4.3789463043212890625 11 4.3789463043212890625 11 11 11 4.3789463043212890625 3.0329313278198242188 2.4538035392761230469 2.1314764022827148438 1.9261391162872314453 1.7838823795318603516 1.6795085668563842773 
1.0948752164840698242 1.094958186149597168 1.0950080156326293945 1.0950247049331665039 1.0950247049331665039 1.0956891775131225586 1.0967427492141723633 1.0977957248687744141 1.0988465547561645508 1.0998933315277099609 1.1009342670440673828 1.1019674539566040039 1.1029907464981079102 1.1040017604827880859 1.1049983501434326172 1.1059781312942504883 1.1069383621215820312 1.1078764200210571289 1.1087898015975952148 1.1096755266189575195 1.110530853271484375 1.1113529205322265625 1.1121388673782348633 1.1128857135772705078 1.1135909557342529297 1.1142514944076538086 1.1148648262023925781 1.1154284477233886719 1.1159398555755615234 1.116396784782409668 1.1167972087860107422 1.1171392202377319336 1.1174213886260986328 1.1176422834396362305 1.1178008317947387695 1.1178961992263793945 1.1179280281066894531 1.1179280281066894531 1.1178961992263793945 1.1178008317947387695 1.1176422834396362305 1.1183648109436035156 1.1203135251998901367 1.1222908496856689453 1.1242948770523071289 1.1263225078582763672 1.1283710002899169922 1.1304364204406738281 1.1325145959854125977 1.1346009969711303711 1.1366899013519287109 1.1387755870819091797 1.1408512592315673828 1.1429095268249511719 1.1449424028396606445 1.1469411849975585938 1.1488965749740600586 1.1520357131958007812 1.1563968658447265625 1.1609953641891479492 1.1658489704132080078 1.1709771156311035156 1.1764006614685058594 1.1821423768997192383 1.1882263422012329102 1.1946787834167480469 1.2015275955200195312 1.2088021039962768555 1.2165330648422241211 1.2247519493103027344 1.2340782880783081055 1.2445844411849975586 1.2559967041015625 1.2684229612350463867 1.2819856405258178711 1.2968221902847290039 1.3130853176116943359 1.3309422731399536133 1.3505703210830688477 1.3721489906311035156 1.3958432674407958984 1.4217749834060668945 1.4499745368957519531 1.4803037643432617188 1.5123443603515625 1.5523341894149780273 1.6032215356826782227 1.6597528457641601562 1.7205138206481933594 1.7818975448608398438 1.8371764421463012695 1.8767795562744140625 1.8913290500640869141 1.8767795562744140625 1.8371764421463012695 1.9083989858627319336 2.0988929271697998047 2.3843417167663574219 2.8450438976287841797 3.6100034713745117188 4.2853236198425292969 4.2853236198425292969 4.2853236198425292969 4.2853236198425292969 4.2853236198425292969 4.2853236198425292969 4.37896728515625 11 11 11 11 4.37896728515625 11 4.37896728515625 11 11 4.37896728515625 11 11 11 4.37896728515625 3.0329465866088867188 2.453815460205078125 2.1314859390258789062 1.9261471033096313477 1.7838891744613647461 1.6795145273208618164 
