ncols        127
nrows        131
xllcorner    -71.681135979344
yllcorner    -16.519694133538
cellsize     0.001836012963
NODATA_value nan
3.9907186031341552734 4.17034912109375 4.371906280517578125 4.5994086265563964844 4.8578276634216308594 5.1533389091491699219 5.493621826171875 5.88818359375 6.3599209785461425781 6.989780426025390625 7.7873845100402832031 8.83003997802734375 10.251173973083496094 12.302561759948730469 15.522928237915039062 21.3096160888671875 34.762248992919921875 101 101 34.762248992919921875 34.762248992919921875 101 101 34.762248992919921875 101 101 34.762248992919921875 101 34.762248992919921875 21.3096160888671875 19.069784164428710938 16.001241683959960938 14.444952011108398438 13.078022956848144531 11.527254104614257812 10.125079154968261719 8.95673370361328125 8.0065450668334960938 7.2345452308654785156 6.6022186279296875 6.1516613960266113281 5.7806987762451171875 5.5773901939392089844 5.378604888916015625 5.1744437217712402344 4.9713959693908691406 4.7739953994750976562 4.5851421356201171875 4.4064841270446777344 4.2387714385986328125 4.0821409225463867188 4.0810441970825195312 4.2787885665893554688 4.5035791397094726562 4.7613520622253417969 5.0599088668823242188 5.4097089767456054688 5.8250994682312011719 6.3262867927551269531 6.9426369667053222656 7.718441009521484375 8.72356414794921875 10.074365615844726562 11.977789878845214844 14.830476760864257812 19.436048507690429688 27.0887908935546875 34.762248992919921875 101 34.762248992919921875 34.762248992919921875 101 101 34.762248992919921875 101 34.762248992919921875 33.85323333740234375 27.0887908935546875 19.436048507690429688 15.022253990173339844 15.022253990173339844 15.022253990173339844 16.001241683959960938 19.069784164428710938 20.655321121215820312 20.655321121215820312 20.655321121215820312 19.069784164428710938 16.001241683959960938 13.246110916137695312 11.898753166198730469 11.898753166198730469 11.629861831665039062 10.932277679443359375 10.030533790588378906 9.1088666915893554688 8.2624711990356445312 7.59404754638671875 7.0284075736999511719 6.51938629150390625 6.0688085556030273438 5.6727538108825683594 5.3251748085021972656 5.0196805000305175781 4.7503151893615722656 4.5118350982666015625 4.29975128173828125 4.1102724075317382812 3.9402189254760742188 3.7869257926940917969 3.6481587886810302734 3.5220391750335693359 3.406982421875 3.3016450405120849609 3.2048850059509277344 3.1157257556915283203 3.0333287715911865234 2.9569711685180664062 2.8860270977020263672 2.8199522495269775391 2.7582709789276123047 2.7005670070648193359 2.6464736461639404297 2.5956673622131347656 2.5478618144989013672 2.5028021335601806641 2.4602611064910888672 
4.0413498878479003906 4.2196140289306640625 4.4314885139465332031 4.672332763671875 4.9482808113098144531 5.2672271728515625 5.6394524574279785156 6.0784840583801269531 6.6022615432739257812 7.2345905303955078125 8.0065927505493164062 8.956783294677734375 10.251252174377441406 12.302656173706054688 15.523044586181640625 21.3097686767578125 34.76245880126953125 101 34.76245880126953125 27.0887908935546875 34.76245880126953125 101 34.76245880126953125 34.76245880126953125 101 34.76245880126953125 34.76245880126953125 101 34.76245880126953125 33.85323333740234375 27.088876724243164062 20.655321121215820312 19.069810867309570312 16.001298904418945312 13.246178627014160156 11.154125213623046875 9.600757598876953125 8.4290552139282226562 7.5940752029418945312 7.0284380912780761719 6.5194172859191894531 6.2256779670715332031 5.9832296371459960938 5.7288269996643066406 5.4737706184387207031 5.225818634033203125 4.9897522926330566406 4.7681231498718261719 4.56194305419921875 4.3712363243103027344 4.1954326629638671875 4.1039156913757324219 4.2864422798156738281 4.5129413604736328125 4.77297210693359375 5.0745754241943359375 5.4285869598388671875 5.8499674797058105469 6.3599686622619628906 6.9898328781127929688 7.7874441146850585938 8.8301076889038085938 10.251252174377441406 12.302656173706054688 15.523044586181640625 21.3097686767578125 34.76245880126953125 101 101 34.76245880126953125 101 101 101 101 101 101 101 34.76245880126953125 21.3097686767578125 20.655321121215820312 20.655321121215820312 20.655321121215820312 19.436159133911132812 27.088876724243164062 33.85323333740234375 33.85323333740234375 33.85323333740234375 27.088876724243164062 19.436159133911132812 15.022253990173339844 15.022253990173339844 15.022253990173339844 14.4449615478515625 13.078051567077636719 11.527296066284179688 10.125126838684082031 9.1089000701904296875 8.262508392333984375 7.5225043296813964844 6.88855743408203125 6.3486523628234863281 5.8882193565368652344 5.4936556816101074219 5.1533713340759277344 4.8578586578369140625 4.5994381904602050781 4.3719344139099121094 4.170375823974609375 3.9907441139221191406 3.8297705650329589844 3.6847810745239257812 3.5535719394683837891 3.4343149662017822266 3.3254835605621337891 3.2257943153381347656 3.1341624259948730469 3.0496644973754882812 2.9715108871459960938 2.8990228176116943359 2.8316135406494140625 2.7687735557556152344 2.7100584506988525391 2.655078887939453125 2.6034932136535644531 2.5549988746643066406 2.5093286037445068359 2.4662444591522216797 
4.1281328201293945312 4.3066463470458984375 4.5118899345397949219 4.7503719329833984375 5.0197391510009765625 5.3546628952026367188 5.7529287338256835938 6.2291703224182128906 6.8077917098999023438 7.5238871574401855469 8.4291124343872070312 9.6008205413818359375 11.154192924499511719 13.246246337890625 16.001356124877929688 21.309919357299804688 34.762668609619140625 101 34.762668609619140625 27.088962554931640625 34.762668609619140625 101 34.762668609619140625 34.762668609619140625 101 34.762668609619140625 34.762668609619140625 101 34.762668609619140625 101 34.762668609619140625 33.85323333740234375 27.088962554931640625 19.436269760131835938 14.830675125122070312 11.977961540222167969 10.074513435363769531 9.1089334487915039062 8.2625455856323242188 7.5225424766540527344 7.0716042518615722656 6.7744669914245605469 6.45062255859375 6.1212062835693359375 5.800537109375 5.4970684051513671875 5.2149691581726074219 4.9556021690368652344 4.71865081787109375 4.5028853416442871094 4.3066463470458984375 4.3098649978637695312 4.3465523719787597656 4.5129733085632324219 4.7730059623718261719 5.0746121406555175781 5.42862701416015625 5.8500103950500488281 6.360015869140625 6.9898858070373535156 7.7875032424926757812 8.8301744461059570312 10.251330375671386719 12.3027496337890625 15.523160934448242188 21.309919357299804688 34.762668609619140625 101 34.762668609619140625 34.762668609619140625 101 34.762668609619140625 101 101 101 101 101 34.762668609619140625 33.85323333740234375 33.85323333740234375 33.85323333740234375 33.85323333740234375 27.088962554931640625 34.762668609619140625 101 101 101 34.762668609619140625 21.309919357299804688 20.655321121215820312 20.655321121215820312 20.655321121215820312 19.069837570190429688 16.001356124877929688 13.246246337890625 11.527338027954101562 10.12517547607421875 8.9568328857421875 8.0066404342651367188 7.2346363067626953125 6.6023044586181640625 6.0785245895385742188 5.6394901275634765625 5.2672624588012695312 4.9483141899108886719 4.6723642349243164062 4.4315180778503417969 4.2196421623229980469 4.0319170951843261719 3.8645126819610595703 3.7143528461456298828 3.5789422988891601562 3.45623779296875 3.3445520401000976562 3.2424802780151367188 3.1488444805145263672 3.0626497268676757812 2.9830498695373535156 2.9093215465545654297 2.8408429622650146484 2.7770762443542480469 2.7175538539886474609 2.6618683338165283203 2.6096620559692382812 2.5606205463409423828 2.5144658088684082031 2.470951080322265625 
4.2176823616027832031 4.413173675537109375 4.630573272705078125 4.8728852272033691406 5.1534366607666015625 5.4937243461608886719 5.8882908821105957031 6.3487272262573242188 6.942790985107421875 7.7186131477355957031 8.723758697509765625 10.074587821960449219 11.978047370910644531 14.830775260925292969 19.436380386352539062 27.08905029296875 34.76287841796875 101 34.76287841796875 34.76287841796875 101 101 34.76287841796875 34.76287841796875 101 34.76287841796875 34.76287841796875 101 34.76287841796875 101 101 101 34.76287841796875 21.310071945190429688 15.52327728271484375 13.0781097412109375 11.527380943298339844 10.125223159790039062 8.9568815231323242188 8.2069883346557617188 7.8482918739318847656 7.4272212982177734375 6.9868083000183105469 6.5561842918395996094 6.1517376899719238281 5.7807779312133789062 5.4450578689575195312 5.1433191299438476562 4.8728852272033691406 4.630573272705078125 4.4837861061096191406 4.544353485107421875 4.5896282196044921875 4.6176514625549316406 4.7730402946472167969 5.0746483802795410156 5.4286665916442871094 5.8500537872314453125 6.3600635528564453125 6.9899382591247558594 7.7875623703002929688 8.830242156982421875 10.251409530639648438 12.302843093872070312 15.52327728271484375 21.310071945190429688 34.76287841796875 101 101 101 101 34.76287841796875 101 34.76287841796875 101 101 34.76287841796875 34.76287841796875 101 101 101 101 34.76287841796875 34.76287841796875 101 34.76287841796875 101 34.76287841796875 33.85323333740234375 33.85323333740234375 33.85323333740234375 33.85323333740234375 27.08905029296875 19.436380386352539062 16.001413345336914062 13.246314048767089844 11.154259681701660156 9.60088348388671875 8.4291706085205078125 7.5239396095275878906 6.8078398704528808594 6.2292146682739257812 5.7529692649841308594 5.3547005653381347656 5.01702880859375 4.7272968292236328125 4.4760942459106445312 4.2562932968139648438 4.0624051094055175781 3.8901386260986328125 3.7360932826995849609 3.5975415706634521484 3.4722707271575927734 3.3584685325622558594 3.2546360492706298828 3.1595234870910644531 3.0720813274383544922 2.9914205074310302734 2.9167845249176025391 2.8475244045257568359 2.7830815315246582031 2.7229712009429931641 2.6667718887329101562 2.6141147613525390625 2.5646758079528808594 2.5181696414947509766 2.4743428230285644531 
4.2998561859130859375 4.5119447708129882812 4.7504291534423828125 5.01979827880859375 5.3252964019775390625 5.6728787422180175781 6.0786051750183105469 6.602390289306640625 7.2347273826599121094 8.00673675537109375 8.9569311141967773438 10.25148773193359375 12.302937507629394531 15.523392677307128906 21.310222625732421875 34.763088226318359375 101 101 34.763088226318359375 101 101 34.763088226318359375 27.08905029296875 34.763088226318359375 101 101 101 101 34.763088226318359375 101 101 34.763088226318359375 27.08905029296875 20.655321121215820312 19.069889068603515625 16.001470565795898438 13.246381759643554688 11.154326438903808594 9.7674713134765625 9.3706407546997070312 8.816928863525390625 8.2023096084594726562 7.594158172607421875 7.0285286903381347656 6.5195116996765136719 6.0689349174499511719 5.6728787422180175781 5.3252964019775390625 5.01979827880859375 4.7504291534423828125 4.73821258544921875 4.8135514259338378906 4.8702816963195800781 4.9055771827697753906 4.9175615310668945312 5.0600171089172363281 5.4098262786865234375 5.8252272605895996094 6.3264265060424804688 6.942790985107421875 7.7186131477355957031 8.723758697509765625 10.074587821960449219 11.978047370910644531 14.830775260925292969 19.436380386352539062 27.08905029296875 34.763088226318359375 101 101 34.763088226318359375 34.763088226318359375 101 101 101 101 34.763088226318359375 34.763088226318359375 101 101 101 101 101 101 101 34.763088226318359375 101 34.763088226318359375 101 101 101 101 34.763088226318359375 27.089136123657226562 19.436491012573242188 14.830874443054199219 11.978132247924804688 10.0746612548828125 8.72382354736328125 7.7186703681945800781 6.9428424835205078125 6.326473236083984375 5.8252696990966796875 5.4098653793334960938 5.0600533485412597656 4.7614865303039550781 4.5037050247192382812 4.2789068222045898438 4.0811557769775390625 3.9058568477630615234 3.7493984699249267578 3.6089026927947998047 3.4820485115051269531 3.3669435977935791016 3.2620298862457275391 3.1660125255584716797 3.0778069496154785156 2.99649810791015625 2.9213082790374755859 2.8515720367431640625 2.7867174148559570312 2.7262494564056396484 2.6697380542755126953 2.6168072223663330078 2.567127227783203125 2.5204079151153564453 2.4763920307159423828 
4.3720464706420898438 4.59955596923828125 4.857982635498046875 5.1535019874572753906 5.4937930107116699219 5.888362884521484375 6.3488016128540039062 6.8887104988098144531 7.5240445137023925781 8.4292850494384765625 9.6010084152221679688 11.154394149780273438 13.246449470520019531 16.001527786254882812 21.310375213623046875 34.76329803466796875 101 34.76329803466796875 34.76329803466796875 101 34.76329803466796875 33.85323333740234375 27.089223861694335938 34.76329803466796875 101 101 34.76329803466796875 101 101 101 101 34.76329803466796875 33.85323333740234375 33.85323333740234375 27.089223861694335938 19.436601638793945312 14.830974578857421875 11.97821807861328125 11.629885673522949219 10.932355880737304688 10.030664443969726562 9.1090345382690429688 8.26265716552734375 7.5226583480834960938 6.8887104988098144531 6.3488016128540039062 5.888362884521484375 5.4937930107116699219 5.1535019874572753906 4.9171590805053710938 5.0302672386169433594 5.1254568099975585938 5.1977982521057128906 5.2431015968322753906 5.2585368156433105469 5.2431015968322753906 5.3547005653381347656 5.7529692649841308594 6.2292146682739257812 6.8078398704528808594 7.5239396095275878906 8.4291706085205078125 9.60088348388671875 11.154259681701660156 13.246314048767089844 16.001413345336914062 21.310375213623046875 34.76329803466796875 101 101 101 101 101 101 101 34.76329803466796875 34.76329803466796875 101 101 101 101 101 101 101 34.76329803466796875 34.76329803466796875 101 34.76329803466796875 101 101 101 101 101 34.76329803466796875 21.310375213623046875 15.523509025573730469 12.303030967712402344 10.251566886901855469 8.8303775787353515625 7.7876806259155273438 6.9900441169738769531 6.3601584434509277344 5.8501400947570800781 5.4287457466125488281 5.0747218132019042969 4.7731080055236816406 4.5130681991577148438 4.2865610122680664062 4.0874929428100585938 3.9111628532409667969 3.7538855075836181641 3.6127312183380126953 3.4853413105010986328 3.3697965145111083984 3.2645177841186523438 3.1681952476501464844 3.0797326564788818359 2.9982056617736816406 2.9228291511535644531 2.8529329299926757812 2.7879400253295898438 2.7273519039154052734 2.6707353591918945312 2.6177124977111816406 2.5679516792297363281 2.5211608409881591797 2.4770815372467041016 
4.4316363334655761719 4.6724896430969238281 4.9484472274780273438 5.2674040794372558594 5.63964080810546875 6.078685760498046875 6.6024765968322753906 7.2348189353942871094 8.0068330764770507812 8.9570293426513671875 10.125368118286132812 11.978303909301757812 14.831073760986328125 19.436712265014648438 27.0893096923828125 34.763507843017578125 101 34.763507843017578125 34.763507843017578125 101 34.763507843017578125 101 34.763507843017578125 34.763507843017578125 101 101 34.763507843017578125 101 34.763507843017578125 101 101 101 101 101 34.763507843017578125 21.310525894165039062 15.523625373840332031 15.022253990173339844 14.445012092590332031 13.078196525573730469 11.527507781982421875 10.125368118286132812 8.9570293426513671875 8.0068330764770507812 7.2348189353942871094 6.6024765968322753906 6.078685760498046875 5.63964080810546875 5.2674040794372558594 5.2247385978698730469 5.3681640625 5.4905858039855957031 5.5847239494323730469 5.6441793441772460938 5.6645264625549316406 5.6441793441772460938 5.5847239494323730469 5.6395277976989746094 6.0785646438598632812 6.6023473739624023438 7.2346820831298828125 8.0066890716552734375 8.9568815231323242188 10.125223159790039062 11.97821807861328125 14.830974578857421875 19.436601638793945312 27.089223861694335938 33.85323333740234375 34.763507843017578125 101 101 101 34.763507843017578125 101 34.763507843017578125 101 101 101 101 101 34.763507843017578125 34.763507843017578125 101 34.763507843017578125 101 101 34.763507843017578125 101 101 101 101 101 34.763507843017578125 21.310525894165039062 15.523625373840332031 12.303125381469726562 10.251645088195800781 8.8304452896118164062 7.7877402305603027344 6.9900965690612792969 6.3602061271667480469 5.8501834869384765625 5.4287853240966796875 5.0747585296630859375 4.7731418609619140625 4.5131001472473144531 4.2865910530090332031 4.0875210762023925781 3.9111895561218261719 3.7539107799530029297 3.6127550601959228516 3.4853639602661132812 3.3698182106018066406 3.2645385265350341797 3.1682150363922119141 3.0797517299652099609 2.9982237815856933594 2.9228470325469970703 2.8529500961303710938 2.7879564762115478516 2.7273676395416259766 2.6707508563995361328 2.6177275180816650391 2.5679662227630615234 2.5211749076843261719 2.4770951271057128906 
4.5852627754211425781 4.7741098403930664062 5.0198869705200195312 5.3548512458801269531 5.753131866455078125 6.2293906211853027344 6.8080315589904785156 7.5241494178771972656 8.4294004440307617188 9.6011343002319335938 11.154528617858886719 13.246585845947265625 16.001642227172851562 21.310678482055664062 34.7637176513671875 101 101 34.7637176513671875 34.7637176513671875 101 34.7637176513671875 101 101 34.7637176513671875 101 34.7637176513671875 34.7637176513671875 101 101 101 101 101 34.7637176513671875 33.85323333740234375 27.0893096923828125 19.436712265014648438 19.069967269897460938 20.655321121215820312 19.069967269897460938 16.001642227172851562 13.246585845947265625 11.154528617858886719 9.6011343002319335938 8.4294004440307617188 7.5241494178771972656 6.8080315589904785156 6.2293906211853027344 5.753131866455078125 5.3786845207214355469 5.57745361328125 5.7622976303100585938 5.9229459762573242188 6.0483856201171875 6.1285028457641601562 6.1560845375061035156 6.1285028457641601562 6.0483856201171875 5.9229459762573242188 5.8882908821105957031 6.3487272262573242188 6.8886342048645019531 7.5240445137023925781 8.4292850494384765625 9.6010084152221679688 11.154394149780273438 13.246449470520019531 16.001527786254882812 19.069913864135742188 21.310678482055664062 34.7637176513671875 101 101 101 34.7637176513671875 101 101 101 101 101 34.7637176513671875 33.85323333740234375 34.7637176513671875 101 101 34.7637176513671875 101 34.7637176513671875 101 101 101 101 101 101 34.7637176513671875 21.310678482055664062 15.523741722106933594 12.303218841552734375 10.251723289489746094 8.83051300048828125 7.7877993583679199219 6.9901494979858398438 6.3602533340454101562 5.8502268791198730469 5.4288249015808105469 5.074794769287109375 4.7731761932373046875 4.5131316184997558594 4.2866206169128417969 4.0875492095947265625 3.9112160205841064453 3.7539358139038085938 3.6127789020538330078 3.4853868484497070312 3.3698396682739257812 3.2645592689514160156 3.1682348251342773438 3.0797708034515380859 2.9982421398162841797 2.9228646755218505859 2.8529670238494873047 2.7879729270935058594 2.7273836135864257812 2.6707661151885986328 2.6177423000335693359 2.5679805278778076172 2.5211887359619140625 2.4771089553833007812 
4.7741260528564453125 4.9898877143859863281 5.2259459495544433594 5.4938955307006835938 5.8884701728820800781 6.3489136695861816406 6.9430484771728515625 7.7189002037048339844 8.7240819931030273438 10.074957847595214844 11.978475570678710938 14.831273078918457031 19.436933517456054688 27.089483261108398438 34.76392364501953125 101 34.76392364501953125 101 34.76392364501953125 101 34.76392364501953125 34.76392364501953125 101 101 101 34.76392364501953125 101 101 101 101 101 34.76392364501953125 27.089395523071289062 20.655321121215820312 19.069940567016601562 19.436933517456054688 27.089483261108398438 33.85323333740234375 27.089483261108398438 19.436933517456054688 14.831273078918457031 11.978475570678710938 10.074957847595214844 8.7240819931030273438 7.7189002037048339844 6.9430484771728515625 6.3266596794128417969 5.8254399299621582031 5.7289280891418457031 5.9833116531372070312 6.225738525390625 6.4414205551147460938 6.6132993698120117188 6.7247614860534667969 6.7634487152099609375 6.7247614860534667969 6.6132993698120117188 6.4414205551147460938 6.225738525390625 6.0786452293395996094 6.6024332046508789062 7.2347731590270996094 8.0067844390869140625 8.9569807052612304688 10.125319480895996094 11.527464866638183594 13.078166961669921875 14.831172943115234375 19.436822891235351562 27.089395523071289062 34.76392364501953125 101 101 34.76392364501953125 101 101 101 101 101 34.76392364501953125 34.76392364501953125 101 101 34.76392364501953125 101 101 34.76392364501953125 101 34.76392364501953125 101 101 101 34.76392364501953125 27.089395523071289062 19.436822891235351562 14.831172943115234375 11.978389739990234375 10.074883460998535156 8.724018096923828125 7.7188429832458496094 6.942996978759765625 6.3266129493713378906 5.825397491455078125 5.4099831581115722656 5.0601620674133300781 4.7615876197814941406 4.5037994384765625 4.278995513916015625 4.0812392234802246094 3.9059357643127441406 3.7494733333587646484 3.6089737415313720703 3.4821162223815917969 3.3670084476470947266 3.2620918750762939453 3.1660718917846679688 3.0778639316558837891 2.9965531826019287109 2.9213612079620361328 2.8516230583190917969 2.7867667675018310547 2.7262971401214599609 2.6697840690612792969 2.616851806640625 2.5671703815460205078 2.5204498767852783203 2.4764330387115478516 
4.9899072647094726562 5.2259640693664550781 5.4972224235534667969 5.8006806373596191406 6.1213350296020507812 6.6026053428649902344 7.2349557876586914062 8.006977081298828125 8.9571781158447265625 10.251880645751953125 12.303406715393066406 15.523974418640136719 21.31098175048828125 34.764133453369140625 101 101 101 101 101 101 34.764133453369140625 101 101 101 34.764133453369140625 101 101 34.764133453369140625 101 34.764133453369140625 33.85323333740234375 27.089483261108398438 19.436933517456054688 16.001756668090820312 19.437044143676757812 27.089569091796875 34.764133453369140625 101 34.764133453369140625 21.31098175048828125 15.523974418640136719 12.303406715393066406 10.251880645751953125 8.8306474685668945312 7.7879180908203125 6.9902548789978027344 6.3603487014770507812 6.048389434814453125 6.1213350296020507812 6.4507303237915039062 6.7745494842529296875 7.0716586112976074219 7.3150968551635742188 7.4763736724853515625 7.5330090522766113281 7.4763736724853515625 7.3150968551635742188 7.0716586112976074219 6.7745494842529296875 6.4507303237915039062 6.3488016128540039062 6.8887104988098144531 7.5226583480834960938 8.26265716552734375 9.1090345382690429688 10.030664443969726562 11.154528617858886719 13.246585845947265625 16.001642227172851562 21.31098175048828125 34.764133453369140625 101 101 34.764133453369140625 101 101 101 101 101 34.764133453369140625 34.764133453369140625 101 34.764133453369140625 34.764133453369140625 101 34.764133453369140625 34.764133453369140625 101 34.764133453369140625 101 101 101 34.764133453369140625 21.31098175048828125 16.001642227172851562 13.246585845947265625 11.154528617858886719 9.6011343002319335938 8.4294004440307617188 7.5241494178771972656 6.8080315589904785156 6.2293906211853027344 5.753131866455078125 5.3548512458801269531 5.0171689987182617188 4.7274279594421386719 4.4762172698974609375 4.25640869140625 4.0625143051147460938 3.8902420997619628906 3.7361917495727539062 3.5976352691650390625 3.4723601341247558594 3.3585538864135742188 3.2547178268432617188 3.1596021652221679688 3.0721566677093505859 2.99149322509765625 2.9168546199798583984 2.8475921154022216797 2.7831466197967529297 2.7230341434478759766 2.6668329238891601562 2.61417388916015625 2.5647332668304443359 2.5182254314422607422 2.4743971824645996094 
5.2151517868041992188 5.4972443580627441406 5.8007016181945800781 6.1519160270690917969 6.5563492774963378906 6.9869523048400878906 7.5243067741394042969 8.4295721054077148438 9.601322174072265625 11.154729843139648438 13.246789932250976562 16.001813888549804688 21.311132431030273438 34.76434326171875 101 101 101 101 101 34.76434326171875 34.76434326171875 101 101 34.76434326171875 34.76434326171875 101 101 101 101 34.76434326171875 21.311132431030273438 19.070043563842773438 20.655321121215820312 19.43715667724609375 27.089656829833984375 34.76434326171875 101 101 34.76434326171875 21.311132431030273438 15.524090766906738281 12.303501129150390625 10.251959800720214844 8.830715179443359375 7.7879772186279296875 6.9903078079223632812 6.7247629165649414062 6.6133046150207519531 6.5563492774963378906 6.9869523048400878906 7.4273357391357421875 7.8483700752258300781 8.2070293426513671875 8.4521493911743164062 8.5397481918334960938 8.4521493911743164062 8.2070293426513671875 7.8483700752258300781 7.4273357391357421875 6.9869523048400878906 6.5563492774963378906 6.5563492774963378906 7.0285587310791015625 7.5941858291625976562 8.2628431320190429688 9.1092014312744140625 10.125416755676269531 11.9785614013671875 14.831372261047363281 19.437044143676757812 27.089569091796875 34.76434326171875 101 101 101 34.76434326171875 101 101 101 34.76434326171875 34.76434326171875 101 34.76434326171875 34.76434326171875 101 101 34.76434326171875 101 101 101 101 101 34.76434326171875 21.311132431030273438 16.001813888549804688 13.246789932250976562 11.154729843139648438 9.601322174072265625 8.4295721054077148438 7.5243067741394042969 6.8081755638122558594 6.2295231819152832031 5.753253936767578125 5.3549642562866210938 5.0172743797302246094 4.7275261878967285156 4.4763092994689941406 4.2564959526062011719 4.0625963211059570312 3.89031982421875 3.7362654209136962891 3.5977053642272949219 3.4724271297454833984 3.3586180210113525391 3.2547791004180908203 3.1596610546112060547 3.0722134113311767578 2.9915475845336914062 2.9169070720672607422 2.8476426601409912109 2.7831957340240478516 2.7230815887451171875 2.6668787002563476562 2.6142182350158691406 2.5647764205932617188 2.5182671546936035156 2.474437713623046875 
5.4452724456787109375 5.7809896469116210938 6.1519412994384765625 6.5563726425170898438 7.0287404060363769531 7.5943517684936523438 8.202472686767578125 8.817047119140625 10.0751800537109375 11.978733062744140625 14.831571578979492188 19.437267303466796875 27.089742660522460938 34.764553070068359375 101 101 101 101 101 101 101 101 34.764553070068359375 27.089656829833984375 34.764553070068359375 101 101 101 34.764553070068359375 33.85323333740234375 27.089742660522460938 27.089742660522460938 33.85323333740234375 27.089742660522460938 34.764553070068359375 101 101 34.764553070068359375 27.089656829833984375 19.43715667724609375 14.831472396850585938 11.978647232055664062 10.075105667114257812 8.7242116928100585938 7.7190151214599609375 7.5330090522766113281 7.476375579833984375 7.3151049613952636719 7.0716738700866699219 7.5943517684936523438 8.202472686767578125 8.817047119140625 9.3707056045532226562 9.767490386962890625 9.9132900238037109375 9.767490386962890625 9.3707056045532226562 8.817047119140625 8.202472686767578125 7.5943517684936523438 7.0287404060363769531 7.0287404060363769531 7.5943517684936523438 8.202472686767578125 8.9572763442993164062 10.125609397888183594 11.527719497680664062 13.078340530395507812 14.445062637329101562 16.001871109008789062 21.311285018920898438 34.764553070068359375 101 101 34.764553070068359375 34.764553070068359375 101 101 101 34.764553070068359375 101 101 34.764553070068359375 34.764553070068359375 101 101 34.764553070068359375 101 101 101 101 101 34.764553070068359375 27.089742660522460938 19.437267303466796875 14.831571578979492188 11.978733062744140625 10.0751800537109375 8.7242765426635742188 7.7190728187561035156 6.943202972412109375 6.3267993927001953125 5.8255677223205566406 5.4101395606994628906 5.0603070259094238281 4.761722564697265625 4.503925323486328125 4.27911376953125 4.0813508033752441406 3.9060411453247070312 3.7495732307434082031 3.6090686321258544922 3.4822068214416503906 3.3670947551727294922 3.2621746063232421875 3.1661510467529296875 3.0779402256011962891 2.9966263771057128906 2.9214315414428710938 2.8516910076141357422 2.7868323326110839844 2.7263605594635009766 2.6698455810546875 2.6169114112854003906 2.5672283172607421875 2.5205059051513671875 2.4764873981475830078 
5.6731286048889160156 6.0691881179809570312 6.5197634696960449219 7.0287709236145019531 7.594379425048828125 8.2629175186157226562 9.1092681884765625 10.030848503112792969 10.932465553283691406 12.303689002990722656 15.524323463439941406 21.311435699462890625 34.76476287841796875 101 101 101 101 101 101 101 34.76476287841796875 33.85323333740234375 27.0898284912109375 27.0898284912109375 34.76476287841796875 101 101 101 34.76476287841796875 101 34.76476287841796875 34.76476287841796875 101 34.76476287841796875 101 101 34.76476287841796875 27.089742660522460938 19.437267303466796875 16.001813888549804688 13.246789932250976562 11.154729843139648438 9.601322174072265625 8.4295721054077148438 8.452152252197265625 8.5397481918334960938 8.452152252197265625 8.2070407867431640625 7.848392486572265625 8.2629175186157226562 9.1092681884765625 10.030848503112792969 10.932465553283691406 11.629920005798339844 11.898753166198730469 11.629920005798339844 10.932465553283691406 10.030848503112792969 9.1092681884765625 8.2629175186157226562 7.594379425048828125 7.5229277610778808594 8.2629175186157226562 9.1092681884765625 10.030848503112792969 11.154864311218261719 13.24692535400390625 16.001928329467773438 19.070096969604492188 20.655321121215820312 27.0898284912109375 34.76476287841796875 101 34.76476287841796875 27.0898284912109375 34.76476287841796875 101 101 34.76476287841796875 101 101 34.76476287841796875 27.0898284912109375 34.76476287841796875 101 101 34.76476287841796875 101 34.76476287841796875 101 101 34.76476287841796875 101 34.76476287841796875 21.311435699462890625 15.524323463439941406 12.303689002990722656 10.252117156982421875 8.8308506011962890625 7.7880959510803222656 6.9904131889343261719 6.3604912757873535156 5.8504428863525390625 5.4290232658386230469 5.0749783515930175781 4.7733464241027832031 4.5132908821105957031 4.2867693901062011719 4.0876893997192382812 3.9113483428955078125 3.7540612220764160156 3.6128981113433837891 3.485500335693359375 3.3699481487274169922 3.2646627426147460938 3.1683342456817626953 3.0798661708831787109 2.9983339309692382812 2.9229528903961181641 2.8530521392822265625 2.7880551815032958984 2.7274632453918457031 2.6708431243896484375 2.617816925048828125 2.5680530071258544922 2.5239303112030029297 2.4847137928009033203 
5.8886499404907226562 6.3491001129150390625 6.8890175819396972656 7.5229663848876953125 8.2629556655883789062 9.1093015670776367188 10.125705718994140625 11.527803421020507812 13.078398704528808594 14.4450836181640625 16.001985549926757812 21.311588287353515625 34.764972686767578125 101 101 101 101 101 34.764972686767578125 101 101 101 34.764972686767578125 34.764972686767578125 101 101 34.764972686767578125 101 101 101 34.764972686767578125 101 101 101 101 34.764972686767578125 27.0898284912109375 19.4373779296875 16.001871109008789062 13.246857643127441406 11.527676582336425781 10.125560760498046875 8.9572267532348632812 9.370723724365234375 9.7674951553344726562 9.9132900238037109375 9.7674951553344726562 9.370723724365234375 8.8170804977416992188 9.1093015670776367188 10.125705718994140625 11.527803421020507812 13.078398704528808594 14.4450836181640625 15.022253990173339844 14.4450836181640625 13.078398704528808594 11.527803421020507812 10.125705718994140625 9.1093015670776367188 8.5397481918334960938 8.4521541595458984375 8.9573755264282226562 10.125705718994140625 11.527803421020507812 13.078398704528808594 14.831770896911621094 19.437488555908203125 27.089916229248046875 33.85323333740234375 34.764972686767578125 101 101 34.764972686767578125 34.764972686767578125 101 101 101 34.764972686767578125 101 101 34.764972686767578125 34.764972686767578125 101 101 34.764972686767578125 34.764972686767578125 101 101 101 101 101 101 34.764972686767578125 21.311588287353515625 15.524439811706542969 12.303782463073730469 10.252195358276367188 8.8309183120727539062 7.7881550788879394531 6.9904661178588867188 6.3605389595031738281 5.8504862785339355469 5.4290628433227539062 5.0750145912170410156 4.773380279541015625 4.5133223533630371094 4.2867994308471679688 4.0877175331115722656 3.9113748073577880859 3.7540862560272216797 3.6129219532012939453 3.4855229854583740234 3.3699698448181152344 3.2646834850311279297 3.168354034423828125 3.0798852443695068359 2.9983522891998291016 2.9229705333709716797 2.853069305419921875 2.7880716323852539062 2.7308332920074462891 2.6812884807586669922 2.6340801715850830078 2.5890853404998779297 2.5461847782135009766 2.5052628517150878906 
6.1214265823364257812 6.6028203964233398438 7.2351841926574707031 8.0072174072265625 8.957424163818359375 10.125754356384277344 11.527846336364746094 13.247061729431152344 16.002042770385742188 19.070148468017578125 20.655321121215820312 27.090002059936523438 34.7651824951171875 101 101 101 101 34.7651824951171875 101 101 34.7651824951171875 33.85323333740234375 27.089916229248046875 34.7651824951171875 101 34.7651824951171875 101 101 101 101 34.7651824951171875 101 101 101 34.7651824951171875 27.089916229248046875 19.437488555908203125 16.001928329467773438 14.445093154907226562 13.078427314758300781 11.527846336364746094 10.125754356384277344 10.030900955200195312 10.932497024536132812 11.629929542541503906 11.898753166198730469 11.629929542541503906 10.932497024536132812 10.030900955200195312 10.125754356384277344 11.527846336364746094 13.247061729431152344 16.002042770385742188 19.070148468017578125 20.655321121215820312 19.070148468017578125 16.002042770385742188 13.247061729431152344 11.527846336364746094 10.125754356384277344 9.9132900238037109375 9.767498016357421875 9.6015729904174804688 11.154998779296875 13.247061729431152344 16.002042770385742188 19.070148468017578125 21.311738967895507812 34.7651824951171875 101 101 101 34.7651824951171875 34.7651824951171875 101 101 101 34.7651824951171875 101 101 34.7651824951171875 33.85323333740234375 34.7651824951171875 101 34.7651824951171875 27.089916229248046875 34.7651824951171875 101 101 101 101 101 34.7651824951171875 27.089916229248046875 19.437488555908203125 14.831770896911621094 11.97890472412109375 10.075328826904296875 8.7244062423706054688 7.7191877365112304688 6.94330596923828125 6.326892852783203125 5.8256525993347167969 5.4102177619934082031 5.0603795051574707031 4.7617897987365722656 4.5039887428283691406 4.2791728973388671875 4.0814065933227539062 3.9060938358306884766 3.7496230602264404297 3.6091163158416748047 3.4822521209716796875 3.367137908935546875 3.2622158527374267578 3.1661908626556396484 3.0779781341552734375 2.9992985725402832031 2.9350950717926025391 2.8741526603698730469 2.8163065910339355469 2.7613904476165771484 2.7092394828796386719 2.6596941947937011719 2.6126003265380859375 2.5678110122680664062 2.5270962715148925781 
6.5564670562744140625 6.9870553016662597656 7.5245695114135742188 8.4298601150512695312 9.6016359329223632812 11.155066490173339844 13.247129440307617188 16.002099990844726562 19.437709808349609375 27.090089797973632812 33.85323333740234375 34.765392303466796875 101 101 101 101 34.765392303466796875 101 101 34.765392303466796875 27.090002059936523438 20.655321121215820312 27.090089797973632812 34.765392303466796875 101 34.765392303466796875 101 101 101 34.765392303466796875 101 101 101 34.765392303466796875 27.090089797973632812 19.437709808349609375 19.0701751708984375 20.655321121215820312 19.0701751708984375 16.002099990844726562 13.247129440307617188 11.155066490173339844 11.527888298034667969 13.078455924987792969 14.445103645324707031 15.022253990173339844 14.445103645324707031 13.078455924987792969 11.527888298034667969 11.155066490173339844 13.247129440307617188 16.002099990844726562 19.437709808349609375 27.090089797973632812 33.85323333740234375 27.090089797973632812 19.437709808349609375 16.002099990844726562 13.247129440307617188 11.629934310913085938 11.898753166198730469 11.629934310913085938 10.932512283325195312 11.979076385498046875 14.831971168518066406 19.437709808349609375 27.090089797973632812 33.85323333740234375 34.765392303466796875 101 34.765392303466796875 33.85323333740234375 27.090089797973632812 34.765392303466796875 101 101 101 34.765392303466796875 101 34.765392303466796875 34.765392303466796875 101 34.765392303466796875 101 34.765392303466796875 27.090089797973632812 34.765392303466796875 101 101 101 101 101 34.765392303466796875 21.311891555786132812 16.001985549926757812 13.246993064880371094 11.154932022094726562 9.6015110015869140625 8.429744720458984375 7.5244646072387695312 6.8083200454711914062 6.2296552658081054688 5.753376007080078125 5.3550772666931152344 5.0173797607421875 4.7276248931884765625 4.4764018058776855469 4.2565827369689941406 4.0626783370971679688 3.8903975486755371094 3.7363393306732177734 3.5977756977081298828 3.4724943637847900391 3.3588311672210693359 3.2732586860656738281 3.1922752857208251953 3.1156945228576660156 3.0433061122894287109 2.9748868942260742188 2.91020965576171875 2.8490490913391113281 2.7911865711212158203 2.7364115715026855469 2.6845245361328125 2.636707305908203125 2.5946643352508544922 2.5542492866516113281 
7.0288920402526855469 7.5944905281066894531 8.2025890350341796875 8.957523345947265625 10.125850677490234375 11.979162216186523438 14.832070350646972656 19.4378204345703125 27.090175628662109375 34.76560211181640625 101 101 101 101 101 34.76560211181640625 101 101 34.76560211181640625 27.090089797973632812 19.4378204345703125 27.090175628662109375 34.76560211181640625 101 101 101 101 101 101 34.76560211181640625 101 101 34.76560211181640625 101 34.76560211181640625 21.312042236328125 27.090175628662109375 33.85323333740234375 27.090175628662109375 19.4378204345703125 14.832070350646972656 11.979162216186523438 13.247197151184082031 16.002157211303710938 19.070199966430664062 20.655321121215820312 19.070199966430664062 16.002157211303710938 13.247197151184082031 13.078485488891601562 14.832070350646972656 19.4378204345703125 27.090175628662109375 34.76560211181640625 101 34.76560211181640625 27.090175628662109375 19.4378204345703125 14.832070350646972656 14.445113182067871094 15.022253990173339844 14.445113182067871094 13.078485488891601562 12.304064750671386719 15.524788856506347656 21.312042236328125 34.76560211181640625 101 101 101 34.76560211181640625 21.312042236328125 34.76560211181640625 101 101 101 34.76560211181640625 101 101 34.76560211181640625 101 101 34.76560211181640625 101 34.76560211181640625 34.76560211181640625 101 101 34.76560211181640625 101 101 101 34.76560211181640625 21.312042236328125 15.524788856506347656 12.304064750671386719 10.252431869506835938 8.9573755264282226562 8.0071687698364257812 7.2351384162902832031 6.6027774810791015625 6.078968048095703125 5.6399054527282714844 5.2676520347595214844 4.9486804008483886719 4.6727089881896972656 4.4318432807922363281 4.2199497222900390625 4.0322089195251464844 3.8647899627685546875 3.7404642105102539062 3.6295895576477050781 3.5248897075653076172 3.4262139797210693359 3.3333296775817871094 3.2459545135498046875 3.1637806892395019531 3.0864903926849365234 3.0137667655944824219 2.9453022480010986328 2.8808019161224365234 2.8199875354766845703 2.7630817890167236328 2.7147209644317626953 2.6683335304260253906 2.623859405517578125 2.5812315940856933594 
7.5945181846618652344 8.2631044387817382812 9.10943603515625 10.030980110168457031 11.155200958251953125 13.247264862060546875 16.002214431762695312 21.31219482421875 34.765811920166015625 101 101 101 101 101 34.765811920166015625 34.765811920166015625 101 34.765811920166015625 27.090175628662109375 19.4378204345703125 21.31219482421875 34.765811920166015625 101 101 34.765811920166015625 101 34.765811920166015625 101 101 101 101 34.765811920166015625 101 101 34.765811920166015625 27.09026336669921875 34.765811920166015625 101 34.765811920166015625 21.31219482421875 15.524905204772949219 13.247264862060546875 16.002214431762695312 19.437932968139648438 27.09026336669921875 33.85323333740234375 27.09026336669921875 19.437932968139648438 16.002214431762695312 16.002214431762695312 19.070226669311523438 21.31219482421875 34.765811920166015625 101 101 101 34.765811920166015625 21.31219482421875 16.002214431762695312 19.070226669311523438 20.655321121215820312 19.070226669311523438 16.002214431762695312 13.247264862060546875 15.524905204772949219 21.31219482421875 34.765811920166015625 101 34.765811920166015625 33.85323333740234375 27.090175628662109375 21.31219482421875 34.765811920166015625 101 101 101 34.765811920166015625 101 34.765811920166015625 101 101 34.765811920166015625 101 101 34.765811920166015625 34.765811920166015625 101 34.765811920166015625 34.765811920166015625 101 101 101 34.765811920166015625 21.31219482421875 15.524905204772949219 12.304158210754394531 10.252511024475097656 8.8311891555786132812 7.7883925437927246094 6.9906773567199707031 6.360729217529296875 5.8886499404907226562 5.4940671920776367188 5.1537628173828125 4.8582305908203125 4.5997915267944335938 4.4097223281860351562 4.2552309036254882812 4.1081957817077636719 3.9691758155822753906 3.8383378982543945312 3.7155809402465820312 3.6006314754486083984 3.4931120872497558594 3.3925888538360595703 3.2986044883728027344 3.2106995582580566406 3.1284279823303222656 3.0513632297515869141 2.9791049957275390625 2.9112799167633056641 2.8541364669799804688 2.8003659248352050781 2.7489435672760009766 2.6997873783111572266 2.6528074741363525391 2.6122801303863525391 
8.263141632080078125 9.1094694137573242188 10.125946998596191406 11.52801513671875 13.078542709350585938 14.832269668579101562 19.438043594360351562 27.090349197387695312 34.766021728515625 101 101 101 101 34.766021728515625 27.090349197387695312 34.766021728515625 101 34.766021728515625 21.312345504760742188 16.002271652221679688 21.312345504760742188 34.766021728515625 101 34.766021728515625 34.766021728515625 101 34.766021728515625 34.766021728515625 101 101 34.766021728515625 34.766021728515625 101 34.766021728515625 27.090349197387695312 34.766021728515625 101 101 34.766021728515625 21.312345504760742188 15.525021553039550781 14.832269668579101562 19.438043594360351562 27.090349197387695312 34.766021728515625 101 34.766021728515625 27.090349197387695312 19.438043594360351562 19.438043594360351562 27.090349197387695312 33.85323333740234375 34.766021728515625 101 101 101 34.766021728515625 21.312345504760742188 19.438043594360351562 27.090349197387695312 33.85323333740234375 27.090349197387695312 19.438043594360351562 14.832269668579101562 16.002271652221679688 21.312345504760742188 34.766021728515625 101 34.766021728515625 21.312345504760742188 19.070199966430664062 21.312345504760742188 34.766021728515625 101 101 34.766021728515625 101 101 34.766021728515625 101 34.766021728515625 101 101 34.766021728515625 27.090349197387695312 34.766021728515625 101 34.766021728515625 101 101 101 34.766021728515625 27.09026336669921875 19.437932968139648438 14.832170486450195312 11.979248046875 10.075625419616699219 8.724666595458984375 7.719417572021484375 6.9435124397277832031 6.3270792961120605469 5.8258233070373535156 5.4103746414184570312 5.1746850013732910156 4.9716668128967285156 4.7742891311645507812 4.5854525566101074219 4.4068059921264648438 4.2390995025634765625 4.0824723243713378906 3.9366693496704101562 3.8011987209320068359 3.6754386425018310547 3.5587103366851806641 3.4503228664398193359 3.3496034145355224609 3.2559123039245605469 3.1686525344848632812 3.08727264404296875 3.0179431438446044922 2.9549045562744140625 2.8947873115539550781 2.837490081787109375 2.7828989028930664062 2.7329633235931396484 2.6888723373413085938 2.6462533473968505859 
8.9576711654663085938 10.125995635986328125 11.528058052062988281 13.247401237487792969 16.002328872680664062 19.070278167724609375 21.312498092651367188 34.766231536865234375 101 101 101 101 101 34.766231536865234375 34.766231536865234375 101 101 34.766231536865234375 21.312498092651367188 19.438154220581054688 27.090436935424804688 34.766231536865234375 101 34.766231536865234375 27.090436935424804688 33.85323333740234375 27.090436935424804688 34.766231536865234375 101 101 34.766231536865234375 34.766231536865234375 101 34.766231536865234375 34.766231536865234375 101 34.766231536865234375 101 34.766231536865234375 21.312498092651367188 15.525137901306152344 16.002328872680664062 21.312498092651367188 34.766231536865234375 101 101 101 34.766231536865234375 21.312498092651367188 21.312498092651367188 34.766231536865234375 101 101 101 101 34.766231536865234375 27.090349197387695312 20.655321121215820312 21.312498092651367188 34.766231536865234375 101 34.766231536865234375 21.312498092651367188 19.070278167724609375 20.655321121215820312 27.090436935424804688 34.766231536865234375 101 34.766231536865234375 21.312498092651367188 15.525137901306152344 21.312498092651367188 34.766231536865234375 101 101 34.766231536865234375 101 101 101 101 34.766231536865234375 101 34.766231536865234375 101 34.766231536865234375 34.766231536865234375 101 34.766231536865234375 101 101 101 34.766231536865234375 21.312498092651367188 16.002214431762695312 13.247264862060546875 11.155200958251953125 9.6017618179321289062 8.4299755096435546875 7.5246744155883789062 6.8085122108459472656 6.229831695556640625 5.9834408760070800781 5.7290863990783691406 5.4740686416625976562 5.2261462211608886719 4.9901003837585449219 4.7684841156005859375 4.5623111724853515625 4.3716073036193847656 4.1958022117614746094 4.0340032577514648438 3.885166168212890625 3.7482056617736816406 3.6220586299896240234 3.5057201385498046875 3.3982598781585693359 3.2988293170928955078 3.2130529880523681641 3.1381754875183105469 3.0669867992401123047 2.9993634223937988281 2.9351596832275390625 2.8742167949676513672 2.8219368457794189453 2.7730402946472167969 2.7258853912353515625 2.6804625988006591797 
9.6019506454467773438 11.15540313720703125 13.247468948364257812 16.002386093139648438 19.438264846801757812 27.09052276611328125 33.85323333740234375 34.76644134521484375 101 34.76644134521484375 101 101 34.76644134521484375 33.85323333740234375 34.76644134521484375 101 34.76644134521484375 27.090436935424804688 19.438154220581054688 21.312650680541992188 34.76644134521484375 101 101 34.76644134521484375 34.76644134521484375 101 34.76644134521484375 34.76644134521484375 101 101 34.76644134521484375 34.76644134521484375 101 34.76644134521484375 101 101 101 101 34.76644134521484375 21.312650680541992188 20.655321121215820312 19.438264846801757812 27.09052276611328125 34.76644134521484375 101 101 101 34.76644134521484375 21.312650680541992188 21.312650680541992188 34.76644134521484375 101 101 101 101 34.76644134521484375 33.85323333740234375 33.85323333740234375 27.09052276611328125 34.76644134521484375 101 34.76644134521484375 27.09052276611328125 27.09052276611328125 33.85323333740234375 34.76644134521484375 101 34.76644134521484375 27.090436935424804688 19.438154220581054688 15.525254249572753906 21.312650680541992188 34.76644134521484375 101 101 34.76644134521484375 101 101 34.76644134521484375 34.76644134521484375 101 101 34.76644134521484375 101 101 101 101 101 101 101 101 34.76644134521484375 21.312650680541992188 15.525254249572753906 12.304440498352050781 10.25274658203125 8.95757293701171875 8.0073614120483398438 7.3151397705078125 7.0717434883117675781 6.7746791839599609375 6.4509005546569824219 6.1215372085571289062 5.800907135009765625 5.4974641799926757812 5.2153801918029785156 4.956020355224609375 4.7190704345703125 4.5033020973205566406 4.3070569038391113281 4.1285352706909179688 3.9659578800201416016 3.8176515102386474609 3.6820852756500244141 3.5578839778900146484 3.4492061138153076172 3.3589012622833251953 3.2733290195465087891 3.1923453807830810547 3.1157643795013427734 3.0433754920959472656 2.9770781993865966797 2.9204797744750976562 2.8659548759460449219 2.8135092258453369141 2.7631244659423828125 2.714763641357421875 
10.075922012329101562 11.97959136962890625 14.832569122314453125 19.438375473022460938 27.090610504150390625 34.766651153564453125 101 101 101 101 101 34.766651153564453125 34.766651153564453125 101 34.766651153564453125 101 34.766651153564453125 21.312801361083984375 19.438375473022460938 27.090610504150390625 34.766651153564453125 101 34.766651153564453125 27.09052276611328125 34.766651153564453125 101 34.766651153564453125 101 101 101 34.766651153564453125 34.766651153564453125 101 101 101 101 101 101 34.766651153564453125 27.090610504150390625 33.85323333740234375 27.090610504150390625 34.766651153564453125 101 101 101 101 34.766651153564453125 21.312801361083984375 21.312801361083984375 34.766651153564453125 101 101 101 34.766651153564453125 34.766651153564453125 101 101 34.766651153564453125 34.766651153564453125 101 101 34.766651153564453125 34.766651153564453125 101 101 34.766651153564453125 27.09052276611328125 19.438264846801757812 16.002328872680664062 16.002445220947265625 21.312801361083984375 34.766651153564453125 101 101 101 101 34.766651153564453125 34.766651153564453125 101 101 34.766651153564453125 34.766651153564453125 101 34.766651153564453125 101 101 101 34.766651153564453125 34.766651153564453125 101 34.766651153564453125 21.312801361083984375 15.525371551513671875 12.304534912109375 10.252825736999511719 8.9577703475952148438 8.4521665573120117188 8.2070932388305664062 7.8484935760498046875 7.4275159835815429688 6.987178802490234375 6.5566086769104003906 6.1521964073181152344 5.7812547683715820312 5.4455413818359375 5.1438007354736328125 4.8733601570129394531 4.6310377120971679688 4.4136252403259277344 4.218120574951171875 4.041820526123046875 3.8823447227478027344 3.7405390739440917969 3.629665374755859375 3.5249660015106201172 3.4262902736663818359 3.3334057331085205078 3.2460300922393798828 3.1638555526733398438 3.09389495849609375 3.0302114486694335938 2.9690380096435546875 2.9103724956512451172 2.8541820049285888672 2.800411224365234375 2.7489888668060302734 
10.252903938293457031 12.304629325866699219 15.525487899780273438 21.312953948974609375 34.7668609619140625 101 101 34.7668609619140625 101 101 34.7668609619140625 34.7668609619140625 101 34.7668609619140625 34.7668609619140625 101 34.7668609619140625 21.312953948974609375 21.312953948974609375 34.7668609619140625 101 101 34.7668609619140625 27.090696334838867188 34.7668609619140625 101 101 101 34.7668609619140625 101 34.7668609619140625 34.7668609619140625 101 101 101 101 34.7668609619140625 101 34.7668609619140625 34.7668609619140625 101 34.7668609619140625 34.7668609619140625 101 34.7668609619140625 34.7668609619140625 101 34.7668609619140625 27.090696334838867188 33.85323333740234375 34.7668609619140625 101 101 101 34.7668609619140625 101 101 34.7668609619140625 27.090610504150390625 34.7668609619140625 101 101 101 101 101 34.7668609619140625 27.090610504150390625 19.438375473022460938 16.002386093139648438 16.00250244140625 19.438486099243164062 27.090696334838867188 34.7668609619140625 101 34.7668609619140625 101 101 34.7668609619140625 101 101 34.7668609619140625 34.7668609619140625 101 101 34.7668609619140625 101 101 34.7668609619140625 27.090610504150390625 27.090610504150390625 33.85323333740234375 27.090610504150390625 19.438375473022460938 16.00250244140625 13.247605323791503906 11.155537605285644531 9.9132900238037109375 9.7675189971923828125 9.370807647705078125 8.8172321319580078125 8.202728271484375 7.5946564674377441406 7.0290737152099609375 6.5200781822204589844 6.0695052146911621094 5.6734418869018554688 5.3258457183837890625 5.0203304290771484375 4.7509417533874511719 4.5124373435974121094 4.3003292083740234375 4.1108269691467285156 3.9692580699920654297 3.8384211063385009766 3.7156643867492675781 3.6007149219512939453 3.4931950569152832031 3.3926711082458496094 3.3005268573760986328 3.2253122329711914062 3.1531357765197753906 3.0840342044830322266 3.0179915428161621094 2.9549529552459716797 2.8948357105255126953 2.8375384807586669922 2.7894012928009033203 
10.25298309326171875 12.304722785949707031 15.525604248046875 21.313106536865234375 34.767070770263671875 101 101 101 101 34.767070770263671875 33.85323333740234375 34.767070770263671875 101 34.767070770263671875 34.767070770263671875 101 34.767070770263671875 21.313106536865234375 21.313106536865234375 34.767070770263671875 101 101 34.767070770263671875 34.767070770263671875 101 101 34.767070770263671875 101 101 101 34.767070770263671875 34.767070770263671875 101 101 101 34.767070770263671875 34.767070770263671875 101 101 101 101 101 34.767070770263671875 101 34.767070770263671875 34.767070770263671875 101 34.767070770263671875 34.767070770263671875 101 101 101 101 101 101 101 34.767070770263671875 27.090696334838867188 21.313106536865234375 34.767070770263671875 101 101 101 34.767070770263671875 33.85323333740234375 27.090696334838867188 19.438486099243164062 16.002445220947265625 16.002559661865234375 19.4385986328125 27.09078216552734375 34.767070770263671875 101 101 34.767070770263671875 101 34.767070770263671875 34.767070770263671875 101 34.767070770263671875 27.090696334838867188 34.767070770263671875 101 101 34.767070770263671875 34.767070770263671875 101 34.767070770263671875 21.313106536865234375 20.655321121215820312 27.09078216552734375 33.85323333740234375 27.09078216552734375 19.4385986328125 14.832768440246582031 11.979763031005859375 11.898753166198730469 11.629973411560058594 10.932638168334960938 10.031137466430664062 9.1096372604370117188 8.2633275985717773438 7.5233521461486816406 6.8894014358520507812 6.3494739532470703125 5.8890089988708496094 5.4944100379943847656 5.1540894508361816406 4.8585414886474609375 4.6000866889953613281 4.4068951606750488281 4.2391910552978515625 4.0825643539428710938 3.9367618560791015625 3.8012907505035400391 3.6755297183990478516 3.5587999820709228516 3.4604938030242919922 3.3742330074310302734 3.2917599678039550781 3.2131047248840332031 3.1382274627685546875 3.0670390129089355469 2.9994153976440429688 2.935211181640625 2.8742680549621582031 2.8550052642822265625 
11.155672073364257812 13.24774169921875 16.00261688232421875 21.313257217407226562 34.76728057861328125 101 101 101 34.76728057861328125 34.76728057861328125 101 101 101 34.76728057861328125 34.76728057861328125 101 34.76728057861328125 21.313257217407226562 27.090869903564453125 34.76728057861328125 101 34.76728057861328125 27.09078216552734375 34.76728057861328125 101 101 34.76728057861328125 101 101 34.76728057861328125 27.090869903564453125 34.76728057861328125 101 101 34.76728057861328125 34.76728057861328125 101 101 34.76728057861328125 101 34.76728057861328125 101 34.76728057861328125 101 34.76728057861328125 101 101 34.76728057861328125 34.76728057861328125 101 34.76728057861328125 101 101 34.76728057861328125 101 101 34.76728057861328125 27.090869903564453125 33.85323333740234375 34.76728057861328125 101 101 34.76728057861328125 27.09078216552734375 20.655321121215820312 19.070356369018554688 16.00250244140625 14.832868576049804688 19.438709259033203125 27.090869903564453125 34.76728057861328125 101 101 34.76728057861328125 101 101 34.76728057861328125 34.76728057861328125 101 34.76728057861328125 21.313257217407226562 27.09078216552734375 34.76728057861328125 101 101 34.76728057861328125 101 34.76728057861328125 27.090869903564453125 33.85323333740234375 34.76728057861328125 101 34.76728057861328125 21.313257217407226562 15.525720596313476562 15.022253990173339844 15.022253990173339844 14.445195198059082031 13.078717231750488281 11.528269767761230469 10.126236915588378906 8.9579181671142578125 8.00769805908203125 7.2356414794921875 6.6032509803771972656 6.0794119834899902344 5.6403212547302246094 5.2680420875549316406 4.9901971817016601562 4.7685842514038085938 4.5624136924743652344 4.3717103004455566406 4.1959052085876464844 4.0341053009033203125 3.8852667808532714844 3.7488696575164794922 3.6442964076995849609 3.5443789958953857422 3.4492616653442382812 3.3589572906494140625 3.2733852863311767578 3.1924016475677490234 3.1158201694488525391 3.0434310436248779297 2.9750106334686279297 2.9438655376434326172 2.9254057407379150391 
11.9799346923828125 14.832968711853027344 19.43881988525390625 27.090955734252929688 34.767490386962890625 101 101 34.767490386962890625 34.767490386962890625 101 101 34.767490386962890625 33.85323333740234375 27.090955734252929688 34.767490386962890625 101 34.767490386962890625 21.313409805297851562 34.767490386962890625 101 101 34.767490386962890625 21.313409805297851562 34.767490386962890625 101 101 101 101 34.767490386962890625 27.090955734252929688 34.767490386962890625 101 101 101 34.767490386962890625 101 101 101 101 101 34.767490386962890625 101 101 101 101 101 34.767490386962890625 27.090869903564453125 34.767490386962890625 101 34.767490386962890625 101 34.767490386962890625 101 101 101 34.767490386962890625 34.767490386962890625 101 101 101 34.767490386962890625 27.090869903564453125 19.438709259033203125 16.002559661865234375 14.445174217224121094 13.0786590576171875 15.525836944580078125 21.313409805297851562 34.767490386962890625 101 101 34.767490386962890625 101 101 101 34.767490386962890625 34.767490386962890625 101 34.767490386962890625 21.313409805297851562 19.438709259033203125 27.090869903564453125 33.85323333740234375 33.85323333740234375 27.090869903564453125 33.85323333740234375 33.85323333740234375 34.767490386962890625 101 101 101 34.767490386962890625 21.313409805297851562 19.0704345703125 20.655321121215820312 20.655321121215820312 19.0704345703125 16.002674102783203125 13.247809410095214844 11.155739784240722656 9.602264404296875 8.4304361343383789062 7.5250949859619140625 6.8088965415954589844 6.2301845550537109375 5.8010096549987792969 5.4975743293762207031 5.2154946327209472656 4.9561367034912109375 4.7191872596740722656 4.50341796875 4.307170867919921875 4.1286468505859375 3.9807782173156738281 3.8576700687408447266 3.7405989170074462891 3.6297261714935302734 3.5250270366668701172 3.4263515472412109375 3.3334665298461914062 3.2460906505584716797 3.1639153957366943359 3.0866234302520751953 3.039974212646484375 3.0218863487243652344 3.00112152099609375 
13.247877120971679688 16.0027313232421875 21.31356048583984375 34.7677001953125 101 101 101 101 34.7677001953125 101 34.7677001953125 27.090955734252929688 21.31356048583984375 34.7677001953125 101 101 34.7677001953125 27.091043472290039062 34.7677001953125 101 34.7677001953125 27.090955734252929688 21.31356048583984375 34.7677001953125 101 101 101 101 34.7677001953125 34.7677001953125 101 101 101 101 101 101 101 34.7677001953125 33.85323333740234375 33.85323333740234375 34.7677001953125 101 101 34.7677001953125 101 34.7677001953125 27.090955734252929688 21.31356048583984375 34.7677001953125 101 34.7677001953125 101 34.7677001953125 101 101 101 34.7677001953125 101 101 34.7677001953125 33.85323333740234375 27.090955734252929688 19.43881988525390625 16.00261688232421875 13.24774169921875 11.629967689514160156 13.247877120971679688 16.0027313232421875 21.31356048583984375 34.7677001953125 101 34.7677001953125 101 101 101 101 34.7677001953125 101 101 34.7677001953125 21.31356048583984375 16.00261688232421875 19.070407867431640625 20.655321121215820312 20.655321121215820312 21.31356048583984375 34.7677001953125 101 101 101 101 34.7677001953125 33.85323333740234375 33.85323333740234375 27.091043472290039062 33.85323333740234375 33.85323333740234375 27.091043472290039062 19.438930511474609375 14.833067893981933594 11.980020523071289062 10.076292991638183594 8.725250244140625 7.7199354171752929688 6.98728179931640625 6.5567269325256347656 6.1523241996765136719 5.7813878059387207031 5.4456758499145507812 5.1439347267150878906 4.8734922409057617188 4.6311669349670410156 4.4137511253356933594 4.25537109375 4.1083407402038574219 3.9693241119384765625 3.8384878635406494141 3.7157313823699951172 3.6007819175720214844 3.4932615756988525391 3.3927366733551025391 3.2987504005432128906 3.2108433246612548828 3.1439127922058105469 3.1266942024230957031 3.1062059402465820312 3.082744598388671875 
16.002788543701171875 19.4390411376953125 27.091129302978515625 34.767910003662109375 101 34.767910003662109375 101 101 34.767910003662109375 101 34.767910003662109375 21.31371307373046875 27.091129302978515625 34.767910003662109375 101 34.767910003662109375 27.091129302978515625 34.767910003662109375 101 101 34.767910003662109375 21.31371307373046875 21.31371307373046875 34.767910003662109375 101 101 101 101 34.767910003662109375 34.767910003662109375 101 101 101 101 101 101 34.767910003662109375 27.091043472290039062 20.655321121215820312 21.31371307373046875 34.767910003662109375 101 101 101 101 34.767910003662109375 21.31371307373046875 21.31371307373046875 34.767910003662109375 101 101 101 101 101 101 34.767910003662109375 34.767910003662109375 101 34.767910003662109375 27.091043472290039062 20.655321121215820312 19.0704345703125 16.002674102783203125 13.247809410095214844 11.528269767761230469 11.980106353759765625 14.83316802978515625 19.4390411376953125 27.091129302978515625 34.767910003662109375 101 101 101 34.767910003662109375 101 34.767910003662109375 101 101 34.767910003662109375 27.091043472290039062 19.438930511474609375 14.833067893981933594 14.445195198059082031 15.022253990173339844 19.4390411376953125 27.091129302978515625 34.767910003662109375 101 34.767910003662109375 101 101 101 101 101 34.767910003662109375 101 101 34.767910003662109375 21.31371307373046875 15.526070594787597656 12.3050994873046875 10.253298759460449219 8.8318662643432617188 8.2028446197509765625 7.59479522705078125 7.0292253494262695312 6.5202355384826660156 6.06966400146484375 5.6735982894897460938 5.3259987831115722656 5.0204782485961914062 4.7744364738464355469 4.5856080055236816406 4.4069666862487792969 4.2392640113830566406 4.0826382637023925781 3.9368357658386230469 3.8013641834259033203 3.6756024360656738281 3.5588717460632324219 3.4504818916320800781 3.3497593402862548828 3.256214141845703125 3.2405614852905273438 3.2209105491638183594 3.1975858211517333984 3.1709520816802978516 
19.439153671264648438 27.091217041015625 34.76811981201171875 101 101 34.76811981201171875 101 34.76811981201171875 101 101 34.76811981201171875 27.091217041015625 34.76811981201171875 101 101 34.76811981201171875 34.76811981201171875 101 101 34.76811981201171875 27.091129302978515625 19.439153671264648438 27.091217041015625 34.76811981201171875 101 101 101 34.76811981201171875 27.091217041015625 34.76811981201171875 101 101 101 101 101 34.76811981201171875 27.091129302978515625 19.4390411376953125 19.439153671264648438 27.091217041015625 34.76811981201171875 101 101 101 34.76811981201171875 27.091129302978515625 19.4390411376953125 19.4390411376953125 27.091129302978515625 34.76811981201171875 101 34.76811981201171875 101 101 101 34.76811981201171875 101 101 34.76811981201171875 21.31386566162109375 16.0027313232421875 14.445204734802246094 13.078745841979980469 11.528311729431152344 10.253376960754394531 12.305193901062011719 15.526186943054199219 21.31386566162109375 34.76811981201171875 101 101 101 34.76811981201171875 34.76811981201171875 101 101 101 34.76811981201171875 27.091129302978515625 19.4390411376953125 16.0027313232421875 14.445235252380371094 15.022253990173339844 15.526186943054199219 21.31386566162109375 34.76811981201171875 101 101 101 101 101 101 34.76811981201171875 101 101 101 34.76811981201171875 27.091129302978515625 19.4390411376953125 14.83316802978515625 11.980106353759765625 10.932717323303222656 10.031269073486328125 9.1098051071166992188 8.2635145187377929688 7.5235452651977539062 6.8895931243896484375 6.3496608734130859375 5.8891887664794921875 5.4976406097412109375 5.2263102531433105469 4.9902749061584472656 4.7686648368835449219 4.5624957084655761719 4.3717927932739257812 4.195987701416015625 4.0341868400573730469 3.8853471279144287109 3.7483832836151123047 3.6222326755523681641 3.5058901309967041016 3.3984255790710449219 3.3641748428344726562 3.3461649417877197266 3.3236074447631835938 3.2969079017639160156 3.2665185928344726562 
21.31401824951171875 34.768329620361328125 101 101 34.768329620361328125 101 101 34.768329620361328125 101 34.768329620361328125 27.091217041015625 34.768329620361328125 101 101 34.768329620361328125 27.091217041015625 34.768329620361328125 101 34.768329620361328125 33.85323333740234375 27.091304779052734375 21.31401824951171875 34.768329620361328125 101 101 101 101 34.768329620361328125 34.768329620361328125 101 101 101 101 101 101 34.768329620361328125 21.31401824951171875 19.439264297485351562 27.091304779052734375 34.768329620361328125 101 101 34.768329620361328125 101 34.768329620361328125 21.31401824951171875 19.439264297485351562 27.091304779052734375 33.85323333740234375 34.768329620361328125 101 34.768329620361328125 101 101 34.768329620361328125 101 101 34.768329620361328125 27.091217041015625 19.439153671264648438 14.833268165588378906 11.980192184448242188 10.932669639587402344 10.031190872192382812 11.156009674072265625 13.248081207275390625 16.002902984619140625 21.31401824951171875 34.768329620361328125 101 101 34.768329620361328125 34.768329620361328125 101 101 101 34.768329620361328125 27.091217041015625 19.439153671264648438 16.002788543701171875 16.002902984619140625 19.070537567138671875 20.655321121215820312 19.070537567138671875 21.31401824951171875 34.768329620361328125 101 101 101 101 101 101 101 101 34.768329620361328125 33.85323333740234375 33.85323333740234375 27.091304779052734375 19.439264297485351562 16.002902984619140625 14.445245742797851562 13.078861236572265625 11.528481483459472656 10.126479148864746094 8.9581661224365234375 8.007938385009765625 7.235870361328125 6.603466033935546875 6.1524004936218261719 5.8010921478271484375 5.4976625442504882812 5.2155861854553222656 4.95623016357421875 4.7192807197570800781 4.5035104751586914062 4.307262420654296875 4.1287364959716796875 3.9661545753479003906 3.8178431987762451172 3.6822717189788818359 3.5580646991729736328 3.4980919361114501953 3.4828596115112304688 3.4619987010955810547 3.4359407424926757812 3.4051971435546875 3.3703334331512451172 
27.091390609741210938 34.7685394287109375 101 34.7685394287109375 34.7685394287109375 101 101 101 101 34.7685394287109375 27.091390609741210938 34.7685394287109375 101 34.7685394287109375 27.091304779052734375 27.091390609741210938 34.7685394287109375 101 101 101 34.7685394287109375 21.314168930053710938 34.7685394287109375 101 34.7685394287109375 101 101 34.7685394287109375 34.7685394287109375 101 101 34.7685394287109375 33.85323333740234375 33.85323333740234375 33.85323333740234375 27.091304779052734375 19.439264297485351562 21.314168930053710938 34.7685394287109375 101 101 34.7685394287109375 34.7685394287109375 101 34.7685394287109375 21.314168930053710938 27.091390609741210938 34.7685394287109375 101 34.7685394287109375 101 34.7685394287109375 101 101 101 101 34.7685394287109375 27.091304779052734375 19.439264297485351562 16.00284576416015625 13.248013496398925781 11.155941963195800781 9.6024532318115234375 10.076589584350585938 11.980364799499511719 14.833467483520507812 19.439374923706054688 27.091390609741210938 34.7685394287109375 101 34.7685394287109375 27.091390609741210938 34.7685394287109375 101 101 101 34.7685394287109375 21.314168930053710938 16.00284576416015625 14.833467483520507812 19.439374923706054688 27.091390609741210938 33.85323333740234375 27.091390609741210938 33.85323333740234375 34.7685394287109375 101 101 101 34.7685394287109375 33.85323333740234375 33.85323333740234375 34.7685394287109375 101 101 101 101 34.7685394287109375 27.091390609741210938 20.655321121215820312 19.07056427001953125 16.002960205078125 13.248149871826171875 11.156076431274414062 9.6025791168212890625 8.4307241439819335938 7.5948781967163085938 7.0293164253234863281 6.5568213462829589844 6.1524262428283691406 5.7814936637878417969 5.4457836151123046875 5.1440420150756835938 4.8735980987548828125 4.6312704086303710938 4.4138517379760742188 4.2183399200439453125 4.0420331954956054688 3.8825500011444091797 3.7378184795379638672 3.6426110267639160156 3.6317431926727294922 3.6139268875122070312 3.5895864963531494141 3.559276580810546875 3.5236494541168212891 3.4834187030792236328 
34.768749237060546875 101 101 34.768749237060546875 34.768749237060546875 101 34.768749237060546875 101 34.768749237060546875 27.091390609741210938 34.768749237060546875 101 101 34.768749237060546875 27.091478347778320312 34.768749237060546875 101 101 101 34.768749237060546875 27.091390609741210938 27.091478347778320312 34.768749237060546875 101 101 101 101 34.768749237060546875 34.768749237060546875 101 34.768749237060546875 27.091478347778320312 20.655321121215820312 20.655321121215820312 20.655321121215820312 19.070590972900390625 20.655321121215820312 21.314321517944335938 34.768749237060546875 101 34.768749237060546875 34.768749237060546875 101 101 34.768749237060546875 21.314321517944335938 34.768749237060546875 101 101 34.768749237060546875 101 34.768749237060546875 34.768749237060546875 101 101 34.768749237060546875 27.091390609741210938 19.439374923706054688 16.002902984619140625 13.248081207275390625 11.528439521789550781 10.126430511474609375 8.9581165313720703125 10.253613471984863281 12.305476188659667969 15.526536941528320312 21.314321517944335938 34.768749237060546875 101 101 34.768749237060546875 34.768749237060546875 101 101 101 34.768749237060546875 27.091390609741210938 19.439374923706054688 14.833467483520507812 15.526536941528320312 21.314321517944335938 34.768749237060546875 101 34.768749237060546875 101 101 101 101 101 34.768749237060546875 21.314321517944335938 21.314321517944335938 34.768749237060546875 101 101 34.768749237060546875 101 101 34.768749237060546875 33.85323333740234375 27.091478347778320312 19.439485549926757812 14.833567619323730469 11.980450630187988281 10.076663970947265625 9.109905242919921875 8.2636260986328125 7.5949063301086425781 7.0293469429016113281 6.5203619003295898438 6.0697908401489257812 5.6737236976623535156 5.3261208534240722656 5.0205965042114257812 4.7511982917785644531 4.5126843452453613281 4.3005661964416503906 4.1110544204711914062 3.9409689903259277344 3.7975718975067138672 3.7932500839233398438 3.7804055213928222656 3.7593898773193359375 3.7307598590850830078 3.6952381134033203125 3.6536648273468017578 3.6069488525390625 
101 101 34.76895904541015625 34.76895904541015625 101 34.76895904541015625 34.76895904541015625 101 34.76895904541015625 21.314474105834960938 34.76895904541015625 101 34.76895904541015625 27.091478347778320312 34.76895904541015625 101 101 34.76895904541015625 101 34.76895904541015625 21.314474105834960938 34.76895904541015625 101 101 101 101 101 34.76895904541015625 101 101 101 34.76895904541015625 21.314474105834960938 16.003076553344726562 19.43959808349609375 27.091564178466796875 33.85323333740234375 27.091564178466796875 34.76895904541015625 101 34.76895904541015625 34.76895904541015625 101 34.76895904541015625 27.091478347778320312 27.091564178466796875 34.76895904541015625 101 34.76895904541015625 34.76895904541015625 101 101 101 101 34.76895904541015625 27.091478347778320312 19.439485549926757812 16.002960205078125 13.248149871826171875 11.528481483459472656 10.126479148864746094 9.1098051071166992188 8.9583139419555664062 10.253692626953125 12.305570602416992188 15.526653289794921875 21.314474105834960938 34.76895904541015625 101 34.76895904541015625 34.76895904541015625 101 101 101 34.76895904541015625 27.091478347778320312 19.439485549926757812 16.002960205078125 13.248149871826171875 15.526653289794921875 21.314474105834960938 34.76895904541015625 101 101 34.76895904541015625 101 101 34.76895904541015625 33.85323333740234375 33.85323333740234375 27.091564178466796875 33.85323333740234375 27.091564178466796875 34.76895904541015625 101 101 101 34.76895904541015625 34.76895904541015625 101 34.76895904541015625 21.314474105834960938 15.526653289794921875 13.078948974609375 11.528609275817871094 10.126624107360839844 9.1099386215209960938 8.26366424560546875 7.5236997604370117188 6.8897471427917480469 6.3498101234436035156 5.8893327713012695312 5.4947190284729003906 5.1543836593627929688 4.8588209152221679688 4.6003527641296386719 4.3728046417236328125 4.1712045669555664062 3.9915339946746826172 3.96723175048828125 3.9620678424835205078 3.9467380046844482422 3.9217138290405273438 3.887737274169921875 3.8457624912261962891 3.7968852519989013672 3.7422730922698974609 
101 34.769168853759765625 34.769168853759765625 101 101 34.769168853759765625 34.769168853759765625 101 34.769168853759765625 21.314624786376953125 34.769168853759765625 101 34.769168853759765625 27.09165191650390625 34.769168853759765625 101 34.769168853759765625 101 101 34.769168853759765625 21.314624786376953125 34.769168853759765625 101 101 101 101 101 101 101 101 101 34.769168853759765625 21.314624786376953125 19.439708709716796875 27.09165191650390625 34.769168853759765625 101 34.769168853759765625 34.769168853759765625 101 34.769168853759765625 101 101 34.769168853759765625 21.314624786376953125 34.769168853759765625 101 101 34.769168853759765625 34.769168853759765625 101 101 34.769168853759765625 33.85323333740234375 27.091564178466796875 19.43959808349609375 16.003017425537109375 13.248217582702636719 11.528524398803710938 10.126526832580566406 9.1098384857177734375 8.430896759033203125 9.6027679443359375 11.156278610229492188 13.248353958129882812 16.003133773803710938 21.314624786376953125 34.769168853759765625 101 34.769168853759765625 34.769168853759765625 101 34.769168853759765625 101 34.769168853759765625 21.314624786376953125 16.003017425537109375 13.248217582702636719 13.248353958129882812 16.003133773803710938 21.314624786376953125 34.769168853759765625 101 34.769168853759765625 27.091564178466796875 34.769168853759765625 101 101 34.769168853759765625 101 34.769168853759765625 101 34.769168853759765625 101 101 101 34.769168853759765625 33.85323333740234375 34.769168853759765625 101 34.769168853759765625 21.314624786376953125 19.070642471313476562 16.003133773803710938 13.248353958129882812 11.528651237487792969 10.126672744750976562 8.9583635330200195312 8.0081310272216796875 7.236053466796875 6.6036386489868164062 6.0797753334045410156 5.6406621932983398438 5.2683620452880859375 4.9493470191955566406 4.6733369827270507812 4.4324359893798828125 4.2205104827880859375 4.1525588035583496094 4.1587986946105957031 4.1525588035583496094 4.1340603828430175781 4.1039476394653320312 4.0632266998291015625 4.0131750106811523438 3.9552395343780517578 3.8909361362457275391 
33.85323333740234375 34.769382476806640625 101 101 34.769382476806640625 27.091737747192382812 34.769382476806640625 101 34.769382476806640625 21.314777374267578125 34.769382476806640625 101 34.769382476806640625 34.769382476806640625 101 101 101 101 34.769382476806640625 27.09165191650390625 21.314777374267578125 34.769382476806640625 101 101 101 101 101 101 101 101 34.769382476806640625 27.09165191650390625 19.439708709716796875 21.314777374267578125 34.769382476806640625 101 101 34.769382476806640625 34.769382476806640625 101 101 101 34.769382476806640625 33.85323333740234375 33.85323333740234375 34.769382476806640625 101 34.769382476806640625 34.769382476806640625 101 101 34.769382476806640625 27.09165191650390625 20.655321121215820312 19.070615768432617188 16.003076553344726562 13.248286247253417969 11.528566360473632812 10.126575469970703125 9.1098718643188476562 8.2635889053344726562 8.7257699966430664062 10.076887130737304688 11.980708122253417969 14.833868026733398438 19.4398193359375 27.091737747192382812 34.769382476806640625 101 34.769382476806640625 34.769382476806640625 101 101 101 34.769382476806640625 21.314777374267578125 15.526886940002441406 12.305758476257324219 14.833868026733398438 19.4398193359375 27.091737747192382812 34.769382476806640625 101 34.769382476806640625 27.091737747192382812 34.769382476806640625 101 101 101 101 101 101 101 101 101 34.769382476806640625 34.769382476806640625 101 101 101 34.769382476806640625 33.85323333740234375 27.091737747192382812 19.4398193359375 16.003190994262695312 13.248422622680664062 11.156346321105957031 9.6028308868408203125 8.4309549331665039062 7.5255689620971679688 6.8093295097351074219 6.2305822372436523438 5.7542309761047363281 5.3558697700500488281 5.0181174278259277344 4.7283143997192382812 4.4770488739013671875 4.3465704917907714844 4.369171142578125 4.37680816650390625 4.369171142578125 4.3465704917907714844 4.3099036216735839844 4.2605595588684082031 4.2002773284912109375 4.1309947967529296875 4.0546970367431640625 
34.76959228515625 101 101 34.76959228515625 27.091825485229492188 34.76959228515625 101 101 34.76959228515625 27.091825485229492188 34.76959228515625 101 34.76959228515625 101 34.76959228515625 101 101 34.76959228515625 27.091737747192382812 19.4398193359375 21.314929962158203125 34.76959228515625 101 34.76959228515625 101 101 101 101 101 34.76959228515625 27.091737747192382812 19.4398193359375 16.003133773803710938 21.314929962158203125 34.76959228515625 101 101 34.76959228515625 34.76959228515625 101 34.76959228515625 34.76959228515625 101 101 101 101 101 34.76959228515625 101 101 34.76959228515625 27.091737747192382812 19.4398193359375 16.003133773803710938 14.445276260375976562 13.078948974609375 11.528609275817871094 10.126624107360839844 9.109905242919921875 8.2636260986328125 7.7894616127014160156 8.832408905029296875 10.25392913818359375 12.305852890014648438 15.527003288269042969 21.314929962158203125 34.76959228515625 101 101 34.76959228515625 101 101 101 34.76959228515625 27.091737747192382812 19.4398193359375 14.833868026733398438 12.305852890014648438 15.527003288269042969 21.314929962158203125 34.76959228515625 101 101 34.76959228515625 34.76959228515625 101 101 34.76959228515625 33.85323333740234375 33.85323333740234375 34.76959228515625 101 101 34.76959228515625 101 101 101 101 101 34.76959228515625 34.76959228515625 101 34.76959228515625 27.091825485229492188 19.439929962158203125 14.833967208862304688 11.980793952941894531 10.076961517333984375 8.7258358001708984375 7.7204537391662597656 6.9444413185119628906 6.3279204368591308594 5.8265910148620605469 5.4110808372497558594 5.0611777305603027344 4.7914137840270996094 4.65735626220703125 4.5896506309509277344 4.6176571846008300781 4.6271409988403320312 4.6176571846008300781 4.5896506309509277344 4.5444016456604003906 4.4838671684265136719 4.4104590415954589844 4.3268065452575683594 4.2355365753173828125 
101 101 34.769802093505859375 27.091825485229492188 34.769802093505859375 101 101 34.769802093505859375 27.09191131591796875 34.769802093505859375 101 101 101 101 101 101 101 34.769802093505859375 21.315082550048828125 27.09191131591796875 33.85323333740234375 34.769802093505859375 101 34.769802093505859375 101 101 101 101 101 34.769802093505859375 21.315082550048828125 16.003190994262695312 16.003305435180664062 21.315082550048828125 34.769802093505859375 101 101 34.769802093505859375 34.769802093505859375 101 34.769802093505859375 101 101 34.769802093505859375 33.85323333740234375 33.85323333740234375 33.85323333740234375 34.769802093505859375 101 34.769802093505859375 27.091825485229492188 19.439929962158203125 16.003190994262695312 13.248422622680664062 11.630016326904296875 10.932780265808105469 10.031374931335449219 9.1099386215209960938 8.26366424560546875 7.5949063301086425781 7.7895212173461914062 8.8324766159057617188 10.254008293151855469 12.305947303771972656 15.527119636535644531 21.315082550048828125 34.769802093505859375 101 101 101 101 101 101 34.769802093505859375 21.315082550048828125 16.003190994262695312 13.248422622680664062 12.305947303771972656 15.527119636535644531 21.315082550048828125 34.769802093505859375 101 101 34.769802093505859375 101 101 34.769802093505859375 27.091825485229492188 20.655321121215820312 21.315082550048828125 34.769802093505859375 101 34.769802093505859375 33.85323333740234375 34.769802093505859375 101 101 101 101 34.769802093505859375 101 101 101 34.769802093505859375 21.315082550048828125 15.527119636535644531 12.305947303771972656 10.254008293151855469 8.8324766159057617188 7.7895212173461914062 6.9916815757751464844 6.3616337776184082031 5.8894762992858886719 5.4948568344116210938 5.2264561653137207031 5.0677533149719238281 4.9030766487121582031 4.8703093528747558594 4.9055843353271484375 4.9175615310668945312 4.9055843353271484375 4.8703093528747558594 4.8136110305786132812 4.7383127212524414062 4.6478247642517089844 4.5457668304443359375 4.43564605712890625 
101 34.77001190185546875 27.09191131591796875 27.091999053955078125 34.77001190185546875 101 34.77001190185546875 27.091999053955078125 34.77001190185546875 101 101 34.77001190185546875 101 34.77001190185546875 101 101 34.77001190185546875 27.09191131591796875 21.315233230590820312 34.77001190185546875 101 101 101 34.77001190185546875 34.77001190185546875 101 101 101 34.77001190185546875 27.09191131591796875 19.440042495727539062 16.003362655639648438 19.440153121948242188 27.091999053955078125 34.77001190185546875 101 34.77001190185546875 101 101 101 34.77001190185546875 101 34.77001190185546875 27.09191131591796875 20.655321121215820312 27.091999053955078125 34.77001190185546875 101 101 34.77001190185546875 21.315233230590820312 16.003248214721679688 13.248490333557128906 11.52869415283203125 10.126720428466796875 9.3709001541137695312 8.8173999786376953125 8.202960968017578125 7.5949339866638183594 7.029376983642578125 7.7205114364624023438 8.7259006500244140625 10.077035903930664062 11.9808807373046875 14.834067344665527344 19.440042495727539062 27.09191131591796875 34.77001190185546875 101 101 101 101 34.77001190185546875 27.09191131591796875 19.440042495727539062 14.834067344665527344 11.9808807373046875 11.9808807373046875 14.834067344665527344 19.440042495727539062 27.09191131591796875 34.77001190185546875 101 34.77001190185546875 101 34.77001190185546875 27.091999053955078125 19.440153121948242188 19.440153121948242188 27.091999053955078125 34.77001190185546875 101 34.77001190185546875 101 101 101 101 101 34.77001190185546875 101 101 101 101 34.77001190185546875 21.315233230590820312 15.5272369384765625 12.306041717529296875 10.254087448120117188 8.9585618972778320312 8.00832366943359375 7.2362370491027832031 6.6038112640380859375 6.1218504905700683594 5.8012566566467285156 5.5777258872985839844 5.3790273666381835938 5.197834014892578125 5.197834014892578125 5.2431111335754394531 5.2585368156433105469 5.2431111335754394531 5.197834014892578125 5.1255331039428710938 5.0303936004638671875 4.9173398017883300781 4.7914285659790039062 4.6573739051818847656 
101 34.770221710205078125 21.315385818481445312 34.770221710205078125 101 101 34.770221710205078125 34.770221710205078125 101 101 34.770221710205078125 34.770221710205078125 101 101 101 101 34.770221710205078125 21.315385818481445312 21.315385818481445312 34.770221710205078125 101 34.770221710205078125 33.85323333740234375 27.092084884643554688 34.770221710205078125 101 101 34.770221710205078125 27.091999053955078125 19.440153121948242188 16.003419876098632812 19.440263748168945312 27.092084884643554688 34.770221710205078125 101 101 101 101 34.770221710205078125 101 101 101 34.770221710205078125 21.315385818481445312 21.315385818481445312 34.770221710205078125 101 101 34.770221710205078125 27.091999053955078125 19.440153121948242188 14.83416748046875 11.980966567993164062 10.126769065856933594 9.1100063323974609375 8.2637386322021484375 7.8486166000366210938 7.4276967048645019531 6.9874057769775390625 6.8094258308410644531 7.5256738662719726562 8.4310703277587890625 9.6029567718505859375 11.156481742858886719 13.24855804443359375 16.003305435180664062 19.440153121948242188 27.091999053955078125 34.770221710205078125 101 101 34.770221710205078125 27.091999053955078125 19.440153121948242188 16.003305435180664062 13.24855804443359375 11.156481742858886719 11.156481742858886719 13.24855804443359375 16.003305435180664062 21.315385818481445312 34.770221710205078125 101 101 101 101 34.770221710205078125 21.315385818481445312 21.315385818481445312 34.770221710205078125 101 101 101 101 34.770221710205078125 34.770221710205078125 101 101 101 101 101 101 34.770221710205078125 27.091999053955078125 19.440153121948242188 16.003419876098632812 13.248694419860839844 11.1566162109375 9.6030826568603515625 8.4311857223510742188 7.5257792472839355469 6.987529754638671875 6.557010650634765625 6.2259998321533203125 5.9836645126342773438 5.7293610572814941406 5.5847706794738769531 5.5847706794738769531 5.644191741943359375 5.6645264625549316406 5.644191741943359375 5.5847706794738769531 5.49068450927734375 5.3683252334594726562 5.2249660491943359375 5.06777191162109375 4.9030985832214355469 
33.85323333740234375 27.092084884643554688 21.315538406372070312 34.7704315185546875 101 34.7704315185546875 34.7704315185546875 101 101 34.7704315185546875 34.7704315185546875 101 101 101 101 34.7704315185546875 27.092084884643554688 19.440263748168945312 21.315538406372070312 34.7704315185546875 101 34.7704315185546875 21.315538406372070312 34.7704315185546875 101 101 101 34.7704315185546875 21.315538406372070312 19.070798873901367188 20.655321121215820312 27.092172622680664062 34.7704315185546875 101 101 101 101 34.7704315185546875 101 101 34.7704315185546875 33.85323333740234375 27.092084884643554688 19.44037628173828125 27.092172622680664062 34.7704315185546875 101 34.7704315185546875 27.092084884643554688 19.440263748168945312 16.003362655639648438 13.248626708984375 11.156548500061035156 9.60301971435546875 8.4311275482177734375 7.5949892997741699219 7.0718364715576171875 6.7748208045959472656 6.4510860443115234375 6.6037678718566894531 7.2361912727355957031 8.0082759857177734375 8.9585123062133789062 10.126817703247070312 11.528779029846191406 13.248626708984375 16.003362655639648438 21.315538406372070312 34.7704315185546875 101 34.7704315185546875 27.092084884643554688 19.440263748168945312 16.003362655639648438 13.248626708984375 11.528779029846191406 10.126817703247070312 10.126817703247070312 11.981052398681640625 14.834267616271972656 19.440263748168945312 27.092084884643554688 34.7704315185546875 101 101 34.7704315185546875 27.092084884643554688 20.655321121215820312 27.092172622680664062 34.7704315185546875 101 101 101 101 34.7704315185546875 101 101 101 34.7704315185546875 101 101 34.7704315185546875 33.85323333740234375 33.85323333740234375 27.092172622680664062 19.44037628173828125 14.834367752075195312 11.981138229370117188 10.077259063720703125 8.8175182342529296875 8.2031240463256835938 7.5951280593872070312 7.0718908309936523438 6.7749037742614746094 6.4511942863464355469 6.1285195350646972656 6.0484480857849121094 6.0484480857849121094 6.1285195350646972656 6.1560845375061035156 6.1285195350646972656 6.0484480857849121094 5.923076629638671875 5.7625074386596679688 5.5777444839477539062 5.3790502548217773438 5.1749677658081054688 
20.655321121215820312 19.440486907958984375 27.092260360717773438 34.770641326904296875 101 34.770641326904296875 34.770641326904296875 101 34.770641326904296875 34.770641326904296875 101 101 101 101 101 34.770641326904296875 21.315690994262695312 19.440486907958984375 27.092260360717773438 34.770641326904296875 101 34.770641326904296875 21.315690994262695312 34.770641326904296875 101 101 101 34.770641326904296875 21.315690994262695312 27.092260360717773438 33.85323333740234375 34.770641326904296875 101 101 101 34.770641326904296875 33.85323333740234375 34.770641326904296875 101 34.770641326904296875 27.092172622680664062 20.655321121215820312 20.655321121215820312 27.092260360717773438 34.770641326904296875 101 101 34.770641326904296875 21.315690994262695312 16.003419876098632812 13.248694419860839844 11.528820991516113281 10.126866340637207031 8.9585618972778320312 8.00832366943359375 7.2362370491027832031 6.6038112640380859375 6.2259473800659179688 5.9835939407348632812 6.3499598503112792969 6.8899006843566894531 7.5238547325134277344 8.263813018798828125 9.110073089599609375 10.254323959350585938 12.306324005126953125 15.527586936950683594 21.315690994262695312 34.770641326904296875 101 34.770641326904296875 21.315690994262695312 16.003419876098632812 13.248694419860839844 11.528820991516113281 10.126866340637207031 9.110073089599609375 9.6030826568603515625 11.1566162109375 13.248694419860839844 16.003419876098632812 19.44037628173828125 27.092172622680664062 34.770641326904296875 101 34.770641326904296875 33.85323333740234375 33.85323333740234375 34.770641326904296875 101 101 101 101 101 101 101 101 101 101 101 34.770641326904296875 101 101 101 34.770641326904296875 21.315690994262695312 15.527586936950683594 12.306324005126953125 10.932906150817871094 10.031585693359375 9.1102075576782226562 8.2639627456665039062 7.8487067222595214844 7.4278278350830078125 6.9875707626342773438 6.7247843742370605469 6.6133856773376464844 6.6133856773376464844 6.7247843742370605469 6.7634487152099609375 6.7247843742370605469 6.6133856773376464844 6.4415979385375976562 6.226016998291015625 5.9836883544921875 5.7293896675109863281 5.4744176864624023438 
20.655321121215820312 27.09234619140625 34.77085113525390625 101 101 34.77085113525390625 101 34.77085113525390625 27.09234619140625 34.77085113525390625 101 101 101 101 101 34.77085113525390625 21.315843582153320312 21.315843582153320312 34.77085113525390625 101 101 34.77085113525390625 27.09234619140625 34.77085113525390625 101 101 34.77085113525390625 27.092260360717773438 27.09234619140625 34.77085113525390625 101 101 101 101 34.77085113525390625 27.092260360717773438 34.77085113525390625 101 101 34.77085113525390625 27.09234619140625 33.85323333740234375 33.85323333740234375 34.77085113525390625 101 101 34.77085113525390625 27.092260360717773438 19.440486907958984375 14.834467887878417969 11.981225013732910156 10.126914024353027344 9.110107421875 8.2638502120971679688 7.5238933563232421875 6.8899393081665039062 6.3499975204467773438 5.8895125389099121094 5.6738805770874023438 6.0699496269226074219 6.5205197334289550781 7.0294985771179199219 7.7898187637329101562 8.8328161239624023438 10.254403114318847656 12.306418418884277344 15.527703285217285156 21.315843582153320312 34.77085113525390625 101 34.77085113525390625 21.315843582153320312 15.527703285217285156 12.306418418884277344 10.254403114318847656 9.110107421875 8.26399993896484375 9.110240936279296875 10.1270599365234375 11.981310844421386719 14.834567070007324219 19.4405975341796875 27.09234619140625 34.77085113525390625 101 101 101 101 101 101 101 101 101 101 101 101 101 101 101 101 34.77085113525390625 101 34.77085113525390625 33.85323333740234375 27.09234619140625 19.4405975341796875 15.022253990173339844 14.445366859436035156 13.079209327697753906 11.528990745544433594 10.1270599365234375 9.370983123779296875 8.8175525665283203125 8.2031707763671875 7.5951838493347167969 7.4764070510864257812 7.3152213096618652344 7.3152213096618652344 7.4764070510864257812 7.5330090522766113281 7.4764070510864257812 7.3152213096618652344 7.0719065666198730469 6.7749271392822265625 6.45122528076171875 6.1219239234924316406 5.8013391494750976562 
33.85323333740234375 34.771060943603515625 101 101 34.771060943603515625 34.771060943603515625 101 34.771060943603515625 34.771060943603515625 101 101 101 101 101 34.771060943603515625 27.09234619140625 19.4405975341796875 21.3159942626953125 34.771060943603515625 101 34.771060943603515625 27.09234619140625 34.771060943603515625 101 101 101 34.771060943603515625 27.092433929443359375 34.771060943603515625 101 101 34.771060943603515625 33.85323333740234375 33.85323333740234375 27.09234619140625 21.3159942626953125 34.771060943603515625 101 34.771060943603515625 33.85323333740234375 34.771060943603515625 101 101 101 101 34.771060943603515625 27.09234619140625 19.4405975341796875 16.003536224365234375 13.248830795288085938 11.156751632690429688 9.6032085418701171875 8.431301116943359375 7.5950727462768554688 7.0295290946960449219 6.5205512046813964844 6.0699815750122070312 5.67391204833984375 5.4459452629089355469 5.8517427444458007812 6.3619203567504882812 6.9919996261596679688 7.7898778915405273438 8.8328838348388671875 10.254482269287109375 12.306512832641601562 15.527820587158203125 21.3159942626953125 34.771060943603515625 101 34.771060943603515625 21.3159942626953125 15.527820587158203125 12.306512832641601562 10.254482269287109375 8.8328838348388671875 9.1102752685546875 10.127107620239257812 11.529033660888671875 13.248967170715332031 16.003650665283203125 21.3159942626953125 34.771060943603515625 101 101 34.771060943603515625 33.85323333740234375 33.85323333740234375 33.85323333740234375 33.85323333740234375 34.771060943603515625 101 101 101 101 34.771060943603515625 33.85323333740234375 33.85323333740234375 34.771060943603515625 101 101 101 101 101 34.771060943603515625 21.3159942626953125 20.655321121215820312 19.0708770751953125 16.003650665283203125 13.248967170715332031 11.630064964294433594 10.9329376220703125 10.031638145446777344 9.1102752685546875 8.5397481918334960938 8.4522008895874023438 8.2072153091430664062 8.2072153091430664062 8.4522008895874023438 8.5397481918334960938 8.4522008895874023438 8.2072153091430664062 7.8487291336059570312 7.4278607368469238281 6.9876122474670410156 6.5571050643920898438 6.15273284912109375 
101 101 101 34.771274566650390625 34.771274566650390625 101 101 101 101 101 101 101 101 34.771274566650390625 27.092433929443359375 19.440710067749023438 16.00359344482421875 21.3161468505859375 34.771274566650390625 101 34.771274566650390625 21.3161468505859375 34.771274566650390625 101 101 34.771274566650390625 27.092519760131835938 34.771274566650390625 101 101 34.771274566650390625 27.092433929443359375 20.655321121215820312 20.655321121215820312 27.092519760131835938 33.85323333740234375 34.771274566650390625 101 101 101 101 101 34.771274566650390625 33.85323333740234375 33.85323333740234375 27.092433929443359375 19.440710067749023438 16.00359344482421875 13.248899459838867188 11.528948783874511719 10.127011299133300781 8.9587106704711914062 8.0084686279296875 7.2363743782043457031 6.6039404869079589844 6.1526050567626953125 5.7816796302795410156 5.4459719657897949219 5.4302554130554199219 5.8517861366271972656 6.3619680404663085938 6.9920525550842285156 7.7899374961853027344 8.8329515457153320312 10.254561424255371094 12.306607246398925781 15.527936935424804688 21.3161468505859375 34.771274566650390625 101 34.771274566650390625 21.3161468505859375 15.527936935424804688 12.306607246398925781 10.254561424255371094 9.1103086471557617188 10.127156257629394531 11.52907562255859375 13.249035835266113281 16.0037078857421875 19.440820693969726562 27.092519760131835938 34.771274566650390625 101 34.771274566650390625 27.092519760131835938 33.85323333740234375 33.85323333740234375 34.771274566650390625 101 101 101 101 34.771274566650390625 33.85323333740234375 34.771274566650390625 101 34.771274566650390625 34.771274566650390625 101 101 101 101 34.771274566650390625 27.092519760131835938 33.85323333740234375 33.85323333740234375 27.092519760131835938 19.440820693969726562 16.0037078857421875 14.445387840270996094 13.079267501831054688 11.52907562255859375 10.127156257629394531 9.9132900238037109375 9.7675752639770507812 9.3710012435913085938 9.3710012435913085938 9.7675752639770507812 9.9132900238037109375 9.7675752639770507812 9.3710012435913085938 8.8175859451293945312 8.2032175064086914062 7.5952391624450683594 7.0297112464904785156 6.55712890625 
33.85323333740234375 33.85323333740234375 33.85323333740234375 27.092519760131835938 34.771484375 101 34.771484375 101 34.771484375 101 101 34.771484375 101 34.771484375 21.3162994384765625 16.003650665283203125 14.834767341613769531 19.440820693969726562 27.092519760131835938 33.85323333740234375 27.092519760131835938 21.3162994384765625 34.771484375 101 101 34.771484375 34.771484375 101 101 34.771484375 27.092519760131835938 19.440820693969726562 16.003650665283203125 21.3162994384765625 34.771484375 101 34.771484375 101 101 34.771484375 101 34.771484375 27.092519760131835938 20.655321121215820312 20.655321121215820312 19.0708770751953125 16.003650665283203125 13.248967170715332031 11.528990745544433594 10.1270599365234375 9.1102075576782226562 8.2639627456665039062 7.5240092277526855469 6.8900547027587890625 6.3501100540161132812 5.8896203041076660156 5.4978389739990234375 5.2157692909240722656 5.4302954673767089844 5.85182952880859375 6.3620157241821289062 6.9921054840087890625 7.789997100830078125 8.833019256591796875 10.254639625549316406 12.30670166015625 15.528054237365722656 21.3162994384765625 34.771484375 101 34.771484375 21.3162994384765625 15.528054237365722656 12.30670166015625 10.254639625549316406 10.12720489501953125 11.529118537902832031 13.249103546142578125 16.003765106201171875 19.440931320190429688 27.092607498168945312 34.771484375 101 101 34.771484375 34.771484375 101 101 101 101 34.771484375 33.85323333740234375 33.85323333740234375 27.092607498168945312 34.771484375 101 101 34.771484375 101 101 34.771484375 34.771484375 101 34.771484375 34.771484375 101 101 34.771484375 27.092607498168945312 20.655321121215820312 19.070928573608398438 16.003765106201171875 13.249103546142578125 11.630074501037597656 11.898753166198730469 11.630074501037597656 10.932969093322753906 10.932969093322753906 11.630074501037597656 11.898753166198730469 11.630074501037597656 10.932969093322753906 10.031691551208496094 9.1103420257568359375 8.2641124725341796875 7.5952672958374023438 7.0297417640686035156 
20.655321121215820312 20.655321121215820312 20.655321121215820312 27.092693328857421875 34.771694183349609375 101 101 101 34.771694183349609375 101 34.771694183349609375 101 101 34.771694183349609375 21.3164520263671875 15.528170585632324219 13.249035835266113281 16.0037078857421875 19.070903778076171875 20.655321121215820312 19.070903778076171875 21.3164520263671875 34.771694183349609375 101 34.771694183349609375 27.092693328857421875 34.771694183349609375 101 34.771694183349609375 27.092607498168945312 19.440931320190429688 16.00382232666015625 19.070955276489257812 21.3164520263671875 34.771694183349609375 101 101 101 34.771694183349609375 33.85323333740234375 33.85323333740234375 27.092693328857421875 19.441043853759765625 16.0037078857421875 15.022253990173339844 14.445377349853515625 13.0792388916015625 11.529033660888671875 10.127107620239257812 9.110240936279296875 8.26399993896484375 7.5951561927795410156 7.0296201705932617188 6.5206456184387207031 6.0700769424438476562 5.6740059852600097656 5.3263964653015136719 5.0761895179748535156 5.4303350448608398438 5.8518733978271484375 6.3620634078979492188 6.9921584129333496094 7.7900567054748535156 8.833087921142578125 10.254718780517578125 12.306796073913574219 15.528170585632324219 21.3164520263671875 34.771694183349609375 101 34.771694183349609375 21.3164520263671875 15.528170585632324219 12.306796073913574219 10.254718780517578125 11.157088279724121094 13.249172210693359375 16.00382232666015625 19.441043853759765625 27.092693328857421875 34.771694183349609375 101 101 34.771694183349609375 101 101 101 34.771694183349609375 33.85323333740234375 33.85323333740234375 27.092607498168945312 20.655321121215820312 21.3164520263671875 34.771694183349609375 101 101 34.771694183349609375 34.771694183349609375 101 34.771694183349609375 27.092693328857421875 34.771694183349609375 101 34.771694183349609375 101 101 101 101 34.771694183349609375 33.85323333740234375 27.092693328857421875 19.441043853759765625 15.022253990173339844 14.445407867431640625 15.022253990173339844 14.445407867431640625 13.079325675964355469 13.079325675964355469 14.445407867431640625 15.022253990173339844 14.445407867431640625 13.079325675964355469 11.529161453247070312 10.127253532409667969 9.1103754043579101562 8.2641496658325195312 7.5242028236389160156 
15.022253990173339844 16.003879547119140625 21.3166046142578125 34.77190399169921875 101 101 101 34.77190399169921875 101 101 101 101 34.77190399169921875 27.092693328857421875 19.441043853759765625 14.834967613220214844 11.981655120849609375 13.079267501831054688 14.445387840270996094 15.022253990173339844 15.528287887573242188 21.3166046142578125 34.77190399169921875 101 34.77190399169921875 34.77190399169921875 101 101 34.77190399169921875 21.3166046142578125 16.003765106201171875 19.44115447998046875 27.09278106689453125 33.85323333740234375 34.77190399169921875 101 101 34.77190399169921875 34.77190399169921875 101 101 34.77190399169921875 21.3166046142578125 15.528287887573242188 12.306890487670898438 11.630064964294433594 10.9329376220703125 10.031638145446777344 9.1102752685546875 8.2640371322631835938 7.5951838493347167969 7.0296506881713867188 6.5570578575134277344 6.1526818275451660156 5.7817597389221191406 5.4460530281066894531 5.1443104743957519531 5.0762262344360351562 5.4303750991821289062 5.8519167900085449219 6.3621110916137695312 6.9922113418579101562 7.7901163101196289062 8.8331556320190429688 10.254797935485839844 12.306890487670898438 15.528287887573242188 21.3166046142578125 34.77190399169921875 101 34.77190399169921875 21.3166046142578125 16.003879547119140625 13.249239921569824219 11.157155990600585938 11.981740951538085938 14.8350677490234375 19.44115447998046875 27.09278106689453125 34.77190399169921875 101 101 34.77190399169921875 101 101 101 34.77190399169921875 27.092693328857421875 20.655321121215820312 20.655321121215820312 19.070981979370117188 20.655321121215820312 27.09278106689453125 34.77190399169921875 101 34.77190399169921875 101 101 101 34.77190399169921875 34.77190399169921875 101 101 101 101 34.77190399169921875 33.85323333740234375 34.77190399169921875 101 101 34.77190399169921875 21.3166046142578125 20.655321121215820312 19.070981979370117188 20.655321121215820312 19.070981979370117188 16.003879547119140625 16.003879547119140625 19.070981979370117188 20.655321121215820312 19.070981979370117188 16.003879547119140625 13.249239921569824219 11.529203414916992188 10.127302169799804688 8.95900726318359375 8.0087575912475585938 
14.835167884826660156 19.441265106201171875 27.092868804931640625 34.772113800048828125 101 101 101 101 101 34.772113800048828125 101 101 34.772113800048828125 21.3167572021484375 16.00382232666015625 13.249172210693359375 11.157088279724121094 11.529246330261230469 13.249308586120605469 16.003938674926757812 19.07100677490234375 21.3167572021484375 34.772113800048828125 101 34.772113800048828125 101 101 34.772113800048828125 27.09278106689453125 19.44115447998046875 20.655321121215820312 21.3167572021484375 34.772113800048828125 101 101 101 34.772113800048828125 34.772113800048828125 101 101 34.772113800048828125 27.09278106689453125 19.44115447998046875 14.8350677490234375 11.981740951538085938 10.077779769897460938 9.3709926605224609375 8.8175687789916992188 8.20319366455078125 7.5952115058898925781 7.0296807289123535156 6.5570816993713378906 6.1527070999145507812 5.8013186454772949219 5.4979052543640136719 5.2158384323120117188 4.9564867019653320312 5.0762629508972167969 5.4304146766662597656 5.8519601821899414062 6.3621587753295898438 6.9922642707824707031 7.7901759147644042969 8.8332233428955078125 10.254877090454101562 12.306984901428222656 15.52840423583984375 21.3167572021484375 34.772113800048828125 101 34.772113800048828125 27.092868804931640625 19.441265106201171875 14.835167884826660156 11.981827735900878906 12.306984901428222656 15.52840423583984375 21.3167572021484375 34.772113800048828125 101 101 34.772113800048828125 101 101 34.772113800048828125 33.85323333740234375 27.09278106689453125 19.44115447998046875 20.655321121215820312 20.655321121215820312 27.092868804931640625 33.85323333740234375 34.772113800048828125 101 101 101 101 34.772113800048828125 33.85323333740234375 34.772113800048828125 101 101 101 101 34.772113800048828125 27.092868804931640625 34.772113800048828125 101 101 34.772113800048828125 27.09278106689453125 27.092868804931640625 33.85323333740234375 27.092868804931640625 33.85323333740234375 27.092868804931640625 19.441265106201171875 19.441265106201171875 27.092868804931640625 33.85323333740234375 27.092868804931640625 19.441265106201171875 16.003938674926757812 13.249308586120605469 11.157223701477050781 9.6036500930786132812 8.817653656005859375 
15.528521537780761719 21.3169097900390625 34.7723236083984375 101 101 101 34.7723236083984375 101 34.7723236083984375 34.7723236083984375 101 101 34.7723236083984375 21.3169097900390625 15.528521537780761719 12.307079315185546875 11.157291412353515625 13.249376296997070312 16.003995895385742188 19.441377639770507812 27.092954635620117188 33.85323333740234375 34.7723236083984375 101 101 101 34.7723236083984375 33.85323333740234375 33.85323333740234375 27.092954635620117188 33.85323333740234375 33.85323333740234375 34.7723236083984375 101 101 101 101 101 101 34.7723236083984375 27.092868804931640625 19.441265106201171875 16.003879547119140625 13.249239921569824219 11.157155990600585938 9.6035871505737304688 8.4316473007202148438 7.8487291336059570312 7.4278607368469238281 6.9876122474670410156 6.5571050643920898438 6.15273284912109375 5.8013391494750976562 5.4979271888732910156 5.2265291213989257812 4.9905071258544921875 4.7745738029479980469 5.0763001441955566406 5.4304547309875488281 5.8520035743713378906 6.3622069358825683594 6.9923176765441894531 7.7902355194091796875 8.8332910537719726562 10.254956245422363281 12.307079315185546875 15.528521537780761719 21.3169097900390625 34.7723236083984375 101 101 34.7723236083984375 21.3169097900390625 15.528521537780761719 12.307079315185546875 12.307079315185546875 15.528521537780761719 21.3169097900390625 34.7723236083984375 101 101 101 101 34.7723236083984375 27.092868804931640625 20.655321121215820312 20.655321121215820312 27.092954635620117188 33.85323333740234375 33.85323333740234375 34.7723236083984375 101 101 101 34.7723236083984375 33.85323333740234375 33.85323333740234375 33.85323333740234375 33.85323333740234375 34.7723236083984375 101 101 34.7723236083984375 33.85323333740234375 27.092954635620117188 34.7723236083984375 101 101 101 34.7723236083984375 27.092954635620117188 34.7723236083984375 101 34.7723236083984375 101 34.7723236083984375 21.3169097900390625 27.092954635620117188 34.7723236083984375 101 34.7723236083984375 27.092954635620117188 19.441377639770507812 14.835268020629882812 11.981913566589355469 10.933032035827636719 10.031796455383300781 
15.528637886047363281 21.317060470581054688 34.7725372314453125 101 101 34.7725372314453125 101 101 34.7725372314453125 34.7725372314453125 101 101 34.7725372314453125 21.317060470581054688 15.528637886047363281 12.307173728942871094 11.981999397277832031 14.835368156433105469 19.441488265991210938 27.093042373657226562 34.7725372314453125 101 101 101 101 101 101 101 101 34.7725372314453125 101 101 101 101 34.7725372314453125 33.85323333740234375 33.85323333740234375 33.85323333740234375 33.85323333740234375 27.092954635620117188 19.441377639770507812 16.003938674926757812 13.249308586120605469 11.529203414916992188 10.127302169799804688 8.95900726318359375 8.0087575912475585938 7.2366495132446289062 6.7749390602111816406 6.4512410163879394531 6.1219425201416015625 5.8013596534729003906 5.4979491233825683594 5.2265472412109375 4.9905266761779785156 4.7746491432189941406 4.8593506813049316406 5.1549406051635742188 5.495304107666015625 5.8899450302124023438 6.3504471778869628906 6.9451136589050292969 7.7212038040161132812 8.7266817092895507812 10.077928543090820312 11.981913566589355469 14.835268020629882812 19.441377639770507812 27.092954635620117188 34.7725372314453125 101 34.7725372314453125 21.317060470581054688 15.528637886047363281 12.307173728942871094 12.307173728942871094 15.528637886047363281 21.317060470581054688 34.7725372314453125 101 101 101 34.7725372314453125 27.093042373657226562 33.85323333740234375 33.85323333740234375 33.85323333740234375 34.7725372314453125 101 101 101 101 101 34.7725372314453125 27.093042373657226562 33.85323333740234375 34.7725372314453125 101 101 101 101 34.7725372314453125 27.092954635620117188 27.093042373657226562 34.7725372314453125 101 101 101 34.7725372314453125 27.093042373657226562 34.7725372314453125 101 101 34.7725372314453125 101 34.7725372314453125 27.093042373657226562 34.7725372314453125 101 101 101 34.7725372314453125 21.317060470581054688 15.528637886047363281 14.445448875427246094 13.079442024230957031 11.630099296569824219 
16.004110336303710938 21.317213058471679688 34.772747039794921875 101 34.772747039794921875 101 101 34.772747039794921875 34.772747039794921875 101 101 34.772747039794921875 27.093042373657226562 19.441488265991210938 14.835368156433105469 11.981999397277832031 13.079470634460449219 15.52875518798828125 21.317213058471679688 34.772747039794921875 101 101 34.772747039794921875 33.85323333740234375 33.85323333740234375 33.85323333740234375 33.85323333740234375 33.85323333740234375 33.85323333740234375 34.772747039794921875 101 34.772747039794921875 33.85323333740234375 33.85323333740234375 27.093042373657226562 20.655321121215820312 20.655321121215820312 20.655321121215820312 20.655321121215820312 19.071033477783203125 16.003995895385742188 13.249376296997070312 11.529246330261230469 10.127349853515625 9.1105442047119140625 8.2643365859985351562 7.5243964195251464844 6.8904399871826171875 6.3504848480224609375 5.9837117195129394531 5.7294187545776367188 5.4744505882263183594 5.2265653610229492188 4.9905462265014648438 4.7746653556823730469 4.6738715171813964844 4.9499149322509765625 5.2689666748046875 5.6413068771362304688 6.080463409423828125 6.6043725013732910156 7.2368330955505371094 8.0089502334594726562 8.95920562744140625 10.127495765686035156 11.982086181640625 14.835468292236328125 19.441598892211914062 27.093130111694335938 34.772747039794921875 101 34.772747039794921875 21.317213058471679688 15.52875518798828125 12.307268142700195312 11.981999397277832031 14.835368156433105469 19.441488265991210938 27.093042373657226562 33.85323333740234375 33.85323333740234375 33.85323333740234375 27.093130111694335938 34.772747039794921875 101 101 101 101 101 34.772747039794921875 33.85323333740234375 33.85323333740234375 33.85323333740234375 27.093130111694335938 34.772747039794921875 101 101 101 34.772747039794921875 33.85323333740234375 33.85323333740234375 27.093042373657226562 27.093130111694335938 34.772747039794921875 101 101 101 34.772747039794921875 101 34.772747039794921875 101 101 34.772747039794921875 34.772747039794921875 101 34.772747039794921875 34.772747039794921875 101 101 101 101 34.772747039794921875 21.317213058471679688 20.655321121215820312 19.071084976196289062 16.004110336303710938 14.445458412170410156 
19.44171142578125 27.0932159423828125 34.77295684814453125 101 101 101 34.77295684814453125 34.77295684814453125 101 101 34.77295684814453125 27.093130111694335938 19.441598892211914062 16.004053115844726562 13.249444961547851562 13.249581336975097656 16.004167556762695312 19.071111679077148438 21.317365646362304688 34.77295684814453125 101 34.77295684814453125 27.093130111694335938 20.655321121215820312 20.655321121215820312 20.655321121215820312 20.655321121215820312 21.317365646362304688 34.77295684814453125 101 101 34.77295684814453125 21.317365646362304688 20.655321121215820312 19.0710601806640625 16.004053115844726562 15.022253990173339844 15.022253990173339844 15.022253990173339844 14.445468902587890625 15.022253990173339844 14.445468902587890625 13.079499244689941406 11.529416084289550781 10.127544403076171875 8.959255218505859375 8.008998870849609375 7.2368793487548828125 6.6044158935546875 6.0805039405822753906 5.6413445472717285156 5.2690019607543945312 4.9720292091369628906 4.7746820449829101562 4.5858674049377441406 4.72887420654296875 5.0187163352966308594 5.3565130233764648438 5.7549252510070800781 6.231334686279296875 6.8101491928100585938 7.5264649391174316406 8.4319362640380859375 9.6039018630981445312 11.15749359130859375 13.249581336975097656 16.004167556762695312 21.317365646362304688 34.77295684814453125 101 101 34.77295684814453125 21.317365646362304688 15.528872489929199219 12.307362556457519531 11.157359123229980469 13.249444961547851562 16.004053115844726562 19.44171142578125 27.0932159423828125 33.85323333740234375 33.85323333740234375 34.77295684814453125 101 101 34.77295684814453125 33.85323333740234375 33.85323333740234375 33.85323333740234375 27.093130111694335938 20.655321121215820312 27.0932159423828125 33.85323333740234375 34.77295684814453125 101 101 34.77295684814453125 33.85323333740234375 27.093130111694335938 20.655321121215820312 27.0932159423828125 33.85323333740234375 34.77295684814453125 101 101 101 101 101 101 101 101 34.77295684814453125 27.0932159423828125 34.77295684814453125 101 34.77295684814453125 101 101 101 101 34.77295684814453125 27.093130111694335938 27.0932159423828125 33.85323333740234375 27.0932159423828125 20.655321121215820312 19.071111679077148438 
21.317518234252929688 34.773166656494140625 101 101 101 34.773166656494140625 34.773166656494140625 101 101 34.773166656494140625 27.0932159423828125 19.44171142578125 16.004110336303710938 13.249513626098632812 11.982258796691894531 14.835668563842773438 19.441822052001953125 27.093303680419921875 33.85323333740234375 34.773166656494140625 101 34.773166656494140625 21.317518234252929688 16.004110336303710938 15.022253990173339844 15.022253990173339844 19.441822052001953125 27.093303680419921875 34.773166656494140625 101 34.773166656494140625 27.0932159423828125 19.44171142578125 15.022253990173339844 14.445448875427246094 13.079442024230957031 11.898753166198730469 13.249650001525878906 16.004224777221679688 19.071138381958007812 20.655321121215820312 19.071138381958007812 16.004224777221679688 13.249650001525878906 11.157561302185058594 9.60396575927734375 8.4319944381713867188 7.5265173912048339844 6.8101973533630371094 6.2313790321350097656 5.7549662590026855469 5.3565506935119628906 5.0187511444091796875 4.7289071083068847656 4.5052208900451660156 4.7631082534790039062 5.0617961883544921875 5.4117488861083984375 5.8273177146911621094 6.3287167549133300781 6.9453206062316894531 7.7214345932006835938 8.7269420623779296875 10.078226089477539062 11.982258796691894531 14.835668563842773438 19.441822052001953125 27.093303680419921875 34.773166656494140625 101 34.773166656494140625 27.0932159423828125 19.44171142578125 14.835568428039550781 11.982172012329101562 10.255272865295410156 12.30745697021484375 15.528988838195800781 21.317518234252929688 34.773166656494140625 101 101 101 101 34.773166656494140625 27.0932159423828125 20.655321121215820312 20.655321121215820312 20.655321121215820312 19.441822052001953125 27.093303680419921875 34.773166656494140625 101 101 101 34.773166656494140625 33.85323333740234375 33.85323333740234375 33.85323333740234375 33.85323333740234375 34.773166656494140625 101 101 101 101 101 34.773166656494140625 34.773166656494140625 101 101 34.773166656494140625 101 34.773166656494140625 101 101 34.773166656494140625 101 101 101 34.773166656494140625 27.0932159423828125 27.093303680419921875 34.773166656494140625 101 34.773166656494140625 33.85323333740234375 27.093303680419921875 
21.317670822143554688 34.77337646484375 101 34.77337646484375 33.85323333740234375 27.093389511108398438 34.77337646484375 101 34.77337646484375 27.093303680419921875 19.441822052001953125 16.004167556762695312 13.249581336975097656 11.5293731689453125 12.307551383972167969 15.52910614013671875 21.317670822143554688 34.77337646484375 101 101 101 34.77337646484375 21.317670822143554688 16.004283905029296875 13.24971771240234375 15.52910614013671875 21.317670822143554688 34.77337646484375 101 101 34.77337646484375 21.317670822143554688 16.004167556762695312 13.249581336975097656 11.630099296569824219 13.079557418823242188 14.445488929748535156 16.004283905029296875 19.441934585571289062 27.093389511108398438 33.85323333740234375 27.093389511108398438 19.441934585571289062 14.835768699645996094 11.982344627380371094 10.078301429748535156 8.7270078659057617188 7.7214922904968261719 6.9453721046447753906 6.3287634849548339844 5.8273606300354003906 5.4117884635925292969 5.0618329048156738281 4.7631421089172363281 4.5145964622497558594 4.7747449874877929688 5.0764842033386230469 5.4306540489196777344 5.8522210121154785156 6.362445831298828125 6.9925827980041503906 7.7905335426330566406 8.8336315155029296875 10.255351066589355469 12.307551383972167969 15.52910614013671875 21.317670822143554688 34.77337646484375 101 101 34.77337646484375 21.317670822143554688 16.004283905029296875 13.24971771240234375 11.157629013061523438 10.078226089477539062 11.982258796691894531 14.835668563842773438 19.441822052001953125 27.093303680419921875 33.85323333740234375 33.85323333740234375 33.85323333740234375 33.85323333740234375 27.093303680419921875 19.441822052001953125 16.004167556762695312 15.022253990173339844 19.441934585571289062 27.093389511108398438 34.77337646484375 101 101 34.77337646484375 33.85323333740234375 34.77337646484375 101 101 101 101 101 101 34.77337646484375 33.85323333740234375 33.85323333740234375 33.85323333740234375 34.77337646484375 101 101 34.77337646484375 34.77337646484375 101 101 101 34.77337646484375 101 101 101 101 34.77337646484375 27.093389511108398438 34.77337646484375 101 101 34.77337646484375 101 34.77337646484375 
27.093477249145507812 34.773590087890625 101 34.773590087890625 33.85323333740234375 34.773590087890625 101 101 34.773590087890625 21.317823410034179688 16.004224777221679688 13.249650001525878906 11.529416084289550781 10.255430221557617188 12.307645797729492188 15.529222488403320312 21.317823410034179688 34.773590087890625 101 34.773590087890625 101 34.773590087890625 27.093477249145507812 19.442045211791992188 14.83586883544921875 15.529222488403320312 21.317823410034179688 34.773590087890625 101 34.773590087890625 27.093389511108398438 19.441934585571289062 14.835768699645996094 11.982344627380371094 13.249786376953125 16.00434112548828125 19.07118988037109375 20.655321121215820312 27.093477249145507812 34.773590087890625 101 34.773590087890625 21.317823410034179688 15.529222488403320312 12.307645797729492188 10.255430221557617188 8.8336992263793945312 7.7905931472778320312 6.9926357269287109375 6.3624935150146484375 5.852264404296875 5.4306936264038085938 5.0765209197998046875 4.7747793197631835938 4.5146284103393554688 4.7631421089172363281 5.0618329048156738281 5.4117884635925292969 5.8273606300354003906 6.3287634849548339844 6.9453721046447753906 7.7214922904968261719 8.7270078659057617188 10.078301429748535156 11.982344627380371094 14.835768699645996094 19.441934585571289062 27.093389511108398438 34.773590087890625 101 34.773590087890625 27.093477249145507812 19.442045211791992188 14.83586883544921875 11.982430458068847656 10.078375816345214844 11.157561302185058594 13.249650001525878906 16.004224777221679688 19.071138381958007812 20.655321121215820312 20.655321121215820312 20.655321121215820312 20.655321121215820312 19.071138381958007812 16.004224777221679688 13.249786376953125 16.00434112548828125 21.317823410034179688 34.773590087890625 101 101 34.773590087890625 33.85323333740234375 34.773590087890625 101 101 34.773590087890625 34.773590087890625 101 101 101 34.773590087890625 33.85323333740234375 33.85323333740234375 34.773590087890625 101 101 101 34.773590087890625 34.773590087890625 101 101 34.773590087890625 101 101 101 101 101 34.773590087890625 34.773590087890625 101 101 34.773590087890625 101 101 101 
34.773799896240234375 101 101 34.773799896240234375 101 101 101 34.773799896240234375 27.093477249145507812 19.442045211791992188 14.83586883544921875 11.982430458068847656 10.127593040466308594 11.157764434814453125 13.249854087829589844 16.004398345947265625 21.317975997924804688 34.773799896240234375 101 34.773799896240234375 101 101 34.773799896240234375 21.317975997924804688 19.071216583251953125 16.004398345947265625 21.317975997924804688 34.773799896240234375 101 34.773799896240234375 21.317975997924804688 16.004283905029296875 13.24971771240234375 14.445509910583496094 16.004398345947265625 19.442155838012695312 27.093564987182617188 33.85323333740234375 34.773799896240234375 101 101 34.773799896240234375 21.317975997924804688 15.529339790344238281 12.307740211486816406 10.255509376525878906 8.833766937255859375 7.7906527519226074219 6.9926886558532714844 6.36254119873046875 5.8523077964782714844 5.4307336807250976562 5.0765576362609863281 4.7748136520385742188 4.5146603584289550781 4.7289400100708007812 5.0187864303588867188 5.3565888404846191406 5.7550067901611328125 6.2314233779907226562 6.810245513916015625 7.5265703201293945312 8.4320516586303710938 9.6040287017822265625 11.157629013061523438 13.24971771240234375 16.004283905029296875 21.317975997924804688 34.773799896240234375 101 101 34.773799896240234375 21.317975997924804688 15.529339790344238281 12.307740211486816406 10.255509376525878906 10.127593040466308594 11.529458999633789062 13.07952880859375 14.445479393005371094 15.022253990173339844 15.022253990173339844 15.022253990173339844 15.022253990173339844 14.445479393005371094 13.249854087829589844 16.004398345947265625 19.442155838012695312 27.093564987182617188 34.773799896240234375 101 101 34.773799896240234375 101 101 101 34.773799896240234375 34.773799896240234375 101 101 34.773799896240234375 101 101 101 101 101 101 101 101 34.773799896240234375 34.773799896240234375 101 101 34.773799896240234375 101 101 101 34.773799896240234375 33.85323333740234375 34.773799896240234375 101 101 34.773799896240234375 34.773799896240234375 101 34.773799896240234375 101 
34.77400970458984375 101 101 101 101 34.77400970458984375 33.85323333740234375 27.093564987182617188 19.442155838012695312 16.00434112548828125 13.249786376953125 11.157696723937988281 10.127786636352539062 11.982603073120117188 14.836069107055664062 19.44226837158203125 27.09365081787109375 34.77400970458984375 101 34.77400970458984375 101 101 34.77400970458984375 33.85323333740234375 27.09365081787109375 19.44226837158203125 27.09365081787109375 34.77400970458984375 101 34.77400970458984375 21.318128585815429688 15.52945709228515625 16.00445556640625 19.071241378784179688 20.655321121215820312 27.09365081787109375 34.77400970458984375 101 101 101 34.77400970458984375 27.093564987182617188 19.442155838012695312 14.835968971252441406 11.982517242431640625 10.078450202941894531 8.7271375656127929688 7.7216081619262695312 6.9454760551452636719 6.328857421875 5.82744598388671875 5.4118671417236328125 5.0619058609008789062 4.7632098197937011719 4.5053157806396484375 4.6739664077758789062 4.9500155448913574219 5.269073486328125 5.6414208412170410156 6.0805850028991699219 6.6045022010803222656 7.2369709014892578125 8.0090951919555664062 8.959354400634765625 10.127640724182128906 11.982517242431640625 14.835968971252441406 19.442155838012695312 27.093564987182617188 34.77400970458984375 101 34.77400970458984375 21.318128585815429688 15.52945709228515625 12.307834625244140625 10.255588531494140625 9.7676105499267578125 10.031902313232421875 10.933094978332519531 11.630113601684570312 11.898753166198730469 11.898753166198730469 11.898753166198730469 13.079645156860351562 14.445519447326660156 16.00445556640625 19.44226837158203125 27.09365081787109375 34.77400970458984375 101 101 34.77400970458984375 34.77400970458984375 101 34.77400970458984375 33.85323333740234375 34.77400970458984375 101 101 34.77400970458984375 33.85323333740234375 33.85323333740234375 33.85323333740234375 33.85323333740234375 33.85323333740234375 34.77400970458984375 101 101 101 101 34.77400970458984375 101 101 34.77400970458984375 101 101 34.77400970458984375 27.09365081787109375 34.77400970458984375 101 101 34.77400970458984375 34.77400970458984375 101 101 101 101 
101 101 34.774219512939453125 33.85323333740234375 33.85323333740234375 27.09365081787109375 20.655321121215820312 19.071216583251953125 16.004398345947265625 13.249854087829589844 11.529543876647949219 10.127689361572265625 11.157899856567382812 13.249991416931152344 16.004512786865234375 21.318281173706054688 34.774219512939453125 101 101 34.774219512939453125 101 34.774219512939453125 34.774219512939453125 101 34.774219512939453125 21.318281173706054688 34.774219512939453125 101 101 34.774219512939453125 21.318281173706054688 16.004512786865234375 19.442378997802734375 27.093738555908203125 33.85323333740234375 34.774219512939453125 101 101 101 34.774219512939453125 27.09365081787109375 19.44226837158203125 16.004398345947265625 13.249854087829589844 11.157764434814453125 9.6041545867919921875 8.4321680068969726562 7.5266757011413574219 6.8103423118591308594 6.2315120697021484375 5.75508880615234375 5.3566646575927734375 5.0188570022583007812 4.7290058135986328125 4.4776973724365234375 4.6009745597839355469 4.8594751358032226562 5.1550717353820800781 5.4954419136047363281 5.8900890350341796875 6.3505969047546386719 6.94557952880859375 7.7217235565185546875 8.727268218994140625 10.078598976135253906 11.982689857482910156 14.836169242858886719 19.442378997802734375 27.093738555908203125 34.774219512939453125 101 34.774219512939453125 21.318281173706054688 15.529573440551757812 12.307929039001464844 10.933173179626464844 11.630138397216796875 11.898753166198730469 11.898753166198730469 11.898753166198730469 13.07967376708984375 14.445529937744140625 15.022253990173339844 16.004512786865234375 19.071268081665039062 20.655321121215820312 27.093738555908203125 34.774219512939453125 101 101 34.774219512939453125 34.774219512939453125 101 101 34.774219512939453125 101 101 101 34.774219512939453125 34.774219512939453125 101 101 34.774219512939453125 21.318281173706054688 20.655321121215820312 27.09365081787109375 33.85323333740234375 33.85323333740234375 33.85323333740234375 33.85323333740234375 34.774219512939453125 101 101 101 101 101 34.774219512939453125 34.774219512939453125 101 101 34.774219512939453125 27.093738555908203125 34.774219512939453125 101 101 101 101 
33.85323333740234375 33.85323333740234375 27.093738555908203125 20.655321121215820312 20.655321121215820312 19.071241378784179688 16.00445556640625 14.445509910583496094 13.079615592956542969 11.529585838317871094 10.127737998962402344 10.078673362731933594 11.982775688171386719 14.836270332336425781 19.442491531372070312 27.0938262939453125 34.774433135986328125 101 34.774433135986328125 101 101 34.774433135986328125 101 101 34.774433135986328125 33.85323333740234375 34.774433135986328125 101 34.774433135986328125 27.093738555908203125 19.442378997802734375 19.442491531372070312 27.0938262939453125 34.774433135986328125 101 101 101 34.774433135986328125 33.85323333740234375 27.093738555908203125 19.442378997802734375 16.00445556640625 13.249922752380371094 11.529585838317871094 10.127737998962402344 8.959453582763671875 8.0091924667358398438 7.2370629310607910156 6.6045885086059570312 6.0806660652160644531 5.6414966583251953125 5.2691445350646972656 4.9500823020935058594 4.6740293502807617188 4.4330892562866210938 4.5147562026977539062 4.7749161720275878906 5.0766682624816894531 5.4308533668518066406 5.8524384498596191406 6.3626847267150878906 6.9928479194641113281 7.7908315658569335938 8.8339710235595703125 10.255746841430664062 12.308023452758789062 15.529690742492675781 21.318433761596679688 34.774433135986328125 101 101 34.774433135986328125 21.318433761596679688 15.529690742492675781 12.308023452758789062 13.079703330993652344 14.445540428161621094 15.022253990173339844 15.022253990173339844 15.022253990173339844 16.004571914672851562 19.071294784545898438 20.655321121215820312 20.655321121215820312 27.0938262939453125 33.85323333740234375 34.774433135986328125 101 101 34.774433135986328125 27.093738555908203125 34.774433135986328125 101 101 34.774433135986328125 101 34.774433135986328125 33.85323333740234375 33.85323333740234375 34.774433135986328125 101 34.774433135986328125 27.093738555908203125 19.442378997802734375 16.00445556640625 19.071241378784179688 20.655321121215820312 20.655321121215820312 20.655321121215820312 21.318433761596679688 34.774433135986328125 101 34.774433135986328125 101 101 101 101 34.774433135986328125 101 34.774433135986328125 27.093738555908203125 34.774433135986328125 101 101 101 101 101 
20.655321121215820312 20.655321121215820312 19.071268081665039062 16.004512786865234375 15.022253990173339844 14.445519447326660156 13.079645156860351562 11.630128860473632812 10.933141708374023438 10.031981468200683594 9.1107120513916015625 10.255825996398925781 12.308117866516113281 15.52980804443359375 21.318586349487304688 34.7746429443359375 101 101 101 101 101 101 101 34.7746429443359375 34.7746429443359375 101 101 101 34.7746429443359375 21.318586349487304688 19.442602157592773438 27.093912124633789062 34.7746429443359375 101 101 34.7746429443359375 33.85323333740234375 27.0938262939453125 20.655321121215820312 19.071268081665039062 16.004512786865234375 13.249991416931152344 11.529628753662109375 10.127786636352539062 9.1107120513916015625 8.2645235061645507812 7.5245900154113769531 6.89063262939453125 6.3506722450256347656 5.8901610374450683594 5.4955105781555175781 5.1551370620727539062 4.8595376014709472656 4.6010341644287109375 4.3734521865844726562 4.5054111480712890625 4.7633113861083984375 5.0620150566101074219 5.4119853973388671875 5.8275747299194335938 6.3289980888366699219 6.9456315040588378906 7.7217812538146972656 8.72733306884765625 10.078673362731933594 11.982775688171386719 14.836270332336425781 19.442491531372070312 27.0938262939453125 34.7746429443359375 101 34.7746429443359375 21.318586349487304688 15.52980804443359375 13.250127792358398438 16.004629135131835938 19.071319580078125 20.655321121215820312 20.655321121215820312 20.655321121215820312 20.655321121215820312 27.093912124633789062 33.85323333740234375 33.85323333740234375 34.7746429443359375 101 101 101 34.7746429443359375 27.0938262939453125 19.442602157592773438 27.093912124633789062 34.7746429443359375 101 101 101 34.7746429443359375 34.7746429443359375 101 101 101 34.7746429443359375 21.318586349487304688 16.004512786865234375 16.004629135131835938 19.442602157592773438 27.093912124633789062 33.85323333740234375 33.85323333740234375 27.093912124633789062 34.7746429443359375 101 34.7746429443359375 101 101 34.7746429443359375 34.7746429443359375 101 101 34.7746429443359375 33.85323333740234375 34.7746429443359375 101 101 101 34.7746429443359375 33.85323333740234375 
15.022253990173339844 15.022253990173339844 14.445529937744140625 13.07967376708984375 11.898753166198730469 11.630133628845214844 10.933157920837402344 10.032008171081542969 9.371112823486328125 8.8177881240844726562 9.6044702529907226562 11.158102989196777344 13.250196456909179688 16.004686355590820312 21.318738937377929688 34.774852752685546875 101 101 101 101 101 34.774852752685546875 33.85323333740234375 34.774852752685546875 101 101 34.774852752685546875 33.85323333740234375 27.093912124633789062 19.442714691162109375 27.093999862670898438 34.774852752685546875 101 101 34.774852752685546875 27.093912124633789062 20.655321121215820312 19.071294784545898438 16.004571914672851562 14.445529937744140625 13.07967376708984375 11.529671669006347656 10.127835273742675781 9.1107454299926757812 8.2645616531372070312 7.5955729484558105469 7.0300760269165039062 6.5211195945739746094 6.0705537796020507812 5.6744771003723144531 5.3268561363220214844 5.0213084220886230469 4.75188446044921875 4.51334381103515625 4.3011989593505859375 4.4777903556823730469 4.7291049957275390625 5.018962860107421875 5.3567781448364257812 5.7552113533020019531 6.2316451072692871094 6.8104872703552246094 7.5268344879150390625 8.4323415756225585938 9.6043443679809570312 11.157967567443847656 13.250059127807617188 16.004571914672851562 21.318738937377929688 34.774852752685546875 101 34.774852752685546875 21.318738937377929688 15.529925346374511719 14.836470603942871094 19.442714691162109375 27.093999862670898438 33.85323333740234375 33.85323333740234375 33.85323333740234375 33.85323333740234375 34.774852752685546875 101 101 101 101 34.774852752685546875 33.85323333740234375 27.093912124633789062 19.442602157592773438 21.318738937377929688 34.774852752685546875 101 101 34.774852752685546875 33.85323333740234375 34.774852752685546875 101 101 34.774852752685546875 33.85323333740234375 27.093912124633789062 19.442602157592773438 14.836470603942871094 19.442714691162109375 27.093999862670898438 34.774852752685546875 101 101 34.774852752685546875 34.774852752685546875 101 101 101 101 34.774852752685546875 34.774852752685546875 101 34.774852752685546875 101 101 101 101 101 34.774852752685546875 33.85323333740234375 33.85323333740234375 
11.898753166198730469 11.898753166198730469 11.630138397216796875 10.933173179626464844 10.032033920288085938 9.7676105499267578125 9.3711223602294921875 8.8178052902221679688 8.4522314071655273438 9.1109142303466796875 10.12802886962890625 11.983035087585449219 14.83657073974609375 19.4428253173828125 27.094087600708007812 34.77506256103515625 101 101 101 101 34.77506256103515625 34.77506256103515625 101 101 101 34.77506256103515625 27.093999862670898438 20.655321121215820312 19.4428253173828125 27.094087600708007812 34.77506256103515625 101 101 34.77506256103515625 27.093999862670898438 19.442714691162109375 16.004629135131835938 14.445540428161621094 13.079703330993652344 11.630138397216796875 10.933173179626464844 10.032033920288085938 9.1107797622680664062 8.264598846435546875 7.5956006050109863281 7.0301065444946289062 6.5574131011962890625 6.1530656814575195312 5.7821588516235351562 5.4464573860168457031 5.1447138786315917969 4.87425994873046875 4.6319174766540527344 4.4144816398620605469 4.2212133407592773438 4.4331789016723632812 4.6741237640380859375 4.9501829147338867188 5.2692513465881347656 5.6416106224060058594 6.08078765869140625 6.6047182083129882812 7.2372007369995117188 8.0093364715576171875 8.95960235595703125 10.255984306335449219 12.308306694030761719 15.530041694641113281 21.318891525268554688 34.77506256103515625 101 34.77506256103515625 21.318891525268554688 15.530041694641113281 15.530041694641113281 21.318891525268554688 34.77506256103515625 101 101 101 101 101 101 34.77506256103515625 33.85323333740234375 33.85323333740234375 27.093999862670898438 20.655321121215820312 19.071319580078125 16.004629135131835938 21.318891525268554688 34.77506256103515625 101 101 34.77506256103515625 34.77506256103515625 101 101 34.77506256103515625 27.093999862670898438 20.655321121215820312 19.071319580078125 16.004629135131835938 15.530041694641113281 21.318891525268554688 34.77506256103515625 101 101 34.77506256103515625 27.093999862670898438 27.093999862670898438 33.85323333740234375 34.77506256103515625 101 34.77506256103515625 27.093999862670898438 34.77506256103515625 101 101 101 34.77506256103515625 101 101 34.77506256103515625 34.77506256103515625 101 101 
9.9132900238037109375 9.9132900238037109375 9.767612457275390625 9.37113189697265625 8.8178224563598632812 8.4522237777709960938 8.8179073333740234375 9.37117767333984375 9.7676267623901367188 10.128077507019042969 11.52988433837890625 13.250332832336425781 16.004800796508789062 21.319044113159179688 34.77527618408203125 101 101 101 101 34.77527618408203125 34.77527618408203125 101 101 34.77527618408203125 33.85323333740234375 27.094087600708007812 20.655321121215820312 20.655321121215820312 27.094173431396484375 34.77527618408203125 101 101 34.77527618408203125 27.094087600708007812 19.4428253173828125 16.004686355590820312 13.250196456909179688 11.630143165588378906 10.93318939208984375 10.032060623168945312 9.37113189697265625 8.8178224563598632812 8.20354461669921875 7.5956287384033203125 7.0301370620727539062 6.5574369430541992188 6.1530909538269042969 5.80162811279296875 5.4982361793518066406 5.2161822319030761719 4.956836700439453125 4.7198891639709472656 4.5041146278381347656 4.307857513427734375 4.1719021797180175781 4.3735370635986328125 4.6011228561401367188 4.8596310615539550781 5.1552357673645019531 5.4956140518188476562 5.8902692794799804688 6.3628759384155273438 6.9930605888366699219 7.7910699844360351562 8.8342437744140625 10.256063461303710938 12.308401107788085938 15.53015899658203125 21.319044113159179688 34.77527618408203125 101 34.77527618408203125 21.319044113159179688 16.004800796508789062 14.83657073974609375 19.4428253173828125 27.094087600708007812 34.77527618408203125 101 101 34.77527618408203125 33.85323333740234375 33.85323333740234375 27.094087600708007812 20.655321121215820312 20.655321121215820312 19.071346282958984375 16.004686355590820312 14.445549964904785156 14.83657073974609375 19.4428253173828125 27.094087600708007812 34.77527618408203125 101 101 101 101 101 34.77527618408203125 21.319044113159179688 16.004686355590820312 14.445549964904785156 13.250332832336425781 16.004800796508789062 21.319044113159179688 34.77527618408203125 101 101 34.77527618408203125 21.319044113159179688 21.319044113159179688 34.77527618408203125 101 101 34.77527618408203125 21.319044113159179688 34.77527618408203125 101 101 34.77527618408203125 27.094087600708007812 34.77527618408203125 101 101 101 101 101 
8.5397481918334960938 8.5397481918334960938 8.4522256851196289062 8.2073030471801757812 8.26482391357421875 9.1109819412231445312 10.032193183898925781 10.933268547058105469 11.630167007446289062 11.898753166198730469 13.250401496887207031 16.00485992431640625 19.443048477172851562 27.09426116943359375 34.775485992431640625 101 34.775485992431640625 101 34.775485992431640625 27.09426116943359375 34.775485992431640625 101 34.775485992431640625 33.85323333740234375 33.85323333740234375 33.85323333740234375 33.85323333740234375 33.85323333740234375 34.775485992431640625 101 101 34.775485992431640625 27.094173431396484375 19.442937850952148438 16.004743576049804688 13.250264167785644531 11.529798507690429688 10.127980232238769531 9.3711404800415039062 8.8178396224975585938 8.2073030471801757812 7.8488974571228027344 7.4281072616577148438 6.9879221916198730469 6.5574603080749511719 6.1531167030334472656 5.8016486167907714844 5.4982585906982421875 5.2268033027648925781 4.9907984733581542969 4.7692084312438964844 4.5630502700805664062 4.3723511695861816406 4.196544647216796875 4.1117377281188964844 4.3012781143188476562 4.5149159431457519531 4.7750873565673828125 5.0768523216247558594 5.43105316162109375 5.8526558876037597656 6.3629236221313476562 6.9931135177612304688 7.7911295890808105469 8.8343114852905273438 10.256142616271972656 12.308496475219726562 15.530276298522949219 21.319196701049804688 34.775485992431640625 101 34.775485992431640625 27.09426116943359375 19.443048477172851562 14.836771011352539062 16.004743576049804688 19.442937850952148438 27.094173431396484375 33.85323333740234375 33.85323333740234375 27.094173431396484375 20.655321121215820312 20.655321121215820312 19.07137298583984375 16.004743576049804688 15.022253990173339844 14.445560455322265625 13.079761505126953125 13.250401496887207031 16.00485992431640625 19.443048477172851562 27.09426116943359375 34.775485992431640625 101 101 34.775485992431640625 33.85323333740234375 33.85323333740234375 27.094173431396484375 19.442937850952148438 14.836670875549316406 11.98320770263671875 14.836771011352539062 19.443048477172851562 27.09426116943359375 34.775485992431640625 101 101 34.775485992431640625 21.319196701049804688 27.09426116943359375 34.775485992431640625 101 34.775485992431640625 27.094173431396484375 27.09426116943359375 34.775485992431640625 101 34.775485992431640625 27.09426116943359375 27.09426116943359375 34.775485992431640625 101 101 34.775485992431640625 33.85323333740234375 33.85323333740234375 
7.5330090522766113281 7.5330090522766113281 7.5249390602111816406 8.2648611068725585938 9.11101531982421875 10.128174781799316406 11.529969215393066406 13.079877853393554688 14.445601463317871094 15.022253990173339844 16.004917144775390625 19.443159103393554688 27.094348907470703125 34.77569580078125 101 101 34.77569580078125 101 34.77569580078125 34.77569580078125 101 101 101 101 101 101 101 101 101 101 34.77569580078125 27.09426116943359375 19.443048477172851562 16.004800796508789062 13.250332832336425781 11.529841423034667969 10.12802886962890625 9.1108808517456054688 8.2647113800048828125 7.8489089012145996094 7.4281239509582519531 7.0720305442810058594 6.7751169204711914062 6.4514737129211425781 6.1222195625305175781 5.8016695976257324219 5.4982805252075195312 5.2268214225769042969 4.990818023681640625 4.7748951911926269531 4.5860924720764160156 4.4074687957763671875 4.239776611328125 4.0831561088562011719 4.0891523361206054688 4.2883238792419433594 4.5149478912353515625 4.7751216888427734375 5.0768895149230957031 5.4310927391052246094 5.85269927978515625 6.3629717826843261719 6.9931664466857910156 7.7911896705627441406 8.8343801498413085938 10.256221771240234375 12.308590888977050781 15.530393600463867188 21.319349288940429688 34.77569580078125 101 101 34.77569580078125 21.319349288940429688 15.530393600463867188 13.250332832336425781 16.004800796508789062 19.071397781372070312 20.655321121215820312 20.655321121215820312 19.071397781372070312 16.004800796508789062 15.022253990173339844 14.445570945739746094 13.079790115356445312 11.898753166198730469 13.079877853393554688 14.445601463317871094 16.004917144775390625 19.443159103393554688 27.094348907470703125 34.77569580078125 101 101 34.77569580078125 27.09426116943359375 20.655321121215820312 20.655321121215820312 19.071397781372070312 16.004800796508789062 13.250332832336425781 12.308590888977050781 15.530393600463867188 21.319349288940429688 34.77569580078125 101 101 34.77569580078125 27.09426116943359375 21.319349288940429688 34.77569580078125 101 101 34.77569580078125 33.85323333740234375 34.77569580078125 101 101 101 34.77569580078125 34.77569580078125 101 101 34.77569580078125 27.09426116943359375 20.655321121215820312 20.655321121215820312 
6.7634487152099609375 7.2375226020812988281 8.0096750259399414062 8.9599504470825195312 10.128223419189453125 11.530012130737304688 13.250537872314453125 16.004974365234375 19.071475982666015625 20.655321121215820312 19.443271636962890625 27.094434738159179688 34.775909423828125 101 101 34.775909423828125 34.775909423828125 101 34.775909423828125 101 101 101 101 34.775909423828125 33.85323333740234375 33.85323333740234375 33.85323333740234375 33.85323333740234375 33.85323333740234375 33.85323333740234375 27.094348907470703125 19.443159103393554688 16.00485992431640625 13.250401496887207031 11.52988433837890625 10.128077507019042969 9.1109142303466796875 8.2647485733032226562 7.5957121849060058594 7.0720386505126953125 6.7751288414001464844 6.4514889717102050781 6.2261652946472167969 5.9838886260986328125 5.7296361923217773438 5.4747004508972167969 5.2268395423889160156 4.99083709716796875 4.7749114036560058594 4.5861096382141113281 4.4102864265441894531 4.2558240890502929688 4.1088089942932128906 3.9698026180267333984 4.11191558837890625 4.3014636039733886719 4.514980316162109375 4.7751560211181640625 5.0769262313842773438 5.4311327934265136719 5.8527431488037109375 6.3630194664001464844 6.9932198524475097656 7.7912492752075195312 8.8344478607177734375 10.256300926208496094 12.308685302734375 15.530510902404785156 21.319501876831054688 34.775909423828125 101 34.775909423828125 27.094348907470703125 19.443159103393554688 14.836871147155761719 11.983293533325195312 13.079819679260253906 14.445580482482910156 15.022253990173339844 15.022253990173339844 14.445580482482910156 13.079819679260253906 11.898753166198730469 11.630177497863769531 13.079906463623046875 14.445611000061035156 16.004974365234375 19.071475982666015625 20.655321121215820312 27.094434738159179688 34.775909423828125 101 101 34.775909423828125 27.094348907470703125 19.443159103393554688 16.00485992431640625 15.022253990173339844 14.445580482482910156 13.079906463623046875 14.445611000061035156 15.022253990173339844 16.004974365234375 21.319501876831054688 34.775909423828125 101 34.775909423828125 27.094348907470703125 27.094434738159179688 33.85323333740234375 34.775909423828125 101 34.775909423828125 34.775909423828125 101 101 101 101 101 101 101 101 34.775909423828125 27.094348907470703125 19.443159103393554688 16.00485992431640625 15.022253990173339844 
6.8108735084533691406 7.5272569656372070312 8.432804107666015625 9.6048488616943359375 11.15850830078125 13.250606536865234375 16.005031585693359375 19.44338226318359375 27.094522476196289062 33.85323333740234375 27.094522476196289062 34.776119232177734375 101 101 34.776119232177734375 27.094522476196289062 34.776119232177734375 101 34.776119232177734375 101 34.776119232177734375 33.85323333740234375 33.85323333740234375 27.094434738159179688 20.655321121215820312 20.655321121215820312 20.655321121215820312 20.655321121215820312 20.655321121215820312 20.655321121215820312 19.071451187133789062 16.004917144775390625 13.250469207763671875 11.529926300048828125 10.128126144409179688 9.1109476089477539062 8.2647857666015625 7.5957398414611816406 7.0302586555480957031 6.5575318336486816406 6.2261743545532226562 5.9839005470275878906 5.7626256942749023438 5.5779080390930175781 5.3792562484741210938 5.1752099990844726562 4.9722561836242675781 4.7749280929565429688 4.5861272811889648438 4.41030120849609375 4.2558393478393554688 4.1099085807800292969 3.981204986572265625 3.9924042224884033203 4.1721172332763671875 4.3737630844116210938 4.601360321044921875 4.8598809242248535156 5.155498504638671875 5.4958901405334472656 5.8905582427978515625 6.363067626953125 6.9932727813720703125 7.7913088798522949219 8.8345155715942382812 10.256381034851074219 12.308779716491699219 15.530627250671386719 21.319654464721679688 34.776119232177734375 101 34.776119232177734375 21.319654464721679688 16.004917144775390625 13.250469207763671875 11.158372879028320312 10.933252334594726562 11.630162239074707031 11.898753166198730469 11.898753166198730469 11.630182266235351562 11.898753166198730469 13.079936027526855469 14.445621490478515625 16.005031585693359375 19.071502685546875 20.655321121215820312 27.094522476196289062 33.85323333740234375 34.776119232177734375 101 101 34.776119232177734375 27.094434738159179688 19.443271636962890625 16.004917144775390625 13.250469207763671875 14.445621490478515625 15.022253990173339844 16.005031585693359375 19.071502685546875 20.655321121215820312 20.655321121215820312 27.094522476196289062 34.776119232177734375 101 34.776119232177734375 33.85323333740234375 34.776119232177734375 101 101 101 101 101 101 101 101 101 101 101 34.776119232177734375 33.85323333740234375 33.85323333740234375 27.094522476196289062 19.44338226318359375 14.837072372436523438 11.983466148376464844 
6.9460978507995605469 7.7223019599914550781 8.7279205322265625 10.079344749450683594 11.983552932739257812 14.837172508239746094 19.443494796752929688 27.094610214233398438 34.77632904052734375 101 34.77632904052734375 101 101 34.77632904052734375 27.094522476196289062 34.77632904052734375 101 101 101 101 34.77632904052734375 21.319807052612304688 20.655321121215820312 19.071475982666015625 16.004974365234375 15.022253990173339844 15.022253990173339844 15.022253990173339844 15.022253990173339844 15.022253990173339844 14.445601463317871094 13.079877853393554688 11.529969215393066406 10.128174781799316406 9.3712244033813476562 8.8179912567138671875 8.2037782669067382812 7.5959072113037109375 7.0304417610168457031 6.5214996337890625 6.0709362030029296875 5.6748547554016113281 5.3792676925659179688 5.225101470947265625 5.0679454803466796875 4.9033069610595703125 4.7363781929016113281 4.5711102485656738281 4.4103159904479980469 4.2558550834655761719 4.1099224090576171875 3.9812192916870117188 3.883396148681640625 4.0429086685180664062 4.2214670181274414062 4.4334468841552734375 4.674407958984375 4.9504842758178710938 5.2695722579956054688 5.6419529914855957031 6.0811529159545898438 6.6051077842712402344 7.2376141548156738281 8.0097723007202148438 8.9600496292114257812 10.256460189819335938 12.308874130249023438 15.530744552612304688 21.319807052612304688 34.77632904052734375 101 34.77632904052734375 21.319807052612304688 15.530744552612304688 12.308874130249023438 10.256460189819335938 9.3712244033813476562 10.128320693969726562 11.530097007751464844 13.079964637756347656 14.445631980895996094 15.022253990173339844 16.005090713500976562 19.071529388427734375 20.655321121215820312 27.094610214233398438 33.85323333740234375 34.77632904052734375 101 101 101 34.77632904052734375 27.094522476196289062 19.44338226318359375 16.004974365234375 14.445631980895996094 16.005090713500976562 19.071529388427734375 20.655321121215820312 20.655321121215820312 27.094610214233398438 33.85323333740234375 33.85323333740234375 34.77632904052734375 101 101 34.77632904052734375 101 101 101 101 34.77632904052734375 101 101 101 101 101 101 34.77632904052734375 101 101 101 101 34.77632904052734375 21.319807052612304688 15.530744552612304688 12.308874130249023438 
6.9933791160583496094 7.7914280891418457031 8.834651947021484375 10.256539344787597656 12.308969497680664062 15.530861854553222656 21.319959640502929688 34.776538848876953125 101 101 101 101 34.776538848876953125 27.094610214233398438 27.094697952270507812 34.776538848876953125 101 34.776538848876953125 33.85323333740234375 33.85323333740234375 27.094610214233398438 19.443494796752929688 15.022253990173339844 14.445611000061035156 13.079906463623046875 11.898753166198730469 11.898753166198730469 11.898753166198730469 11.898753166198730469 11.898753166198730469 11.630191802978515625 11.898753166198730469 11.898753166198730469 11.630191802978515625 10.933346748352050781 10.032324790954589844 9.1111497879028320312 8.265010833740234375 7.5250940322875976562 6.8911342620849609375 6.3511605262756347656 5.8906307220458984375 5.4959588050842285156 5.1555643081665039062 4.859943389892578125 4.6575541496276855469 4.5194573402404785156 4.3805861473083496094 4.2434687614440917969 4.109935760498046875 3.9812335968017578125 3.8581755161285400391 3.9418683052062988281 4.1119914054870605469 4.3015427589416503906 4.5137014389038085938 4.7522568702697753906 5.0216946601867675781 5.3571577072143554688 5.7556204795837402344 6.2320890426635742188 6.810970306396484375 7.527362823486328125 8.4329204559326171875 9.6049757003784179688 11.158643722534179688 13.250742912292480469 16.005147933959960938 21.319959640502929688 34.776538848876953125 101 34.776538848876953125 21.319959640502929688 15.530861854553222656 12.308969497680664062 10.256539344787597656 10.933346748352050781 11.630191802978515625 13.250742912292480469 16.005147933959960938 19.07155609130859375 20.655321121215820312 20.655321121215820312 27.094697952270507812 33.85323333740234375 34.776538848876953125 101 101 101 34.776538848876953125 33.85323333740234375 27.094610214233398438 19.443494796752929688 16.005031585693359375 16.005147933959960938 19.07155609130859375 20.655321121215820312 27.094697952270507812 33.85323333740234375 33.85323333740234375 34.776538848876953125 101 101 101 101 101 101 101 34.776538848876953125 33.85323333740234375 33.85323333740234375 27.094610214233398438 33.85323333740234375 33.85323333740234375 33.85323333740234375 33.85323333740234375 34.776538848876953125 101 101 101 34.776538848876953125 33.85323333740234375 33.85323333740234375 27.094610214233398438 19.443494796752929688 14.837172508239746094 11.983552932739257812 
6.9934325218200683594 7.7914881706237792969 8.834720611572265625 10.256618499755859375 12.309063911437988281 15.530979156494140625 21.320112228393554688 34.776752471923828125 101 101 34.776752471923828125 33.85323333740234375 27.094697952270507812 21.320112228393554688 34.776752471923828125 101 101 34.776752471923828125 21.320112228393554688 20.655321121215820312 19.071529388427734375 16.005090713500976562 13.250674247741699219 11.630177497863769531 10.933300018310546875 10.032351493835449219 10.933362960815429688 11.630196571350097656 11.898753166198730469 13.080022811889648438 14.445652008056640625 15.022253990173339844 15.022253990173339844 14.445652008056640625 13.080022811889648438 11.530181884765625 10.12841796875 8.9601488113403320312 8.009868621826171875 7.2377061843872070312 6.6051945686340332031 6.0812344551086425781 5.64202880859375 5.2696437835693359375 4.9505515098571777344 4.7365293502807617188 4.5712766647338867188 4.4104948043823242188 4.2560429573059082031 4.1090359687805175781 3.9700343608856201172 3.8392064571380615234 3.9924809932708740234 4.1721978187561035156 4.3738474845886230469 4.6014494895935058594 4.8599748611450195312 5.1555972099304199219 5.4959936141967773438 5.890666961669921875 6.3511981964111328125 6.9462018013000488281 7.7224178314208984375 8.7280511856079101562 10.079494476318359375 11.983725547790527344 14.837373733520507812 19.44371795654296875 27.094783782958984375 34.776752471923828125 101 34.776752471923828125 21.320112228393554688 15.530979156494140625 12.309063911437988281 11.898753166198730469 13.080022811889648438 14.445652008056640625 16.005205154418945312 19.44371795654296875 27.094783782958984375 33.85323333740234375 33.85323333740234375 34.776752471923828125 101 101 101 34.776752471923828125 33.85323333740234375 27.094697952270507812 20.655321121215820312 20.655321121215820312 20.655321121215820312 20.655321121215820312 20.655321121215820312 27.094783782958984375 33.85323333740234375 34.776752471923828125 101 101 101 101 34.776752471923828125 33.85323333740234375 33.85323333740234375 33.85323333740234375 33.85323333740234375 33.85323333740234375 27.094697952270507812 20.655321121215820312 20.655321121215820312 20.655321121215820312 20.655321121215820312 20.655321121215820312 27.094783782958984375 34.776752471923828125 101 101 101 101 101 34.776752471923828125 33.85323333740234375 27.094783782958984375 19.44371795654296875 15.022253990173339844 14.445652008056640625 
6.9934854507446289062 7.7915477752685546875 8.8347883224487304688 10.256697654724121094 12.3091583251953125 15.531096458435058594 21.320264816284179688 34.7769622802734375 101 101 34.7769622802734375 27.09487152099609375 20.655321121215820312 27.09487152099609375 34.7769622802734375 101 34.7769622802734375 27.094783782958984375 19.44371795654296875 15.022253990173339844 14.445631980895996094 13.079964637756347656 11.530097007751464844 10.933379173278808594 11.630201339721679688 11.898753166198730469 13.080052375793457031 14.445662498474121094 15.022253990173339844 16.005262374877929688 19.071607589721679688 20.655321121215820312 20.655321121215820312 19.071607589721679688 16.005262374877929688 13.250880241394042969 11.158779144287109375 9.6051025390625 8.4330358505249023438 7.5274686813354492188 6.8110671043395996094 6.232177734375 5.7557024955749511719 5.3794050216674804688 5.1753854751586914062 4.9724531173706054688 4.7751412391662597656 4.5863528251647949219 4.4077386856079101562 4.2400517463684082031 4.0834341049194335938 3.9376325607299804688 4.0337276458740234375 4.2215514183044433594 4.4335360527038574219 4.6745023727416992188 4.9505848884582519531 5.2696795463562011719 5.64206695556640625 6.0812749862670898438 6.6052379608154296875 7.2377524375915527344 8.0099172592163085938 8.9601984024047851562 10.256697654724121094 12.3091583251953125 15.531096458435058594 21.320264816284179688 34.7769622802734375 101 101 34.7769622802734375 21.320264816284179688 15.531096458435058594 15.022253990173339844 15.022253990173339844 16.005262374877929688 19.071607589721679688 20.655321121215820312 27.09487152099609375 34.7769622802734375 101 101 101 101 34.7769622802734375 33.85323333740234375 33.85323333740234375 33.85323333740234375 33.85323333740234375 33.85323333740234375 33.85323333740234375 33.85323333740234375 33.85323333740234375 33.85323333740234375 34.7769622802734375 101 101 101 34.7769622802734375 33.85323333740234375 33.85323333740234375 27.094783782958984375 20.655321121215820312 20.655321121215820312 20.655321121215820312 20.655321121215820312 20.655321121215820312 20.655321121215820312 27.09487152099609375 33.85323333740234375 33.85323333740234375 33.85323333740234375 33.85323333740234375 34.7769622802734375 101 101 101 101 34.7769622802734375 101 101 101 34.7769622802734375 21.320264816284179688 20.655321121215820312 19.071607589721679688 
7.5960183143615722656 8.2038717269897460938 8.8180589675903320312 10.079568862915039062 11.983811378479003906 14.837473869323730469 19.443830490112304688 27.09487152099609375 34.777172088623046875 101 101 34.777172088623046875 33.85323333740234375 34.777172088623046875 101 101 34.777172088623046875 21.3204193115234375 16.005205154418945312 13.250811576843261719 11.630187034606933594 10.933394432067871094 11.630206108093261719 13.080080986022949219 14.445672035217285156 15.022253990173339844 16.005321502685546875 19.071634292602539062 20.655321121215820312 20.655321121215820312 27.094959259033203125 33.85323333740234375 33.85323333740234375 27.094959259033203125 19.443941116333007812 14.837574005126953125 11.983898162841796875 10.07964324951171875 8.7281818389892578125 7.7225332260131835938 6.9463052749633789062 6.3296084403991699219 5.9840540885925292969 5.7298388481140136719 5.474933624267578125 5.2270960807800292969 4.9911098480224609375 4.76953125 4.5633792877197265625 4.3726825714111328125 4.1968755722045898438 4.0350666046142578125 4.1090683937072753906 4.2582693099975585938 4.4781928062438964844 4.729534149169921875 5.0194220542907714844 5.3572716712951660156 5.7557435035705566406 6.2322220802307128906 6.811115264892578125 7.5275216102600097656 8.433094024658203125 9.6051654815673828125 11.158846855163574219 13.250947952270507812 16.005321502685546875 21.3204193115234375 34.777172088623046875 101 34.777172088623046875 27.09487152099609375 19.443830490112304688 20.655321121215820312 20.655321121215820312 20.655321121215820312 20.655321121215820312 27.094959259033203125 33.85323333740234375 34.777172088623046875 101 101 34.777172088623046875 33.85323333740234375 33.85323333740234375 33.85323333740234375 34.777172088623046875 101 101 101 101 101 101 101 101 101 101 34.777172088623046875 33.85323333740234375 27.09487152099609375 20.655321121215820312 20.655321121215820312 19.071634292602539062 20.655321121215820312 27.094959259033203125 33.85323333740234375 33.85323333740234375 33.85323333740234375 33.85323333740234375 34.777172088623046875 101 101 101 101 101 101 34.777172088623046875 101 101 101 34.777172088623046875 33.85323333740234375 33.85323333740234375 33.85323333740234375 33.85323333740234375 33.85323333740234375 27.094959259033203125 
8.2651605606079101562 9.1112852096557617188 10.032430648803710938 10.93341064453125 11.63021087646484375 13.251016616821289062 16.00537872314453125 19.44405364990234375 27.0950469970703125 34.777385711669921875 101 34.777385711669921875 101 101 101 34.777385711669921875 27.094959259033203125 19.443941116333007812 14.837574005126953125 11.983898162841796875 11.530309677124023438 13.080110549926757812 14.445682525634765625 16.00537872314453125 19.071659088134765625 20.655321121215820312 20.655321121215820312 27.0950469970703125 33.85323333740234375 33.85323333740234375 34.777385711669921875 101 101 34.777385711669921875 21.3205718994140625 15.531331062316894531 12.309348106384277344 10.256855964660644531 8.8349246978759765625 7.7916669845581054688 7.072147369384765625 6.7752947807312011719 6.4517064094543457031 6.1224970817565917969 5.8019795417785644531 5.4986124038696289062 5.2165732383728027344 4.9572343826293945312 4.7202877998352050781 4.5045104026794433594 4.3082475662231445312 4.1297020912170410156 4.2400884628295898438 4.4077744483947753906 4.5863871574401855469 4.7751741409301757812 5.0625257492065429688 5.4125370979309082031 5.828174591064453125 6.3296551704406738281 6.9463572502136230469 7.722591400146484375 8.7282476425170898438 10.079718589782714844 11.983984947204589844 14.837674140930175781 19.44405364990234375 27.0950469970703125 34.777385711669921875 101 34.777385711669921875 21.3205718994140625 27.0950469970703125 33.85323333740234375 33.85323333740234375 33.85323333740234375 33.85323333740234375 34.777385711669921875 101 101 101 34.777385711669921875 33.85323333740234375 34.777385711669921875 101 101 101 101 34.777385711669921875 33.85323333740234375 33.85323333740234375 33.85323333740234375 33.85323333740234375 33.85323333740234375 33.85323333740234375 33.85323333740234375 33.85323333740234375 27.094959259033203125 20.655321121215820312 19.071607589721679688 16.00537872314453125 19.44405364990234375 27.0950469970703125 33.85323333740234375 34.777385711669921875 101 101 101 101 101 101 34.777385711669921875 33.85323333740234375 33.85323333740234375 33.85323333740234375 33.85323333740234375 27.094959259033203125 33.85323333740234375 34.777385711669921875 101 101 101 101 101 101 101 34.777385711669921875 
9.1113185882568359375 10.128612518310546875 11.530352592468261719 13.08013916015625 14.445693016052246094 16.005435943603515625 19.444164276123046875 27.095132827758789062 34.77759552001953125 101 101 101 101 34.77759552001953125 33.85323333740234375 27.0950469970703125 19.44405364990234375 16.005321502685546875 13.250947952270507812 11.158982276916503906 13.251085281372070312 16.005435943603515625 19.071685791015625 20.655321121215820312 27.095132827758789062 33.85323333740234375 33.85323333740234375 34.77759552001953125 101 101 101 101 34.77759552001953125 27.0950469970703125 19.44405364990234375 14.837674140930175781 11.983984947204589844 10.079718589782714844 8.7282476425170898438 8.2073965072631835938 7.8490777015686035156 7.4283709526062011719 6.9882535934448242188 6.5578403472900390625 6.1535267829895019531 5.7826385498046875 5.4469437599182128906 5.145198822021484375 4.8747377395629882812 4.6323847770690917969 4.414936065673828125 4.2193918228149414062 4.3727245330810546875 4.5634207725524902344 4.7695717811584472656 4.9911484718322753906 5.2271323204040527344 5.4749670028686523438 5.8530917167663574219 6.3634028434753417969 6.9936451911926269531 7.7917270660400390625 8.8349933624267578125 10.25693511962890625 12.309442520141601562 15.531447410583496094 21.3207244873046875 34.77759552001953125 101 101 34.77759552001953125 33.85323333740234375 34.77759552001953125 101 101 101 101 101 101 34.77759552001953125 33.85323333740234375 34.77759552001953125 101 101 101 34.77759552001953125 33.85323333740234375 33.85323333740234375 27.0950469970703125 20.655321121215820312 20.655321121215820312 20.655321121215820312 20.655321121215820312 20.655321121215820312 20.655321121215820312 20.655321121215820312 20.655321121215820312 19.071634292602539062 16.005435943603515625 19.071685791015625 20.655321121215820312 27.095132827758789062 34.77759552001953125 101 101 101 34.77759552001953125 33.85323333740234375 33.85323333740234375 33.85323333740234375 33.85323333740234375 27.0950469970703125 20.655321121215820312 20.655321121215820312 20.655321121215820312 20.655321121215820312 20.655321121215820312 20.655321121215820312 27.0950469970703125 33.85323333740234375 33.85323333740234375 34.77759552001953125 101 101 34.77759552001953125 33.85323333740234375 27.095132827758789062 
10.128661155700683594 11.5303955078125 13.251153945922851562 16.0054931640625 19.071712493896484375 20.655321121215820312 27.095220565795898438 34.77780914306640625 101 101 101 101 34.77780914306640625 27.095132827758789062 20.655321121215820312 19.071659088134765625 16.00537872314453125 13.251016616821289062 11.530267715454101562 11.984157562255859375 14.8378753662109375 19.444276809692382812 27.095220565795898438 33.85323333740234375 34.77780914306640625 101 101 101 101 34.77780914306640625 33.85323333740234375 33.85323333740234375 27.095132827758789062 19.444164276123046875 16.00537872314453125 13.251016616821289062 11.158914566040039062 9.9132900238037109375 9.767658233642578125 9.3712892532348632812 8.8181095123291015625 8.20394134521484375 7.5961022377014160156 7.0306549072265625 6.5217213630676269531 6.0711598396301269531 5.675075531005859375 5.3274397850036621094 5.02187347412109375 4.7524290084838867188 4.5138669013977050781 4.3082933425903320312 4.5045571327209472656 4.7203350067138671875 4.9572811126708984375 5.2166190147399902344 5.4986567497253417969 5.8020205497741699219 6.1225337982177734375 6.4517378807067871094 6.9936981201171875 7.7917866706848144531 8.8350610733032226562 10.257014274597167969 12.309536933898925781 15.531564712524414062 21.3208770751953125 34.77780914306640625 101 101 34.77780914306640625 101 101 101 34.77780914306640625 33.85323333740234375 33.85323333740234375 33.85323333740234375 33.85323333740234375 33.85323333740234375 34.77780914306640625 101 101 34.77780914306640625 33.85323333740234375 27.095132827758789062 20.655321121215820312 20.655321121215820312 19.071659088134765625 16.00537872314453125 15.022253990173339844 15.022253990173339844 15.022253990173339844 15.022253990173339844 15.022253990173339844 15.022253990173339844 15.022253990173339844 16.0054931640625 19.444276809692382812 27.095220565795898438 33.85323333740234375 34.77780914306640625 101 101 34.77780914306640625 33.85323333740234375 27.095132827758789062 20.655321121215820312 27.095220565795898438 33.85323333740234375 33.85323333740234375 33.85323333740234375 33.85323333740234375 33.85323333740234375 33.85323333740234375 33.85323333740234375 33.85323333740234375 33.85323333740234375 27.095220565795898438 20.655321121215820312 20.655321121215820312 27.095132827758789062 34.77780914306640625 101 101 101 34.77780914306640625 
11.530438423156738281 13.251221656799316406 16.005552291870117188 19.444387435913085938 27.095308303833007812 33.85323333740234375 34.778018951416015625 101 101 34.778018951416015625 33.85323333740234375 33.85323333740234375 27.095220565795898438 19.444276809692382812 16.005435943603515625 14.445682525634765625 13.080110549926757812 11.530309677124023438 10.257094383239746094 12.30963134765625 15.531682014465332031 21.3210296630859375 34.778018951416015625 101 34.778018951416015625 101 34.778018951416015625 33.85323333740234375 33.85323333740234375 27.095220565795898438 20.655321121215820312 20.655321121215820312 19.071685791015625 16.005435943603515625 13.251085281372070312 11.63022613525390625 11.898753166198730469 11.898753166198730469 11.63022613525390625 10.933457374572753906 10.032509803771972656 9.1113862991333007812 8.2652730941772460938 7.5253658294677734375 6.8914046287536621094 6.3514237403869628906 5.8908834457397460938 5.4962005615234375 5.1557941436767578125 4.8601622581481933594 4.6016278266906738281 4.4149870872497558594 4.6324367523193359375 4.8747911453247070312 5.1452527046203613281 5.4469981193542480469 5.78269195556640625 6.1535782814025878906 6.5578875541687011719 6.9882950782775878906 7.4284038543701171875 7.8491001129150390625 8.7283782958984375 10.079867362976074219 11.984157562255859375 14.8378753662109375 19.444276809692382812 27.095220565795898438 34.778018951416015625 101 101 34.778018951416015625 33.85323333740234375 33.85323333740234375 27.095220565795898438 20.655321121215820312 27.095308303833007812 33.85323333740234375 34.778018951416015625 101 101 101 34.778018951416015625 27.095220565795898438 20.655321121215820312 19.071685791015625 16.005435943603515625 15.022253990173339844 14.445682525634765625 13.080110549926757812 11.898753166198730469 11.898753166198730469 11.898753166198730469 11.898753166198730469 11.898753166198730469 13.251221656799316406 16.005552291870117188 19.444387435913085938 27.095308303833007812 34.778018951416015625 101 101 101 34.778018951416015625 27.095220565795898438 20.655321121215820312 19.444387435913085938 27.095308303833007812 34.778018951416015625 101 101 101 101 101 101 101 101 101 34.778018951416015625 33.85323333740234375 27.095308303833007812 27.095308303833007812 33.85323333740234375 33.85323333740234375 33.85323333740234375 33.85323333740234375 33.85323333740234375 
13.251290321350097656 16.005609512329101562 19.444499969482421875 27.095394134521484375 34.778228759765625 101 101 101 34.778228759765625 27.095308303833007812 20.655321121215820312 20.655321121215820312 19.071712493896484375 16.0054931640625 13.251153945922851562 11.63021087646484375 10.93341064453125 10.032430648803710938 10.257173538208007812 12.309726715087890625 15.53179931640625 21.3211822509765625 34.778228759765625 101 101 101 34.778228759765625 21.3211822509765625 20.655321121215820312 19.071712493896484375 16.0054931640625 15.022253990173339844 14.445693016052246094 13.08013916015625 13.080226898193359375 14.445723533630371094 15.022253990173339844 15.022253990173339844 14.445723533630371094 13.080226898193359375 11.530480384826660156 10.128757476806640625 8.9604969024658203125 8.0102071762084960938 7.2380285263061523438 6.6054978370666503906 6.0815186500549316406 5.6422953605651855469 5.269893646240234375 4.9507861137390136719 4.6746921539306640625 4.5139222145080566406 4.7524862289428710938 5.0219330787658691406 5.3275012969970703125 5.6751384735107421875 6.0712232589721679688 6.5217847824096679688 7.0307159423828125 7.5961580276489257812 8.2039880752563476562 8.8181438446044921875 9.3713083267211914062 9.7676639556884765625 11.159050941467285156 13.251153945922851562 16.0054931640625 19.444387435913085938 27.095308303833007812 33.85323333740234375 33.85323333740234375 27.095308303833007812 20.655321121215820312 27.095394134521484375 33.85323333740234375 33.85323333740234375 34.778228759765625 101 101 101 34.778228759765625 33.85323333740234375 27.095308303833007812 19.444387435913085938 16.0054931640625 14.445693016052246094 13.08013916015625 11.898753166198730469 11.63021087646484375 10.93341064453125 10.032430648803710938 10.128757476806640625 11.530480384826660156 13.080226898193359375 14.445723533630371094 16.005609512329101562 19.444499969482421875 27.095394134521484375 34.778228759765625 101 101 34.778228759765625 33.85323333740234375 27.095308303833007812 19.444387435913085938 20.655321121215820312 27.095394134521484375 34.778228759765625 101 101 34.778228759765625 33.85323333740234375 33.85323333740234375 33.85323333740234375 33.85323333740234375 33.85323333740234375 34.778228759765625 101 101 101 34.778228759765625 34.778228759765625 101 34.778228759765625 34.778228759765625 101 101 
14.838176727294921875 19.444610595703125 27.09548187255859375 34.7784423828125 101 101 101 34.7784423828125 27.095394134521484375 19.444499969482421875 16.005552291870117188 15.022253990173339844 14.445703506469726562 13.080168724060058594 11.5303955078125 10.128661155700683594 9.3712711334228515625 8.8180761337280273438 10.08001708984375 11.984330177307128906 14.838076591491699219 19.444499969482421875 27.095394134521484375 34.7784423828125 101 34.7784423828125 27.095394134521484375 19.444499969482421875 15.022253990173339844 14.445703506469726562 13.080168724060058594 11.898753166198730469 11.630216598510742188 13.251358985900878906 16.005666732788085938 19.071790695190429688 20.655321121215820312 20.655321121215820312 19.071790695190429688 16.005666732788085938 13.251358985900878906 11.159254074096679688 9.6055450439453125 8.4334421157836914062 7.5278387069702148438 6.8114056587219238281 6.2324886322021484375 5.7559895515441894531 5.3574995994567871094 5.019634246826171875 4.7297320365905761719 4.6016874313354492188 4.8602247238159179688 5.1558599472045898438 5.4962697029113769531 5.8909559249877929688 6.3514986038208007812 6.8914818763732910156 7.5254435539245605469 8.2653484344482421875 9.1114530563354492188 10.032563209533691406 10.933489799499511719 11.630235671997070312 11.898753166198730469 11.898753166198730469 13.251221656799316406 16.005552291870117188 19.07173919677734375 20.655321121215820312 20.655321121215820312 27.09548187255859375 33.85323333740234375 34.7784423828125 101 101 101 101 34.7784423828125 33.85323333740234375 27.095394134521484375 20.655321121215820312 19.07173919677734375 16.005552291870117188 13.251221656799316406 11.630216598510742188 10.9334259033203125 10.032457351684570312 9.7676534652709960938 9.3713169097900390625 10.032563209533691406 11.159254074096679688 13.251358985900878906 16.005666732788085938 19.071790695190429688 20.655321121215820312 27.09548187255859375 34.7784423828125 101 101 34.7784423828125 27.095394134521484375 20.655321121215820312 19.444610595703125 27.09548187255859375 33.85323333740234375 34.7784423828125 101 101 101 101 101 34.7784423828125 33.85323333740234375 27.09548187255859375 20.655321121215820312 27.095394134521484375 33.85323333740234375 34.7784423828125 101 101 101 101 34.7784423828125 34.7784423828125 101 101 
15.532033920288085938 21.321489334106445312 34.778652191162109375 101 101 34.778652191162109375 33.85323333740234375 27.09548187255859375 19.444610595703125 16.005609512329101562 13.251290321350097656 11.898753166198730469 11.630221366882324219 10.933442115783691406 10.032484054565429688 9.1113519668579101562 8.26523590087890625 8.433383941650390625 9.6054821014404296875 11.159186363220214844 13.251290321350097656 16.005609512329101562 19.444610595703125 27.09548187255859375 33.85323333740234375 27.09548187255859375 19.444610595703125 16.005609512329101562 13.251290321350097656 11.630221366882324219 10.933442115783691406 10.080166816711425781 11.984503746032714844 14.838276863098144531 19.444723129272460938 27.095569610595703125 33.85323333740234375 33.85323333740234375 27.095569610595703125 19.444723129272460938 14.838276863098144531 11.984503746032714844 10.080166816711425781 8.7286396026611328125 7.7229390144348144531 6.9466691017150878906 6.3299374580383300781 5.8284325599670410156 5.4127740859985351562 5.0627450942993164062 4.7639904022216796875 4.674755096435546875 4.9508533477783203125 5.2699651718139648438 5.6423716545104980469 6.0815997123718261719 6.6055846214294433594 7.2381205558776855469 8.0103044509887695312 8.9605970382690429688 10.128854751586914062 11.530566215515136719 13.080285072326660156 14.445743560791015625 15.022253990173339844 15.022253990173339844 14.445743560791015625 15.022253990173339844 16.005723953247070312 19.444723129272460938 27.095569610595703125 34.778652191162109375 101 101 101 34.778652191162109375 33.85323333740234375 33.85323333740234375 27.09548187255859375 20.655321121215820312 19.071763992309570312 16.005609512329101562 14.445713043212890625 13.080197334289550781 11.530438423156738281 10.128708839416503906 9.3712797164916992188 9.1114873886108398438 10.032589912414550781 10.933505058288574219 11.630240440368652344 13.080285072326660156 14.838276863098144531 19.444723129272460938 27.095569610595703125 33.85323333740234375 34.778652191162109375 101 101 34.778652191162109375 27.09548187255859375 19.444610595703125 19.444723129272460938 27.095569610595703125 34.778652191162109375 101 101 101 101 101 34.778652191162109375 101 101 101 34.778652191162109375 27.095569610595703125 33.85323333740234375 33.85323333740234375 27.095569610595703125 34.778652191162109375 101 101 101 101 101 101 101 
15.532151222229003906 21.321641921997070312 34.77886199951171875 101 101 34.77886199951171875 21.321641921997070312 19.071790695190429688 16.005666732788085938 13.251358985900878906 11.530480384826660156 10.128757476806640625 9.767658233642578125 9.3712892532348632812 8.8181095123291015625 8.20394134521484375 7.5961022377014160156 8.0102071762084960938 8.9604969024658203125 10.128757476806640625 11.530480384826660156 13.251358985900878906 16.005666732788085938 19.071790695190429688 20.655321121215820312 19.071790695190429688 16.005666732788085938 13.251358985900878906 11.530480384826660156 10.128757476806640625 9.3712892532348632812 10.257411003112792969 12.310010910034179688 15.532151222229003906 21.321641921997070312 34.77886199951171875 101 101 34.77886199951171875 21.321641921997070312 15.532151222229003906 12.310010910034179688 10.257411003112792969 8.8354024887084960938 7.7920856475830078125 6.9939641952514648438 6.3636903762817382812 5.8533530235290527344 5.4316926002502441406 5.0774431228637695312 4.7756357192993164062 4.7297983169555664062 5.0197048187255859375 5.3575754165649414062 5.7560715675354003906 6.2325778007507324219 6.8115024566650390625 7.5279450416564941406 8.4335575103759765625 9.6056718826293945312 11.159389495849609375 13.251495361328125 16.0057830810546875 19.071842193603515625 20.655321121215820312 20.655321121215820312 19.071842193603515625 20.655321121215820312 20.655321121215820312 27.0956573486328125 34.77886199951171875 101 101 34.77886199951171875 33.85323333740234375 27.095569610595703125 20.655321121215820312 20.655321121215820312 19.071790695190429688 16.005666732788085938 14.445723533630371094 13.080226898193359375 11.63022613525390625 10.933457374572753906 10.032509803771972656 9.1113862991333007812 9.3713359832763671875 10.128903388977050781 11.530608177185058594 13.080313682556152344 14.445754051208496094 16.0057830810546875 19.071842193603515625 21.321641921997070312 34.77886199951171875 101 101 101 34.77886199951171875 27.095569610595703125 20.655321121215820312 20.655321121215820312 27.0956573486328125 34.77886199951171875 101 101 34.77886199951171875 101 101 101 101 101 34.77886199951171875 33.85323333740234375 27.095569610595703125 34.77886199951171875 101 101 34.77886199951171875 101 101 101 101 101 101 34.77886199951171875 33.85323333740234375 
14.838377952575683594 19.444835662841796875 27.0956573486328125 33.85323333740234375 33.85323333740234375 27.0956573486328125 19.444835662841796875 14.838377952575683594 13.080255508422851562 11.530523300170898438 10.128806114196777344 9.111419677734375 8.4522523880004882812 8.2074031829833984375 7.8490891456604003906 7.4283876419067382812 6.9882740974426269531 7.5254049301147460938 8.2653112411499023438 9.111419677734375 10.128806114196777344 11.530523300170898438 13.080255508422851562 14.445734024047851562 15.022253990173339844 14.445734024047851562 13.080255508422851562 11.530523300170898438 10.128806114196777344 9.111419677734375 8.7287054061889648438 10.080241203308105469 11.984589576721191406 14.838377952575683594 19.444835662841796875 27.0956573486328125 34.77907562255859375 101 34.77907562255859375 21.321794509887695312 15.532268524169921875 12.310105323791503906 10.257491111755371094 8.8354701995849609375 7.7921452522277832031 6.9940176010131835938 6.3637380599975585938 5.8533968925476074219 5.4317326545715332031 5.0774798393249511719 4.7756700515747070312 4.7640585899353027344 5.0628180503845214844 5.412853240966796875 5.8285183906555175781 6.3300313949584960938 6.9467730522155761719 7.7230548858642578125 8.7287702560424804688 10.080315589904785156 11.984676361083984375 14.83847808837890625 19.4449462890625 27.095745086669921875 33.85323333740234375 33.85323333740234375 27.095745086669921875 33.85323333740234375 33.85323333740234375 34.77907562255859375 101 101 34.77907562255859375 27.0956573486328125 20.655321121215820312 19.071817398071289062 16.005723953247070312 15.022253990173339844 14.445734024047851562 13.080255508422851562 11.630230903625488281 10.933473587036132812 10.032536506652832031 9.9132900238037109375 9.7676744461059570312 10.032642364501953125 10.933536529541015625 11.630249977111816406 13.25156402587890625 16.005840301513671875 19.071868896484375 20.655321121215820312 27.095745086669921875 33.85323333740234375 34.77907562255859375 101 101 34.77907562255859375 27.095745086669921875 27.095745086669921875 33.85323333740234375 33.85323333740234375 34.77907562255859375 101 101 34.77907562255859375 27.0956573486328125 33.85323333740234375 33.85323333740234375 33.85323333740234375 33.85323333740234375 33.85323333740234375 27.0956573486328125 20.655321121215820312 21.321794509887695312 34.77907562255859375 101 101 34.77907562255859375 101 101 101 101 34.77907562255859375 33.85323333740234375 27.0956573486328125 20.655321121215820312 
13.251495361328125 16.0057830810546875 19.071842193603515625 20.655321121215820312 20.655321121215820312 19.071842193603515625 16.0057830810546875 13.251495361328125 11.159389495849609375 10.032563209533691406 9.1114530563354492188 8.2653484344482421875 7.5961580276489257812 7.3153500556945800781 7.0721631050109863281 6.7753186225891113281 6.5217847824096679688 7.0307159423828125 7.5961580276489257812 8.2653484344482421875 9.1114530563354492188 10.032563209533691406 10.933489799499511719 11.630235671997070312 11.898753166198730469 11.630235671997070312 10.933489799499511719 10.032563209533691406 9.1114530563354492188 8.2653484344482421875 8.433673858642578125 9.6057977676391601562 11.159524917602539062 13.2516326904296875 16.00589752197265625 21.321947097778320312 34.779285430908203125 101 34.779285430908203125 21.321947097778320312 15.532385826110839844 12.310199737548828125 10.257570266723632812 8.8355388641357421875 7.7922053337097167969 6.9940710067749023438 6.3637862205505371094 5.8534402847290039062 5.4317727088928222656 5.0775170326232910156 4.7757043838500976562 4.7757043838500976562 5.0775170326232910156 5.4317727088928222656 5.8534402847290039062 6.3637862205505371094 6.9940710067749023438 7.7922053337097167969 8.8355388641357421875 10.257570266723632812 12.310199737548828125 15.532385826110839844 21.321947097778320312 34.779285430908203125 101 101 34.779285430908203125 101 101 101 101 34.779285430908203125 27.095745086669921875 19.4449462890625 16.0057830810546875 14.445743560791015625 13.080285072326660156 11.898753166198730469 11.630255699157714844 11.898753166198730469 11.898753166198730469 11.898753166198730469 11.898753166198730469 11.898753166198730469 11.630255699157714844 11.630255699157714844 13.080371856689453125 14.445774078369140625 16.00589752197265625 19.445058822631835938 27.095830917358398438 33.85323333740234375 34.779285430908203125 101 101 101 101 101 34.779285430908203125 34.779285430908203125 101 101 101 101 34.779285430908203125 27.095745086669921875 19.4449462890625 20.655321121215820312 20.655321121215820312 20.655321121215820312 27.095830917358398438 33.85323333740234375 27.095830917358398438 19.445058822631835938 21.321947097778320312 34.779285430908203125 101 101 101 101 101 101 34.779285430908203125 27.095745086669921875 20.655321121215820312 19.071842193603515625 16.0057830810546875 
11.530608177185058594 13.080313682556152344 14.445754051208496094 15.022253990173339844 15.022253990173339844 14.445754051208496094 13.080313682556152344 11.530608177185058594 10.128903388977050781 8.9606466293334960938 8.2040119171142578125 7.5961856842041015625 7.0307464599609375 6.6134781837463378906 6.4417867660522460938 6.2263140678405761719 6.1536040306091308594 6.5579113960266113281 7.0307464599609375 7.5961856842041015625 8.2040119171142578125 8.8181610107421875 9.3713169097900390625 9.7676668167114257812 9.9132900238037109375 9.7676668167114257812 9.3713169097900390625 8.8181610107421875 8.2040119171142578125 7.7231707572937011719 8.728900909423828125 10.080465316772460938 11.984848976135253906 14.838679313659667969 19.445169448852539062 27.095918655395507812 34.779499053955078125 101 34.779499053955078125 21.322099685668945312 15.532504081726074219 12.31029510498046875 10.257649421691894531 8.8356065750122070312 7.7922649383544921875 6.9941239356994628906 6.363834381103515625 5.8534841537475585938 5.431812286376953125 5.0775537490844726562 4.7757387161254882812 4.7757387161254882812 5.0775537490844726562 5.431812286376953125 5.8534841537475585938 6.363834381103515625 6.9941239356994628906 7.7922649383544921875 8.8356065750122070312 10.257649421691894531 12.31029510498046875 15.532504081726074219 21.322099685668945312 34.779499053955078125 101 101 101 101 34.779499053955078125 33.85323333740234375 33.85323333740234375 27.095830917358398438 19.445058822631835938 16.005840301513671875 13.25156402587890625 11.630240440368652344 11.530736923217773438 13.080401420593261719 14.445784568786621094 15.022253990173339844 15.022253990173339844 15.022253990173339844 15.022253990173339844 15.022253990173339844 14.445784568786621094 14.445784568786621094 16.005954742431640625 19.071920394897460938 20.655321121215820312 27.095918655395507812 34.779499053955078125 101 101 101 34.779499053955078125 33.85323333740234375 34.779499053955078125 101 101 101 101 34.779499053955078125 33.85323333740234375 33.85323333740234375 27.095830917358398438 19.445058822631835938 16.005840301513671875 15.022253990173339844 19.445169448852539062 27.095918655395507812 34.779499053955078125 101 34.779499053955078125 21.322099685668945312 27.095918655395507812 34.779499053955078125 101 101 101 34.779499053955078125 34.779499053955078125 101 34.779499053955078125 21.322099685668945312 16.005840301513671875 14.445754051208496094 13.080313682556152344 
10.03261566162109375 10.933521270751953125 11.630245208740234375 11.898753166198730469 11.898753166198730469 11.630245208740234375 10.933521270751953125 10.03261566162109375 9.1115207672119140625 8.2654237747192382812 7.5255212783813476562 6.9883365631103515625 6.5579352378845214844 6.1536297798156738281 5.9232196807861328125 5.762737274169921875 5.8020620346069335938 6.1536297798156738281 6.5579352378845214844 6.9883365631103515625 7.4284367561340332031 7.8491225242614746094 8.20742034912109375 8.4522581100463867188 8.5397481918334960938 8.4522581100463867188 8.20742034912109375 7.8491225242614746094 7.4284367561340332031 7.7923250198364257812 8.8356752395629882812 10.25772857666015625 12.310389518737792969 15.532621383666992188 21.322254180908203125 34.7797088623046875 101 101 34.7797088623046875 21.322254180908203125 15.532621383666992188 12.310389518737792969 10.25772857666015625 8.8356752395629882812 7.7923250198364257812 6.9941773414611816406 6.3638820648193359375 5.8535275459289550781 5.4318523406982421875 5.0775909423828125 4.7757730484008789062 4.7641267776489257812 5.0628910064697265625 5.4129319190979003906 5.8286042213439941406 6.3301258087158203125 6.9468770027160644531 7.7231707572937011719 8.728900909423828125 10.080465316772460938 11.984848976135253906 14.838679313659667969 19.445169448852539062 27.095918655395507812 33.85323333740234375 33.85323333740234375 33.85323333740234375 33.85323333740234375 27.095918655395507812 20.655321121215820312 20.655321121215820312 19.071895599365234375 16.00589752197265625 13.2516326904296875 11.530651092529296875 11.530778884887695312 13.25177001953125 16.006013870239257812 19.071947097778320312 20.655321121215820312 20.655321121215820312 20.655321121215820312 20.655321121215820312 20.655321121215820312 19.071947097778320312 19.071947097778320312 20.655321121215820312 27.096006393432617188 33.85323333740234375 34.7797088623046875 101 101 34.7797088623046875 33.85323333740234375 27.095918655395507812 20.655321121215820312 27.095918655395507812 33.85323333740234375 33.85323333740234375 33.85323333740234375 33.85323333740234375 27.095918655395507812 20.655321121215820312 20.655321121215820312 19.071895599365234375 16.00589752197265625 16.006013870239257812 19.071947097778320312 21.322254180908203125 34.7797088623046875 101 101 34.7797088623046875 27.096006393432617188 34.7797088623046875 101 101 34.7797088623046875 101 101 101 101 34.7797088623046875 21.322254180908203125 15.532621383666992188 12.310389518737792969 10.933521270751953125 
8.8181943893432617188 9.3713359832763671875 9.7676715850830078125 9.9132900238037109375 9.9132900238037109375 9.7676715850830078125 9.3713359832763671875 8.8181943893432617188 8.2040586471557617188 7.5962414741516113281 7.0308074951171875 6.5218796730041503906 6.1225895881652832031 5.8020830154418945312 5.4987230300903320312 5.3685069084167480469 5.4987230300903320312 5.8020830154418945312 6.1225895881652832031 6.4517846107482910156 6.7753539085388183594 7.0721864700317382812 7.3153614997863769531 7.4764451980590820312 7.5330090522766113281 7.4764451980590820312 7.3153614997863769531 7.0721864700317382812 6.9942307472229003906 7.7923846244812011719 8.835742950439453125 10.257808685302734375 12.310484886169433594 15.532738685607910156 21.322406768798828125 34.779918670654296875 101 34.779918670654296875 27.096006393432617188 19.445281982421875 14.838779449462890625 11.984935760498046875 10.080540657043457031 8.7289667129516601562 7.7232289314270019531 6.9469289779663085938 6.3301725387573242188 5.8286471366882324219 5.41297149658203125 5.0629277229309082031 4.7641606330871582031 4.7298974990844726562 5.0198111534118652344 5.3576893806457519531 5.7561945915222167969 6.2327108383178710938 6.8116478919982910156 7.5281038284301757812 8.4337320327758789062 9.605861663818359375 11.159592628479003906 13.25170135498046875 16.005954742431640625 19.071920394897460938 20.655321121215820312 20.655321121215820312 20.655321121215820312 20.655321121215820312 19.071920394897460938 16.005954742431640625 15.022253990173339844 14.445774078369140625 13.080371856689453125 11.530694007873535156 11.530821800231933594 13.25183868408203125 16.006071090698242188 19.445394515991210938 27.096094131469726562 33.85323333740234375 33.85323333740234375 33.85323333740234375 33.85323333740234375 33.85323333740234375 27.096094131469726562 27.096094131469726562 33.85323333740234375 34.779918670654296875 101 101 101 34.779918670654296875 27.096006393432617188 20.655321121215820312 19.071920394897460938 16.005954742431640625 19.071920394897460938 20.655321121215820312 20.655321121215820312 20.655321121215820312 20.655321121215820312 19.071920394897460938 16.005954742431640625 15.022253990173339844 14.445774078369140625 14.838880538940429688 19.445394515991210938 27.096094131469726562 33.85323333740234375 34.779918670654296875 101 34.779918670654296875 27.096094131469726562 34.779918670654296875 101 101 101 34.779918670654296875 101 101 101 34.779918670654296875 27.096006393432617188 19.445281982421875 14.838779449462890625 11.984935760498046875 10.080540657043457031 
7.8491454124450683594 8.207431793212890625 8.4522609710693359375 8.5397481918334960938 8.5397481918334960938 8.4522609710693359375 8.207431793212890625 7.8491454124450683594 7.4284696578979492188 6.9883780479431152344 6.5579829216003417969 6.1536808013916015625 5.78279876708984375 5.4750337600708007812 5.2272057533264160156 5.0305399894714355469 5.2272057533264160156 5.4750337600708007812 5.7299261093139648438 5.9841251373291015625 6.2263402938842773438 6.4418034553527832031 6.6134862899780273438 6.7248110771179199219 6.7634487152099609375 6.7248110771179199219 6.6134862899780273438 6.60588836669921875 7.2384433746337890625 8.01064300537109375 8.96094512939453125 10.257887840270996094 12.310579299926757812 15.532855987548828125 21.322559356689453125 34.780132293701171875 101 34.780132293701171875 21.322559356689453125 16.006013870239257812 13.25177001953125 11.15966033935546875 9.6059246063232421875 8.4337902069091796875 7.5281567573547363281 6.8116965293884277344 6.2327556610107421875 5.7562355995178222656 5.3577275276184082031 5.0198464393615722656 4.729930877685546875 4.6748819351196289062 4.9509878158569335938 5.2701082229614257812 5.6425237655639648438 6.0817627906799316406 6.6057581901550292969 7.2383050918579101562 8.010498046875 8.9607954025268554688 10.129049301147460938 11.530736923217773438 13.080401420593261719 14.445784568786621094 15.022253990173339844 15.022253990173339844 15.022253990173339844 15.022253990173339844 14.445784568786621094 13.080401420593261719 11.898753166198730469 11.630255699157714844 10.933552742004394531 11.530864715576171875 13.2519073486328125 16.006128311157226562 19.445505142211914062 27.096181869506835938 34.780132293701171875 101 101 101 101 101 34.780132293701171875 34.780132293701171875 101 101 101 34.780132293701171875 33.85323333740234375 27.096094131469726562 19.445394515991210938 16.006013870239257812 14.445784568786621094 13.080401420593261719 14.445784568786621094 15.022253990173339844 15.022253990173339844 15.022253990173339844 15.022253990173339844 14.445784568786621094 13.080401420593261719 11.898753166198730469 12.310579299926757812 15.532855987548828125 21.322559356689453125 34.780132293701171875 101 101 101 34.780132293701171875 34.780132293701171875 101 101 34.780132293701171875 33.85323333740234375 34.780132293701171875 101 101 34.780132293701171875 33.85323333740234375 27.096181869506835938 19.445505142211914062 14.838980674743652344 11.985109329223632812 10.080689430236816406 
7.0722017288208007812 7.3153696060180664062 7.4764471054077148438 7.5330090522766113281 7.5330090522766113281 7.4764471054077148438 7.3153696060180664062 7.0722017288208007812 6.7753777503967285156 6.4518156051635742188 6.1226263046264648438 5.8021240234375 5.4987673759460449219 5.2167344093322753906 4.9725594520568847656 4.7752566337585449219 4.9725594520568847656 5.1754803657531738281 5.3794856071472167969 5.578090667724609375 5.7627573013305664062 5.9232320785522460938 6.04852294921875 6.1285390853881835938 6.1560845375061035156 6.1285390853881835938 6.2328891754150390625 6.8118419647216796875 7.5283155441284179688 8.433963775634765625 9.6061143875122070312 11.159864425659179688 13.251975059509277344 16.00618743896484375 21.322711944580078125 34.78034210205078125 101 34.78034210205078125 21.322711944580078125 16.00618743896484375 13.251975059509277344 11.159864425659179688 9.6061143875122070312 8.433963775634765625 7.5283155441284179688 6.8118419647216796875 6.2328891754150390625 5.7563586235046386719 5.35784149169921875 5.0199527740478515625 4.730030059814453125 4.6018362045288085938 4.8603811264038085938 5.1560244560241699219 5.4964427947998046875 5.8911371231079101562 6.3516869544982910156 6.8916754722595214844 7.5256381034851074219 8.2655363082885742188 9.111621856689453125 10.032695770263671875 10.933568000793457031 11.630260467529296875 11.898753166198730469 11.898753166198730469 11.898753166198730469 11.898753166198730469 11.630260467529296875 10.933568000793457031 10.032695770263671875 10.129244804382324219 11.530907630920410156 13.251975059509277344 16.00618743896484375 19.44561767578125 27.0962677001953125 34.78034210205078125 101 101 34.78034210205078125 33.85323333740234375 34.78034210205078125 101 101 101 101 34.78034210205078125 33.85323333740234375 27.096181869506835938 20.655321121215820312 19.071973800659179688 16.006071090698242188 13.25183868408203125 11.630260467529296875 10.933568000793457031 11.630260467529296875 11.898753166198730469 11.898753166198730469 11.898753166198730469 11.898753166198730469 11.630260467529296875 10.933568000793457031 10.257966995239257812 12.310674667358398438 15.532973289489746094 21.322711944580078125 34.78034210205078125 101 101 34.78034210205078125 27.096181869506835938 34.78034210205078125 101 34.78034210205078125 101 101 101 34.78034210205078125 34.78034210205078125 101 101 34.78034210205078125 21.322711944580078125 15.532973289489746094 12.310674667358398438 10.257966995239257812 
6.4418148994445800781 6.6134920120239257812 6.7248125076293945312 6.7634487152099609375 6.7634487152099609375 6.7248125076293945312 6.6134920120239257812 6.4418148994445800781 6.2263579368591308594 5.9841485023498535156 5.7299551963806152344 5.475067138671875 5.2272424697875976562 4.9912652969360351562 4.7696928977966308594 4.5713877677917480469 4.7366299629211425781 4.9035272598266601562 5.0681290626525878906 5.2252445220947265625 5.3685221672058105469 5.4908051490783691406 5.5848278999328613281 5.6442065238952636719 5.6645264625549316406 5.82881927490234375 6.3303608894348144531 6.9471368789672851562 7.7234606742858886719 8.7292280197143554688 10.080839157104492188 11.985281944274902344 14.839181900024414062 19.445728302001953125 27.096355438232421875 34.78055572509765625 101 34.78055572509765625 27.096355438232421875 19.445728302001953125 14.839181900024414062 11.985281944274902344 10.080839157104492188 8.7292280197143554688 7.7234606742858886719 6.9471368789672851562 6.3303608894348144531 5.82881927490234375 5.4131298065185546875 5.0630741119384765625 4.7642970085144042969 4.514087677001953125 4.7526583671569824219 5.0221114158630371094 5.3276858329772949219 5.6753277778625488281 6.071414947509765625 6.5219750404357910156 7.0308990478515625 7.5963253974914550781 8.2041292190551757812 8.8182458877563476562 9.3713636398315429688 9.7676801681518554688 9.9132900238037109375 9.9132900238037109375 9.9132900238037109375 9.9132900238037109375 9.7676801681518554688 9.3713636398315429688 10.129293441772460938 11.530949592590332031 13.252043724060058594 16.006244659423828125 19.445728302001953125 27.096355438232421875 34.78055572509765625 101 101 34.78055572509765625 27.0962677001953125 20.655321121215820312 27.0962677001953125 33.85323333740234375 33.85323333740234375 33.85323333740234375 33.85323333740234375 27.0962677001953125 20.655321121215820312 19.072000503540039062 16.006128311157226562 14.445804595947265625 13.0804595947265625 11.530821800231933594 10.129147529602050781 9.3713636398315429688 9.7676801681518554688 9.9132900238037109375 9.9132900238037109375 9.9132900238037109375 9.9132900238037109375 9.7676801681518554688 9.3713636398315429688 10.0807647705078125 11.985195159912109375 14.839081764221191406 19.44561767578125 27.0962677001953125 34.78055572509765625 101 34.78055572509765625 33.85323333740234375 27.096355438232421875 33.85323333740234375 27.0962677001953125 34.78055572509765625 101 101 101 101 101 101 34.78055572509765625 21.322866439819335938 16.006244659423828125 13.252043724060058594 11.159932136535644531 
5.9232401847839355469 6.048526763916015625 6.1285400390625 6.1560845375061035156 6.1560845375061035156 6.1285400390625 6.048526763916015625 5.9232401847839355469 5.7627701759338378906 5.5781087875366210938 5.3795084953308105469 5.1755070686340332031 4.9725894927978515625 4.7752895355224609375 4.5865087509155273438 4.4079003334045410156 4.5196671485900878906 4.6577348709106445312 4.7917242050170898438 4.9175662994384765625 5.030551910400390625 5.1256284713745117188 5.1978788375854492188 5.2431225776672363281 5.4320526123046875 5.8537459373474121094 6.3641219139099121094 6.9944438934326171875 7.7926239967346191406 8.8360166549682617188 10.258126258850097656 12.310863494873046875 15.533207893371582031 21.323019027709960938 34.780765533447265625 101 101 101 34.780765533447265625 21.323019027709960938 15.533207893371582031 12.310863494873046875 10.258126258850097656 8.8360166549682617188 7.7926239967346191406 6.9944438934326171875 6.3641219139099121094 5.8537459373474121094 5.4320526123046875 5.0777759552001953125 4.7759447097778320312 4.5157170295715332031 4.6326189041137695312 4.87497711181640625 5.1454415321350097656 5.4471874237060546875 5.782878875732421875 6.1537580490112304688 6.5580539703369140625 6.9884400367736816406 7.4285192489624023438 7.8491792678833007812 8.2074499130249023438 8.4522657394409179688 8.5397481918334960938 8.5397481918334960938 8.5397481918334960938 8.5397481918334960938 8.4522657394409179688 9.6062412261962890625 11.159999847412109375 13.252112388610839844 16.0063018798828125 19.445840835571289062 27.09644317626953125 34.780765533447265625 101 101 34.780765533447265625 27.096355438232421875 19.445728302001953125 16.00618743896484375 19.072025299072265625 20.655321121215820312 20.655321121215820312 20.655321121215820312 20.655321121215820312 19.072025299072265625 16.00618743896484375 14.445815086364746094 13.080489158630371094 11.630270004272460938 10.933600425720214844 10.032748222351074219 9.1116895675659179688 8.2656116485595703125 8.4522657394409179688 8.5397481918334960938 8.5397481918334960938 8.5397481918334960938 8.5397481918334960938 8.4522657394409179688 8.433963775634765625 9.6061143875122070312 11.159864425659179688 13.251975059509277344 16.00618743896484375 21.323019027709960938 34.780765533447265625 101 101 101 34.780765533447265625 33.85323333740234375 33.85323333740234375 34.780765533447265625 101 101 101 101 101 34.780765533447265625 33.85323333740234375 27.09644317626953125 19.445840835571289062 14.839282989501953125 11.985368728637695312 
5.4908113479614257812 5.5848307609558105469 5.6442074775695800781 5.6645264625549316406 5.6645264625549316406 5.6442074775695800781 5.5848307609558105469 5.4908113479614257812 5.3685321807861328125 5.2252588272094726562 5.0681471824645996094 4.9035491943359375 4.7366552352905273438 4.5714159011840820312 4.4106440544128417969 4.2561998367309570312 4.320987701416015625 4.4359517097473144531 4.5460143089294433594 4.6480121612548828125 4.7384419441223144531 4.8136882781982421875 4.8703455924987792969 5.0631103515625 5.4131693840026855469 5.8288621902465820312 6.3304080963134765625 6.9471888542175292969 7.7235188484191894531 8.7292938232421875 10.080914497375488281 11.985368728637695312 14.839282989501953125 19.445840835571289062 27.09644317626953125 34.780979156494140625 101 101 34.780979156494140625 21.323171615600585938 15.5333251953125 12.3109588623046875 10.258205413818359375 8.8360843658447265625 7.7926840782165527344 6.9944968223571777344 6.364170074462890625 5.8537898063659667969 5.4320926666259765625 5.0778126716613769531 4.7759790420532226562 4.5157489776611328125 4.5047435760498046875 4.7205228805541992188 4.9574685096740722656 5.2168035507202148438 5.4988336563110351562 5.8021864891052246094 6.1226820945739746094 6.451862335205078125 6.77541351318359375 7.0722255706787109375 7.3153810501098632812 7.4764504432678222656 7.5330090522766113281 7.5330090522766113281 7.5330090522766113281 7.7235765457153320312 8.7293596267700195312 10.080988883972167969 11.985455513000488281 14.839383125305175781 19.445953369140625 27.096530914306640625 34.780979156494140625 101 101 34.780979156494140625 27.09644317626953125 19.445840835571289062 16.006244659423828125 13.252043724060058594 14.445825576782226562 15.022253990173339844 15.022253990173339844 15.022253990173339844 15.022253990173339844 14.445825576782226562 13.080517768859863281 11.630274772644042969 10.933615684509277344 10.032774925231933594 9.3713827133178710938 8.818279266357421875 8.5397481918334960938 8.5397481918334960938 8.5397481918334960938 8.5397481918334960938 8.4522771835327148438 8.2074909210205078125 7.8492579460144042969 7.4764504432678222656 8.0106916427612304688 8.960994720458984375 10.129244804382324219 11.985368728637695312 14.839282989501953125 19.445840835571289062 27.09644317626953125 33.85323333740234375 34.780979156494140625 101 101 101 101 101 101 101 34.780979156494140625 101 101 101 101 34.780979156494140625 21.323171615600585938 15.5333251953125 12.3109588623046875 
5.12563323974609375 5.1978807449340820312 5.2431230545043945312 5.2585368156433105469 5.2585368156433105469 5.2431230545043945312 5.1978807449340820312 5.12563323974609375 5.030559539794921875 4.9175777435302734375 4.7917389869689941406 4.65775299072265625 4.5196881294250488281 4.3808445930480957031 4.2437500953674316406 4.1102356910705566406 4.1394171714782714844 4.2357974052429199219 4.3270153999328613281 4.4106154441833496094 4.4839739799499511719 4.5444650650024414062 4.7300963401794433594 5.0200238227844238281 5.35791778564453125 5.7564411163330078125 6.2329778671264648438 6.8119387626647949219 7.5284214019775390625 8.4340801239013671875 9.6062412261962890625 11.159999847412109375 13.252112388610839844 16.0063018798828125 19.445953369140625 27.096530914306640625 33.85323333740234375 33.85323333740234375 27.096530914306640625 19.445953369140625 14.839383125305175781 11.985455513000488281 10.080988883972167969 8.7293596267700195312 7.7235765457153320312 6.9472408294677734375 6.3304553031921386719 5.8289051055908203125 5.4132089614868164062 5.0631470680236816406 4.7643647193908691406 4.5063958168029785156 4.3729109764099121094 4.56360626220703125 4.7697534561157226562 4.9913239479064941406 5.2272973060607910156 5.4751172065734863281 5.7299985885620117188 5.98418426513671875 6.2263841629028320312 6.4418315887451171875 6.6135001182556152344 6.7248148918151855469 6.7634487152099609375 6.7634487152099609375 6.9945502281188964844 7.7927441596984863281 8.8361530303955078125 10.258284568786621094 12.311053276062011719 15.533443450927734375 21.32332611083984375 34.78118896484375 101 101 34.78118896484375 27.096530914306640625 19.445953369140625 16.0063018798828125 13.252112388610839844 11.530949592590332031 11.630279541015625 11.898753166198730469 11.898753166198730469 11.898753166198730469 11.898753166198730469 11.630279541015625 10.93363189697265625 10.032801628112792969 9.37139129638671875 9.3714380264282226562 9.7677011489868164062 9.9132900238037109375 9.9132900238037109375 9.9132900238037109375 9.9132900238037109375 9.9132900238037109375 9.7677011489868164062 9.3714380264282226562 8.8183813095092773438 8.20749664306640625 7.8492693901062011719 8.4340801239013671875 9.6062412261962890625 11.159999847412109375 13.252112388610839844 16.0063018798828125 19.072078704833984375 20.655321121215820312 27.096530914306640625 33.85323333740234375 33.85323333740234375 34.78118896484375 101 101 101 34.78118896484375 34.78118896484375 101 101 34.78118896484375 33.85323333740234375 27.096530914306640625 19.445953369140625 14.839383125305175781 11.985455513000488281 
4.8136920928955078125 4.8703470230102539062 4.9055938720703125 4.9175615310668945312 4.9175615310668945312 4.9055938720703125 4.8703470230102539062 4.8136920928955078125 4.7384481430053710938 4.6480212211608886719 4.5460262298583984375 4.4359669685363769531 4.3210053443908691406 4.2038364410400390625 4.0866408348083496094 3.9711034297943115234 3.9735653400421142578 4.0549216270446777344 4.1311726570129394531 4.2004094123840332031 4.2606487274169921875 4.4340729713439941406 4.67507171630859375 4.9511890411376953125 5.2703227996826171875 5.6427526473999023438 6.0820069313049316406 6.6060185432434082031 7.2385816574096679688 8.0107889175415039062 8.961093902587890625 10.129342079162597656 11.530992507934570312 13.252181053161621094 16.006359100341796875 19.07210540771484375 20.655321121215820312 20.655321121215820312 19.07210540771484375 16.006359100341796875 13.252181053161621094 11.160067558288574219 9.6063051223754882812 8.4341382980346679688 7.5284748077392578125 6.8119874000549316406 6.2330226898193359375 5.7564821243286132812 5.3579559326171875 5.0200591087341308594 4.730129241943359375 4.4787516593933105469 4.2587952613830566406 4.4079546928405761719 4.5865612030029296875 4.7753386497497558594 4.9726352691650390625 5.1755475997924804688 5.3795428276062011719 5.5781359672546386719 5.7627902030944824219 5.9232525825500488281 6.0485324859619140625 6.1285414695739746094 6.1560845375061035156 6.3642659187316894531 6.9946036338806152344 7.7928037643432617188 8.8362216949462890625 10.258364677429199219 12.311148643493652344 15.533560752868652344 21.32347869873046875 34.781402587890625 101 34.781402587890625 27.096704483032226562 19.446176528930664062 16.006359100341796875 13.252181053161621094 11.530992507934570312 10.129342079162597656 9.7676906585693359375 9.9132900238037109375 9.9132900238037109375 9.9132900238037109375 9.9132900238037109375 9.7676906585693359375 9.3714008331298828125 9.1119260787963867188 10.032934188842773438 10.933711051940917969 11.630304336547851562 11.898753166198730469 11.898753166198730469 11.898753166198730469 11.898753166198730469 11.898753166198730469 11.630304336547851562 10.933711051940917969 10.032934188842773438 9.3714475631713867188 8.8183984756469726562 8.2043399810791015625 8.961093902587890625 10.129342079162597656 11.530992507934570312 13.080575942993164062 14.445845603942871094 16.006359100341796875 19.07210540771484375 20.655321121215820312 20.655321121215820312 27.09661865234375 33.85323333740234375 34.781402587890625 101 101 34.781402587890625 34.781402587890625 101 34.781402587890625 21.32347869873046875 19.07210540771484375 16.006359100341796875 13.252181053161621094 11.160067558288574219 
4.544467926025390625 4.5896811485290527344 4.6176648139953613281 4.6271409988403320312 4.6271409988403320312 4.6176648139953613281 4.5896811485290527344 4.544467926025390625 4.4839787483215332031 4.4106230735778808594 4.3270254135131835938 4.2358102798461914062 4.1394319534301757812 4.0400652885437011719 3.9395492076873779297 3.8393743038177490234 3.8219940662384033203 3.8911306858062744141 3.9553923606872558594 4.0132875442504882812 4.1727099418640136719 4.3743853569030761719 4.6020145416259765625 4.860569000244140625 5.1562223434448242188 5.4966502189636230469 5.8913540840148925781 6.3519129753112792969 6.8919072151184082031 7.52587127685546875 8.2657613754272460938 9.1118249893188476562 10.129390716552734375 11.531035423278808594 13.080605506896972656 14.445856094360351562 15.022253990173339844 15.022253990173339844 14.445856094360351562 13.080605506896972656 11.531035423278808594 10.129390716552734375 8.9611444473266601562 8.010837554931640625 7.2386279106140136719 6.6060619354248046875 6.0820474624633789062 5.6427907943725585938 5.2703585624694824219 4.9512228965759277344 4.6751031875610351562 4.4341030120849609375 4.222087860107421875 4.2562470436096191406 4.4106888771057128906 4.5714573860168457031 4.7366929054260253906 4.9035820960998535156 5.0681748390197753906 5.2252802848815917969 5.3685474395751953125 5.4908208847045898438 5.5848355293273925781 5.6442084312438964844 5.8539204597473144531 6.3643140792846679688 6.9946570396423339844 7.7928638458251953125 8.8362894058227539062 10.258443832397460938 12.311243057250976562 15.533678054809570312 21.32363128662109375 34.781612396240234375 101 101 34.781612396240234375 21.32363128662109375 15.533678054809570312 12.311243057250976562 10.258443832397460938 9.1118249893188476562 8.4522724151611328125 8.5397481918334960938 8.5397481918334960938 8.5397481918334960938 8.5397481918334960938 8.4522724151611328125 8.9612932205200195312 10.129536628723144531 11.531163215637207031 13.080693244934082031 14.445886611938476562 15.022253990173339844 15.022253990173339844 15.022253990173339844 15.022253990173339844 15.022253990173339844 14.445886611938476562 13.080693244934082031 11.630309104919433594 10.933726310729980469 10.032960891723632812 9.1119604110717773438 8.2659120559692382812 9.1118249893188476562 10.032854080200195312 10.933663368225097656 11.630289077758789062 13.080605506896972656 14.445856094360351562 15.022253990173339844 16.006418228149414062 19.072130203247070312 20.655321121215820312 27.096704483032226562 34.781612396240234375 101 101 101 34.781612396240234375 27.096704483032226562 19.446176528930664062 14.8395843505859375 13.080605506896972656 11.531035423278808594 10.129390716552734375 
4.3099589347839355469 4.34659576416015625 4.3691773414611816406 4.37680816650390625 4.37680816650390625 4.3691773414611816406 4.34659576416015625 4.3099589347839355469 4.2606530189514160156 4.2004156112670898438 4.1311807632446289062 4.0549321174621582031 3.9735779762268066406 3.8888657093048095703 3.8023245334625244141 3.7152445316314697266 3.6833074092864990234 3.7424426078796386719 3.7970173358917236328 3.942356109619140625 4.1125001907348632812 4.3020725250244140625 4.5142536163330078125 4.7528309822082519531 5.0222907066345214844 5.3278703689575195312 5.6755170822143554688 6.0716066360473632812 6.5221652984619140625 7.0310821533203125 7.596492767333984375 8.2657995223999023438 9.111858367919921875 10.032880783081054688 10.933679580688476562 11.6302947998046875 11.898753166198730469 11.898753166198730469 11.6302947998046875 10.933679580688476562 10.032880783081054688 9.111858367919921875 8.2657995223999023438 7.5259103775024414062 6.8919463157653808594 6.3519506454467773438 5.8913903236389160156 5.4966845512390136719 5.1562552452087402344 4.8606004714965820312 4.6020445823669433594 4.3744134902954101562 4.1727366447448730469 4.1102766990661621094 4.2437887191772460938 4.3808798789978027344 4.5197196006774902344 4.6577801704406738281 4.7917613983154296875 4.91759490966796875 5.0305714607238769531 5.125640869140625 5.1978840827941894531 5.4133272171020507812 5.8290338516235351562 6.3305964469909667969 6.9473967552185058594 7.723751068115234375 8.7295560836791992188 10.081213951110839844 11.985714912414550781 14.839685440063476562 19.4462890625 27.096792221069335938 34.781826019287109375 101 34.781826019287109375 21.32378387451171875 15.533795356750488281 12.311338424682617188 10.258522987365722656 8.8363580703735351562 7.7929234504699707031 7.5330090522766113281 7.5330090522766113281 7.5330090522766113281 7.5330090522766113281 8.4343709945678710938 9.6065587997436523438 11.16033935546875 13.252455711364746094 16.006591796875 19.072208404541015625 20.655321121215820312 20.655321121215820312 20.655321121215820312 20.655321121215820312 20.655321121215820312 19.072208404541015625 16.006591796875 14.445897102355957031 13.080721855163574219 11.531206130981445312 10.12958526611328125 9.3714666366577148438 8.818431854248046875 9.1119937896728515625 10.12958526611328125 11.531206130981445312 13.080721855163574219 14.445897102355957031 15.022253990173339844 16.006591796875 19.072208404541015625 20.655321121215820312 20.655321121215820312 27.096792221069335938 33.85323333740234375 33.85323333740234375 33.85323333740234375 27.096792221069335938 19.4462890625 16.006475448608398438 13.252318382263183594 11.160203933715820312 10.032880783081054688 9.111858367919921875 
4.1039938926696777344 4.1340813636779785156 4.1525640487670898438 4.1587986946105957031 4.1587986946105957031 4.1525640487670898438 4.1340813636779785156 4.1039938926696777344 4.0633058547973632812 4.0132923126220703125 3.9553992748260498047 3.8911395072937011719 3.8220047950744628906 3.7493968009948730469 3.674579620361328125 3.5986530780792236328 3.5562021732330322266 3.6072859764099121094 3.739101409912109375 3.8838779926300048828 4.043407440185546875 4.2197604179382324219 4.4153161048889160156 4.6327753067016601562 4.8751368522644042969 5.1456036567687988281 5.4473500251770019531 5.783039093017578125 6.1539120674133300781 6.5581965446472167969 7.0311126708984375 7.5965209007263183594 8.2042932510375976562 8.8183641433715820312 9.3714284896850585938 9.7676982879638671875 9.9132900238037109375 9.9132900238037109375 9.7676982879638671875 9.3714284896850585938 8.8183641433715820312 8.2042932510375976562 7.5965209007263183594 7.0311126708984375 6.5221967697143554688 6.0716385841369628906 5.675548553466796875 5.3279013633728027344 5.0223202705383300781 4.7528595924377441406 4.5142812728881835938 4.3020992279052734375 4.1125254631042480469 3.9711391925811767578 4.0866742134094238281 4.2038664817810058594 4.3210320472717285156 4.4359893798828125 4.5460443496704101562 4.6480350494384765625 4.7384576797485351562 4.9577503204345703125 5.2170801162719726562 5.4991002082824707031 5.8024349212646484375 6.2331562042236328125 6.8121328353881835938 7.5286335945129394531 8.4343128204345703125 9.606494903564453125 11.160271644592285156 13.252387046813964844 16.006532669067382812 21.323938369750976562 34.78203582763671875 101 34.78203582763671875 21.323938369750976562 15.533913612365722656 12.311433792114257812 10.258603096008300781 8.8364267349243164062 7.7929835319519042969 7.8493146896362304688 8.20751953125 8.4522857666015625 8.5397481918334960938 8.729686737060546875 10.081363677978515625 11.985888481140136719 14.839886665344238281 19.446512222290039062 27.096967697143554688 33.85323333740234375 33.85323333740234375 33.85323333740234375 33.85323333740234375 33.85323333740234375 27.096967697143554688 20.655321121215820312 19.072235107421875 16.006649017333984375 13.252524375915527344 11.630318641662597656 10.933757781982421875 10.033013343811035156 10.129633903503417969 11.531249046325683594 13.252524375915527344 16.006649017333984375 19.072235107421875 20.655321121215820312 20.655321121215820312 27.096967697143554688 33.85323333740234375 33.85323333740234375 27.096967697143554688 20.655321121215820312 20.655321121215820312 20.655321121215820312 19.072183609008789062 16.006532669067382812 13.252387046813964844 11.53112030029296875 10.129487991333007812 8.9612436294555664062 8.2044095993041992188 
3.9217531681060791016 3.9467558860778808594 3.9620723724365234375 3.96723175048828125 3.96723175048828125 3.9620723724365234375 3.9467558860778808594 3.9217531681060791016 3.8878049850463867188 3.8458635807037353516 3.7970232963562011719 3.7424499988555908203 3.6833167076110839844 3.6207499504089355469 3.5557909011840820312 3.4893698692321777344 3.4451549053192138672 3.5592558383941650391 3.6834979057312011719 3.8191041946411132812 3.9674494266510009766 4.1300625801086425781 4.3086152076721191406 4.5048837661743164062 4.7206640243530273438 4.9576096534729003906 5.21694183349609375 5.4989666938781738281 5.8023104667663574219 6.1539378166198730469 6.5582203865051269531 6.9885854721069335938 7.4286351203918457031 7.8492579460144042969 8.2074909210205078125 8.4522771835327148438 8.5397481918334960938 8.5397481918334960938 8.4522771835327148438 8.2074909210205078125 7.8492579460144042969 7.4286351203918457031 6.9885854721069335938 6.5582203865051269531 6.1539378166198730469 5.7830657958984375 5.4473772048950195312 5.1456308364868164062 4.8751635551452636719 4.632801055908203125 4.4153413772583007812 4.2197847366333007812 4.0434312820434570312 3.8839011192321777344 3.9395775794982910156 4.0400910377502441406 4.1394543647766113281 4.2358288764953613281 4.4154934883117675781 4.63295745849609375 4.8753232955932617188 5.1457929611206054688 5.4475398063659667969 5.7832264900207519531 6.1540923118591308594 6.5583634376525878906 6.9887099266052246094 7.5261435508728027344 8.2660245895385742188 9.1120615005493164062 10.2586822509765625 12.311528205871582031 15.534030914306640625 21.324090957641601562 34.78224945068359375 101 34.78224945068359375 21.324090957641601562 15.534030914306640625 12.311528205871582031 10.2586822509765625 8.83649444580078125 8.204433441162109375 8.8184661865234375 9.3714847564697265625 9.7677145004272460938 9.9132900238037109375 9.7677145004272460938 10.2586822509765625 12.311528205871582031 15.534030914306640625 21.324090957641601562 34.78224945068359375 101 101 101 101 101 34.78224945068359375 33.85323333740234375 27.097055435180664062 19.446624755859375 16.00670623779296875 14.445917129516601562 13.080780029296875 11.898753166198730469 11.630323410034179688 13.252593040466308594 16.00670623779296875 19.446624755859375 27.097055435180664062 33.85323333740234375 33.85323333740234375 34.78224945068359375 101 101 34.78224945068359375 21.324090957641601562 16.00670623779296875 15.022253990173339844 14.445886611938476562 13.080693244934082031 11.898753166198730469 11.630323410034179688 10.933773994445800781 10.033040046691894531 9.1120615005493164062 
3.7594237327575683594 3.7804210186004638672 3.7932541370391845703 3.7975718975067138672 3.7975718975067138672 3.7932541370391845703 3.7804210186004638672 3.7594237327575683594 3.7308182716369628906 3.6953256130218505859 3.6537852287292480469 3.6071040630340576172 3.5562102794647216797 3.5020127296447753906 3.4453682899475097656 3.3870608806610107422 3.3995361328125 3.5070281028747558594 3.6233971118927001953 3.7495725154876708984 3.8865582942962646484 4.0354156494140625 4.1972279548645019531 4.3730359077453613281 4.5637302398681640625 4.7698750495910644531 4.9914407730102539062 5.2274074554443359375 5.498989105224609375 5.8023314476013183594 6.1228117942810058594 6.4519710540771484375 6.7754969596862792969 7.0722799301147460938 7.3154087066650390625 7.4764575958251953125 7.5330090522766113281 7.5330090522766113281 7.4764575958251953125 7.3154087066650390625 7.0722799301147460938 6.7754969596862792969 6.4519710540771484375 6.1228117942810058594 5.8023314476013183594 5.498989105224609375 5.2169647216796875 4.9576330184936523438 4.7206878662109375 4.5049071311950683594 4.3086380958557128906 4.130084991455078125 3.9674715995788574219 3.8191256523132324219 3.8023493289947509766 3.9425516128540039062 4.1127038002014160156 4.3022851943969726562 4.5144748687744140625 4.7530608177185058594 5.0225291252136230469 5.3281168937683105469 5.675769805908203125 6.0718626976013183594 6.5224194526672363281 7.0313267707824707031 7.5967164039611816406 8.2044572830200195312 8.9614934921264648438 10.129731178283691406 11.53133392333984375 13.252660751342773438 16.006765365600585938 21.324245452880859375 34.782459259033203125 101 34.782459259033203125 21.324245452880859375 15.534148216247558594 12.311623573303222656 10.258761405944824219 8.8365631103515625 9.112094879150390625 10.033066749572753906 10.933790206909179688 11.630328178405761719 11.898753166198730469 11.630328178405761719 10.933790206909179688 11.985975265502929688 14.839987754821777344 19.446624755859375 27.097055435180664062 33.85323333740234375 33.85323333740234375 33.85323333740234375 34.782459259033203125 101 101 101 34.782459259033203125 27.097143173217773438 20.655321121215820312 19.07228851318359375 16.006765365600585938 15.022253990173339844 14.445927619934082031 14.840087890625 19.446735382080078125 27.097143173217773438 34.782459259033203125 101 101 101 101 34.782459259033203125 33.85323333740234375 27.097143173217773438 19.446735382080078125 15.022253990173339844 15.022253990173339844 14.445927619934082031 15.022253990173339844 14.445927619934082031 13.080809593200683594 11.53133392333984375 10.129731178283691406 
3.6139562129974365234 3.6317565441131591797 3.6426143646240234375 3.6462640762329101562 3.6462640762329101562 3.6426143646240234375 3.6317565441131591797 3.6139562129974365234 3.5896372795104980469 3.5593531131744384766 3.5237548351287841797 3.4835553169250488281 3.4394941329956054688 3.3923070430755615234 3.3427011966705322266 3.2913346290588378906 3.3508205413818359375 3.4515631198883056641 3.5599713325500488281 3.6767170429229736328 3.8024899959564208984 3.9379673004150390625 4.0837683677673339844 4.2403826713562011719 4.4080624580383300781 4.5866656303405761719 4.7754373550415039062 4.9914603233337402344 5.2274260520935058594 5.4752345085144042969 5.7301006317138671875 5.9842672348022460938 6.2264451980590820312 6.4418706893920898438 6.6135191917419433594 6.7248196601867675781 6.7634487152099609375 6.7634487152099609375 6.7248196601867675781 6.6135191917419433594 6.4418706893920898438 6.2264451980590820312 5.9842672348022460938 5.7301006317138671875 5.4752345085144042969 5.2274260520935058594 4.9914603233337402344 4.7698950767517089844 4.5637507438659667969 4.3730568885803222656 4.1972484588623046875 4.0354361534118652344 3.8865785598754882812 3.7495925426483154297 3.8321158885955810547 3.9932007789611816406 4.1729526519775390625 4.3746404647827148438 4.6022830009460449219 4.860851287841796875 5.1565189361572265625 5.4969615936279296875 5.8916802406311035156 6.3522520065307617188 6.8922557830810546875 7.5262217521667480469 8.2660999298095703125 9.11212921142578125 10.033093452453613281 11.160611152648925781 13.252729415893554688 16.006822586059570312 19.446847915649414062 27.09722900390625 34.782672882080078125 101 34.782672882080078125 21.324398040771484375 15.534265518188476562 12.311717987060546875 10.258841514587402344 8.9615430831909179688 10.129779815673828125 11.531376838684082031 13.080838203430175781 14.4459381103515625 15.022253990173339844 14.4459381103515625 13.080838203430175781 11.531376838684082031 13.252593040466308594 16.00670623779296875 19.072261810302734375 20.655321121215820312 20.655321121215820312 20.655321121215820312 27.097143173217773438 33.85323333740234375 34.782672882080078125 101 101 34.782672882080078125 33.85323333740234375 27.09722900390625 20.655321121215820312 20.655321121215820312 19.072313308715820312 16.006822586059570312 21.324398040771484375 34.782672882080078125 101 101 101 34.782672882080078125 34.782672882080078125 101 101 34.782672882080078125 21.324398040771484375 20.655321121215820312 20.655321121215820312 19.072313308715820312 20.655321121215820312 19.072313308715820312 16.006822586059570312 13.252729415893554688 11.160611152648925781 
3.4828851222991943359 3.4981033802032470703 3.5073709487915039062 3.5104835033416748047 3.5104835033416748047 3.5073709487915039062 3.4981033802032470703 3.4828851222991943359 3.4620430469512939453 3.4360079765319824219 3.4052901268005371094 3.3704545497894287109 3.3320953845977783203 3.2908108234405517578 3.2471857070922851562 3.2118372917175292969 3.2997596263885498047 3.3937592506408691406 3.4942944049835205078 3.6018214225769042969 3.7167730331420898438 3.8395249843597412109 3.9703493118286132812 4.1093440055847167969 4.2563409805297851562 4.4107785224914550781 4.5866827964782714844 4.7754540443420410156 4.9727416038513183594 5.1756424903869628906 5.3796234130859375 5.5782003402709960938 5.762836456298828125 5.9232816696166992188 6.0485463142395019531 6.1285452842712402344 6.1560845375061035156 6.1560845375061035156 6.1285452842712402344 6.0485463142395019531 5.9232816696166992188 5.762836456298828125 5.5782003402709960938 5.3796234130859375 5.1756424903869628906 4.9727416038513183594 4.7754540443420410156 4.5866827964782714844 4.4080805778503417969 4.2404012680053710938 4.0837869644165039062 3.9379858970642089844 3.8025085926055908203 3.716670989990234375 3.8669464588165283203 4.0344777107238769531 4.2223424911499023438 4.4343719482421875 4.675388336181640625 4.9515256881713867188 5.2706804275512695312 5.6431345939636230469 6.0824141502380371094 6.60645294189453125 7.2390432357788085938 8.0112743377685546875 8.9615926742553710938 10.12982940673828125 11.531419754028320312 13.080867767333984375 14.840289115905761719 19.44696044921875 27.097316741943359375 34.7828826904296875 101 101 34.7828826904296875 21.324550628662109375 15.534383773803710938 12.3118133544921875 10.258920669555664062 9.6068754196166992188 11.160678863525390625 13.252798080444335938 16.006879806518554688 19.072340011596679688 20.655321121215820312 19.072340011596679688 16.006879806518554688 13.252798080444335938 11.531291961669921875 13.080780029296875 14.445917129516601562 15.022253990173339844 15.022253990173339844 16.006765365600585938 19.07228851318359375 20.655321121215820312 27.09722900390625 34.7828826904296875 101 101 101 34.7828826904296875 33.85323333740234375 33.85323333740234375 27.097316741943359375 20.655321121215820312 21.324550628662109375 34.7828826904296875 101 34.7828826904296875 33.85323333740234375 34.7828826904296875 101 101 34.7828826904296875 33.85323333740234375 33.85323333740234375 33.85323333740234375 33.85323333740234375 27.097316741943359375 33.85323333740234375 27.097316741943359375 19.44696044921875 14.840289115905761719 11.986235618591308594 
3.3641972541809082031 3.3773081302642822266 3.3852810859680175781 3.3879566192626953125 3.3879566192626953125 3.3852810859680175781 3.3773081302642822266 3.3641972541809082031 3.3462040424346923828 3.3236668109893798828 3.2969903945922851562 3.2666265964508056641 3.2330548763275146484 3.196765899658203125 3.1582434177398681641 3.1648619174957275391 3.2470467090606689453 3.3344297409057617188 3.4273180961608886719 3.5259931087493896484 3.6306860446929931641 3.741546630859375 3.8585975170135498047 3.9816761016845703125 4.1103587150573730469 4.2563567161560058594 4.410793304443359375 4.5715546607971191406 4.7367811203002929688 4.9036593437194824219 5.0682392120361328125 5.225330352783203125 5.3685832023620605469 5.4908423423767089844 5.5848455429077148438 5.6442112922668457031 5.6645264625549316406 5.6645264625549316406 5.6442112922668457031 5.5848455429077148438 5.4908423423767089844 5.3685832023620605469 5.225330352783203125 5.0682392120361328125 4.9036593437194824219 4.7367811203002929688 4.5715546607971191406 4.410793304443359375 4.2563567161560058594 4.1093602180480957031 3.9703657627105712891 3.8395419120788574219 3.7167899608612060547 3.738468170166015625 3.89263916015625 4.0650448799133300781 4.2590880393981933594 4.4790625572204589844 4.7304606437683105469 5.0204133987426757812 5.3583364486694335938 5.7568926811218261719 6.2334680557250976562 6.8124723434448242188 7.5290050506591796875 8.434719085693359375 9.6069393157958984375 11.160747528076171875 13.252866744995117188 16.006938934326171875 19.072366714477539062 21.324705123901367188 34.7830963134765625 101 101 34.7830963134765625 27.097316741943359375 19.44696044921875 14.840289115905761719 13.080897331237792969 11.531462669372558594 10.129878044128417969 11.986322402954101562 14.840390205383300781 19.447072982788085938 27.09740447998046875 33.85323333740234375 27.09740447998046875 19.447072982788085938 14.840390205383300781 11.986322402954101562 10.933773994445800781 11.630323410034179688 11.898753166198730469 11.898753166198730469 13.080809593200683594 14.445927619934082031 16.006822586059570312 19.44696044921875 27.097316741943359375 33.85323333740234375 34.7830963134765625 101 101 101 101 34.7830963134765625 33.85323333740234375 27.09740447998046875 34.7830963134765625 101 34.7830963134765625 101 101 101 101 34.7830963134765625 101 101 101 101 34.7830963134765625 101 34.7830963134765625 21.324705123901367188 15.534501075744628906 12.311907768249511719 
3.2562341690063476562 3.2676084041595458984 3.2745165824890136719 3.2768335342407226562 3.2768335342407226562 3.2745165824890136719 3.2676084041595458984 3.2562341690063476562 3.2405962944030761719 3.2209634780883789062 3.1976594924926757812 3.1710486412048339844 3.141521453857421875 3.1094808578491210938 3.0753300189971923828 3.1167187690734863281 3.1933043003082275391 3.2742896080017089844 3.3598589897155761719 3.4501566886901855469 3.5452616214752197266 3.6451604366302490234 3.7497072219848632812 3.8586122989654541016 3.9816904067993164062 4.1103725433349609375 4.2438783645629882812 4.380962371826171875 4.5197930335998535156 4.6578435897827148438 4.7918133735656738281 4.9176344871520996094 5.0305995941162109375 5.1256575584411621094 5.1978921890258789062 5.24312591552734375 5.2585368156433105469 5.2585368156433105469 5.24312591552734375 5.1978921890258789062 5.1256575584411621094 5.0305995941162109375 4.9176344871520996094 4.7918133735656738281 4.6578435897827148438 4.5197930335998535156 4.380962371826171875 4.2438783645629882812 4.1103725433349609375 3.9816904067993164062 3.8586122989654541016 3.7415616512298583984 3.6307015419006347656 3.7518086433410644531 3.9083991050720214844 4.0838451385498046875 4.28176116943359375 4.5067458152770996094 4.7647395133972167969 5.0635499954223632812 5.4136438369750976562 5.8293781280517578125 6.3309736251831054688 6.9478135108947753906 7.7242155075073242188 8.73007965087890625 10.081812858581542969 11.986408233642578125 14.840491294860839844 19.447183609008789062 27.097492218017578125 33.85323333740234375 33.85323333740234375 33.85323333740234375 33.85323333740234375 27.097492218017578125 20.655321121215820312 20.655321121215820312 19.072393417358398438 16.00699615478515625 13.252935409545898438 11.531505584716796875 12.312003135681152344 15.534618377685546875 21.324857711791992188 34.783306121826171875 101 34.783306121826171875 21.324857711791992188 16.00699615478515625 13.252935409545898438 11.160815238952636719 9.7677145004272460938 9.9132900238037109375 10.033066749572753906 10.933790206909179688 11.630328178405761719 13.252798080444335938 16.006879806518554688 19.072340011596679688 20.655321121215820312 27.09740447998046875 33.85323333740234375 33.85323333740234375 34.783306121826171875 101 101 101 34.783306121826171875 101 101 101 101 34.783306121826171875 33.85323333740234375 34.783306121826171875 101 101 34.783306121826171875 33.85323333740234375 34.783306121826171875 101 101 34.783306121826171875 21.324857711791992188 15.534618377685546875 15.022253990173339844 
3.1576180458068847656 3.1675481796264648438 3.1735730171203613281 3.1755926609039306641 3.1755926609039306641 3.1735730171203613281 3.1675481796264648438 3.1576180458068847656 3.14394378662109375 3.1267414093017578125 3.1062719821929931641 3.0828316211700439453 3.0567400455474853516 3.0283308029174804688 3.000263214111328125 3.0678892135620117188 3.1390776634216308594 3.2139513492584228516 3.2925992012023925781 3.3750603199005126953 3.4613037109375 3.5512034893035888672 3.6451740264892578125 3.7497203350067138672 3.8585903644561767578 3.9712224006652832031 4.0867509841918945312 4.2039365768432617188 4.3210935592651367188 4.4360418319702148438 4.5460867881774902344 4.6480669975280761719 4.7384796142578125 4.8137106895446777344 4.8703560829162597656 4.9055962562561035156 4.9175615310668945312 4.9175615310668945312 4.9055962562561035156 4.8703560829162597656 4.8137106895446777344 4.7384796142578125 4.6480669975280761719 4.5460867881774902344 4.4360418319702148438 4.3210935592651367188 4.2039365768432617188 4.0867509841918945312 3.9712224006652832031 3.8585903644561767578 3.7497203350067138672 3.6451740264892578125 3.6150326728820800781 3.7563078403472900391 3.9137194156646728516 4.0901994705200195312 4.2894358634948730469 4.5161342620849609375 4.7763919830322265625 5.0782570838928222656 5.4325737953186035156 5.8543143272399902344 6.3647465705871582031 6.9951372146606445312 7.7934031486511230469 8.8369045257568359375 10.259160041809082031 12.312098503112792969 15.53473663330078125 21.325010299682617188 34.783519744873046875 101 101 101 101 34.783519744873046875 33.85323333740234375 33.85323333740234375 27.0975799560546875 19.447296142578125 16.007053375244140625 13.253004074096679688 12.312098503112792969 15.53473663330078125 21.325010299682617188 34.783519744873046875 101 34.783519744873046875 27.0975799560546875 19.447296142578125 14.8405914306640625 11.986495018005371094 10.081888198852539062 9.9132900238037109375 9.9132900238037109375 9.9132900238037109375 10.12982940673828125 11.531419754028320312 13.080867767333984375 14.445947647094726562 16.006938934326171875 19.072366714477539062 20.655321121215820312 20.655321121215820312 27.097492218017578125 34.783519744873046875 101 101 101 101 101 101 34.783519744873046875 33.85323333740234375 34.783519744873046875 101 101 34.783519744873046875 27.097492218017578125 21.325010299682617188 34.783519744873046875 101 34.783519744873046875 27.097492218017578125 20.655321121215820312 20.655321121215820312 20.655321121215820312 
3.0671951770782470703 3.0759153366088867188 3.0812010765075683594 3.0829720497131347656 3.0829720497131347656 3.0812010765075683594 3.0759153366088867188 3.0671951770782470703 3.0551707744598388672 3.0400166511535644531 3.0219457149505615234 3.0011999607086181641 2.9780430793762207031 2.9527521133422851562 2.9557573795318603516 3.0187945365905761719 3.0848331451416015625 3.1539270877838134766 3.2260918617248535156 3.3012902736663818359 3.3794147968292236328 3.4613161087036132812 3.5512156486511230469 3.644519805908203125 3.7408134937286376953 3.8394777774810791016 3.9396443367004394531 4.0401506423950195312 4.1395063400268554688 4.2358722686767578125 4.3270750045776367188 4.4106602668762207031 4.4840044975280761719 4.544483184814453125 4.5896883010864257812 4.6176667213439941406 4.6271409988403320312 4.6271409988403320312 4.6176667213439941406 4.5896883010864257812 4.544483184814453125 4.4840044975280761719 4.4106602668762207031 4.3270750045776367188 4.2358722686767578125 4.1395063400268554688 4.0401506423950195312 3.9396443367004394531 3.8394777774810791016 3.7408134937286376953 3.644519805908203125 3.5512156486511230469 3.6112177371978759766 3.7518339157104492188 3.9084255695343017578 4.0838732719421386719 4.2817912101745605469 4.5067777633666992188 4.7647738456726074219 5.0635867118835449219 5.4136834144592285156 5.8294215202331542969 6.3310208320617675781 6.9478654861450195312 7.724273681640625 8.7301454544067382812 10.081888198852539062 11.986495018005371094 14.8405914306640625 19.447296142578125 27.0975799560546875 33.85323333740234375 33.85323333740234375 34.78372955322265625 101 101 101 101 34.78372955322265625 27.097667694091796875 19.447408676147460938 16.007112503051757812 13.253072738647460938 15.534853935241699219 21.325164794921875 34.78372955322265625 101 101 34.78372955322265625 21.325164794921875 15.534853935241699219 12.312192916870117188 11.630357742309570312 11.898753166198730469 11.898753166198730469 11.898753166198730469 11.630357742309570312 10.933884620666503906 10.933821678161621094 11.630338668823242188 13.080897331237792969 14.445958137512207031 15.022253990173339844 16.00699615478515625 19.447296142578125 27.0975799560546875 33.85323333740234375 33.85323333740234375 33.85323333740234375 34.78372955322265625 101 101 101 101 101 101 34.78372955322265625 33.85323333740234375 27.097667694091796875 27.097667694091796875 34.78372955322265625 101 34.78372955322265625 27.097667694091796875 33.85323333740234375 33.85323333740234375 33.85323333740234375 
2.9839928150177001953 2.9916913509368896484 2.9963538646697998047 2.9979155063629150391 2.9979155063629150391 2.9963538646697998047 2.9916913509368896484 2.9839928150177001953 2.9733643531799316406 2.9599485397338867188 2.9439194202423095703 2.9254767894744873047 2.9048395156860351562 2.8822391033172607422 2.9111340045928955078 2.9697949886322021484 3.0309607982635498047 3.0946331024169921875 3.1607737541198730469 3.2292907238006591797 3.3013019561767578125 3.3794262409210205078 3.4602782726287841797 3.5435452461242675781 3.628772735595703125 3.7153351306915283203 3.8024067878723144531 3.8889386653900146484 3.9736411571502685547 4.0549845695495605469 4.1312222480773925781 4.2004461288452148438 4.2606739997863769531 4.3099713325500488281 4.3466014862060546875 4.36917877197265625 4.37680816650390625 4.37680816650390625 4.36917877197265625 4.3466014862060546875 4.3099713325500488281 4.2606739997863769531 4.2004461288452148438 4.1312222480773925781 4.0549845695495605469 3.9736411571502685547 3.8889386653900146484 3.8024067878723144531 3.7153351306915283203 3.628772735595703125 3.5435452461242675781 3.4744729995727539062 3.599849700927734375 3.7385179996490478516 3.8926916122436523438 4.0651001930236816406 4.2591466903686523438 4.4791250228881835938 4.7305269241333007812 5.0204844474792480469 5.3584127426147460938 5.7569751739501953125 6.2335572242736816406 6.8125696182250976562 7.5291113853454589844 8.4348354339599609375 9.6070661544799804688 11.160882949829101562 13.253004074096679688 16.007053375244140625 19.072418212890625 20.655321121215820312 20.655321121215820312 27.097667694091796875 33.85323333740234375 33.85323333740234375 34.78394317626953125 101 101 34.78394317626953125 27.09775543212890625 19.447521209716796875 16.007169723510742188 15.534971237182617188 21.3253173828125 34.78394317626953125 101 101 34.78394317626953125 21.3253173828125 15.534971237182617188 13.081013679504394531 14.4459991455078125 15.022253990173339844 15.022253990173339844 15.022253990173339844 14.4459991455078125 13.081013679504394531 11.531633377075195312 10.130072593688964844 10.933837890625 11.630343437194824219 11.898753166198730469 13.253004074096679688 16.007053375244140625 19.072418212890625 20.655321121215820312 20.655321121215820312 20.655321121215820312 27.097667694091796875 33.85323333740234375 33.85323333740234375 34.78394317626953125 101 101 101 101 101 34.78394317626953125 34.78394317626953125 101 101 34.78394317626953125 34.78394317626953125 101 101 101 
2.9071853160858154297 2.9140152931213378906 2.9181489944458007812 2.9195330142974853516 2.9195330142974853516 2.9181489944458007812 2.9140152931213378906 2.9071853160858154297 2.8977456092834472656 2.8858137130737304688 2.8715333938598632812 2.8550701141357421875 2.8366067409515380859 2.8163373470306396484 2.8666746616363525391 2.9211919307708740234 2.9777798652648925781 3.0364010334014892578 3.0969781875610351562 3.1607844829559326172 3.22930145263671875 3.3000371456146240234 3.3727517127990722656 3.4471032619476318359 3.5226304531097412109 3.5987322330474853516 3.6746511459350585938 3.7494597434997558594 3.8220586776733398438 3.8911838531494140625 3.9554340839385986328 4.0133180618286132812 4.0633230209350585938 4.1040043830871582031 4.1340861320495605469 4.15256500244140625 4.1587986946105957031 4.1587986946105957031 4.15256500244140625 4.1340861320495605469 4.1040043830871582031 4.0633230209350585938 4.0133180618286132812 3.9554340839385986328 3.8911838531494140625 3.8220586776733398438 3.7494597434997558594 3.6746511459350585938 3.5987322330474853516 3.5226304531097412109 3.4471032619476318359 3.4584190845489501953 3.5812239646911621094 3.7167437076568603516 3.8670229911804199219 4.0345582962036132812 4.2224273681640625 4.4344620704650878906 4.6754832267761230469 4.9516263008117675781 5.2707881927490234375 5.6432490348815917969 6.0825362205505371094 6.6065831184387207031 7.2391815185546875 8.0114192962646484375 8.961742401123046875 10.129975318908691406 11.531548500061035156 13.08095550537109375 14.445979118347167969 15.022253990173339844 16.007112503051757812 19.072444915771484375 20.655321121215820312 20.655321121215820312 27.09775543212890625 34.784152984619140625 101 101 34.784152984619140625 27.097843170166015625 19.4476318359375 16.007226943969726562 21.325471878051757812 34.784152984619140625 101 34.784152984619140625 27.09775543212890625 19.447521209716796875 14.840793609619140625 16.007226943969726562 19.072498321533203125 20.655321121215820312 20.655321121215820312 20.655321121215820312 19.072498321533203125 16.007226943969726562 13.253210067749023438 11.1610870361328125 9.9132900238037109375 9.9132900238037109375 10.129975318908691406 11.531548500061035156 13.08095550537109375 14.445979118347167969 15.022253990173339844 16.007226943969726562 19.072498321533203125 20.655321121215820312 20.655321121215820312 20.655321121215820312 27.09775543212890625 33.85323333740234375 33.85323333740234375 33.85323333740234375 34.784152984619140625 101 101 101 101 101 101 101 101 34.784152984619140625 33.85323333740234375 
2.83606719970703125 2.8421545028686523438 2.8458361625671386719 2.8470683097839355469 2.8470683097839355469 2.8458361625671386719 2.8421545028686523438 2.83606719970703125 2.8276462554931640625 2.8169887065887451172 2.8042140007019042969 2.7894604206085205078 2.7728812694549560547 2.7737276554107666016 2.8226165771484375 2.8732342720031738281 2.9255459308624267578 2.9794859886169433594 3.036411285400390625 3.0969882011413574219 3.1593937873840332031 3.2234406471252441406 3.2888674736022949219 3.3553264141082763672 3.4223701953887939453 3.4894394874572753906 3.5558531284332275391 3.6208043098449707031 3.6833629608154296875 3.7424879074096679688 3.7970526218414306641 3.8458850383758544922 3.8878192901611328125 3.9217615127563476562 3.9467597007751464844 3.9620735645294189453 3.96723175048828125 3.96723175048828125 3.9620735645294189453 3.9467597007751464844 3.9217615127563476562 3.8878192901611328125 3.8458850383758544922 3.7970526218414306641 3.7424879074096679688 3.6833629608154296875 3.6208043098449707031 3.5558531284332275391 3.4894394874572753906 3.4223701953887939453 3.3553264141082763672 3.4364595413208007812 3.5558087825775146484 3.6871173381805419922 3.83221435546875 3.9933037757873535156 4.1730608940124511719 4.3747539520263671875 4.6024022102355957031 4.8609766960144042969 5.1566510200500488281 5.4971003532409667969 5.8918256759643554688 6.3524031639099121094 6.8924107551574707031 7.5263772010803222656 8.2662506103515625 9.1122646331787109375 10.033199310302734375 10.933869361877441406 11.630352973937988281 11.898753166198730469 13.080984115600585938 14.445988655090332031 15.022253990173339844 16.007169723510742188 19.4476318359375 27.097843170166015625 34.784366607666015625 101 101 34.784366607666015625 27.097930908203125 19.447744369506835938 19.4476318359375 27.097843170166015625 33.85323333740234375 27.097843170166015625 19.4476318359375 16.007169723510742188 16.00728607177734375 19.447744369506835938 27.097930908203125 33.85323333740234375 33.85323333740234375 33.85323333740234375 27.097930908203125 19.447744369506835938 14.840994834899902344 11.986842155456542969 11.898753166198730469 11.898753166198730469 11.898753166198730469 11.898753166198730469 13.253278732299804688 16.00728607177734375 19.072523117065429688 20.655321121215820312 27.097930908203125 33.85323333740234375 33.85323333740234375 33.85323333740234375 33.85323333740234375 33.85323333740234375 34.784366607666015625 101 101 101 34.784366607666015625 33.85323333740234375 33.85323333740234375 33.85323333740234375 34.784366607666015625 101 101 34.784366607666015625 27.097930908203125 
2.7700328826904296875 2.7754809856414794922 2.778774261474609375 2.7798759937286376953 2.7798759937286376953 2.778774261474609375 2.7754809856414794922 2.7700328826904296875 2.7624895572662353516 2.7529320716857910156 2.7414605617523193359 2.7281906604766845703 2.7132523059844970703 2.7336139678955078125 2.7791547775268554688 2.8261210918426513672 2.8744568824768066406 2.9255554676055908203 2.9794952869415283203 3.0349600315093994141 3.0918011665344238281 3.1498150825500488281 3.2087352275848388672 3.2682220935821533203 3.3278543949127197266 3.3871221542358398438 3.4454228878021240234 3.5020599365234375 3.5562500953674316406 3.6071362495422363281 3.6538102626800537109 3.6953439712524414062 3.7308304309844970703 3.7594308853149414062 3.7804241180419921875 3.793254852294921875 3.7975718975067138672 3.7975718975067138672 3.793254852294921875 3.7804241180419921875 3.7594308853149414062 3.7308304309844970703 3.6953439712524414062 3.6538102626800537109 3.6071362495422363281 3.5562500953674316406 3.5020599365234375 3.4454228878021240234 3.3871221542358398438 3.3278543949127197266 3.3036608695983886719 3.4090754985809326172 3.5242149829864501953 3.6504220962524414062 3.7892823219299316406 3.9426739215850830078 4.11283111572265625 4.302417755126953125 4.5146131515502929688 4.7532048225402832031 5.022678375244140625 5.3282709121704101562 5.6759276390075683594 6.0720224380493164062 6.5225782394409179688 7.0314798355102539062 7.5968561172485351562 8.2045745849609375 8.8185682296752929688 9.3715410232543945312 9.767730712890625 10.03322601318359375 10.933884620666503906 11.630357742309570312 11.898753166198730469 13.253210067749023438 16.007226943969726562 19.447744369506835938 27.097930908203125 34.784576416015625 101 101 34.784576416015625 27.098016738891601562 19.447856903076171875 19.072498321533203125 20.655321121215820312 19.072498321533203125 16.007226943969726562 14.841095924377441406 19.447856903076171875 27.098016738891601562 34.784576416015625 101 101 101 34.784576416015625 21.325778961181640625 15.535325050354003906 15.022253990173339844 15.022253990173339844 15.022253990173339844 15.022253990173339844 15.022253990173339844 16.007343292236328125 19.447856903076171875 27.098016738891601562 33.85323333740234375 34.784576416015625 101 101 101 101 101 101 101 34.784576416015625 101 101 34.784576416015625 27.098016738891601562 20.655321121215820312 27.097930908203125 34.784576416015625 101 101 34.784576416015625 
2.7085585594177246094 2.7134540081024169922 2.7164113521575927734 2.7174007892608642578 2.7174007892608642578 2.7164113521575927734 2.7134540081024169922 2.7085585594177246094 2.7017755508422851562 2.6931729316711425781 2.6828343868255615234 2.6708583831787109375 2.6573541164398193359 2.6940488815307617188 2.7364473342895507812 2.7800085544586181641 2.8261301517486572266 2.8744657039642333984 2.9240863323211669922 2.9748721122741699219 3.0266625881195068359 3.0792500972747802734 3.1323726177215576172 3.18570709228515625 3.2388651371002197266 3.2913887500762939453 3.3427488803863525391 3.3923485279083251953 3.4395287036895751953 3.4835834503173828125 3.5237765312194824219 3.5593686103820800781 3.5896475315093994141 3.6139621734619140625 3.6317591667175292969 3.6426150798797607422 3.6462640762329101562 3.6462640762329101562 3.6426150798797607422 3.6317591667175292969 3.6139621734619140625 3.5896475315093994141 3.5593686103820800781 3.5237765312194824219 3.4835834503173828125 3.4395287036895751953 3.3923485279083251953 3.3427488803863525391 3.2913887500762939453 3.2388651371002197266 3.2754518985748291016 3.3768351078033447266 3.4871566295623779297 3.6075646877288818359 3.7393901348114013672 3.8841769695281982422 4.0437169075012207031 4.2200798988342285156 4.415645599365234375 4.633113861083984375 4.8754830360412597656 5.1459550857543945312 5.4477028846740722656 5.7833871841430664062 6.1542468070983886719 6.5585064888000488281 6.9888348579406738281 7.4288330078125 7.8493933677673339844 8.207561492919921875 8.4522962570190429688 8.818584442138671875 9.3715496063232421875 9.7677335739135742188 10.130121231079101562 11.531676292419433594 13.253278732299804688 16.00728607177734375 19.447856903076171875 27.098016738891601562 34.7847900390625 101 101 34.7847900390625 27.098104476928710938 20.655321121215820312 19.072576522827148438 16.007402420043945312 14.446040153503417969 15.535442352294921875 21.325931549072265625 34.7847900390625 101 101 34.7847900390625 33.85323333740234375 27.098016738891601562 19.447856903076171875 19.072576522827148438 20.655321121215820312 20.655321121215820312 20.655321121215820312 20.655321121215820312 20.655321121215820312 20.655321121215820312 27.098104476928710938 34.7847900390625 101 101 101 34.7847900390625 33.85323333740234375 33.85323333740234375 33.85323333740234375 33.85323333740234375 33.85323333740234375 27.098016738891601562 34.7847900390625 101 101 34.7847900390625 27.098104476928710938 20.655321121215820312 27.098104476928710938 34.7847900390625 101 101 
2.6511905193328857422 2.6556050777435302734 2.6582710742950439453 2.6591625213623046875 2.6591625213623046875 2.6582710742950439453 2.6556050777435302734 2.6511905193328857422 2.645069122314453125 2.6372988224029541016 2.6279501914978027344 2.6171066761016845703 2.6166944503784179688 2.6551592350006103516 2.6946194171905517578 2.7364559173583984375 2.7800168991088867188 2.8246705532073974609 2.8703191280364990234 2.9168350696563720703 2.9640533924102783203 3.0117688179016113281 3.05973052978515625 3.1076378822326660156 3.1551370620727539062 3.2018208503723144531 3.2472279071807861328 3.2908470630645751953 3.3321254253387451172 3.3704788684844970703 3.4053087234497070312 3.4360213279724121094 3.4620521068572998047 3.4828903675079345703 3.4981057643890380859 3.5073716640472412109 3.5104835033416748047 3.5104835033416748047 3.5073716640472412109 3.4981057643890380859 3.4828903675079345703 3.4620521068572998047 3.4360213279724121094 3.4053087234497070312 3.3704788684844970703 3.3321254253387451172 3.2908470630645751953 3.2472279071807861328 3.2018208503723144531 3.1551370620727539062 3.2434217929840087891 3.340362548828125 3.4454107284545898438 3.5595195293426513672 3.6837694644927978516 3.8193833827972412109 3.9677360057830810547 4.1303558349609375 4.3089146614074707031 4.5051875114440917969 4.72097015380859375 4.9579148292541503906 5.2172417640686035156 5.4992556571960449219 5.8025803565979003906 6.1230344772338867188 6.4521584510803222656 6.7756395339965820312 7.0723733901977539062 7.3154554367065429688 7.4764704704284667969 7.8494048118591308594 8.2075672149658203125 8.4522981643676757812 9.11236572265625 10.130170822143554688 11.531719207763671875 13.253347396850585938 16.007343292236328125 19.447969436645507812 27.098104476928710938 34.785003662109375 101 101 34.785003662109375 33.85323333740234375 27.098192214965820312 20.655321121215820312 19.072603225708007812 19.072603225708007812 21.326086044311523438 34.785003662109375 101 34.785003662109375 27.098104476928710938 20.655321121215820312 19.072549819946289062 19.448080062866210938 27.098192214965820312 33.85323333740234375 33.85323333740234375 33.85323333740234375 33.85323333740234375 33.85323333740234375 33.85323333740234375 34.785003662109375 101 101 34.785003662109375 33.85323333740234375 27.098104476928710938 20.655321121215820312 20.655321121215820312 20.655321121215820312 20.655321121215820312 20.655321121215820312 19.447969436645507812 27.098104476928710938 34.785003662109375 101 101 34.785003662109375 33.85323333740234375 34.785003662109375 101 101 101 
2.5975322723388671875 2.6015269756317138672 2.6039383411407470703 2.6047446727752685547 2.6047446727752685547 2.6039383411407470703 2.6015269756317138672 2.5975322723388671875 2.5919895172119140625 2.5849478244781494141 2.5764675140380859375 2.5666196346282958984 2.5811340808868408203 2.6170456409454345703 2.6551673412322998047 2.6946272850036621094 2.7350237369537353516 2.7762770652770996094 2.8182833194732666016 2.8609108924865722656 2.9039967060089111328 2.9473428726196289062 2.9907131195068359375 3.0338313579559326172 3.0763790607452392578 3.1179957389831542969 3.1582806110382080078 3.1967978477478027344 3.2330815792083740234 3.2666478157043457031 3.2970066070556640625 3.3236784934997558594 3.3462116718292236328 3.3642017841339111328 3.3773102760314941406 3.3852815628051757812 3.3879566192626953125 3.3879566192626953125 3.3852815628051757812 3.3773102760314941406 3.3642017841339111328 3.3462116718292236328 3.3236784934997558594 3.2970066070556640625 3.2666478157043457031 3.2330815792083740234 3.1967978477478027344 3.1582806110382080078 3.1179957389831542969 3.122470855712890625 3.2081034183502197266 3.3003091812133789062 3.3997778892517089844 3.5072758197784423828 3.6236505508422851562 3.7498314380645751953 3.886821746826171875 4.03568267822265625 4.1974978446960449219 4.3733062744140625 4.5639986991882324219 4.7701382637023925781 4.9916944503784179688 5.2276463508605957031 5.4754352569580078125 5.7302751541137695312 5.984409332275390625 6.2265505790710449219 6.4419374465942382812 6.6135516166687011719 6.7756514549255371094 7.0723814964294433594 7.3154592514038085938 7.5969400405883789062 8.2664012908935546875 9.112400054931640625 10.130219459533691406 11.531762123107910156 13.253416061401367188 16.007402420043945312 19.448080062866210938 27.098192214965820312 34.785213470458984375 101 101 101 34.785213470458984375 33.85323333740234375 27.098279953002929688 27.098279953002929688 33.85323333740234375 34.785213470458984375 101 34.785213470458984375 21.326238632202148438 20.655321121215820312 20.655321121215820312 27.098279953002929688 34.785213470458984375 101 101 101 101 101 101 101 101 34.785213470458984375 27.098192214965820312 20.655321121215820312 19.072576522827148438 16.007402420043945312 15.022253990173339844 15.022253990173339844 15.022253990173339844 15.022253990173339844 16.007402420043945312 19.448080062866210938 27.098192214965820312 34.785213470458984375 101 101 101 101 101 34.785213470458984375 33.85323333740234375 
2.5472366809844970703 2.5508632659912109375 2.5530514717102050781 2.5537831783294677734 2.5537831783294677734 2.5530514717102050781 2.5508632659912109375 2.5472366809844970703 2.5422022342681884766 2.5358014106750488281 2.5280859470367431641 2.5191166400909423828 2.5462617874145507812 2.5811417102813720703 2.6170532703399658203 2.6537735462188720703 2.6912369728088378906 2.7293581962585449219 2.7680306434631347656 2.8071234226226806641 2.8464782238006591797 2.8859076499938964844 2.9251925945281982422 2.9640812873840332031 3.0022892951965332031 3.0394988059997558594 3.0753631591796875 3.1095092296600341797 3.1415448188781738281 3.1710674762725830078 3.197673797607421875 3.2209737300872802734 3.2406029701232910156 3.2562379837036132812 3.2676100730895996094 3.274517059326171875 3.2768335342407226562 3.2768335342407226562 3.274517059326171875 3.2676100730895996094 3.2562379837036132812 3.2406029701232910156 3.2209737300872802734 3.197673797607421875 3.1710674762725830078 3.1415448188781738281 3.1095092296600341797 3.0753631591796875 3.0394988059997558594 3.0886266231536865234 3.1700370311737060547 3.2573273181915283203 3.3510477542877197266 3.4517946243286132812 3.5602066516876220703 3.6769556999206542969 3.8027310371398925781 3.93820953369140625 4.0840101242065429688 4.2406225204467773438 4.4082970619201660156 4.5868916511535644531 4.7756519317626953125 4.9729237556457519531 5.1758050918579101562 5.3797616958618164062 5.5783100128173828125 5.7629156112670898438 5.9233307838439941406 6.0485701560974121094 6.2265591621398925781 6.4419431686401367188 6.6135544776916503906 7.0316019058227539062 7.5969681739807128906 8.2664394378662109375 9.1124334335327148438 10.130268096923828125 11.531805038452148438 13.253485679626464844 16.007459640502929688 19.448192596435546875 27.098279953002929688 33.85323333740234375 34.785427093505859375 101 101 101 34.785427093505859375 34.785427093505859375 101 101 101 34.785427093505859375 33.85323333740234375 33.85323333740234375 33.85323333740234375 34.785427093505859375 101 101 101 34.785427093505859375 33.85323333740234375 33.85323333740234375 33.85323333740234375 33.85323333740234375 33.85323333740234375 27.098279953002929688 19.448192596435546875 16.007459640502929688 14.446040153503417969 13.0811309814453125 11.898753166198730469 11.898753166198730469 11.898753166198730469 11.898753166198730469 13.253485679626464844 16.007459640502929688 19.448192596435546875 27.098279953002929688 33.85323333740234375 33.85323333740234375 33.85323333740234375 33.85323333740234375 33.85323333740234375 27.098279953002929688 20.655321121215820312 
2.4999990463256835938 2.5033011436462402344 2.5052928924560546875 2.50595855712890625 2.50595855712890625 2.5052928924560546875 2.5033011436462402344 2.4999990463256835938 2.4954125881195068359 2.4895775318145751953 2.4825379848480224609 2.4814138412475585938 2.5134484767913818359 2.5462689399719238281 2.5797932147979736328 2.6139655113220214844 2.6487162113189697266 2.6839575767517089844 2.7195832729339599609 2.7554657459259033203 2.7914538383483886719 2.8273723125457763672 2.8630201816558837891 2.8981697559356689453 2.9325671195983886719 2.9659340381622314453 2.9979698657989501953 3.0283558368682861328 3.0567607879638671875 3.0828480720520019531 3.1062843799591064453 3.1267502307891845703 3.1439495086669921875 3.1576213836669921875 3.1675498485565185547 3.1735734939575195312 3.1755926609039306641 3.1755926609039306641 3.1735734939575195312 3.1675498485565185547 3.1576213836669921875 3.1439495086669921875 3.1267502307891845703 3.1062843799591064453 3.0828480720520019531 3.0567607879638671875 3.0283558368682861328 2.9979698657989501953 2.9803800582885742188 3.0526633262634277344 3.1297521591186523438 3.2120466232299804688 3.2999720573425292969 3.3939745426177978516 3.4945120811462402344 3.6020405292510986328 3.7169923782348632812 3.8397436141967773438 3.9705650806427001953 4.1095552444458007812 4.2565455436706542969 4.41097259521484375 4.5717220306396484375 4.7369327545166015625 4.9037919044494628906 5.0683493614196777344 5.2254161834716796875 5.3686437606811523438 5.4908800125122070312 5.5848631858825683594 5.7629222869873046875 5.9233350753784179688 6.1543498039245605469 6.55860137939453125 7.0316329002380371094 7.5969958305358886719 8.2664766311645507812 9.1124677658081054688 10.130316734313964844 11.531847953796386719 13.253554344177246094 16.007516860961914062 19.072628021240234375 20.655321121215820312 27.098367691040039062 33.85323333740234375 34.78563690185546875 101 101 101 101 34.78563690185546875 33.85323333740234375 34.78563690185546875 101 101 101 101 101 34.78563690185546875 33.85323333740234375 27.098367691040039062 20.655321121215820312 20.655321121215820312 20.655321121215820312 20.655321121215820312 20.655321121215820312 19.072628021240234375 16.007516860961914062 13.253554344177246094 11.630382537841796875 10.933963775634765625 10.033358573913574219 9.9132900238037109375 9.9132900238037109375 10.130316734313964844 11.531847953796386719 13.253554344177246094 16.007516860961914062 19.072628021240234375 20.655321121215820312 20.655321121215820312 20.655321121215820312 20.655321121215820312 20.655321121215820312 19.072681427001953125 16.007633209228515625 
2.4555492401123046875 2.4585645198822021484 2.4603826999664306641 2.4609901905059814453 2.4609901905059814453 2.4603826999664306641 2.4585645198822021484 2.4555492401123046875 2.4513595104217529297 2.4460256099700927734 2.4395859241485595703 2.4513087272644042969 2.4814207553863525391 2.5121483802795410156 2.5434453487396240234 2.5752527713775634766 2.6074988842010498047 2.6400959491729736328 2.6729397773742675781 2.7059080600738525391 2.7388589382171630859 2.7716295719146728516 2.8040363788604736328 2.8358750343322753906 2.8669197559356689453 2.8969268798828125 2.92563629150390625 2.9527745246887207031 2.9780614376068115234 3.0012145042419433594 3.0219566822052001953 3.0400245189666748047 3.05517578125 3.0671980381011962891 3.0759165287017822266 3.0812013149261474609 3.0829720497131347656 3.0829720497131347656 3.0812013149261474609 3.0759165287017822266 3.0671980381011962891 3.05517578125 3.0400245189666748047 3.0219566822052001953 3.0012145042419433594 2.9780614376068115234 2.9527745246887207031 2.92563629150390625 2.9465272426605224609 3.015010833740234375 3.0877521038055419922 3.165058135986328125 3.2472448348999023438 3.3346292972564697266 3.4275183677673339844 3.5261933803558349609 3.6308851242065429688 3.7417430877685546875 3.8587896823883056641 3.9818623065948486328 4.1105365753173828125 4.2440323829650878906 4.3811039924621582031 4.5199193954467773438 4.6579518318176269531 4.7919025421142578125 4.9177031517028808594 5.03064727783203125 5.1256861686706542969 5.2254233360290527344 5.3686490058898925781 5.4993443489074707031 5.8026633262634277344 6.1543755531311035156 6.5586252212524414062 7.0316634178161621094 7.5970239639282226562 8.266513824462890625 9.1125011444091796875 10.130365371704101562 11.531889915466308594 13.081189155578613281 14.4460601806640625 16.00757598876953125 19.07265472412109375 20.655321121215820312 27.098455429077148438 33.85323333740234375 34.78585052490234375 101 101 101 101 101 101 34.78585052490234375 33.85323333740234375 33.85323333740234375 33.85323333740234375 27.098455429077148438 20.655321121215820312 19.07265472412109375 16.00757598876953125 15.022253990173339844 15.022253990173339844 15.022253990173339844 15.022253990173339844 14.4460601806640625 13.081189155578613281 11.630406379699707031 10.93404388427734375 10.033491134643554688 9.9132900238037109375 9.9132900238037109375 9.9132900238037109375 9.9132900238037109375 10.130365371704101562 11.531889915466308594 13.081189155578613281 14.4460601806640625 15.022253990173339844 15.022253990173339844 19.448530197143554688 27.098543167114257812 33.85323333740234375 27.098543167114257812 19.448530197143554688 
2.4136488437652587891 2.4164092540740966797 2.4180734157562255859 2.4186294078826904297 2.4186294078826904297 2.4180734157562255859 2.4164092540740966797 2.4136488437652587891 2.4098112583160400391 2.4049229621887207031 2.399017333984375 2.4217920303344726562 2.4500591754913330078 2.4788286685943603516 2.5080511569976806641 2.5376667976379394531 2.5676033496856689453 2.597774505615234375 2.6280801296234130859 2.6584041118621826172 2.6886138916015625 2.7185602188110351562 2.7480759620666503906 2.7769780158996582031 2.8050665855407714844 2.8321280479431152344 2.857936859130859375 2.8822588920593261719 2.9048559665679931641 2.9254896640777587891 2.9439291954040527344 2.9599554538726806641 2.9733688831329345703 2.9839954376220703125 2.9916925430297851562 2.9963543415069580078 2.9979155063629150391 2.9979155063629150391 2.9963543415069580078 2.9916925430297851562 2.9839954376220703125 2.9733688831329345703 2.9599554538726806641 2.9439291954040527344 2.9254896640777587891 2.9048559665679931641 2.8822588920593261719 2.857936859130859375 2.9113826751708984375 2.9760737419128417969 3.0445046424865722656 3.1169021129608154297 3.1934885978698730469 3.2744739055633544922 3.3600430488586425781 3.4503393173217773438 3.5454418659210205078 3.6453366279602050781 3.7498781681060791016 3.8587415218353271484 3.9713652133941650391 4.086883544921875 4.2040567398071289062 4.3211994171142578125 4.4361314773559570312 4.5461597442626953125 4.6481218338012695312 4.73851776123046875 4.8137335777282714844 4.9177088737487792969 5.030651092529296875 5.2277197837829589844 5.49936676025390625 5.8026838302612304688 6.1544013023376464844 6.5586490631103515625 7.0316939353942871094 7.5970520973205566406 8.266551971435546875 9.1125354766845703125 10.033411979675292969 10.933996200561523438 11.630392074584960938 13.081218719482421875 14.446070671081542969 16.007633209228515625 19.072681427001953125 20.655321121215820312 27.098543167114257812 33.85323333740234375 33.85323333740234375 33.85323333740234375 33.85323333740234375 33.85323333740234375 33.85323333740234375 27.098543167114257812 20.655321121215820312 20.655321121215820312 20.655321121215820312 19.072681427001953125 16.007633209228515625 15.022253990173339844 15.022253990173339844 15.022253990173339844 14.446101188659667969 15.022253990173339844 15.022253990173339844 15.022253990173339844 15.022253990173339844 14.446101188659667969 13.081305503845214844 11.898753166198730469 11.898753166198730469 11.898753166198730469 11.898753166198730469 11.898753166198730469 11.630412101745605469 10.93405914306640625 10.933996200561523438 11.630392074584960938 12.313239097595214844 15.536149024963378906 21.326852798461914062 34.78606414794921875 101 34.78606414794921875 21.326852798461914062 
2.3740851879119873047 2.3766188621520996094 2.3781459331512451172 2.3786559104919433594 2.3786559104919433594 2.3781459331512451172 2.3766188621520996094 2.3740851879119873047 2.3705615997314453125 2.3660707473754882812 2.3667771816253662109 2.3928678035736083984 2.4194040298461914062 2.4463441371917724609 2.4736378192901611328 2.5012247562408447266 2.5290331840515136719 2.5569803714752197266 2.5849704742431640625 2.6128947734832763672 2.6406300067901611328 2.6680397987365722656 2.6949732303619384766 2.7212660312652587891 2.7467417716979980469 2.7712132930755615234 2.7944850921630859375 2.8163554668426513672 2.8366212844848632812 2.8550815582275390625 2.8715419769287109375 2.8858199119567871094 2.8977496623992919922 2.9071877002716064453 2.9140164852142333984 2.9181492328643798828 2.9195330142974853516 2.9195330142974853516 2.9181492328643798828 2.9140164852142333984 2.9071877002716064453 2.8977496623992919922 2.8858199119567871094 2.8715419769287109375 2.8550815582275390625 2.8366212844848632812 2.8163554668426513672 2.8174164295196533203 2.8752729892730712891 2.9362239837646484375 3.0004336833953857422 3.0680601596832275391 3.1392483711242675781 3.2141215801239013672 3.2927677631378173828 3.3752264976501464844 3.4614663124084472656 3.5513615608215332031 3.6446599960327148438 3.7409465312957763672 3.8396024703979492188 3.9397585391998291016 4.0402531623840332031 4.1395955085754394531 4.2359471321105957031 4.3271350860595703125 4.4107050895690917969 4.4840350151062011719 4.54616546630859375 4.6481266021728515625 4.7757177352905273438 4.9917922019958496094 5.2277383804321289062 5.4993886947631835938 5.8027048110961914062 6.1544270515441894531 6.5586729049682617188 7.0317244529724121094 7.5970797538757324219 8.2047624588012695312 8.8187036514282226562 9.3716154098510742188 10.033437728881835938 10.934011459350585938 11.630396842956542969 13.081247329711914062 14.446081161499023438 16.0076904296875 19.0727081298828125 20.655321121215820312 20.655321121215820312 20.655321121215820312 20.655321121215820312 20.655321121215820312 20.655321121215820312 20.655321121215820312 20.655321121215820312 20.655321121215820312 20.655321121215820312 20.655321121215820312 20.655321121215820312 20.655321121215820312 20.655321121215820312 20.655321121215820312 19.072759628295898438 20.655321121215820312 20.655321121215820312 20.655321121215820312 20.655321121215820312 19.072759628295898438 16.007806777954101562 15.022253990173339844 15.022253990173339844 15.022253990173339844 15.022253990173339844 15.022253990173339844 14.446111679077148438 13.081335067749023438 11.898753166198730469 11.898753166198730469 12.313334465026855469 15.536267280578613281 21.327007293701171875 34.786273956298828125 101 34.786273956298828125 21.327007293701171875 
2.3366687297821044922 2.3389997482299804688 2.3404042720794677734 2.3408734798431396484 2.3408734798431396484 2.3404042720794677734 2.3389997482299804688 2.3366687297821044922 2.3334257602691650391 2.3292908668518066406 2.3400168418884277344 2.3645701408386230469 2.3894848823547363281 2.4147186279296875 2.4402205944061279297 2.4659307003021240234 2.4917800426483154297 2.5176889896392822266 2.5435669422149658203 2.5693125724792480469 2.5948123931884765625 2.61994171142578125 2.6445648670196533203 2.6685349941253662109 2.6916959285736083984 2.7138838768005371094 2.7349288463592529297 2.7546567916870117188 2.7728943824768066406 2.789470672607421875 2.8042216300964355469 2.8169941902160644531 2.8276498317718505859 2.8360693454742431641 2.84215545654296875 2.8458364009857177734 2.8470683097839355469 2.8470683097839355469 2.8458364009857177734 2.84215545654296875 2.8360693454742431641 2.8276498317718505859 2.8169941902160644531 2.8042216300964355469 2.789470672607421875 2.7728943824768066406 2.7546567916870117188 2.7839000225067138672 2.838497161865234375 2.8957982063293457031 2.9559166431427001953 3.0189535617828369141 3.0849909782409667969 3.1540834903717041016 3.2262461185455322266 3.3014414310455322266 3.3795616626739501953 3.4604089260101318359 3.5436699390411376953 3.6288900375366210938 3.7154438495635986328 3.8025057315826416016 3.889026641845703125 3.97371673583984375 4.0550470352172851562 4.1312723159790039062 4.2004833221435546875 4.2606987953186035156 4.3271398544311523438 4.4110326766967773438 4.586978912353515625 4.7757344245910644531 4.9918117523193359375 5.227756500244140625 5.4994111061096191406 5.8027253150939941406 6.1544528007507324219 6.558696746826171875 6.9890012741088867188 7.4289655685424804688 7.8494839668273925781 8.2076082229614257812 8.8187208175659179688 9.3716249465942382812 10.130658149719238281 11.532147407531738281 13.081364631652832031 14.446122169494628906 15.022253990173339844 15.022253990173339844 15.022253990173339844 15.022253990173339844 19.448865890502929688 27.098806381225585938 33.85323333740234375 33.85323333740234375 33.85323333740234375 33.85323333740234375 33.85323333740234375 33.85323333740234375 33.85323333740234375 33.85323333740234375 33.85323333740234375 33.85323333740234375 27.098806381225585938 33.85323333740234375 33.85323333740234375 33.85323333740234375 33.85323333740234375 27.098806381225585938 19.448865890502929688 20.655321121215820312 20.655321121215820312 20.655321121215820312 20.655321121215820312 20.655321121215820312 19.072786331176757812 16.00786590576171875 15.022253990173339844 15.022253990173339844 14.446122169494628906 15.53638458251953125 21.327159881591796875 34.786487579345703125 101 34.786487579345703125 21.327159881591796875 
2.3012299537658691406 2.3033792972564697266 2.3046741485595703125 2.3051066398620605469 2.3051066398620605469 2.3046741485595703125 2.3033792972564697266 2.3012299537658691406 2.2982387542724609375 2.2944228649139404297 2.3138146400451660156 2.3369240760803222656 2.3603219985961914062 2.3839657306671142578 2.4078042507171630859 2.4317800998687744141 2.4558260440826416016 2.4798669815063476562 2.5038177967071533203 2.5275843143463134766 2.5510628223419189453 2.5741398334503173828 2.5966928005218505859 2.6185910701751708984 2.6396965980529785156 2.6598653793334960938 2.6789493560791015625 2.6967988014221191406 2.7132642269134521484 2.7282001972198486328 2.7414674758911132812 2.7529370784759521484 2.7624928951263427734 2.7700347900390625 2.7754817008972167969 2.7787744998931884766 2.7798759937286376953 2.7798759937286376953 2.7787744998931884766 2.7754817008972167969 2.7700347900390625 2.7624928951263427734 2.7529370784759521484 2.7414674758911132812 2.7282001972198486328 2.7132642269134521484 2.7007391452789306641 2.7498996257781982422 2.8013241291046142578 2.8550946712493896484 2.9112825393676757812 2.9699423313140869141 3.0311067104339599609 3.0947771072387695312 3.1609146595001220703 3.2294280529022216797 3.3001596927642822266 3.3728687763214111328 3.4472141265869140625 3.5227339267730712891 3.5988276004791259766 3.6747369766235351562 3.7495353221893310547 3.8221232891082763672 3.8912370204925537109 3.9554760456085205078 4.0133490562438964844 4.0633435249328613281 4.1312761306762695312 4.2566237449645996094 4.4110474586486816406 4.5869965553283691406 4.7757506370544433594 4.9918313026428222656 5.2277750968933105469 5.4994335174560546875 5.8027462959289550781 6.1231832504272460938 6.4522829055786132812 6.7757349014282226562 7.0724358558654785156 7.5299086570739746094 8.4357089996337890625 9.6080188751220703125 11.16190338134765625 13.254034996032714844 16.007923126220703125 19.072813034057617188 20.655321121215820312 20.655321121215820312 20.655321121215820312 20.655321121215820312 21.327314376831054688 34.786701202392578125 101 101 101 101 101 101 101 101 101 101 34.786701202392578125 101 101 101 101 34.786701202392578125 27.098894119262695312 33.85323333740234375 33.85323333740234375 33.85323333740234375 33.85323333740234375 33.85323333740234375 27.098894119262695312 20.655321121215820312 20.655321121215820312 20.655321121215820312 19.072813034057617188 16.007923126220703125 21.327314376831054688 34.786701202392578125 101 34.786701202392578125 21.327314376831054688 
2.2676165103912353516 2.2696025371551513672 2.2707989215850830078 2.271198272705078125 2.271198272705078125 2.2707989215850830078 2.2696025371551513672 2.2676165103912353516 2.2648515701293945312 2.2666990756988525391 2.2881922721862792969 2.3099474906921386719 2.3319277763366699219 2.3540904521942138672 2.3763864040374755859 2.3987593650817871094 2.4211459159851074219 2.4434745311737060547 2.4656665325164794922 2.4876344203948974609 2.5092833042144775391 2.5305104255676269531 2.5512053966522216797 2.5712518692016601562 2.5905272960662841797 2.608905792236328125 2.6262578964233398438 2.6424536705017089844 2.6573648452758789062 2.6708667278289794922 2.6828408241271972656 2.6931772232055664062 2.7017786502838134766 2.7085602283477783203 2.7134547233581542969 2.716411590576171875 2.7174007892608642578 2.7174007892608642578 2.716411590576171875 2.7134547233581542969 2.7085602283477783203 2.7017786502838134766 2.6931772232055664062 2.6828408241271972656 2.6708667278289794922 2.6573648452758789062 2.6692438125610351562 2.7156324386596679688 2.7639920711517333984 2.8143734931945800781 2.8668131828308105469 2.9213287830352783203 2.9779148101806640625 3.036533355712890625 3.09710693359375 3.1595089435577392578 3.2235512733459472656 3.2889726161956787109 3.3554253578186035156 3.4224619865417480469 3.4895229339599609375 3.5559279918670654297 3.6208698749542236328 3.6834185123443603516 3.7425332069396972656 3.7970881462097167969 3.8459110260009765625 3.8912415504455566406 3.9819338321685791016 4.1106047630310058594 4.2566394805908203125 4.4110622406005859375 4.5870137214660644531 4.7757673263549804688 4.9918508529663085938 5.2277932167053222656 5.4755692481994628906 5.7303915023803710938 5.9845042228698730469 6.3317761421203613281 6.948699951171875 7.7252044677734375 8.7311954498291015625 10.083087921142578125 11.987884521484375 14.842206001281738281 19.449090957641601562 27.098981857299804688 33.85323333740234375 33.85323333740234375 33.85323333740234375 33.85323333740234375 27.098981857299804688 27.098894119262695312 33.85323333740234375 33.85323333740234375 33.85323333740234375 33.85323333740234375 33.85323333740234375 33.85323333740234375 34.7869110107421875 101 34.7869110107421875 101 101 101 101 101 101 34.7869110107421875 34.7869110107421875 101 101 101 101 101 34.7869110107421875 33.85323333740234375 33.85323333740234375 33.85323333740234375 27.098981857299804688 20.655321121215820312 20.655321121215820312 27.098894119262695312 33.85323333740234375 27.098894119262695312 19.448978424072265625 
2.235691070556640625 2.2375302314758300781 2.2386376857757568359 2.2390074729919433594 2.2390074729919433594 2.2386376857757568359 2.2375302314758300781 2.235691070556640625 2.2331302165985107422 2.2428863048553466797 2.2631652355194091797 2.2836511135101318359 2.3043074607849121094 2.3250920772552490234 2.3459572792053222656 2.3668496608734130859 2.3877086639404296875 2.4084677696228027344 2.4290533065795898438 2.4493849277496337891 2.4693758487701416016 2.4889330863952636719 2.5079576969146728516 2.5263454914093017578 2.5439882278442382812 2.5607750415802001953 2.5765926837921142578 2.5913283824920654297 2.6048712730407714844 2.6171143054962158203 2.6279559135437011719 2.6373028755187988281 2.6450719833374023438 2.6511919498443603516 2.6556057929992675781 2.6582713127136230469 2.6591625213623046875 2.6591625213623046875 2.6582713127136230469 2.6556057929992675781 2.6511919498443603516 2.6450719833374023438 2.6373028755187988281 2.6279559135437011719 2.6171143054962158203 2.6048712730407714844 2.6375768184661865234 2.6812901496887207031 2.7267091274261474609 2.7738578319549560547 2.8227453231811523438 2.8733611106872558594 2.9256703853607177734 2.9796073436737060547 3.0350687503814697266 3.0919055938720703125 3.1499147415161132812 3.2088294029235839844 3.2683100700378417969 3.3279354572296142578 3.3871958255767822266 3.4454882144927978516 3.5021166801452636719 3.5562980175018310547 3.6071753501892089844 3.6538405418395996094 3.69536590576171875 3.7499439716339111328 3.8588786125183105469 3.9819481372833251953 4.11061859130859375 4.2566552162170410156 4.4110774993896484375 4.5870313644409179688 4.775783538818359375 4.9730458259582519531 5.1759133338928222656 5.4332566261291503906 5.8550586700439453125 6.3655648231506347656 6.9960455894470214844 7.7944235801696777344 8.8380689620971679688 10.260514259338378906 12.313714981079101562 15.536738395690917969 21.3276214599609375 34.7871246337890625 101 101 101 101 34.7871246337890625 33.85323333740234375 34.7871246337890625 101 101 34.7871246337890625 33.85323333740234375 27.099069595336914062 27.098981857299804688 33.85323333740234375 34.7871246337890625 101 34.7871246337890625 101 101 34.7871246337890625 101 101 34.7871246337890625 101 34.7871246337890625 33.85323333740234375 34.7871246337890625 101 101 101 101 101 34.7871246337890625 33.85323333740234375 33.85323333740234375 33.85323333740234375 27.099069595336914062 19.4492034912109375 16.007923126220703125 
2.2053303718566894531 2.2070364952087402344 2.2080636024475097656 2.2084064483642578125 2.2084064483642578125 2.2080636024475097656 2.2070364952087402344 2.2053303718566894531 2.2029540538787841797 2.2196052074432373047 2.2387433052062988281 2.2580406665802001953 2.2774608135223388672 2.2969634532928466797 2.3165025711059570312 2.3360269069671630859 2.3554799556732177734 2.3747990131378173828 2.3939163684844970703 2.4127581119537353516 2.4312450885772705078 2.4492928981781005859 2.4668128490447998047 2.4837121963500976562 2.4998946189880371094 2.5152623653411865234 2.52971649169921875 2.5431587696075439453 2.5554928779602050781 2.5666267871856689453 2.5764727592468261719 2.5849516391754150391 2.5919919013977050781 2.5975334644317626953 2.6015276908874511719 2.6039385795593261719 2.6047446727752685547 2.6047446727752685547 2.6039385795593261719 2.6015276908874511719 2.5975334644317626953 2.5919919013977050781 2.5849516391754150391 2.5764727592468261719 2.5666267871856689453 2.5661985874176025391 2.6058940887451171875 2.6470406055450439453 2.6896531581878662109 2.7337353229522705078 2.7792744636535644531 2.8262383937835693359 2.8745715618133544922 2.9241890907287597656 2.9749712944030761719 3.0267577171325683594 3.0793404579162597656 3.1324572563171386719 3.1857857704162597656 3.2389373779296875 3.2914538383483886719 3.3428065776824951172 3.3923981189727783203 3.4395704269409179688 3.4836170673370361328 3.5238025188446044922 3.5593874454498291016 3.6454181671142578125 3.7499570846557617188 3.8588933944702148438 3.9819626808166503906 4.1106324195861816406 4.2566709518432617188 4.4110922813415527344 4.5718336105346679688 4.7770123481750488281 5.0789246559143066406 5.4332966804504394531 5.8551025390625 6.3656129837036132812 6.9960989952087402344 7.7944836616516113281 8.8381376266479492188 10.260593414306640625 12.313810348510742188 15.536856651306152344 21.3277740478515625 34.787334442138671875 101 101 101 101 101 101 101 101 101 101 101 34.787334442138671875 21.3277740478515625 21.3277740478515625 34.787334442138671875 101 34.787334442138671875 101 101 34.787334442138671875 34.787334442138671875 101 101 101 101 101 101 101 34.787334442138671875 33.85323333740234375 34.787334442138671875 101 101 101 101 101 34.787334442138671875 21.3277740478515625 15.536856651306152344 
2.176422119140625 2.1780076026916503906 2.1789619922637939453 2.1792807579040527344 2.1792807579040527344 2.1789619922637939453 2.1780076026916503906 2.176422119140625 2.1789455413818359375 2.1968643665313720703 2.214931488037109375 2.23311614990234375 2.2513833045959472656 2.2696933746337890625 2.2880029678344726562 2.3062634468078613281 2.3244216442108154297 2.3424193859100341797 2.3601939678192138672 2.3776776790618896484 2.39479827880859375 2.4114797115325927734 2.4276421070098876953 2.4432024955749511719 2.4580757617950439453 2.4721751213073730469 2.4854142665863037109 2.4977071285247802734 2.5089700222015380859 2.5191228389739990234 2.5280907154083251953 2.53580474853515625 2.5422046184539794922 2.5472381114959716797 2.5508639812469482422 2.5530517101287841797 2.5537831783294677734 2.5537831783294677734 2.5530517101287841797 2.5508639812469482422 2.5472381114959716797 2.5422046184539794922 2.53580474853515625 2.5280907154083251953 2.5191228389739990234 2.5368895530700683594 2.5743324756622314453 2.6130280494689941406 2.6529757976531982422 2.6941621303558349609 2.7365586757659912109 2.7801172733306884766 2.82476806640625 2.8704135417938232422 2.9169256687164306641 2.9641396999359130859 3.0118505954742431641 3.05980682373046875 3.1077084541320800781 3.1552014350891113281 3.2018785476684570312 3.2472786903381347656 3.2908906936645507812 3.3321619033813476562 3.3705081939697265625 3.4053311347961425781 3.4615416526794433594 3.5514345169067382812 3.6454315185546875 3.7499701976776123047 3.8589081764221191406 3.9819769859313964844 4.1106457710266113281 4.2823300361633300781 4.5073523521423339844 4.7653880119323730469 5.06424713134765625 5.4143972396850585938 5.8301973342895507812 6.3318705558776855469 6.9488043785095214844 7.7253208160400390625 8.731327056884765625 10.083238601684570312 11.988058090209960938 14.842408180236816406 19.449316024780273438 27.099157333374023438 33.85323333740234375 33.85323333740234375 33.85323333740234375 34.787548065185546875 101 101 34.787548065185546875 33.85323333740234375 33.85323333740234375 34.787548065185546875 101 34.787548065185546875 33.85323333740234375 27.099245071411132812 27.099157333374023438 33.85323333740234375 27.099157333374023438 33.85323333740234375 33.85323333740234375 33.85323333740234375 27.099245071411132812 33.85323333740234375 34.787548065185546875 101 101 101 34.787548065185546875 33.85323333740234375 27.099157333374023438 20.655321121215820312 27.099157333374023438 33.85323333740234375 33.85323333740234375 33.85323333740234375 34.787548065185546875 101 34.787548065185546875 21.327928543090820312 15.536973953247070312 
2.14886474609375 2.1503407955169677734 2.1512293815612792969 2.1515259742736816406 2.1515259742736816406 2.1512293815612792969 2.1503407955169677734 2.14886474609375 2.1577184200286865234 2.1746690273284912109 2.1917312145233154297 2.2088747024536132812 2.2260658740997314453 2.2432672977447509766 2.2604367733001708984 2.2775292396545410156 2.29449462890625 2.3112788200378417969 2.3278241157531738281 2.3440685272216796875 2.3599464893341064453 2.3753888607025146484 2.3903238773345947266 2.4046778678894042969 2.4183747768402099609 2.4313378334045410156 2.4434912204742431641 2.4547595977783203125 2.4650697708129882812 2.4743523597717285156 2.4825422763824462891 2.4895806312561035156 2.4954144954681396484 2.5 2.5033016204833984375 2.5052928924560546875 2.50595855712890625 2.50595855712890625 2.5052928924560546875 2.5033016204833984375 2.5 2.4954144954681396484 2.4895806312561035156 2.4825422763824462891 2.4743523597717285156 2.5077185630798339844 2.5430092811584472656 2.5793747901916503906 2.6168019771575927734 2.6552648544311523438 2.6947226524353027344 2.7351164817810058594 2.7763669490814208984 2.8183701038360595703 2.8609938621520996094 2.9040753841400146484 2.9474167823791503906 2.9907820224761962891 3.0338947772979736328 3.0764365196228027344 3.1180469989776611328 3.1583256721496582031 3.1968359947204589844 3.2331132888793945312 3.2666733264923095703 3.3015112876892089844 3.3796296119689941406 3.4615540504455566406 3.5514466762542724609 3.6454451084136962891 3.7499835491180419922 3.8931639194488525391 4.0655989646911621094 4.2596745491027832031 4.4796857833862304688 4.7311244010925292969 5.0211238861083984375 5.3590993881225585938 5.7577161788940429688 6.2343606948852539062 6.8134446144104003906 7.5300679206848144531 8.4358835220336914062 9.6082096099853515625 11.162108421325683594 13.254241943359375 16.008096694946289062 19.0728912353515625 20.655321121215820312 20.655321121215820312 20.655321121215820312 27.099332809448242188 34.787761688232421875 101 34.787761688232421875 21.328083038330078125 21.328083038330078125 34.787761688232421875 101 101 101 34.787761688232421875 33.85323333740234375 33.85323333740234375 27.099332809448242188 34.787761688232421875 101 101 34.787761688232421875 33.85323333740234375 34.787761688232421875 101 34.787761688232421875 101 34.787761688232421875 21.328083038330078125 19.0728912353515625 16.008096694946289062 19.0728912353515625 20.655321121215820312 20.655321121215820312 20.655321121215820312 27.099245071411132812 33.85323333740234375 27.099245071411132812 19.449426651000976562 14.842508316040039062 
2.1225659847259521484 2.1239426136016845703 2.1247711181640625 2.1250474452972412109 2.1250474452972412109 2.1247711181640625 2.1239426136016845703 2.1225659847259521484 2.1369807720184326172 2.1530203819274902344 2.169139862060546875 2.1853096485137939453 2.2014973163604736328 2.2176673412322998047 2.2337799072265625 2.2497920989990234375 2.2656579017639160156 2.2813267707824707031 2.2967457771301269531 2.3118581771850585938 2.3266041278839111328 2.3409211635589599609 2.3547451496124267578 2.3680095672607421875 2.3806469440460205078 2.3925898075103759766 2.4037702083587646484 2.4141228199005126953 2.4235832691192626953 2.4320909976959228516 2.4395899772644042969 2.4460284709930419922 2.4513611793518066406 2.4555504322052001953 2.4585649967193603516 2.4603826999664306641 2.4609901905059814453 2.4609901905059814453 2.4603826999664306641 2.4585649967193603516 2.4555504322052001953 2.4513611793518066406 2.4460284709930419922 2.4395899772644042969 2.4464700222015380859 2.4787828922271728516 2.5120248794555664062 2.5461831092834472656 2.5812346935272216797 2.6171441078186035156 2.6538622379302978516 2.6913228034973144531 2.7294411659240722656 2.7681102752685546875 2.8071992397308349609 2.84654998779296875 2.885974884033203125 2.92525482177734375 2.9641385078430175781 3.0023407936096191406 3.0395445823669433594 3.0754029750823974609 3.1095430850982666016 3.1415729522705078125 3.1710896492004394531 3.2294914722442626953 3.3015229701995849609 3.3796408176422119141 3.4615666866302490234 3.5816419124603271484 3.7171816825866699219 3.8674829006195068359 4.0350422859191894531 4.2229375839233398438 4.4350008964538574219 4.6760544776916503906 4.9522333145141601562 5.2714338302612304688 5.6439375877380371094 6.083271026611328125 6.6073665618896484375 7.2400140762329101562 8.012294769287109375 8.9626417160034179688 10.130853652954101562 11.532318115234375 13.081480979919433594 14.842710494995117188 19.449651718139648438 27.099420547485351562 33.85323333740234375 34.78797149658203125 101 34.78797149658203125 33.85323333740234375 33.85323333740234375 33.85323333740234375 27.099420547485351562 33.85323333740234375 34.78797149658203125 101 101 101 101 34.78797149658203125 101 101 101 34.78797149658203125 101 101 101 101 34.78797149658203125 27.099332809448242188 19.4495391845703125 14.842609405517578125 13.081480979919433594 14.446163177490234375 15.022253990173339844 15.022253990173339844 16.00815582275390625 19.072917938232421875 20.655321121215820312 19.072917938232421875 16.00815582275390625 13.25431060791015625 
2.0974419116973876953 2.0987277030944824219 2.0995011329650878906 2.0997595787048339844 2.0997595787048339844 2.0995011329650878906 2.0987277030944824219 2.1016285419464111328 2.1167342662811279297 2.1319174766540527344 2.1471526622772216797 2.1624116897583007812 2.1776633262634277344 2.1928739547729492188 2.2080059051513671875 2.2230191230773925781 2.2378704547882080078 2.2525136470794677734 2.2668995857238769531 2.2809765338897705078 2.2946901321411132812 2.3079838752746582031 2.3207995891571044922 2.3330783843994140625 2.3447597026824951172 2.3557834625244140625 2.3660902976989746094 2.375621795654296875 2.3843221664428710938 2.3921382427215576172 2.3990209102630615234 2.4049255847930908203 2.40981292724609375 2.4136497974395751953 2.4164097309112548828 2.4180736541748046875 2.4186294078826904297 2.4186294078826904297 2.4180736541748046875 2.4164097309112548828 2.4136497974395751953 2.40981292724609375 2.4049255847930908203 2.3990209102630615234 2.4196624755859375 2.450164794921875 2.4814631938934326172 2.5135369300842285156 2.5463557243347167969 2.5798778533935546875 2.614048004150390625 2.6487958431243896484 2.6840343475341796875 2.7196567058563232422 2.755535125732421875 2.7915194034576416016 2.8274335861206054688 2.8630766868591308594 2.8982212543487548828 2.932613372802734375 2.9659750461578369141 2.9980053901672363281 3.0283861160278320312 3.05678558349609375 3.0971665382385253906 3.1609907150268554688 3.2295019626617431641 3.3279156684875488281 3.4368484020233154297 3.5562143325805664062 3.6875410079956054688 3.8326573371887207031 3.9937677383422851562 4.1735477447509765625 4.3752651214599609375 4.602939605712890625 4.8615422248840332031 5.1572451591491699219 5.4977250099182128906 5.8924794197082519531 6.3530831336975097656 6.8931093215942382812 7.5270795822143554688 8.2669286727905273438 9.1128740310668945312 10.260912895202636719 12.314191818237304688 15.537327766418457031 21.328390121459960938 34.78818511962890625 101 101 101 101 101 101 101 34.78818511962890625 21.328390121459960938 27.099420547485351562 33.85323333740234375 34.78818511962890625 101 101 101 101 101 101 101 101 34.78818511962890625 34.78818511962890625 101 34.78818511962890625 21.328390121459960938 16.008329391479492188 13.2545166015625 11.162381172180175781 11.630440711975097656 11.898753166198730469 11.898753166198730469 13.081510543823242188 14.446172714233398438 15.022253990173339844 14.446172714233398438 13.081510543823242188 11.532361030578613281 
2.0734152793884277344 2.0746181011199951172 2.0753417015075683594 2.0755832195281982422 2.0755832195281982422 2.0753417015075683594 2.0746181011199951172 2.0826525688171386719 2.0969779491424560547 2.1113557815551757812 2.1257619857788085938 2.1401693820953369141 2.1545479297637939453 2.1688656806945800781 2.1830878257751464844 2.1971764564514160156 2.2110915184020996094 2.2247903347015380859 2.23822784423828125 2.2513566017150878906 2.2641272544860839844 2.2764885425567626953 2.2883884906768798828 2.2997734546661376953 2.3105900287628173828 2.3207845687866210938 2.3303046226501464844 2.3390984535217285156 2.3471169471740722656 2.3543136119842529297 2.360645294189453125 2.3660731315612792969 2.3705630302429199219 2.3740861415863037109 2.3766193389892578125 2.3781459331512451172 2.3786559104919433594 2.3786559104919433594 2.3781459331512451172 2.3766193389892578125 2.3740861415863037109 2.3705630302429199219 2.3660731315612792969 2.3650653362274169922 2.3931517601013183594 2.4219338893890380859 2.4513933658599853516 2.4815039634704589844 2.5122296810150146484 2.5435242652893066406 2.5753293037414550781 2.6075725555419921875 2.6401665210723876953 2.6730072498321533203 2.7059719562530517578 2.7389187812805175781 2.7716851234436035156 2.8040876388549804688 2.8359215259552001953 2.8669614791870117188 2.8969638347625732422 2.9256680011749267578 2.9528014659881591797 2.9796633720397949219 3.0366044044494628906 3.1179368495941162109 3.2071766853332519531 3.3040227890014648438 3.4094512462615966797 3.5246055126190185547 3.6508285999298095703 3.7897052764892578125 3.9431147575378417969 4.1132903099060058594 4.3028964996337890625 4.5151119232177734375 4.7537236213684082031 5.0232167243957519531 5.328826904296875 5.6764974594116210938 6.0725994110107421875 6.5231509208679199219 7.0320310592651367188 7.7255539894104003906 8.73159027099609375 10.083539009094238281 11.988406181335449219 14.84281158447265625 19.449764251708984375 27.099508285522460938 33.85323333740234375 34.78839874267578125 101 101 34.78839874267578125 33.85323333740234375 33.85323333740234375 27.099508285522460938 19.449764251708984375 19.072969436645507812 20.655321121215820312 27.099508285522460938 33.85323333740234375 33.85323333740234375 34.78839874267578125 101 101 101 101 101 101 101 101 34.78839874267578125 27.099596023559570312 19.449876785278320312 14.842912673950195312 11.988492965698242188 11.630465507507324219 11.898753166198730469 11.630465507507324219 10.934233665466308594 11.630446434020996094 11.898753166198730469 11.630446434020996094 10.934170722961425781 10.033703804016113281 
2.0504162311553955078 2.0515429973602294922 2.0522208213806152344 2.0524470806121826172 2.0524470806121826172 2.0522208213806152344 2.0515429973602294922 2.0641186237335205078 2.0777087211608886719 2.0913300514221191406 2.1049590110778808594 2.1185693740844726562 2.13213348388671875 2.1456203460693359375 2.1589977741241455078 2.1722300052642822266 2.1852803230285644531 2.1981091499328613281 2.2106747627258300781 2.2229342460632324219 2.2348423004150390625 2.2463529109954833984 2.2574188709259033203 2.2679924964904785156 2.2780253887176513672 2.2874701023101806641 2.2962799072265625 2.304409027099609375 2.3118143081665039062 2.3184545040130615234 2.3242921829223632812 2.3292930126190185547 2.3334271907806396484 2.3366696834564208984 2.3390002250671386719 2.340404510498046875 2.3408734798431396484 2.3408734798431396484 2.340404510498046875 2.3390002250671386719 2.3366696834564208984 2.3334271907806396484 2.3292930126190185547 2.3404390811920166016 2.3669960498809814453 2.3941478729248046875 2.4218716621398925781 2.4501371383666992188 2.4789044857025146484 2.5081248283386230469 2.5377380847930908203 2.5676715373992919922 2.5978398323059082031 2.6281421184539794922 2.6584625244140625 2.6886687278747558594 2.7186110019683837891 2.7481224536895751953 2.7770202159881591797 2.8051042556762695312 2.8321611881256103516 2.8579654693603515625 2.8822829723358154297 2.9416606426239013672 3.0159804821014404297 3.0959949493408203125 3.1823532581329345703 3.2758007049560546875 3.3771958351135253906 3.4875302314758300781 3.6079516410827636719 3.7397906780242919922 3.8845918178558349609 4.0441460609436035156 4.2205233573913574219 4.4161028861999511719 4.6335840225219726562 4.8759636878967285156 5.1464428901672363281 5.4481921195983886719 5.7838692665100097656 6.2345395088195800781 6.8136391639709472656 7.53028106689453125 8.4361171722412109375 9.6084642410278320312 11.162381172180175781 13.2545166015625 16.008329391479492188 19.072996139526367188 21.32869720458984375 34.78861236572265625 101 34.78861236572265625 27.099596023559570312 20.655321121215820312 20.655321121215820312 19.072996139526367188 16.008329391479492188 14.446193695068359375 16.008329391479492188 19.072996139526367188 20.655321121215820312 20.655321121215820312 27.099596023559570312 33.85323333740234375 33.85323333740234375 33.85323333740234375 34.78861236572265625 101 101 34.78861236572265625 101 101 34.78861236572265625 21.32869720458984375 15.537564277648925781 13.081656455993652344 14.446224212646484375 15.022253990173339844 14.446224212646484375 13.081656455993652344 11.532575607299804688 10.131147384643554688 9.7677822113037109375 9.3717184066772460938 8.8188905715942382812 
2.0283803939819335938 2.0294373035430908203 2.0300731658935546875 2.0302853584289550781 2.0302853584289550781 2.0300731658935546875 2.0331604480743408203 2.0460247993469238281 2.0589225292205810547 2.0718326568603515625 2.0847325325012207031 2.0975978374481201172 2.1104013919830322266 2.1231148242950439453 2.1357073783874511719 2.1481463909149169922 2.1603972911834716797 2.1724233627319335938 2.1841869354248046875 2.1956484317779541016 2.2067666053771972656 2.2174999713897705078 2.2278053760528564453 2.237640380859375 2.2469618320465087891 2.2557268142700195312 2.2638938426971435547 2.2714228630065917969 2.2782750129699707031 2.2844145298004150391 2.2898077964782714844 2.2944250106811523438 2.2982399463653564453 2.3012306690216064453 2.3033797740936279297 2.3046743869781494141 2.3051066398620605469 2.3051066398620605469 2.3046743869781494141 2.3033797740936279297 2.3012306690216064453 2.2982399463653564453 2.2944250106811523438 2.3161389827728271484 2.3412435054779052734 2.3668537139892578125 2.3929426670074462891 2.4194769859313964844 2.4464151859283447266 2.4737064838409423828 2.5012907981872558594 2.5290966033935546875 2.5570409297943115234 2.5850276947021484375 2.6129484176635742188 2.6406803131103515625 2.6680862903594970703 2.6950156688690185547 2.7213044166564941406 2.7467758655548095703 2.7712433338165283203 2.7945106029510498047 2.8545718193054199219 2.9217133522033691406 2.9936635494232177734 3.0709269046783447266 3.1540749073028564453 3.2437558174133300781 3.3407068252563476562 3.4457657337188720703 3.5598850250244140625 3.6841459274291992188 3.8197705745697021484 3.9681334495544433594 4.1307630538940429688 4.309329986572265625 4.5056090354919433594 4.7213950157165527344 4.9583382606506347656 5.2715773582458496094 5.6440906524658203125 6.0834345817565917969 6.6075410842895507812 7.2401990890502929688 8.01248931884765625 8.962841033935546875 10.131049156188964844 11.532489776611328125 13.081598281860351562 14.843013763427734375 19.44998931884765625 27.099683761596679688 33.85323333740234375 27.099683761596679688 19.44998931884765625 16.008386611938476562 15.022253990173339844 14.446204185485839844 13.081686019897460938 14.446234703063964844 15.022253990173339844 15.022253990173339844 15.022253990173339844 16.008386611938476562 19.073022842407226562 20.655321121215820312 20.655321121215820312 20.655321121215820312 27.099771499633789062 33.85323333740234375 33.85323333740234375 27.099683761596679688 33.85323333740234375 33.85323333740234375 27.099683761596679688 20.655321121215820312 19.0730743408203125 16.008502960205078125 19.0730743408203125 20.655321121215820312 19.0730743408203125 16.008502960205078125 13.254723548889160156 11.162585258483886719 9.6086549758911132812 8.4362916946411132812 7.8496084213256835938 
2.0072484016418457031 2.0082411766052246094 2.0088384151458740234 2.0090374946594238281 2.0090374946594238281 2.0088384151458740234 2.0161383152008056641 2.0283672809600830078 2.0406126976013183594 2.0528545379638671875 2.06507110595703125 2.0772387981414794922 2.08933258056640625 2.1013255119323730469 2.1131887435913085938 2.1248919963836669922 2.1364030838012695312 2.1476883888244628906 2.1587131023406982422 2.1694409847259521484 2.1798348426818847656 2.1898565292358398438 2.1994676589965820312 2.208629608154296875 2.2173032760620117188 2.2254509925842285156 2.2330355644226074219 2.2400212287902832031 2.2463734149932861328 2.2520606517791748047 2.2570531368255615234 2.2613248825073242188 2.2648527622222900391 2.2676172256469726562 2.2696030139923095703 2.2707989215850830078 2.271198272705078125 2.271198272705078125 2.2707989215850830078 2.2696030139923095703 2.2676172256469726562 2.2648527622222900391 2.2689249515533447266 2.2922053337097167969 2.3159341812133789062 2.3400888442993164062 2.3646404743194580078 2.3895533084869384766 2.4147851467132568359 2.44028472900390625 2.4659924507141113281 2.4918389320373535156 2.5177447795867919922 2.5436198711395263672 2.5693619251251220703 2.5948584079742431641 2.6199841499328613281 2.6446034908294677734 2.6685698032379150391 2.6917269229888916016 2.7166318893432617188 2.7737278938293457031 2.8345491886138916016 2.8994474411010742188 2.9688165187835693359 3.0430965423583984375 3.1227810382843017578 3.2084217071533203125 3.3006360530853271484 3.4001131057739257812 3.5076193809509277344 3.6240022182464599609 3.7501902580261230469 3.8871872425079345703 4.0360536575317382812 4.197872161865234375 4.3753790855407714844 4.6030592918395996094 4.861667633056640625 5.1573777198791503906 5.49786376953125 5.8926248550415039062 6.3532342910766601562 6.8932647705078125 7.5272355079650878906 8.2670793533325195312 9.1130094528198242188 10.033783912658691406 11.162517547607421875 13.254654884338378906 16.00844573974609375 19.073049545288085938 20.655321121215820312 19.073049545288085938 16.00844573974609375 13.254654884338378906 11.898753166198730469 13.254792213439941406 16.008562088012695312 19.073101043701171875 20.655321121215820312 20.655321121215820312 20.655321121215820312 20.655321121215820312 20.655321121215820312 20.655321121215820312 20.655321121215820312 21.329006195068359375 34.789035797119140625 101 34.789035797119140625 21.329006195068359375 20.655321121215820312 20.655321121215820312 27.099859237670898438 33.85323333740234375 27.099859237670898438 20.655321121215820312 27.099859237670898438 33.85323333740234375 27.099859237670898438 19.450214385986328125 14.8432159423828125 11.9887542724609375 10.08383941650390625 8.731853485107421875 7.7257871627807617188 
1.9869657754898071289 1.9878996610641479492 1.9884611368179321289 1.9886486530303955078 1.9886486530303955078 1.9884611368179321289 1.9995115995407104492 2.0111410617828369141 2.0227723121643066406 2.0343859195709228516 2.0459613800048828125 2.0574765205383300781 2.0689072608947753906 2.0802285671234130859 2.0914137363433837891 2.1024341583251953125 2.1132600307464599609 2.1238608360290527344 2.1342043876647949219 2.1442573070526123047 2.1539857387542724609 2.1633553504943847656 2.1723310947418212891 2.1808781623840332031 2.1889617443084716797 2.1965477466583251953 2.2036030292510986328 2.2100954055786132812 2.2159948348999023438 2.2212727069854736328 2.2259032726287841797 2.2298629283905029297 2.23313140869140625 2.2356917858123779297 2.2375304698944091797 2.2386376857757568359 2.2390074729919433594 2.2390074729919433594 2.2386376857757568359 2.2375304698944091797 2.2356917858123779297 2.23313140869140625 2.2466242313385009766 2.2686719894409179688 2.2910997867584228516 2.3138825893402099609 2.3369901180267333984 2.3603863716125488281 2.3840277194976806641 2.4078640937805175781 2.4318373203277587891 2.4558806419372558594 2.4799187183380126953 2.5038666725158691406 2.5276300907135009766 2.5511052608489990234 2.5741789340972900391 2.5967283248901367188 2.6186230182647705078 2.6465938091278076172 2.6986520290374755859 2.7539031505584716797 2.812625885009765625 2.8751294612884521484 2.9417550563812255859 3.0128803253173828125 3.0889220237731933594 3.1703393459320068359 3.2576360702514648438 3.3513627052307128906 3.4521157741546630859 3.5605330467224121094 3.6772866249084472656 3.8030652999877929688 3.9432127475738525391 4.1133928298950195312 4.3030028343200683594 4.5152225494384765625 4.7538390159606933594 5.0233364105224609375 5.3289504051208496094 5.676624298095703125 6.0727276802062988281 6.5232787132263183594 7.0321536064147949219 7.5974721908569335938 8.2050914764404296875 8.9629411697387695312 10.131147384643554688 11.532575607299804688 13.081656455993652344 14.446224212646484375 15.022253990173339844 14.446224212646484375 13.081656455993652344 11.532575607299804688 11.988841056823730469 14.843317031860351562 19.450326919555664062 27.099946975708007812 33.85323333740234375 33.85323333740234375 33.85323333740234375 33.85323333740234375 33.85323333740234375 33.85323333740234375 33.85323333740234375 33.85323333740234375 34.789249420166015625 101 34.789249420166015625 27.099946975708007812 33.85323333740234375 27.099946975708007812 34.789249420166015625 101 34.789249420166015625 33.85323333740234375 34.789249420166015625 101 34.789249420166015625 21.329158782958984375 15.5379180908203125 12.314667701721191406 10.261311531066894531 8.8387546539306640625 7.795024871826171875 
1.9674825668334960938 1.968361973762512207 1.9688907861709594727 1.9690672159194946289 1.9690672159194946289 1.9722185134887695312 1.9832764863967895508 1.9943403005599975586 2.0053927898406982422 2.0164160728454589844 2.0273900032043457031 2.0382940769195556641 2.0491054058074951172 2.0598006248474121094 2.070354461669921875 2.0807406902313232422 2.0909318923950195312 2.1008994579315185547 2.1106140613555908203 2.1200449466705322266 2.129161834716796875 2.1379325389862060547 2.1463263034820556641 2.1543109416961669922 2.1618554592132568359 2.1689293384552001953 2.1755025386810302734 2.1815469264984130859 2.1870348453521728516 2.1919417381286621094 2.1962440013885498047 2.1999211311340332031 2.2029550075531005859 2.2053308486938476562 2.2070367336273193359 2.2080636024475097656 2.2084064483642578125 2.2084064483642578125 2.2080636024475097656 2.2070367336273193359 2.2053308486938476562 2.2041475772857666016 2.2246866226196289062 2.2455661296844482422 2.2667646408081054688 2.2882564067840576172 2.3100097179412841797 2.3319880962371826172 2.3541486263275146484 2.3764424324035644531 2.3988127708435058594 2.4211966991424560547 2.4435226917266845703 2.4657115936279296875 2.4876766204833984375 2.5093224048614501953 2.5305461883544921875 2.5512378215789794922 2.5812928676605224609 2.628879547119140625 2.6792135238647460938 2.732517242431640625 2.7890343666076660156 2.8490314483642578125 2.9127991199493408203 2.9806549549102783203 3.0529437065124511719 3.1300377845764160156 3.2123370170593261719 3.3002669811248779297 3.3942732810974121094 3.4948136806488037109 3.6080377101898193359 3.7398798465728759766 3.8846840858459472656 4.0442414283752441406 4.2206220626831054688 4.4162044525146484375 4.6336884498596191406 4.8760704994201660156 5.1465516090393066406 5.4483008384704589844 5.7839765548706054688 6.1548137664794921875 6.5590310096740722656 6.9892926216125488281 7.5273137092590332031 8.2671556472778320312 9.1130771636962890625 10.033837318420410156 10.9342498779296875 11.63047027587890625 11.898753166198730469 11.63047027587890625 10.9342498779296875 10.261391639709472656 12.314763069152832031 15.538036346435546875 21.329313278198242188 34.789459228515625 101 101 101 101 101 101 101 101 101 101 101 34.789459228515625 101 34.789459228515625 34.789459228515625 101 34.789459228515625 101 101 101 34.789459228515625 21.329313278198242188 15.538036346435546875 12.314763069152832031 10.261391639709472656 8.8388233184814453125 7.7950854301452636719 
1.9487525224685668945 1.9495816230773925781 1.9500801563262939453 1.9502464532852172852 1.9502464532852172852 1.9568921327590942383 1.9674278497695922852 1.9779577255249023438 1.9884653091430664062 1.9989333152770996094 2.0093429088592529297 2.0196745395660400391 2.0299069881439208984 2.0400178432464599609 2.049983978271484375 2.0597810745239257812 2.0693831443786621094 2.0787644386291503906 2.0878977775573730469 2.0967550277709960938 2.1053082942962646484 2.1135289669036865234 2.1213881969451904297 2.1288576126098632812 2.1359090805053710938 2.1425151824951171875 2.1486487388610839844 2.1542844772338867188 2.1593983173370361328 2.1639676094055175781 2.1679718494415283203 2.1713926792144775391 2.1742138862609863281 2.1764225959777832031 2.1780078411102294922 2.1789622306823730469 2.1792807579040527344 2.1792807579040527344 2.1789622306823730469 2.1780078411102294922 2.1764225959777832031 2.1836485862731933594 2.2031350135803222656 2.2229089736938476562 2.2429482936859130859 2.263225555419921875 2.2837097644805908203 2.3043639659881591797 2.3251464366912841797 2.3460097312927246094 2.3668994903564453125 2.3877561092376708984 2.4085123538970947266 2.4290950298309326172 2.4494237899780273438 2.4694118499755859375 2.4889659881591796875 2.5203576087951660156 2.5639684200286865234 2.6099531650543212891 2.6584897041320800781 2.7097713947296142578 2.7640070915222167969 2.8214235305786132812 2.8822634220123291016 2.9467880725860595703 3.0152759552001953125 3.0880210399627685547 3.1653304100036621094 3.2475197315216064453 3.3407833576202392578 3.4458446502685546875 3.5599665641784667969 3.6842296123504638672 3.8198568820953369141 3.9682219028472900391 4.1308536529541015625 4.3094224929809570312 4.505702972412109375 4.7214894294738769531 4.9584321975708007812 5.2177500724792480469 5.4997448921203613281 5.8030371665954589844 6.123443603515625 6.523342132568359375 7.032215118408203125 7.5975279808044433594 8.2051382064819335938 8.8189764022827148438 9.37176513671875 9.767795562744140625 9.9132900238037109375 9.767795562744140625 9.37176513671875 10.083990097045898438 11.988927841186523438 14.843418121337890625 19.450439453125 27.100034713745117188 33.85323333740234375 33.85323333740234375 33.85323333740234375 33.85323333740234375 33.85323333740234375 33.85323333740234375 34.7896728515625 101 101 101 101 34.7896728515625 101 34.7896728515625 101 101 34.7896728515625 101 101 101 34.7896728515625 21.3294677734375 15.53815460205078125 12.314858436584472656 10.261471748352050781 8.8388919830322265625 7.7951455116271972656 
